O0099  ;
( MACHINE : TCI Laser )  ;
( MATERIAL : Acero al carbono N2 )  ;
( THICKNESS : 3 )  ;
( REPETITIONS : 1 )  ;
( SIMULATION TIME : 00:23:22 )  ;
( FORMAT : 1250x2500 )  ;
( JOB NUMBER : VARS5630\K563372s30_B )  ;
( PROGRAM NUMBER : 9402 )  ;
( TYPE : 0 )  ;
( NUMBER OF SHEETS : 1 )  ;
( CUTTING HEADS : 1 )  ;
#516= 1  ;
#517= 1  ;
N105 G65 P9100 A103 B01  ;
(P1:ID1:W56337209)  ;
N106 M98 P9101  ;
N107 G0X47.31Y198.39  ;
N108 G65 P9102 A101 B01  ;
N109 G1X43.31Y198.23  ;
N110 G2X43.06Y198.47I-0.01J0.24  ;
N111 G2X50.5Y205.91I7.44J0  ;
N112 G1X75.5Y205.91  ;
N113 G2X75.5Y191.03I0J-7.44  ;
N114 G1X50.5Y191.03  ;
N115 G2X43.06Y198.47I0J7.44  ;
N116 G65 P9104 A101 B01  ;
N117 G0X70.43Y280.7  ;
N118 G65 P9102 A101 B01  ;
N119 G1X70.43Y275.76  ;
N120 G1X25.44Y275.76  ;
N121 G1X25.44Y5.44  ;
N122 G1X100.56Y5.44  ;
N123 G1X100.56Y275.76  ;
N124 G1X71.19Y275.76  ;
N125 G65 P9104 A101 B01  ;
N126 M98 P9103  ;
(P2:ID1:W56337209)  ;
N127 M98 P9101  ;
N128 G0X47.31Y477.09  ;
N129 G65 P9102 A101 B01  ;
N130 G1X43.31Y476.93  ;
N131 G2X43.06Y477.17I-0.01J0.24  ;
N132 G2X50.5Y484.61I7.44J0  ;
N133 G1X75.5Y484.61  ;
N134 G2X75.5Y469.73I0J-7.44  ;
N135 G1X50.5Y469.73  ;
N136 G2X43.06Y477.17I0J7.44  ;
N137 G65 P9104 A101 B01  ;
N138 G0X70.43Y559.4  ;
N139 G65 P9102 A101 B01  ;
N140 G1X70.43Y554.46  ;
N141 G1X25.44Y554.46  ;
N142 G1X25.44Y284.14  ;
N143 G1X100.56Y284.14  ;
N144 G1X100.56Y554.46  ;
N145 G1X71.19Y554.46  ;
N146 G65 P9104 A101 B01  ;
N147 M98 P9103  ;
(P3:ID1:W56337209)  ;
N148 M98 P9101  ;
N149 G0X47.31Y755.79  ;
N150 G65 P9102 A101 B01  ;
N151 G1X43.31Y755.63  ;
N152 G2X43.06Y755.87I-0.01J0.24  ;
N153 G2X50.5Y763.31I7.44J0  ;
N154 G1X75.5Y763.31  ;
N155 G2X75.5Y748.43I0J-7.44  ;
N156 G1X50.5Y748.43  ;
N157 G2X43.06Y755.87I0J7.44  ;
N158 G65 P9104 A101 B01  ;
N159 G0X70.43Y838.1  ;
N160 G65 P9102 A101 B01  ;
N161 G1X70.43Y833.16  ;
N162 G1X25.44Y833.16  ;
N163 G1X25.44Y562.84  ;
N164 G1X100.56Y562.84  ;
N165 G1X100.56Y833.16  ;
N166 G1X71.19Y833.16  ;
N167 G65 P9104 A101 B02  ;
N168 M98 P9103  ;
(P4:ID2:W56337205)  ;
N169 M98 P9101  ;
N170 G0X116.62Y686.55  ;
N171 G65 P9102 A101 B02  ;
N172 G1X114.62Y690.01  ;
N173 G2X114.7Y690.34I0.2J0.12  ;
N174 G1X117.5Y691.95  ;
N175 G1X123.09Y688.73  ;
N176 G1X123.09Y682.27  ;
N177 G1X117.5Y679.05  ;
N178 G1X111.91Y682.27  ;
N179 G1X111.91Y688.73  ;
N180 G1X114.71Y690.34  ;
N181 G65 P9104 A101 B02  ;
N182 G0X150.39Y668.75  ;
N183 G65 P9102 A101 B02  ;
N184 G1X150.39Y672.69  ;
N185 G1X151.52Y672.69  ;
N186 G1X151.52Y662.31  ;
N187 G1X149.14Y662.31  ;
N188 G1X149.14Y672.69  ;
N189 G1X150.33Y672.69  ;
N190 G65 P9104 A101 B02  ;
N191 G0X150.27Y578.75  ;
N192 G65 P9102 A101 B02  ;
N193 G1X150.27Y582.69  ;
N194 G1X149.14Y582.69  ;
N195 G1X149.14Y572.31  ;
N196 G1X151.52Y572.31  ;
N197 G1X151.52Y582.69  ;
N198 G1X150.33Y582.69  ;
N199 G65 P9104 A101 B02  ;
N200 G0X150.39Y276.75  ;
N201 G65 P9102 A101 B02  ;
N202 G1X150.39Y280.69  ;
N203 G1X151.52Y280.69  ;
N204 G1X151.52Y270.31  ;
N205 G1X149.14Y270.31  ;
N206 G1X149.14Y280.69  ;
N207 G1X150.33Y280.69  ;
N208 G65 P9104 A101 B02  ;
N209 G0X150.39Y186.75  ;
N210 G65 P9102 A101 B02  ;
N211 G1X150.39Y190.69  ;
N212 G1X151.52Y190.69  ;
N213 G1X151.52Y180.31  ;
N214 G1X149.14Y180.31  ;
N215 G1X149.14Y190.69  ;
N216 G1X150.33Y190.69  ;
N217 G65 P9104 A101 B02  ;
N218 G0X116.62Y168.55  ;
N219 G65 P9102 A101 B02  ;
N220 G1X114.62Y172.01  ;
N221 G2X114.7Y172.34I0.2J0.12  ;
N222 G1X117.5Y173.95  ;
N223 G1X123.09Y170.73  ;
N224 G1X123.09Y164.27  ;
N225 G1X117.5Y161.05  ;
N226 G1X111.91Y164.27  ;
N227 G1X111.91Y170.73  ;
N228 G1X114.71Y172.34  ;
N229 G65 P9104 A101 B01  ;
N230 G0X674.53Y70.5  ;
N231 G65 P9102 A101 B01  ;
N232 G1X674.53Y74.5  ;
N233 G1X674.53Y75.94  ;
N234 G1X675.53Y75.94  ;
N235 G1X675.53Y777.06  ;
N236 G1X674.53Y777.06  ;
N237 G1X674.53Y778.56  ;
N238 G1X673.03Y778.56  ;
N239 G1X673.03Y779.56  ;
N240 G1X417.25Y779.56  ;
N241 G1X417.25Y776.56  ;
N242 G1X404.92Y776.56  ;
N243 G1X404.92Y775.56  ;
N244 G1X404.04Y775.56  ;
N245 G1X404.04Y776.56  ;
N246 G1X323.16Y776.56  ;
N247 G2X317.22Y782.5I0J5.94  ;
N248 G1X317.22Y841.5  ;
N249 G3X311.16Y847.56I-6.06J0  ;
N250 G1X197.1Y847.56  ;
N251 G1X197.1Y827.5  ;
N252 G2X192.16Y822.56I-4.94J0  ;
N253 G1X172.6Y822.56  ;
N254 G1X172.6Y806  ;
N255 G2X167.66Y801.06I-4.94J0  ;
N256 G1X147.1Y801.06  ;
N257 G1X147.1Y796.06  ;
N258 G1X122.56Y796.06  ;
N259 G1X122.56Y801.06  ;
N260 G1X107.44Y801.06  ;
N261 G1X107.44Y51.94  ;
N262 G1X122.56Y51.94  ;
N263 G1X122.56Y56.94  ;
N264 G1X147.1Y56.94  ;
N265 G1X147.1Y51.94  ;
N266 G1X167.66Y51.94  ;
N267 G2X172.6Y47I0J-4.94  ;
N268 G1X172.6Y15.44  ;
N269 G1X177.66Y15.44  ;
N270 G2X182.6Y10.5I0J-4.94  ;
N271 G1X182.6Y5.44  ;
N272 G1X311.16Y5.44  ;
N273 G3X317.22Y11.5I0J6.06  ;
N274 G1X317.22Y70.5  ;
N275 G2X323.16Y76.44I5.94J0  ;
N276 G1X404.04Y76.44  ;
N277 G1X404.04Y77.44  ;
N278 G1X404.92Y77.44  ;
N279 G1X404.92Y76.44  ;
N280 G1X417.25Y76.44  ;
N281 G1X417.25Y73.44  ;
N282 G1X673.03Y73.44  ;
N283 G1X673.03Y74.44  ;
N284 G1X674.47Y74.44  ;
N285 G65 P9104 A101 B01  ;
N286 M98 P9103  ;
(P5:ID3:W56197514)  ;
N287 M98 P9101  ;
N288 G0X28.76Y923.33  ;
N289 G65 P9102 A101 B01  ;
N290 G1X28.76Y927.33  ;
N291 G2X29Y927.57I0.24J0  ;
N292 G1X34.5Y927.57  ;
N293 G2X37.44Y924.63I0J-2.94  ;
N294 G1X37.44Y905.63  ;
N295 G2X34.5Y902.69I-2.94J0  ;
N296 G1X23.5Y902.69  ;
N297 G2X20.56Y905.63I0J2.94  ;
N298 G1X20.56Y924.63  ;
N299 G2X23.5Y927.57I2.94J0  ;
N300 G1X29Y927.57  ;
N301 G65 P9104 A101 B01  ;
N302 G0X23.49Y836.63  ;
N303 G65 P9102 A101 B01  ;
N304 G1X23.49Y841.57  ;
N305 G1X20.44Y841.57  ;
N306 G1X20.44Y844.07  ;
N307 G1X13.48Y844.07  ;
N308 G1X5.44Y852.1  ;
N309 G1X5.44Y1023.15  ;
N310 G1X13.48Y1031.19  ;
N311 G1X50.55Y1031.19  ;
N312 G1X57.81Y991.73  ;
N313 G3X62.66Y987.69I4.85J0.9  ;
N314 G1X70.56Y987.69  ;
N315 G1X70.56Y944.19  ;
N316 G1X73.06Y944.19  ;
N317 G1X73.06Y934.07  ;
N318 G1X70.56Y934.07  ;
N319 G1X70.56Y887.57  ;
N320 G1X62.66Y887.57  ;
N321 G3X57.81Y883.52I0J-4.94  ;
N322 G1X50.55Y844.07  ;
N323 G1X30.56Y844.07  ;
N324 G1X30.56Y841.57  ;
N325 G1X24.3Y841.57  ;
N326 G65 P9104 A101 B01  ;
N327 M98 P9103  ;
(P6:ID3:W56197514)  ;
N328 M98 P9101  ;
N329 G0X28.76Y1121.33  ;
N330 G65 P9102 A101 B01  ;
N331 G1X28.76Y1125.33  ;
N332 G2X29Y1125.57I0.24J0  ;
N333 G1X34.5Y1125.57  ;
N334 G2X37.44Y1122.63I0J-2.94  ;
N335 G1X37.44Y1103.63  ;
N336 G2X34.5Y1100.69I-2.94J0  ;
N337 G1X23.5Y1100.69  ;
N338 G2X20.56Y1103.63I0J2.94  ;
N339 G1X20.56Y1122.63  ;
N340 G2X23.5Y1125.57I2.94J0  ;
N341 G1X29Y1125.57  ;
N342 G65 P9104 A101 B01  ;
N343 G0X23.49Y1034.63  ;
N344 G65 P9102 A101 B01  ;
N345 G1X23.49Y1039.57  ;
N346 G1X20.44Y1039.57  ;
N347 G1X20.44Y1042.07  ;
N348 G1X13.48Y1042.07  ;
N349 G1X5.44Y1050.1  ;
N350 G1X5.44Y1221.15  ;
N351 G1X13.48Y1229.19  ;
N352 G1X50.55Y1229.19  ;
N353 G1X57.81Y1189.73  ;
N354 G3X62.66Y1185.69I4.85J0.9  ;
N355 G1X70.56Y1185.69  ;
N356 G1X70.56Y1142.19  ;
N357 G1X73.06Y1142.19  ;
N358 G1X73.06Y1132.07  ;
N359 G1X70.56Y1132.07  ;
N360 G1X70.56Y1085.57  ;
N361 G1X62.66Y1085.57  ;
N362 G3X57.81Y1081.52I0J-4.94  ;
N363 G1X50.55Y1042.07  ;
N364 G1X30.56Y1042.07  ;
N365 G1X30.56Y1039.57  ;
N366 G1X24.3Y1039.57  ;
N367 G65 P9104 A101 B01  ;
N368 M98 P9103  ;
(P7:ID3:W56197514)  ;
N369 M98 P9101  ;
N370 G0X28.76Y1319.33  ;
N371 G65 P9102 A101 B01  ;
N372 G1X28.76Y1323.33  ;
N373 G2X29Y1323.57I0.24J0  ;
N374 G1X34.5Y1323.57  ;
N375 G2X37.44Y1320.63I0J-2.94  ;
N376 G1X37.44Y1301.63  ;
N377 G2X34.5Y1298.69I-2.94J0  ;
N378 G1X23.5Y1298.69  ;
N379 G2X20.56Y1301.63I0J2.94  ;
N380 G1X20.56Y1320.63  ;
N381 G2X23.5Y1323.57I2.94J0  ;
N382 G1X29Y1323.57  ;
N383 G65 P9104 A101 B01  ;
N384 G0X23.49Y1232.63  ;
N385 G65 P9102 A101 B01  ;
N386 G1X23.49Y1237.57  ;
N387 G1X20.44Y1237.57  ;
N388 G1X20.44Y1240.07  ;
N389 G1X13.48Y1240.07  ;
N390 G1X5.44Y1248.1  ;
N391 G1X5.44Y1419.15  ;
N392 G1X13.48Y1427.19  ;
N393 G1X50.55Y1427.19  ;
N394 G1X57.81Y1387.73  ;
N395 G3X62.66Y1383.69I4.85J0.9  ;
N396 G1X70.56Y1383.69  ;
N397 G1X70.56Y1340.19  ;
N398 G1X73.06Y1340.19  ;
N399 G1X73.06Y1330.07  ;
N400 G1X70.56Y1330.07  ;
N401 G1X70.56Y1283.57  ;
N402 G1X62.66Y1283.57  ;
N403 G3X57.81Y1279.52I0J-4.94  ;
N404 G1X50.55Y1240.07  ;
N405 G1X30.56Y1240.07  ;
N406 G1X30.56Y1237.57  ;
N407 G1X24.3Y1237.57  ;
N408 G65 P9104 A101 B01  ;
N409 M98 P9103  ;
(P8:ID3:W56197514)  ;
N410 M98 P9101  ;
N411 G0X28.76Y1517.33  ;
N412 G65 P9102 A101 B01  ;
N413 G1X28.76Y1521.33  ;
N414 G2X29Y1521.57I0.24J0  ;
N415 G1X34.5Y1521.57  ;
N416 G2X37.44Y1518.63I0J-2.94  ;
N417 G1X37.44Y1499.63  ;
N418 G2X34.5Y1496.69I-2.94J0  ;
N419 G1X23.5Y1496.69  ;
N420 G2X20.56Y1499.63I0J2.94  ;
N421 G1X20.56Y1518.63  ;
N422 G2X23.5Y1521.57I2.94J0  ;
N423 G1X29Y1521.57  ;
N424 G65 P9104 A101 B01  ;
N425 G0X23.49Y1430.63  ;
N426 G65 P9102 A101 B01  ;
N427 G1X23.49Y1435.57  ;
N428 G1X20.44Y1435.57  ;
N429 G1X20.44Y1438.07  ;
N430 G1X13.48Y1438.07  ;
N431 G1X5.44Y1446.1  ;
N432 G1X5.44Y1617.15  ;
N433 G1X13.48Y1625.19  ;
N434 G1X50.55Y1625.19  ;
N435 G1X57.81Y1585.73  ;
N436 G3X62.66Y1581.69I4.85J0.9  ;
N437 G1X70.56Y1581.69  ;
N438 G1X70.56Y1538.19  ;
N439 G1X73.06Y1538.19  ;
N440 G1X73.06Y1528.07  ;
N441 G1X70.56Y1528.07  ;
N442 G1X70.56Y1481.57  ;
N443 G1X62.66Y1481.57  ;
N444 G3X57.81Y1477.52I0J-4.94  ;
N445 G1X50.55Y1438.07  ;
N446 G1X30.56Y1438.07  ;
N447 G1X30.56Y1435.57  ;
N448 G1X24.3Y1435.57  ;
N449 G65 P9104 A101 B02  ;
N450 M98 P9103  ;
(P9:ID4:W56197504)  ;
N451 M98 P9101  ;
N452 G0X424.2Y1019.54  ;
N453 G65 P9102 A101 B02  ;
N454 G1X425.39Y1018.35  ;
N455 G3X425.35Y1018.3I-1.23J1.15  ;
N456 G65 P9104 A101 B02  ;
N457 G0X424.2Y928.54  ;
N458 G65 P9102 A101 B02  ;
N459 G1X425.39Y927.35  ;
N460 G3X425.35Y927.3I-1.23J1.15  ;
N461 G65 P9104 A101 B02  ;
N462 G0X525.2Y928.54  ;
N463 G65 P9102 A101 B02  ;
N464 G1X526.39Y927.35  ;
N465 G3X526.35Y927.3I-1.23J1.15  ;
N466 G65 P9104 A101 B02  ;
N467 G0X617.2Y888.45  ;
N468 G65 P9102 A101 B02  ;
N469 G1X619.2Y884.99  ;
N470 G2X619.11Y884.66I-0.21J-0.12  ;
N471 G1X616.31Y883.05  ;
N472 G1X610.72Y886.27  ;
N473 G1X610.72Y892.73  ;
N474 G1X616.31Y895.95  ;
N475 G1X621.9Y892.73  ;
N476 G1X621.9Y886.27  ;
N477 G1X619.11Y884.66  ;
N478 G65 P9104 A101 B02  ;
N479 G0X619.89Y855.01  ;
N480 G65 P9102 A101 B02  ;
N481 G1X623.38Y851.51  ;
N482 G3X623.34Y851.47I-7.07J6.99  ;
N483 G65 P9104 A101 B02  ;
N484 G0X525.2Y1019.54  ;
N485 G65 P9102 A101 B02  ;
N486 G1X526.39Y1018.35  ;
N487 G3X526.35Y1018.3I-1.23J1.15  ;
N488 G65 P9104 A101 B02  ;
N489 G0X617.2Y1528.45  ;
N490 G65 P9102 A101 B02  ;
N491 G1X619.2Y1524.99  ;
N492 G2X619.11Y1524.66I-0.21J-0.12  ;
N493 G1X616.31Y1523.05  ;
N494 G1X610.72Y1526.27  ;
N495 G1X610.72Y1532.73  ;
N496 G1X616.31Y1535.95  ;
N497 G1X621.9Y1532.73  ;
N498 G1X621.9Y1526.27  ;
N499 G1X619.11Y1524.66  ;
N500 G65 P9104 A101 B01  ;
N501 G0X78.63Y1525.71  ;
N502 G65 P9102 A101 B01  ;
N503 G1X81.46Y1528.54  ;
N504 G1X111.48Y1558.56  ;
N505 G1X441.66Y1558.56  ;
N506 G3X447.6Y1564.5I0J5.94  ;
N507 G1X447.6Y1624.5  ;
N508 G2X453.66Y1630.56I6.06J0  ;
N509 G1X587.16Y1630.56  ;
N510 G2X593.22Y1624.5I0J-6.06  ;
N511 G1X593.22Y1584.44  ;
N512 G1X590.22Y1584.44  ;
N513 G1X590.22Y1583.56  ;
N514 G1X600.22Y1583.56  ;
N515 G1X600.22Y1583.06  ;
N516 G1X630.1Y1583.06  ;
N517 G1X630.1Y1583.56  ;
N518 G1X675.53Y1583.56  ;
N519 G1X675.53Y833.44  ;
N520 G1X630.1Y833.44  ;
N521 G1X630.1Y833.94  ;
N522 G1X600.22Y833.94  ;
N523 G1X600.22Y833.44  ;
N524 G1X590.22Y833.44  ;
N525 G1X590.22Y832.56  ;
N526 G1X593.22Y832.56  ;
N527 G1X593.22Y792.5  ;
N528 G2X587.16Y786.44I-6.06J0  ;
N529 G1X453.66Y786.44  ;
N530 G2X447.6Y792.5I0J6.06  ;
N531 G1X447.6Y852.5  ;
N532 G3X441.66Y858.44I-5.94J0  ;
N533 G1X111.48Y858.44  ;
N534 G1X81.44Y888.48  ;
N535 G1X81.44Y1528.5  ;
N536 G65 P9104 A102 B04  ;
N537 M98 P9103  ;
(P10:ID5:W56244403)  ;
N538 M98 P9101  ;
N539 G0X837.26Y1558.5  ;
N540 G65 P9102 A102 B04  ;
N541 G3X837.26Y1558.5I-11J0  ;
N542 G65 P9104 A102 B04  ;
N543 G0X1190.18Y1139.71  ;
N544 G65 P9102 A102 B04  ;
N545 G1X1190.18Y1138.89  ;
N546 G65 P9104 A102 B04  ;
N547 G0X1190.18Y1139.3  ;
N548 G65 P9102 A102 B04  ;
N549 G1X1194.18Y1139.3  ;
N550 G1X1193.77Y1139.71  ;
N551 G65 P9104 A102 B04  ;
N552 G0X1191.89Y1137.89  ;
N553 G65 P9102 A102 B04  ;
N554 G1X1191.89Y1135.6  ;
N555 G1X1191.32Y1135.03  ;
N556 G1X1190.75Y1135.03  ;
N557 G1X1190.18Y1135.6  ;
N558 G1X1190.18Y1137.32  ;
N559 G1X1190.75Y1137.89  ;
N560 G1X1193.61Y1137.89  ;
N561 G1X1194.18Y1137.32  ;
N562 G1X1194.18Y1135.6  ;
N563 G65 P9104 A102 B04  ;
N564 G0X1193.61Y1134.03  ;
N565 G65 P9102 A102 B04  ;
N566 G1X1194.18Y1133.46  ;
N567 G1X1194.18Y1131.74  ;
N568 G1X1193.61Y1131.17  ;
N569 G1X1192.46Y1131.17  ;
N570 G1X1191.89Y1131.74  ;
N571 G1X1191.32Y1131.17  ;
N572 G1X1190.75Y1131.17  ;
N573 G1X1190.18Y1131.74  ;
N574 G1X1190.18Y1133.46  ;
N575 G1X1190.75Y1134.03  ;
N576 G65 P9104 A102 B04  ;
N577 G0X1191.89Y1133.46  ;
N578 G65 P9102 A102 B04  ;
N579 G1X1191.89Y1131.74  ;
N580 G65 P9104 A102 B04  ;
N581 G0X1191.89Y1130.17  ;
N582 G65 P9102 A102 B04  ;
N583 G1X1191.89Y1127.89  ;
N584 G1X1191.32Y1127.32  ;
N585 G1X1190.75Y1127.32  ;
N586 G1X1190.18Y1127.89  ;
N587 G1X1190.18Y1129.6  ;
N588 G1X1190.75Y1130.17  ;
N589 G1X1193.61Y1130.17  ;
N590 G1X1194.18Y1129.6  ;
N591 G1X1194.18Y1127.89  ;
N592 G65 P9104 A102 B04  ;
N593 G0X1193.61Y1126.32  ;
N594 G65 P9102 A102 B04  ;
N595 G1X1194.18Y1125.74  ;
N596 G1X1194.18Y1124.03  ;
N597 G1X1193.61Y1123.46  ;
N598 G1X1190.75Y1123.46  ;
N599 G1X1190.18Y1124.03  ;
N600 G1X1190.18Y1125.74  ;
N601 G1X1190.75Y1126.32  ;
N602 G1X1193.61Y1126.32  ;
N603 G65 P9104 A102 B04  ;
N604 G0X1194.18Y1124.03  ;
N605 G65 P9102 A102 B04  ;
N606 G1X1190.18Y1125.74  ;
N607 G65 P9104 A102 B04  ;
N608 G0X1193.61Y1122.46  ;
N609 G65 P9102 A102 B04  ;
N610 G1X1194.18Y1121.89  ;
N611 G1X1194.18Y1120.17  ;
N612 G1X1193.61Y1119.6  ;
N613 G1X1192.46Y1119.6  ;
N614 G1X1191.89Y1120.17  ;
N615 G1X1191.89Y1121.89  ;
N616 G1X1191.32Y1122.46  ;
N617 G1X1190.18Y1122.46  ;
N618 G1X1190.18Y1120.17  ;
N619 G1X1190.75Y1119.6  ;
N620 G65 P9104 A102 B04  ;
N621 G0X1193.61Y1118.6  ;
N622 G65 P9102 A102 B04  ;
N623 G1X1194.18Y1118.03  ;
N624 G1X1194.18Y1116.32  ;
N625 G1X1193.61Y1115.74  ;
N626 G1X1192.46Y1115.74  ;
N627 G1X1191.89Y1116.32  ;
N628 G1X1191.89Y1118.03  ;
N629 G1X1191.32Y1118.6  ;
N630 G1X1190.18Y1118.6  ;
N631 G1X1190.18Y1116.32  ;
N632 G1X1190.75Y1115.74  ;
N633 G65 P9104 A102 B04  ;
N634 G0X1190.18Y1114.17  ;
N635 G65 P9102 A102 B04  ;
N636 G1X1194.18Y1111.89  ;
N637 G1X1194.18Y1114.74  ;
N638 G65 P9104 A102 B04  ;
N639 G0X1191.89Y1114.17  ;
N640 G65 P9102 A102 B04  ;
N641 G1X1191.89Y1112.46  ;
N642 G65 P9104 A102 B04  ;
N643 G0X1191.89Y1110.32  ;
N644 G65 P9102 A102 B04  ;
N645 G1X1192.46Y1110.89  ;
N646 G1X1193.61Y1110.89  ;
N647 G1X1194.18Y1110.32  ;
N648 G1X1194.18Y1108.6  ;
N649 G1X1193.61Y1108.03  ;
N650 G1X1192.46Y1108.03  ;
N651 G1X1191.89Y1108.6  ;
N652 G1X1191.89Y1110.32  ;
N653 G1X1191.32Y1110.89  ;
N654 G1X1190.75Y1110.89  ;
N655 G1X1190.18Y1110.32  ;
N656 G1X1190.18Y1108.6  ;
N657 G1X1190.75Y1108.03  ;
N658 G1X1191.32Y1108.03  ;
N659 G1X1191.89Y1108.6  ;
N660 G65 P9104 A102 B04  ;
N661 G0X1191.89Y1106.46  ;
N662 G65 P9102 A102 B04  ;
N663 G1X1191.89Y1104.74  ;
N664 G65 P9104 A102 B04  ;
N665 G0X1190.18Y1106.46  ;
N666 G65 P9102 A102 B04  ;
N667 G1X1194.18Y1104.17  ;
N668 G1X1194.18Y1107.03  ;
N669 G65 P9104 A101 B02  ;
N670 G0X1111.57Y1287.87  ;
N671 G65 P9102 A101 B02  ;
N672 G1X1115.06Y1284.37  ;
N673 G3X1115.02Y1284.33I-3.71J3.63  ;
N674 G65 P9104 A101 B02  ;
N675 G0X1111.57Y1409.87  ;
N676 G65 P9102 A101 B02  ;
N677 G1X1115.06Y1406.37  ;
N678 G3X1115.02Y1406.33I-3.71J3.63  ;
N679 G65 P9104 A101 B02  ;
N680 G0X1186.62Y1518.03  ;
N681 G65 P9102 A101 B02  ;
N682 G1X1190.08Y1516.03  ;
N683 G2X1190.17Y1515.7I-0.12J-0.21  ;
N684 G1X1188.55Y1512.91  ;
N685 G1X1182.1Y1512.91  ;
N686 G1X1178.87Y1518.5  ;
N687 G1X1182.1Y1524.09  ;
N688 G1X1188.55Y1524.09  ;
N689 G1X1191.78Y1518.5  ;
N690 G1X1190.17Y1515.7  ;
N691 G65 P9104 A101 B02  ;
N692 G0X1174.37Y1733.54  ;
N693 G65 P9102 A101 B02  ;
N694 G1X1176.8Y1731.11  ;
N695 G3X1176.76Y1731.07I-2.47J2.39  ;
N696 G65 P9104 A101 B02  ;
N697 G0X881.14Y1756.54  ;
N698 G65 P9102 A101 B02  ;
N699 G1X884.46Y1753.23  ;
N700 G3X884.42Y1753.18I-3.36J3.27  ;
N701 G65 P9104 A101 B01  ;
N702 G0X782.51Y1696.62  ;
N703 G65 P9102 A101 B01  ;
N704 G1X778.67Y1693.51  ;
N705 G2X780.47Y1726.78I19.43J15.63  ;
N706 G1X815.82Y1762.14  ;
N707 G2X851.09Y1726.86I17.64J-17.64  ;
N708 G1X815.74Y1691.51  ;
N709 G2X779.03Y1693.08I-17.64J17.63  ;
N710 G65 P9104 A101 B02  ;
N711 G0X787.56Y1658.13  ;
N712 G65 P9102 A101 B02  ;
N713 G1X791.05Y1654.64  ;
N714 G3X791.01Y1654.59I-4.95J4.86  ;
N715 G65 P9104 A101 B02  ;
N716 G0X837.56Y1658.13  ;
N717 G65 P9102 A101 B02  ;
N718 G1X841.05Y1654.64  ;
N719 G3X841.01Y1654.59I-4.95J4.86  ;
N720 G65 P9104 A101 B02  ;
N721 G0X853.38Y1610.84  ;
N722 G65 P9102 A101 B02  ;
N723 G1X857.32Y1610.84  ;
N724 G1X857.32Y1609.36  ;
N725 G1X846.94Y1609.36  ;
N726 G1X846.94Y1612.44  ;
N727 G1X857.32Y1612.44  ;
N728 G1X857.32Y1610.9  ;
N729 G65 P9104 A101 B02  ;
N730 G0X713.58Y1610.84  ;
N731 G65 P9102 A101 B02  ;
N732 G1X717.52Y1610.84  ;
N733 G1X717.52Y1609.36  ;
N734 G1X703.64Y1609.36  ;
N735 G1X703.64Y1612.44  ;
N736 G1X717.52Y1612.44  ;
N737 G1X717.52Y1610.9  ;
N738 G65 P9104 A101 B01  ;
N739 G0X713.56Y1485.5  ;
N740 G65 P9102 A101 B01  ;
N741 G1X713.56Y1481.56  ;
N742 G3X713.5Y1481.56I-0.06J10.94  ;
N743 G65 P9104 A101 B01  ;
N744 G0X825.2Y1253.3  ;
N745 G65 P9102 A101 B01  ;
N746 G1X825.2Y1249.3  ;
N747 G2X824.96Y1249.06I-0.24J0  ;
N748 G1X793.52Y1249.06  ;
N749 G1X793.52Y1442  ;
N750 G2X800.46Y1448.94I6.94J0  ;
N751 G1X863.4Y1448.94  ;
N752 G1X863.4Y1256  ;
N753 G2X856.46Y1249.06I-6.94J0  ;
N754 G1X824.96Y1249.06  ;
N755 G65 P9104 A101 B02  ;
N756 G0X971.99Y1194.68  ;
N757 G65 P9102 A101 B02  ;
N758 G1X975.43Y1194.68  ;
N759 G1X975.43Y1196.19  ;
N760 G1X968.55Y1196.19  ;
N761 G1X968.55Y1193.06  ;
N762 G1X975.43Y1193.06  ;
N763 G1X975.43Y1194.62  ;
N764 G65 P9104 A101 B02  ;
N765 G0X971.99Y1041.43  ;
N766 G65 P9102 A101 B02  ;
N767 G1X975.43Y1041.43  ;
N768 G1X975.43Y1042.94  ;
N769 G1X968.55Y1042.94  ;
N770 G1X968.55Y1039.81  ;
N771 G1X975.43Y1039.81  ;
N772 G1X975.43Y1041.37  ;
N773 G65 P9104 A101 B02  ;
N774 G0X853.38Y1090.84  ;
N775 G65 P9102 A101 B02  ;
N776 G1X857.32Y1090.84  ;
N777 G1X857.32Y1089.36  ;
N778 G1X846.94Y1089.36  ;
N779 G1X846.94Y1092.44  ;
N780 G1X857.32Y1092.44  ;
N781 G1X857.32Y1090.9  ;
N782 G65 P9104 A101 B02  ;
N783 G0X713.58Y1090.84  ;
N784 G65 P9102 A101 B02  ;
N785 G1X717.52Y1090.84  ;
N786 G1X717.52Y1089.36  ;
N787 G1X703.64Y1089.36  ;
N788 G1X703.64Y1092.44  ;
N789 G1X717.52Y1092.44  ;
N790 G1X717.52Y1090.9  ;
N791 G65 P9104 A101 B02  ;
N792 G0X970.03Y893  ;
N793 G65 P9102 A101 B02  ;
N794 G1X970.03Y890.06  ;
N795 G1X968.55Y890.06  ;
N796 G1X968.55Y895.94  ;
N797 G1X971.63Y895.94  ;
N798 G1X971.63Y890.06  ;
N799 G1X970.09Y890.06  ;
N800 G65 P9104 A101 B02  ;
N801 G0X970.15Y738  ;
N802 G65 P9102 A101 B02  ;
N803 G1X970.15Y735.06  ;
N804 G1X971.63Y735.06  ;
N805 G1X971.63Y740.94  ;
N806 G1X968.55Y740.94  ;
N807 G1X968.55Y735.06  ;
N808 G1X970.09Y735.06  ;
N809 G65 P9104 A101 B02  ;
N810 G0X853.38Y694.04  ;
N811 G65 P9102 A101 B02  ;
N812 G1X857.32Y694.04  ;
N813 G1X857.32Y692.56  ;
N814 G1X846.94Y692.56  ;
N815 G1X846.94Y695.64  ;
N816 G1X857.32Y695.64  ;
N817 G1X857.32Y694.1  ;
N818 G65 P9104 A101 B02  ;
N819 G0X713.58Y694.04  ;
N820 G65 P9102 A101 B02  ;
N821 G1X717.52Y694.04  ;
N822 G1X717.52Y692.56  ;
N823 G1X703.64Y692.56  ;
N824 G1X703.64Y695.64  ;
N825 G1X717.52Y695.64  ;
N826 G1X717.52Y694.1  ;
N827 G65 P9104 A101 B01  ;
N828 G0X832.2Y340.3  ;
N829 G65 P9102 A101 B01  ;
N830 G1X832.2Y336.3  ;
N831 G2X831.96Y336.06I-0.24J0  ;
N832 G1X800.46Y336.06  ;
N833 G2X793.52Y343I0J6.94  ;
N834 G1X793.52Y535.94  ;
N835 G1X858.45Y535.94  ;
N836 G2X863.4Y529.01I-0.99J-5.94  ;
N837 G1X863.4Y336.06  ;
N838 G1X831.96Y336.06  ;
N839 G65 P9104 A101 B02  ;
N840 G0X849Y326.04  ;
N841 G65 P9102 A101 B02  ;
N842 G1X852.49Y322.55  ;
N843 G3X852.45Y322.51I-3.53J3.45  ;
N844 G65 P9104 A101 B01  ;
N845 G0X713.56Y285.5  ;
N846 G65 P9102 A101 B01  ;
N847 G1X713.56Y281.56  ;
N848 G3X713.5Y281.56I-0.06J10.94  ;
N849 G65 P9104 A101 B02  ;
N850 G0X713.58Y174.04  ;
N851 G65 P9102 A101 B02  ;
N852 G1X717.52Y174.04  ;
N853 G1X717.52Y172.56  ;
N854 G1X703.64Y172.56  ;
N855 G1X703.64Y175.64  ;
N856 G1X717.52Y175.64  ;
N857 G1X717.52Y174.1  ;
N858 G65 P9104 A101 B02  ;
N859 G0X787.56Y124.13  ;
N860 G65 P9102 A101 B02  ;
N861 G1X791.05Y120.64  ;
N862 G3X791.01Y120.59I-4.95J4.86  ;
N863 G65 P9104 A101 B01  ;
N864 G0X782.94Y88.9  ;
N865 G65 P9102 A101 B01  ;
N866 G1X779.18Y92.11  ;
N867 G2X815.74Y93.49I18.92J-16.25  ;
N868 G1X851.09Y58.14  ;
N869 G2X815.82Y22.86I-17.63J-17.64  ;
N870 G1X780.47Y58.22  ;
N871 G2X778.82Y91.68I17.63J17.64  ;
N872 G65 P9104 A101 B02  ;
N873 G0X767.5Y51.44  ;
N874 G65 P9102 A101 B02  ;
N875 G1X769.93Y49.01  ;
N876 G3X769.89Y48.97I-2.47J2.39  ;
N877 G65 P9104 A101 B02  ;
N878 G0X837.56Y124.13  ;
N879 G65 P9102 A101 B02  ;
N880 G1X841.05Y120.64  ;
N881 G3X841.01Y120.59I-4.95J4.86  ;
N882 G65 P9104 A101 B02  ;
N883 G0X853.38Y174.04  ;
N884 G65 P9102 A101 B02  ;
N885 G1X857.32Y174.04  ;
N886 G1X857.32Y172.56  ;
N887 G1X846.94Y172.56  ;
N888 G1X846.94Y175.64  ;
N889 G1X857.32Y175.64  ;
N890 G1X857.32Y174.1  ;
N891 G65 P9104 A101 B02  ;
N892 G0X881.14Y28.54  ;
N893 G65 P9102 A101 B02  ;
N894 G1X884.46Y25.23  ;
N895 G3X884.42Y25.18I-3.36J3.27  ;
N896 G65 P9104 A101 B02  ;
N897 G0X1186.62Y164.03  ;
N898 G65 P9102 A101 B02  ;
N899 G1X1190.08Y162.03  ;
N900 G2X1190.17Y161.7I-0.12J-0.21  ;
N901 G1X1188.55Y158.91  ;
N902 G1X1182.1Y158.91  ;
N903 G1X1178.87Y164.5  ;
N904 G1X1182.1Y170.09  ;
N905 G1X1188.55Y170.09  ;
N906 G1X1191.78Y164.5  ;
N907 G1X1190.17Y161.7  ;
N908 G65 P9104 A101 B02  ;
N909 G0X1187.59Y178.7  ;
N910 G65 P9102 A101 B02  ;
N911 G1X1187.59Y176.66  ;
N912 G1X1186.11Y176.66  ;
N913 G1X1186.11Y180.74  ;
N914 G1X1189.19Y180.74  ;
N915 G1X1189.19Y176.66  ;
N916 G1X1187.65Y176.66  ;
N917 G65 P9104 A101 B02  ;
N918 G0X1187.59Y376.5  ;
N919 G65 P9102 A101 B02  ;
N920 G1X1187.59Y374.46  ;
N921 G1X1186.11Y374.46  ;
N922 G1X1186.11Y378.54  ;
N923 G1X1189.19Y378.54  ;
N924 G1X1189.19Y374.46  ;
N925 G1X1187.65Y374.46  ;
N926 G65 P9104 A101 B02  ;
N927 G0X1111.57Y394.87  ;
N928 G65 P9102 A101 B02  ;
N929 G1X1115.06Y391.37  ;
N930 G3X1115.02Y391.33I-3.71J3.63  ;
N931 G65 P9104 A101 B02  ;
N932 G0X1111.57Y516.87  ;
N933 G65 P9102 A101 B02  ;
N934 G1X1115.06Y513.37  ;
N935 G3X1115.02Y513.33I-3.71J3.63  ;
N936 G65 P9104 A101 B02  ;
N937 G0X971.99Y578.18  ;
N938 G65 P9102 A101 B02  ;
N939 G1X975.43Y578.18  ;
N940 G1X975.43Y579.69  ;
N941 G1X968.55Y579.69  ;
N942 G1X968.55Y576.56  ;
N943 G1X975.43Y576.56  ;
N944 G1X975.43Y578.12  ;
N945 G65 P9104 A101 B02  ;
N946 G0X971.99Y424.93  ;
N947 G65 P9102 A101 B02  ;
N948 G1X975.43Y424.93  ;
N949 G1X975.43Y426.44  ;
N950 G1X968.55Y426.44  ;
N951 G1X968.55Y423.31  ;
N952 G1X975.43Y423.31  ;
N953 G1X975.43Y424.88  ;
N954 G65 P9104 A101 B01  ;
N955 G0X683.44Y1735.7  ;
N956 G65 P9102 A101 B01  ;
N957 G1X683.44Y1731.7  ;
N958 G1X683.44Y53.24  ;
N959 G1X750.99Y53.24  ;
N960 G1X755.3Y54.28  ;
N961 G2X756.31Y53.87I0.22J-0.92  ;
N962 G1X758.71Y50.17  ;
N963 G1X801.07Y7.8  ;
N964 G3X806.77Y5.44I5.7J5.7  ;
N965 G1X932.46Y5.44  ;
N966 G3X936.52Y9.5I0J4.06  ;
N967 G1X936.52Y45.44  ;
N968 G1X1209.59Y45.44  ;
N969 G1X1209.59Y50.56  ;
N970 G1X1209.09Y50.56  ;
N971 G1X1209.09Y80.44  ;
N972 G1X1209.59Y80.44  ;
N973 G1X1209.59Y91.81  ;
N974 G1X1205.36Y91.81  ;
N975 G1X1205.36Y92.44  ;
N976 G1X1244.14Y92.44  ;
N977 G1X1244.14Y1692.56  ;
N978 G1X1202.89Y1692.56  ;
N979 G1X1202.89Y1695.44  ;
N980 G1X1209.59Y1695.44  ;
N981 G1X1209.59Y1704.56  ;
N982 G1X1209.09Y1704.56  ;
N983 G1X1209.09Y1734.44  ;
N984 G1X1209.59Y1734.44  ;
N985 G1X1209.59Y1739.56  ;
N986 G1X936.52Y1739.56  ;
N987 G1X936.52Y1775.5  ;
N988 G3X932.46Y1779.56I-4.06J0  ;
N989 G1X806.77Y1779.56  ;
N990 G3X801.07Y1777.2I0J-8.06  ;
N991 G1X759.31Y1735.43  ;
N992 G1X756.32Y1731.1  ;
N993 G2X755.33Y1730.72I-0.78J0.53  ;
N994 G1X750.99Y1731.76  ;
N995 G1X683.5Y1731.76  ;
N996 G65 P9104 A102 B04  ;
N997 M98 P9103  ;
(P11:ID6:W56197513S)  ;
N998 M98 P9101  ;
N999 G0X614.98Y1698.03  ;
N1000 G65 P9102 A102 B04  ;
N1001 G1X618.74Y1704.53  ;
N1002 G1X614.98Y1711.03  ;
N1003 G1X607.48Y1711.03  ;
N1004 G1X603.72Y1704.53  ;
N1005 G1X607.48Y1698.03  ;
N1006 G1X614.98Y1698.03  ;
N1007 G65 P9104 A102 B04  ;
N1008 G0X637.48Y1758.03  ;
N1009 G65 P9102 A102 B04  ;
N1010 G1X644.98Y1758.03  ;
N1011 G1X648.74Y1764.53  ;
N1012 G1X644.98Y1771.03  ;
N1013 G1X637.48Y1771.03  ;
N1014 G1X633.72Y1764.53  ;
N1015 G1X637.48Y1758.03  ;
N1016 G65 P9104 A101 B02  ;
N1017 G0X641.01Y1764.66  ;
N1018 G65 P9102 A101 B02  ;
N1019 G1X637.52Y1768.16  ;
N1020 G3X637.56Y1768.2I3.71J-3.63  ;
N1021 G65 P9104 A101 B02  ;
N1022 G0X626.25Y1736.76  ;
N1023 G65 P9102 A101 B02  ;
N1024 G1X625.65Y1738.18  ;
N1025 G1X621.06Y1736.23  ;
N1026 G1X622.26Y1733.39  ;
N1027 G1X631.54Y1737.33  ;
N1028 G1X630.34Y1740.17  ;
N1029 G1X625.7Y1738.2  ;
N1030 G65 P9104 A101 B02  ;
N1031 G0X611.01Y1704.66  ;
N1032 G65 P9102 A101 B02  ;
N1033 G1X607.52Y1708.16  ;
N1034 G3X607.56Y1708.2I3.71J-3.63  ;
N1035 G65 P9104 A101 B01  ;
N1036 G0X632.93Y1633.53  ;
N1037 G65 P9102 A101 B01  ;
N1038 G1X632.93Y1638.47  ;
N1039 G1X631.17Y1638.47  ;
N1040 G1X631.17Y1639.47  ;
N1041 G1X605.73Y1639.47  ;
N1042 G1X585.06Y1688.16  ;
N1043 G1X587.91Y1689.37  ;
N1044 G1X583.86Y1698.93  ;
N1045 G1X581.01Y1697.72  ;
N1046 G1X576Y1709.51  ;
N1047 G2X576.98Y1716.67I6.5J2.75  ;
N1048 G1X631.2Y1784.59  ;
N1049 G1X661.29Y1784.59  ;
N1050 G1X661.29Y1764.53  ;
N1051 G3X666.23Y1759.59I4.94J0  ;
N1052 G1X676.29Y1759.59  ;
N1053 G1X676.29Y1664.47  ;
N1054 G1X656.23Y1664.47  ;
N1055 G3X651.29Y1659.53I0J-4.94  ;
N1056 G1X651.29Y1639.47  ;
N1057 G1X636.29Y1639.47  ;
N1058 G1X636.29Y1638.47  ;
N1059 G1X633.74Y1638.47  ;
N1060 G65 P9104 A102 B04  ;
N1061 M98 P9103  ;
(P12:ID7:W56197513)  ;
N1062 M98 P9101  ;
N1063 G0X505.21Y1663.57  ;
N1064 G65 P9102 A102 B04  ;
N1065 G1X505.21Y1656.07  ;
N1066 G1X498.71Y1652.31  ;
N1067 G1X492.21Y1656.07  ;
N1068 G1X492.21Y1663.57  ;
N1069 G1X498.71Y1667.33  ;
N1070 G1X505.21Y1663.57  ;
N1071 G65 P9104 A102 B04  ;
N1072 G0X449.23Y1693.03  ;
N1073 G65 P9102 A102 B04  ;
N1074 G1X442.73Y1689.28  ;
N1075 G1X436.23Y1693.03  ;
N1076 G1X436.23Y1700.53  ;
N1077 G1X442.73Y1704.29  ;
N1078 G1X449.23Y1700.53  ;
N1079 G1X449.23Y1693.03  ;
N1080 G65 P9104 A101 B02  ;
N1081 G0X442.47Y1696.79  ;
N1082 G65 P9102 A101 B02  ;
N1083 G1X437.7Y1698.07  ;
N1084 G3X437.71Y1698.13I5.03J-1.29  ;
N1085 G65 P9104 A101 B02  ;
N1086 G0X470.81Y1676.31  ;
N1087 G65 P9102 A101 B02  ;
N1088 G1X466.9Y1675.83  ;
N1089 G1X466.72Y1677.3  ;
N1090 G1X476.72Y1678.53  ;
N1091 G1X477.1Y1675.47  ;
N1092 G1X467.09Y1674.24  ;
N1093 G1X466.91Y1675.77  ;
N1094 G65 P9104 A101 B02  ;
N1095 G0X498.45Y1659.83  ;
N1096 G65 P9102 A101 B02  ;
N1097 G1X493.68Y1661.11  ;
N1098 G3X493.7Y1661.16I5.03J-1.29  ;
N1099 G65 P9104 A101 B01  ;
N1100 G0X426.19Y1769.22  ;
N1101 G65 P9102 A101 B01  ;
N1102 G1X428.66Y1764.94  ;
N1103 G1X426.97Y1763.96  ;
N1104 G1X427.47Y1763.1  ;
N1105 G1X405.44Y1750.38  ;
N1106 G1X411.88Y1697.87  ;
N1107 G1X414.96Y1698.25  ;
N1108 G1X416.22Y1687.95  ;
N1109 G1X413.15Y1687.57  ;
N1110 G1X414.71Y1674.86  ;
N1111 G3X419.14Y1669.14I7.01J0.86  ;
N1112 G1X500.05Y1637.43  ;
N1113 G1X526.11Y1652.48  ;
N1114 G1X516.08Y1669.85  ;
N1115 G2X517.89Y1676.6I4.28J2.47  ;
N1116 G1X526.6Y1681.63  ;
N1117 G1X479.04Y1764.01  ;
N1118 G1X461.67Y1753.98  ;
N1119 G2X454.92Y1755.78I-2.47J4.27  ;
N1120 G1X444.89Y1773.16  ;
N1121 G1X431.9Y1765.66  ;
N1122 G1X431.4Y1766.52  ;
N1123 G1X429.37Y1765.35  ;
N1124 G65 P9104 A101 B01  ;
N1125 M98 P9103  ;
(P13:ID3:W56197514)  ;
N1126 M98 P9101  ;
N1127 G0X360.26Y1648.73  ;
N1128 G65 P9102 A101 B01  ;
N1129 G1X360.26Y1652.73  ;
N1130 G2X360.5Y1652.97I0.24J0  ;
N1131 G1X366Y1652.97  ;
N1132 G2X368.94Y1650.03I0J-2.94  ;
N1133 G1X368.94Y1631.03  ;
N1134 G2X366Y1628.09I-2.94J0  ;
N1135 G1X355Y1628.09  ;
N1136 G2X352.06Y1631.03I0J2.94  ;
N1137 G1X352.06Y1650.03  ;
N1138 G2X355Y1652.97I2.94J0  ;
N1139 G1X360.5Y1652.97  ;
N1140 G65 P9104 A101 B01  ;
N1141 G0X354.99Y1562.03  ;
N1142 G65 P9102 A101 B01  ;
N1143 G1X354.99Y1566.97  ;
N1144 G1X351.94Y1566.97  ;
N1145 G1X351.94Y1569.47  ;
N1146 G1X344.98Y1569.47  ;
N1147 G1X336.94Y1577.5  ;
N1148 G1X336.94Y1748.55  ;
N1149 G1X344.98Y1756.59  ;
N1150 G1X382.05Y1756.59  ;
N1151 G1X389.31Y1717.13  ;
N1152 G3X394.16Y1713.09I4.85J0.9  ;
N1153 G1X402.06Y1713.09  ;
N1154 G1X402.06Y1669.59  ;
N1155 G1X404.56Y1669.59  ;
N1156 G1X404.56Y1659.47  ;
N1157 G1X402.06Y1659.47  ;
N1158 G1X402.06Y1612.97  ;
N1159 G1X394.16Y1612.97  ;
N1160 G3X389.31Y1608.92I0J-4.94  ;
N1161 G1X382.05Y1569.47  ;
N1162 G1X362.06Y1569.47  ;
N1163 G1X362.06Y1566.97  ;
N1164 G1X355.8Y1566.97  ;
N1165 G65 P9104 A101 B01  ;
N1166 M98 P9103  ;
(P14:ID3:W56197514)  ;
N1167 M98 P9101  ;
N1168 G0X285.76Y1648.73  ;
N1169 G65 P9102 A101 B01  ;
N1170 G1X285.76Y1652.73  ;
N1171 G2X286Y1652.97I0.24J0  ;
N1172 G1X291.5Y1652.97  ;
N1173 G2X294.44Y1650.03I0J-2.94  ;
N1174 G1X294.44Y1631.03  ;
N1175 G2X291.5Y1628.09I-2.94J0  ;
N1176 G1X280.5Y1628.09  ;
N1177 G2X277.56Y1631.03I0J2.94  ;
N1178 G1X277.56Y1650.03  ;
N1179 G2X280.5Y1652.97I2.94J0  ;
N1180 G1X286Y1652.97  ;
N1181 G65 P9104 A101 B01  ;
N1182 G0X280.49Y1562.03  ;
N1183 G65 P9102 A101 B01  ;
N1184 G1X280.49Y1566.97  ;
N1185 G1X277.44Y1566.97  ;
N1186 G1X277.44Y1569.47  ;
N1187 G1X270.48Y1569.47  ;
N1188 G1X262.44Y1577.5  ;
N1189 G1X262.44Y1748.55  ;
N1190 G1X270.48Y1756.59  ;
N1191 G1X307.55Y1756.59  ;
N1192 G1X314.81Y1717.13  ;
N1193 G3X319.66Y1713.09I4.85J0.9  ;
N1194 G1X327.56Y1713.09  ;
N1195 G1X327.56Y1669.59  ;
N1196 G1X330.06Y1669.59  ;
N1197 G1X330.06Y1659.47  ;
N1198 G1X327.56Y1659.47  ;
N1199 G1X327.56Y1612.97  ;
N1200 G1X319.66Y1612.97  ;
N1201 G3X314.81Y1608.92I0J-4.94  ;
N1202 G1X307.55Y1569.47  ;
N1203 G1X287.56Y1569.47  ;
N1204 G1X287.56Y1566.97  ;
N1205 G1X281.3Y1566.97  ;
N1206 G65 P9104 A101 B01  ;
N1207 M98 P9103  ;
(P15:ID3:W56197514)  ;
N1208 M98 P9101  ;
N1209 G0X211.26Y1648.73  ;
N1210 G65 P9102 A101 B01  ;
N1211 G1X211.26Y1652.73  ;
N1212 G2X211.5Y1652.97I0.24J0  ;
N1213 G1X217Y1652.97  ;
N1214 G2X219.94Y1650.03I0J-2.94  ;
N1215 G1X219.94Y1631.03  ;
N1216 G2X217Y1628.09I-2.94J0  ;
N1217 G1X206Y1628.09  ;
N1218 G2X203.06Y1631.03I0J2.94  ;
N1219 G1X203.06Y1650.03  ;
N1220 G2X206Y1652.97I2.94J0  ;
N1221 G1X211.5Y1652.97  ;
N1222 G65 P9104 A101 B01  ;
N1223 G0X205.99Y1562.03  ;
N1224 G65 P9102 A101 B01  ;
N1225 G1X205.99Y1566.97  ;
N1226 G1X202.94Y1566.97  ;
N1227 G1X202.94Y1569.47  ;
N1228 G1X195.98Y1569.47  ;
N1229 G1X187.94Y1577.5  ;
N1230 G1X187.94Y1748.55  ;
N1231 G1X195.98Y1756.59  ;
N1232 G1X233.05Y1756.59  ;
N1233 G1X240.31Y1717.13  ;
N1234 G3X245.16Y1713.09I4.85J0.9  ;
N1235 G1X253.06Y1713.09  ;
N1236 G1X253.06Y1669.59  ;
N1237 G1X255.56Y1669.59  ;
N1238 G1X255.56Y1659.47  ;
N1239 G1X253.06Y1659.47  ;
N1240 G1X253.06Y1612.97  ;
N1241 G1X245.16Y1612.97  ;
N1242 G3X240.31Y1608.92I0J-4.94  ;
N1243 G1X233.05Y1569.47  ;
N1244 G1X213.06Y1569.47  ;
N1245 G1X213.06Y1566.97  ;
N1246 G1X206.8Y1566.97  ;
N1247 G65 P9104 A101 B01  ;
N1248 M98 P9103  ;
(P16:ID3:W56197514)  ;
N1249 M98 P9101  ;
N1250 G0X136.76Y1648.73  ;
N1251 G65 P9102 A101 B01  ;
N1252 G1X136.76Y1652.73  ;
N1253 G2X137Y1652.97I0.24J0  ;
N1254 G1X142.5Y1652.97  ;
N1255 G2X145.44Y1650.03I0J-2.94  ;
N1256 G1X145.44Y1631.03  ;
N1257 G2X142.5Y1628.09I-2.94J0  ;
N1258 G1X131.5Y1628.09  ;
N1259 G2X128.56Y1631.03I0J2.94  ;
N1260 G1X128.56Y1650.03  ;
N1261 G2X131.5Y1652.97I2.94J0  ;
N1262 G1X137Y1652.97  ;
N1263 G65 P9104 A101 B01  ;
N1264 G0X131.49Y1562.03  ;
N1265 G65 P9102 A101 B01  ;
N1266 G1X131.49Y1566.97  ;
N1267 G1X128.44Y1566.97  ;
N1268 G1X128.44Y1569.47  ;
N1269 G1X121.48Y1569.47  ;
N1270 G1X113.44Y1577.5  ;
N1271 G1X113.44Y1748.55  ;
N1272 G1X121.48Y1756.59  ;
N1273 G1X158.55Y1756.59  ;
N1274 G1X165.81Y1717.13  ;
N1275 G3X170.66Y1713.09I4.85J0.9  ;
N1276 G1X178.56Y1713.09  ;
N1277 G1X178.56Y1669.59  ;
N1278 G1X181.06Y1669.59  ;
N1279 G1X181.06Y1659.47  ;
N1280 G1X178.56Y1659.47  ;
N1281 G1X178.56Y1612.97  ;
N1282 G1X170.66Y1612.97  ;
N1283 G3X165.81Y1608.92I0J-4.94  ;
N1284 G1X158.55Y1569.47  ;
N1285 G1X138.56Y1569.47  ;
N1286 G1X138.56Y1566.97  ;
N1287 G1X132.3Y1566.97  ;
N1288 G65 P9104 A102 B04  ;
N1289 M98 P9103  ;
(P17:ID6:W56197513S)  ;
N1290 M98 P9101  ;
N1291 G0X44.98Y1690.63  ;
N1292 G65 P9102 A102 B04  ;
N1293 G1X48.74Y1697.13  ;
N1294 G1X44.98Y1703.63  ;
N1295 G1X37.48Y1703.63  ;
N1296 G1X33.72Y1697.13  ;
N1297 G1X37.48Y1690.63  ;
N1298 G1X44.98Y1690.63  ;
N1299 G65 P9104 A102 B04  ;
N1300 G0X67.48Y1750.63  ;
N1301 G65 P9102 A102 B04  ;
N1302 G1X74.98Y1750.63  ;
N1303 G1X78.74Y1757.13  ;
N1304 G1X74.98Y1763.63  ;
N1305 G1X67.48Y1763.63  ;
N1306 G1X63.72Y1757.13  ;
N1307 G1X67.48Y1750.63  ;
N1308 G65 P9104 A101 B02  ;
N1309 G0X71.01Y1757.26  ;
N1310 G65 P9102 A101 B02  ;
N1311 G1X67.52Y1760.76  ;
N1312 G3X67.56Y1760.8I3.71J-3.63  ;
N1313 G65 P9104 A101 B02  ;
N1314 G0X56.25Y1729.36  ;
N1315 G65 P9102 A101 B02  ;
N1316 G1X55.65Y1730.78  ;
N1317 G1X51.06Y1728.83  ;
N1318 G1X52.26Y1725.99  ;
N1319 G1X61.54Y1729.93  ;
N1320 G1X60.34Y1732.77  ;
N1321 G1X55.7Y1730.8  ;
N1322 G65 P9104 A101 B02  ;
N1323 G0X41.01Y1697.26  ;
N1324 G65 P9102 A101 B02  ;
N1325 G1X37.52Y1700.76  ;
N1326 G3X37.56Y1700.8I3.71J-3.63  ;
N1327 G65 P9104 A101 B01  ;
N1328 G0X62.93Y1626.13  ;
N1329 G65 P9102 A101 B01  ;
N1330 G1X62.93Y1631.07  ;
N1331 G1X61.17Y1631.07  ;
N1332 G1X61.17Y1632.07  ;
N1333 G1X35.73Y1632.07  ;
N1334 G1X15.06Y1680.76  ;
N1335 G1X17.91Y1681.97  ;
N1336 G1X13.86Y1691.53  ;
N1337 G1X11.01Y1690.32  ;
N1338 G1X6Y1702.11  ;
N1339 G2X6.98Y1709.27I6.5J2.75  ;
N1340 G1X61.2Y1777.19  ;
N1341 G1X91.29Y1777.19  ;
N1342 G1X91.29Y1757.13  ;
N1343 G3X96.23Y1752.19I4.94J0  ;
N1344 G1X106.29Y1752.19  ;
N1345 G1X106.29Y1657.07  ;
N1346 G1X86.23Y1657.07  ;
N1347 G3X81.29Y1652.13I0J-4.94  ;
N1348 G1X81.29Y1632.07  ;
N1349 G1X66.29Y1632.07  ;
N1350 G1X66.29Y1631.07  ;
N1351 G1X63.74Y1631.07  ;
N1352 G65 P9104 A101 B01  ;
N1353 M98 P9103  ;
(P18:ID8:W56197506)  ;
N1354 M98 P9101  ;
N1355 G0X238.16Y1916.02  ;
N1356 G65 P9102 A101 B01  ;
N1357 G1X243.1Y1916.02  ;
N1358 G1X243.1Y1928.44  ;
N1359 G1X223.16Y1928.44  ;
N1360 G2X218.1Y1933.5I0J5.06  ;
N1361 G1X218.1Y1943.44  ;
N1362 G1X123.22Y1943.44  ;
N1363 G1X123.22Y1923.5  ;
N1364 G2X118.16Y1918.44I-5.06J0  ;
N1365 G1X98.22Y1918.44  ;
N1366 G1X98.22Y1873.54  ;
N1367 G1X168.11Y1843.23  ;
N1368 G3X175.21Y1844.18I2.76J6.37  ;
N1369 G1X243.1Y1898.53  ;
N1370 G1X243.1Y1915.21  ;
N1371 G65 P9104 A101 B01  ;
N1372 G0X238.16Y2074.07  ;
N1373 G65 P9102 A101 B01  ;
N1374 G1X243.1Y2074.07  ;
N1375 G1X243.1Y2088.44  ;
N1376 G1X223.16Y2088.44  ;
N1377 G2X218.1Y2093.5I0J5.06  ;
N1378 G1X218.1Y2103.44  ;
N1379 G1X123.22Y2103.44  ;
N1380 G1X123.22Y2083.5  ;
N1381 G2X118.16Y2078.44I-5.06J0  ;
N1382 G1X98.22Y2078.44  ;
N1383 G1X98.22Y2033.54  ;
N1384 G1X168.11Y2003.23  ;
N1385 G3X175.21Y2004.18I2.76J6.37  ;
N1386 G1X243.1Y2058.53  ;
N1387 G1X243.1Y2073.26  ;
N1388 G65 P9104 A101 B01  ;
N1389 G0X238.16Y2210.83  ;
N1390 G65 P9102 A101 B01  ;
N1391 G1X243.1Y2210.83  ;
N1392 G1X243.1Y2224.47  ;
N1393 G1X175.21Y2278.82  ;
N1394 G3X168.11Y2279.77I-4.34J-5.42  ;
N1395 G1X98.22Y2249.46  ;
N1396 G1X98.22Y2204.56  ;
N1397 G1X118.16Y2204.56  ;
N1398 G2X123.22Y2199.5I0J-5.06  ;
N1399 G1X123.22Y2179.56  ;
N1400 G1X218.1Y2179.56  ;
N1401 G1X218.1Y2189.5  ;
N1402 G2X223.16Y2194.56I5.06J0  ;
N1403 G1X243.1Y2194.56  ;
N1404 G1X243.1Y2210.02  ;
N1405 G65 P9104 A101 B01  ;
N1406 G0X238.16Y2370.4  ;
N1407 G65 P9102 A101 B01  ;
N1408 G1X243.1Y2370.4  ;
N1409 G1X243.1Y2354.56  ;
N1410 G1X223.16Y2354.56  ;
N1411 G3X218.1Y2349.5I0J-5.06  ;
N1412 G1X218.1Y2339.56  ;
N1413 G1X123.22Y2339.56  ;
N1414 G1X123.22Y2359.5  ;
N1415 G3X118.16Y2364.56I-5.06J0  ;
N1416 G1X98.22Y2364.56  ;
N1417 G1X98.22Y2409.46  ;
N1418 G1X168.11Y2439.77  ;
N1419 G2X175.21Y2438.82I2.76J-6.37  ;
N1420 G1X243.1Y2384.47  ;
N1421 G1X243.1Y2371.21  ;
N1422 G65 P9104 A101 B01  ;
N1423 G0X939.41Y1892.56  ;
N1424 G65 P9102 A101 B01  ;
N1425 G1X943.35Y1892.56  ;
N1426 G3X943.35Y1892.5I-60.19J-0.06  ;
N1427 G65 P9104 A101 B01  ;
N1428 G0X1151.16Y1898.05  ;
N1429 G65 P9102 A101 B01  ;
N1430 G1X1156.1Y1898.05  ;
N1431 G1X1156.1Y1918.44  ;
N1432 G1X1136.16Y1918.44  ;
N1433 G2X1131.1Y1923.5I0J5.06  ;
N1434 G1X1131.1Y1943.44  ;
N1435 G1X1036.22Y1943.44  ;
N1436 G1X1036.22Y1933.5  ;
N1437 G2X1031.16Y1928.44I-5.06J0  ;
N1438 G1X1011.22Y1928.44  ;
N1439 G1X1011.22Y1898.53  ;
N1440 G1X1079.1Y1844.18  ;
N1441 G3X1086.2Y1843.23I4.34J5.42  ;
N1442 G1X1156.1Y1873.54  ;
N1443 G1X1156.1Y1897.24  ;
N1444 G65 P9104 A101 B01  ;
N1445 G0X1151.16Y2059.02  ;
N1446 G65 P9102 A101 B01  ;
N1447 G1X1156.1Y2059.02  ;
N1448 G1X1156.1Y2078.44  ;
N1449 G1X1136.16Y2078.44  ;
N1450 G2X1131.1Y2083.5I0J5.06  ;
N1451 G1X1131.1Y2103.44  ;
N1452 G1X1036.22Y2103.44  ;
N1453 G1X1036.22Y2093.5  ;
N1454 G2X1031.16Y2088.44I-5.06J0  ;
N1455 G1X1011.22Y2088.44  ;
N1456 G1X1011.22Y2058.53  ;
N1457 G1X1079.1Y2004.18  ;
N1458 G3X1086.2Y2003.23I4.34J5.42  ;
N1459 G1X1156.1Y2033.54  ;
N1460 G1X1156.1Y2058.21  ;
N1461 G65 P9104 A101 B01  ;
N1462 G0X1151.16Y2224.47  ;
N1463 G65 P9102 A101 B01  ;
N1464 G1X1156.1Y2224.47  ;
N1465 G1X1156.1Y2204.56  ;
N1466 G1X1136.16Y2204.56  ;
N1467 G3X1131.1Y2199.5I0J-5.06  ;
N1468 G1X1131.1Y2179.56  ;
N1469 G1X1036.22Y2179.56  ;
N1470 G1X1036.22Y2189.5  ;
N1471 G3X1031.16Y2194.56I-5.06J0  ;
N1472 G1X1011.22Y2194.56  ;
N1473 G1X1011.22Y2224.47  ;
N1474 G1X1079.1Y2278.82  ;
N1475 G2X1086.2Y2279.77I4.34J-5.42  ;
N1476 G1X1156.1Y2249.46  ;
N1477 G1X1156.1Y2225.28  ;
N1478 G65 P9104 A101 B01  ;
N1479 G0X1151.16Y2387.97  ;
N1480 G65 P9102 A101 B01  ;
N1481 G1X1156.1Y2387.97  ;
N1482 G1X1156.1Y2364.56  ;
N1483 G1X1136.16Y2364.56  ;
N1484 G3X1131.1Y2359.5I0J-5.06  ;
N1485 G1X1131.1Y2339.56  ;
N1486 G1X1036.22Y2339.56  ;
N1487 G1X1036.22Y2349.5  ;
N1488 G3X1031.16Y2354.56I-5.06J0  ;
N1489 G1X1011.22Y2354.56  ;
N1490 G1X1011.22Y2384.47  ;
N1491 G1X1079.1Y2438.82  ;
N1492 G2X1086.2Y2439.77I4.34J-5.42  ;
N1493 G1X1156.1Y2409.46  ;
N1494 G1X1156.1Y2388.78  ;
N1495 G65 P9104 A101 B01  ;
N1496 G0X11.44Y1784.5  ;
N1497 G65 P9102 A101 B01  ;
N1498 G1X11.44Y1788.5  ;
N1499 G1X11.44Y2494.56  ;
N1500 G1X270.22Y2494.56  ;
N1501 G1X270.22Y2490.14  ;
N1502 G1X271.63Y2491.56  ;
N1503 G1X982.68Y2491.56  ;
N1504 G1X984.1Y2490.14  ;
N1505 G1X984.1Y2494.56  ;
N1506 G1X1242.87Y2494.56  ;
N1507 G1X1242.87Y1788.44  ;
N1508 G1X984.1Y1788.44  ;
N1509 G1X984.1Y1792.86  ;
N1510 G1X982.68Y1791.44  ;
N1511 G1X271.63Y1791.44  ;
N1512 G1X270.22Y1792.86  ;
N1513 G1X270.22Y1788.44  ;
N1514 G1X11.5Y1788.44  ;
N1515 M98 P9104  ;
N1516 M98 P9103  ;
(FOOTER)
N1517 M98 P9110  ;
N1518 M30  ;
%
