O0099  ;
( MACHINE : TCI Laser )  ;
( MATERIAL : Acero al carbono N2 )  ;
( THICKNESS : 3 )  ;
( REPETITIONS : 1 )  ;
( SIMULATION TIME : 00:18:14 )  ;
( FORMAT : 1000x1500 )  ;
( JOB NUMBER : VARS5630\K563372s30_B )  ;
( PROGRAM NUMBER : 9403 )  ;
( TYPE : 0 )  ;
( NUMBER OF SHEETS : 1 )  ;
( CUTTING HEADS : 1 )  ;
#516= 1  ;
#517= 1  ;
N105 G65 P9100 A103 B02  ;
(P1:ID1:W56197520)  ;
N106 M98 P9101  ;
N107 G0X43.21Y24.47  ;
N108 G65 P9102 A101 B02  ;
N109 G1X39.75Y26.47  ;
N110 G2X39.66Y26.8I0.12J0.2  ;
N111 G1X41.27Y29.59  ;
N112 G1X47.73Y29.59  ;
N113 G1X50.95Y24  ;
N114 G1X47.73Y18.41  ;
N115 G1X41.27Y18.41  ;
N116 G1X38.05Y24  ;
N117 G1X39.66Y26.8  ;
N118 G65 P9104 A101 B02  ;
N119 G0X73.21Y24.47  ;
N120 G65 P9102 A101 B02  ;
N121 G1X69.75Y26.47  ;
N122 G2X69.66Y26.8I0.12J0.2  ;
N123 G1X71.27Y29.59  ;
N124 G1X77.73Y29.59  ;
N125 G1X80.95Y24  ;
N126 G1X77.73Y18.41  ;
N127 G1X71.27Y18.41  ;
N128 G1X68.05Y24  ;
N129 G1X69.66Y26.8  ;
N130 G65 P9104 A101 B01  ;
N131 G0X54.66Y192.2  ;
N132 G65 P9102 A101 B01  ;
N133 G1X54.74Y196.2  ;
N134 G3X54.5Y196.44I-0.24J0  ;
N135 G3X39.56Y181.5I0J-14.94  ;
N136 G1X39.56Y81.5  ;
N137 G3X69.44Y81.5I14.94J0  ;
N138 G1X69.44Y181.5  ;
N139 G3X54.5Y196.44I-14.94J0  ;
N140 G65 P9104 A101 B02  ;
N141 G0X43.21Y224.47  ;
N142 G65 P9102 A101 B02  ;
N143 G1X39.75Y226.47  ;
N144 G2X39.66Y226.8I0.12J0.2  ;
N145 G1X41.27Y229.59  ;
N146 G1X47.73Y229.59  ;
N147 G1X50.95Y224  ;
N148 G1X47.73Y218.41  ;
N149 G1X41.27Y218.41  ;
N150 G1X38.05Y224  ;
N151 G1X39.66Y226.8  ;
N152 G65 P9104 A101 B02  ;
N153 G0X73.21Y224.47  ;
N154 G65 P9102 A101 B02  ;
N155 G1X69.75Y226.47  ;
N156 G2X69.66Y226.8I0.12J0.2  ;
N157 G1X71.27Y229.59  ;
N158 G1X77.73Y229.59  ;
N159 G1X80.95Y224  ;
N160 G1X77.73Y218.41  ;
N161 G1X71.27Y218.41  ;
N162 G1X68.05Y224  ;
N163 G1X69.66Y226.8  ;
N164 G65 P9104 A101 B01  ;
N165 G0X123.7Y6.44  ;
N166 G65 P9102 A101 B01  ;
N167 G1X119.7Y6.44  ;
N168 G1X38.5Y6.44  ;
N169 G2X33.44Y11.5I0J5.06  ;
N170 G1X33.44Y34.5  ;
N171 G3X28.5Y39.44I-4.94J0  ;
N172 G1X12.44Y39.44  ;
N173 G1X12.44Y43.46  ;
N174 G1X15.06Y43.46  ;
N175 G3X15.44Y43.84I0.44J-0.06  ;
N176 G1X15.44Y237.16  ;
N177 G3X15.06Y237.54I0.06J0.44  ;
N178 G1X12.44Y237.54  ;
N179 G1X12.44Y241.56  ;
N180 G1X119.76Y241.56  ;
N181 G1X119.76Y6.5  ;
N182 G65 P9104 A101 B01  ;
N183 M98 P9103  ;
(P2:ID2:W56337209)  ;
N184 M98 P9101  ;
N185 G0X99.69Y327.33  ;
N186 G65 P9102 A101 B01  ;
N187 G1X103.69Y327.5  ;
N188 G2X103.94Y327.26I0.01J-0.24  ;
N189 G2X96.5Y319.82I-7.44J0  ;
N190 G1X71.5Y319.82  ;
N191 G2X71.5Y334.7I0J7.44  ;
N192 G1X96.5Y334.7  ;
N193 G2X103.94Y327.26I0J-7.44  ;
N194 G65 P9104 A101 B01  ;
N195 G0X76.57Y245.02  ;
N196 G65 P9102 A101 B01  ;
N197 G1X76.57Y249.96  ;
N198 G1X121.56Y249.96  ;
N199 G1X121.56Y520.29  ;
N200 G1X46.44Y520.29  ;
N201 G1X46.44Y249.96  ;
N202 G1X75.81Y249.96  ;
N203 G65 P9104 A101 B02  ;
N204 M98 P9103  ;
(P3:ID3:W56197522)  ;
N205 M98 P9101  ;
N206 G0X17.21Y653.99  ;
N207 G65 P9102 A101 B02  ;
N208 G1X13.75Y655.99  ;
N209 G2X13.66Y656.32I0.12J0.21  ;
N210 G1X15.27Y659.11  ;
N211 G1X21.73Y659.11  ;
N212 G1X24.95Y653.52  ;
N213 G1X21.73Y647.93  ;
N214 G1X15.27Y647.93  ;
N215 G1X12.05Y653.52  ;
N216 G1X13.66Y656.32  ;
N217 G65 P9104 A101 B02  ;
N218 G0X17.21Y753.99  ;
N219 G65 P9102 A101 B02  ;
N220 G1X13.75Y755.99  ;
N221 G2X13.66Y756.32I0.12J0.21  ;
N222 G1X15.27Y759.11  ;
N223 G1X21.73Y759.11  ;
N224 G1X24.95Y753.52  ;
N225 G1X21.73Y747.93  ;
N226 G1X15.27Y747.93  ;
N227 G1X12.05Y753.52  ;
N228 G1X13.66Y756.32  ;
N229 G65 P9104 A101 B01  ;
N230 G0X48.27Y598.52  ;
N231 G65 P9102 A101 B01  ;
N232 G1X48.27Y603.46  ;
N233 G1X16.48Y603.46  ;
N234 G1X6.44Y613.5  ;
N235 G1X6.44Y793.55  ;
N236 G1X16.48Y803.58  ;
N237 G1X56.56Y803.58  ;
N238 G1X56.56Y778.46  ;
N239 G1X47.5Y778.46  ;
N240 G3X44.56Y775.52I0J-2.94  ;
N241 G1X44.56Y631.52  ;
N242 G3X47.5Y628.58I2.94J0  ;
N243 G1X56.56Y628.58  ;
N244 G1X56.56Y603.46  ;
N245 G1X48.98Y603.46  ;
N246 G65 P9104 A101 B02  ;
N247 M98 P9103  ;
(P4:ID3:W56197522)  ;
N248 M98 P9101  ;
N249 G0X81.21Y579.19  ;
N250 G65 P9102 A101 B02  ;
N251 G1X77.75Y581.19  ;
N252 G2X77.66Y581.52I0.12J0.21  ;
N253 G1X79.27Y584.31  ;
N254 G1X85.73Y584.31  ;
N255 G1X88.95Y578.72  ;
N256 G1X85.73Y573.13  ;
N257 G1X79.27Y573.13  ;
N258 G1X76.05Y578.72  ;
N259 G1X77.66Y581.52  ;
N260 G65 P9104 A101 B02  ;
N261 G0X81.21Y679.19  ;
N262 G65 P9102 A101 B02  ;
N263 G1X77.75Y681.19  ;
N264 G2X77.66Y681.52I0.12J0.21  ;
N265 G1X79.27Y684.31  ;
N266 G1X85.73Y684.31  ;
N267 G1X88.95Y678.72  ;
N268 G1X85.73Y673.13  ;
N269 G1X79.27Y673.13  ;
N270 G1X76.05Y678.72  ;
N271 G1X77.66Y681.52  ;
N272 G65 P9104 A101 B01  ;
N273 G0X112.27Y523.72  ;
N274 G65 P9102 A101 B01  ;
N275 G1X112.27Y528.66  ;
N276 G1X80.48Y528.66  ;
N277 G1X70.44Y538.7  ;
N278 G1X70.44Y718.75  ;
N279 G1X80.48Y728.78  ;
N280 G1X120.56Y728.78  ;
N281 G1X120.56Y703.66  ;
N282 G1X111.5Y703.66  ;
N283 G3X108.56Y700.72I0J-2.94  ;
N284 G1X108.56Y556.72  ;
N285 G3X111.5Y553.78I2.94J0  ;
N286 G1X120.56Y553.78  ;
N287 G1X120.56Y528.66  ;
N288 G1X112.98Y528.66  ;
N289 G65 P9104 A102 B04  ;
N290 M98 P9103  ;
(P5:ID4:W56197510)  ;
N291 M98 P9101  ;
N292 G0X914.51Y811.5  ;
N293 G65 P9102 A102 B04  ;
N294 G1X910.75Y805  ;
N295 G1X903.25Y805  ;
N296 G1X899.49Y811.5  ;
N297 G1X903.25Y818  ;
N298 G1X910.75Y818  ;
N299 G1X914.51Y811.5  ;
N300 G65 P9104 A102 B04  ;
N301 G0X910.75Y915  ;
N302 G65 P9102 A102 B04  ;
N303 G1X903.25Y915  ;
N304 G1X899.49Y921.5  ;
N305 G1X903.25Y928  ;
N306 G1X910.75Y928  ;
N307 G1X914.51Y921.5  ;
N308 G1X910.75Y915  ;
N309 G65 P9104 A101 B02  ;
N310 G0X906.78Y921.63  ;
N311 G65 P9102 A101 B02  ;
N312 G1X903.29Y925.13  ;
N313 G3X903.33Y925.17I3.71J-3.63  ;
N314 G65 P9104 A101 B01  ;
N315 G0X906.94Y882.5  ;
N316 G65 P9102 A101 B01  ;
N317 G1X906.94Y886.44  ;
N318 G3X907Y886.44I0.06J-19.94  ;
N319 G65 P9104 A101 B02  ;
N320 G0X906.78Y811.63  ;
N321 G65 P9102 A101 B02  ;
N322 G1X903.29Y815.13  ;
N323 G3X903.33Y815.17I3.71J-3.63  ;
N324 G65 P9104 A101 B01  ;
N325 G0X995.7Y791.44  ;
N326 G65 P9102 A101 B01  ;
N327 G1X991.7Y791.44  ;
N328 G1X976.76Y791.44  ;
N329 G1X976.76Y788.44  ;
N330 G1X966.64Y788.44  ;
N331 G1X966.64Y791.44  ;
N332 G1X961.64Y791.44  ;
N333 G1X961.64Y794.5  ;
N334 G3X959.7Y796.44I-1.94J0  ;
N335 G1X939.5Y796.44  ;
N336 G3X937.56Y794.5I0J-1.94  ;
N337 G1X937.56Y791.44  ;
N338 G1X900.56Y791.44  ;
N339 G1X900.56Y788.44  ;
N340 G1X890.44Y788.44  ;
N341 G1X890.44Y791.44  ;
N342 G1X852.48Y791.44  ;
N343 G1X842.44Y801.48  ;
N344 G1X842.44Y931.52  ;
N345 G1X852.48Y941.56  ;
N346 G1X890.44Y941.56  ;
N347 G1X890.44Y944.56  ;
N348 G1X900.56Y944.56  ;
N349 G1X900.56Y941.56  ;
N350 G1X937.56Y941.56  ;
N351 G1X937.56Y938.5  ;
N352 G3X939.5Y936.56I1.94J0  ;
N353 G1X959.7Y936.56  ;
N354 G3X961.64Y938.5I0J1.94  ;
N355 G1X961.64Y941.56  ;
N356 G1X966.64Y941.56  ;
N357 G1X966.64Y944.56  ;
N358 G1X976.76Y944.56  ;
N359 G1X976.76Y941.56  ;
N360 G1X991.76Y941.56  ;
N361 G1X991.76Y791.5  ;
N362 G65 P9104 A102 B04  ;
N363 M98 P9103  ;
(P6:ID5:W56244401)  ;
N364 M98 P9101  ;
N365 G0X150.43Y379.5  ;
N366 G65 P9102 A102 B04  ;
N367 G1X146.96Y373.5  ;
N368 G1X140.04Y373.5  ;
N369 G1X136.57Y379.5  ;
N370 G1X140.04Y385.5  ;
N371 G1X146.96Y385.5  ;
N372 G1X150.43Y379.5  ;
N373 G65 P9104 A102 B04  ;
N374 G0X146.96Y473.5  ;
N375 G65 P9102 A102 B04  ;
N376 G1X140.04Y473.5  ;
N377 G1X136.57Y479.5  ;
N378 G1X140.04Y485.5  ;
N379 G1X146.96Y485.5  ;
N380 G1X150.43Y479.5  ;
N381 G1X146.96Y473.5  ;
N382 G65 P9104 A102 B04  ;
N383 G0X146.96Y548.5  ;
N384 G65 P9102 A102 B04  ;
N385 G1X140.04Y548.5  ;
N386 G1X136.57Y554.5  ;
N387 G1X140.04Y560.5  ;
N388 G1X146.96Y560.5  ;
N389 G1X150.43Y554.5  ;
N390 G1X146.96Y548.5  ;
N391 G65 P9104 A101 B02  ;
N392 G0X143.28Y554.63  ;
N393 G65 P9102 A101 B02  ;
N394 G1X139.79Y558.13  ;
N395 G3X139.83Y558.17I3.71J-3.63  ;
N396 G65 P9104 A101 B02  ;
N397 G0X186.77Y590.97  ;
N398 G65 P9102 A101 B02  ;
N399 G1X183.3Y592.97  ;
N400 G2X183.22Y593.3I0.12J0.2  ;
N401 G1X184.83Y596.09  ;
N402 G1X191.28Y596.09  ;
N403 G1X194.51Y590.5  ;
N404 G1X191.28Y584.91  ;
N405 G1X184.83Y584.91  ;
N406 G1X181.6Y590.5  ;
N407 G1X183.22Y593.3  ;
N408 G65 P9104 A101 B02  ;
N409 G0X143.28Y479.63  ;
N410 G65 P9102 A101 B02  ;
N411 G1X139.79Y483.13  ;
N412 G3X139.83Y483.17I3.71J-3.63  ;
N413 G65 P9104 A101 B02  ;
N414 G0X143.28Y379.63  ;
N415 G65 P9102 A101 B02  ;
N416 G1X139.79Y383.13  ;
N417 G3X139.83Y383.17I3.71J-3.63  ;
N418 G65 P9104 A101 B02  ;
N419 G0X190.01Y328.46  ;
N420 G65 P9102 A101 B02  ;
N421 G1X186.52Y331.95  ;
N422 G3X186.56Y331.99I3.54J-3.45  ;
N423 G65 P9104 A101 B02  ;
N424 G0X190.01Y278.46  ;
N425 G65 P9102 A101 B02  ;
N426 G1X186.52Y281.95  ;
N427 G3X186.56Y281.99I3.54J-3.45  ;
N428 G65 P9104 A101 B02  ;
N429 G0X186.77Y99.97  ;
N430 G65 P9102 A101 B02  ;
N431 G1X183.3Y101.97  ;
N432 G2X183.22Y102.3I0.12J0.2  ;
N433 G1X184.83Y105.09  ;
N434 G1X191.28Y105.09  ;
N435 G1X194.51Y99.5  ;
N436 G1X191.28Y93.91  ;
N437 G1X184.83Y93.91  ;
N438 G1X181.6Y99.5  ;
N439 G1X183.22Y102.3  ;
N440 G65 P9104 A101 B01  ;
N441 G0X992.39Y72.5  ;
N442 G65 P9102 A101 B01  ;
N443 G1X992.39Y76.5  ;
N444 G1X992.39Y77.94  ;
N445 G1X993.39Y77.94  ;
N446 G1X993.39Y779.06  ;
N447 G1X992.39Y779.06  ;
N448 G1X992.39Y780.56  ;
N449 G1X990.89Y780.56  ;
N450 G1X990.89Y781.56  ;
N451 G1X735.01Y781.56  ;
N452 G1X735.01Y778.56  ;
N453 G1X362.81Y778.56  ;
N454 G2X356.87Y784.5I0J5.94  ;
N455 G1X356.87Y844.5  ;
N456 G3X350.81Y850.56I-6.06J0  ;
N457 G1X217.31Y850.56  ;
N458 G3X211.25Y844.5I0J-6.06  ;
N459 G1X211.25Y804.44  ;
N460 G1X214.25Y804.44  ;
N461 G1X214.25Y803.56  ;
N462 G1X204.15Y803.56  ;
N463 G1X204.15Y803.06  ;
N464 G1X174.27Y803.06  ;
N465 G1X174.27Y803.56  ;
N466 G1X128.44Y803.56  ;
N467 G1X128.44Y53.44  ;
N468 G1X174.27Y53.44  ;
N469 G1X174.27Y53.94  ;
N470 G1X204.15Y53.94  ;
N471 G1X204.15Y53.44  ;
N472 G1X214.25Y53.44  ;
N473 G1X214.25Y52.56  ;
N474 G1X211.25Y52.56  ;
N475 G1X211.25Y12.5  ;
N476 G3X217.31Y6.44I6.06J0  ;
N477 G1X350.81Y6.44  ;
N478 G3X356.87Y12.5I0J6.06  ;
N479 G1X356.87Y78.44  ;
N480 G1X735.01Y78.44  ;
N481 G1X735.01Y75.44  ;
N482 G1X990.89Y75.44  ;
N483 G1X990.89Y76.44  ;
N484 G1X992.33Y76.44  ;
N485 G65 P9104 A102 B04  ;
N486 M98 P9103  ;
(P7:ID4:W56197510)  ;
N487 M98 P9101  ;
N488 G0X756.51Y811.5  ;
N489 G65 P9102 A102 B04  ;
N490 G1X752.75Y805  ;
N491 G1X745.25Y805  ;
N492 G1X741.49Y811.5  ;
N493 G1X745.25Y818  ;
N494 G1X752.75Y818  ;
N495 G1X756.51Y811.5  ;
N496 G65 P9104 A102 B04  ;
N497 G0X752.75Y915  ;
N498 G65 P9102 A102 B04  ;
N499 G1X745.25Y915  ;
N500 G1X741.49Y921.5  ;
N501 G1X745.25Y928  ;
N502 G1X752.75Y928  ;
N503 G1X756.51Y921.5  ;
N504 G1X752.75Y915  ;
N505 G65 P9104 A101 B02  ;
N506 G0X748.78Y921.63  ;
N507 G65 P9102 A101 B02  ;
N508 G1X745.29Y925.13  ;
N509 G3X745.33Y925.17I3.71J-3.63  ;
N510 G65 P9104 A101 B01  ;
N511 G0X748.94Y882.5  ;
N512 G65 P9102 A101 B01  ;
N513 G1X748.94Y886.44  ;
N514 G3X749Y886.44I0.06J-19.94  ;
N515 G65 P9104 A101 B02  ;
N516 G0X748.78Y811.63  ;
N517 G65 P9102 A101 B02  ;
N518 G1X745.29Y815.13  ;
N519 G3X745.33Y815.17I3.71J-3.63  ;
N520 G65 P9104 A101 B01  ;
N521 G0X837.7Y791.44  ;
N522 G65 P9102 A101 B01  ;
N523 G1X833.7Y791.44  ;
N524 G1X818.76Y791.44  ;
N525 G1X818.76Y788.44  ;
N526 G1X808.64Y788.44  ;
N527 G1X808.64Y791.44  ;
N528 G1X803.64Y791.44  ;
N529 G1X803.64Y794.5  ;
N530 G3X801.7Y796.44I-1.94J0  ;
N531 G1X781.5Y796.44  ;
N532 G3X779.56Y794.5I0J-1.94  ;
N533 G1X779.56Y791.44  ;
N534 G1X742.56Y791.44  ;
N535 G1X742.56Y788.44  ;
N536 G1X732.44Y788.44  ;
N537 G1X732.44Y791.44  ;
N538 G1X694.48Y791.44  ;
N539 G1X684.44Y801.48  ;
N540 G1X684.44Y931.52  ;
N541 G1X694.48Y941.56  ;
N542 G1X732.44Y941.56  ;
N543 G1X732.44Y944.56  ;
N544 G1X742.56Y944.56  ;
N545 G1X742.56Y941.56  ;
N546 G1X779.56Y941.56  ;
N547 G1X779.56Y938.5  ;
N548 G3X781.5Y936.56I1.94J0  ;
N549 G1X801.7Y936.56  ;
N550 G3X803.64Y938.5I0J1.94  ;
N551 G1X803.64Y941.56  ;
N552 G1X808.64Y941.56  ;
N553 G1X808.64Y944.56  ;
N554 G1X818.76Y944.56  ;
N555 G1X818.76Y941.56  ;
N556 G1X833.76Y941.56  ;
N557 G1X833.76Y791.5  ;
N558 G65 P9104 A102 B04  ;
N559 M98 P9103  ;
(P8:ID4:W56197510)  ;
N560 M98 P9101  ;
N561 G0X598.51Y808.5  ;
N562 G65 P9102 A102 B04  ;
N563 G1X594.75Y802  ;
N564 G1X587.25Y802  ;
N565 G1X583.49Y808.5  ;
N566 G1X587.25Y815  ;
N567 G1X594.75Y815  ;
N568 G1X598.51Y808.5  ;
N569 G65 P9104 A102 B04  ;
N570 G0X594.75Y912  ;
N571 G65 P9102 A102 B04  ;
N572 G1X587.25Y912  ;
N573 G1X583.49Y918.5  ;
N574 G1X587.25Y925  ;
N575 G1X594.75Y925  ;
N576 G1X598.51Y918.5  ;
N577 G1X594.75Y912  ;
N578 G65 P9104 A101 B02  ;
N579 G0X590.78Y918.63  ;
N580 G65 P9102 A101 B02  ;
N581 G1X587.29Y922.13  ;
N582 G3X587.33Y922.17I3.71J-3.63  ;
N583 G65 P9104 A101 B01  ;
N584 G0X590.94Y879.5  ;
N585 G65 P9102 A101 B01  ;
N586 G1X590.94Y883.44  ;
N587 G3X591Y883.44I0.06J-19.94  ;
N588 G65 P9104 A101 B02  ;
N589 G0X590.78Y808.63  ;
N590 G65 P9102 A101 B02  ;
N591 G1X587.29Y812.13  ;
N592 G3X587.33Y812.17I3.71J-3.63  ;
N593 G65 P9104 A101 B01  ;
N594 G0X679.7Y788.44  ;
N595 G65 P9102 A101 B01  ;
N596 G1X675.7Y788.44  ;
N597 G1X660.76Y788.44  ;
N598 G1X660.76Y785.44  ;
N599 G1X650.64Y785.44  ;
N600 G1X650.64Y788.44  ;
N601 G1X645.64Y788.44  ;
N602 G1X645.64Y791.5  ;
N603 G3X643.7Y793.44I-1.94J0  ;
N604 G1X623.5Y793.44  ;
N605 G3X621.56Y791.5I0J-1.94  ;
N606 G1X621.56Y788.44  ;
N607 G1X584.56Y788.44  ;
N608 G1X584.56Y785.44  ;
N609 G1X574.44Y785.44  ;
N610 G1X574.44Y788.44  ;
N611 G1X536.48Y788.44  ;
N612 G1X526.44Y798.48  ;
N613 G1X526.44Y928.52  ;
N614 G1X536.48Y938.56  ;
N615 G1X574.44Y938.56  ;
N616 G1X574.44Y941.56  ;
N617 G1X584.56Y941.56  ;
N618 G1X584.56Y938.56  ;
N619 G1X621.56Y938.56  ;
N620 G1X621.56Y935.5  ;
N621 G3X623.5Y933.56I1.94J0  ;
N622 G1X643.7Y933.56  ;
N623 G3X645.64Y935.5I0J1.94  ;
N624 G1X645.64Y938.56  ;
N625 G1X650.64Y938.56  ;
N626 G1X650.64Y941.56  ;
N627 G1X660.76Y941.56  ;
N628 G1X660.76Y938.56  ;
N629 G1X675.76Y938.56  ;
N630 G1X675.76Y788.5  ;
N631 G65 P9104 A102 B04  ;
N632 M98 P9103  ;
(P9:ID4:W56197510)  ;
N633 M98 P9101  ;
N634 G0X440.51Y808.5  ;
N635 G65 P9102 A102 B04  ;
N636 G1X436.75Y802  ;
N637 G1X429.25Y802  ;
N638 G1X425.49Y808.5  ;
N639 G1X429.25Y815  ;
N640 G1X436.75Y815  ;
N641 G1X440.51Y808.5  ;
N642 G65 P9104 A102 B04  ;
N643 G0X436.75Y912  ;
N644 G65 P9102 A102 B04  ;
N645 G1X429.25Y912  ;
N646 G1X425.49Y918.5  ;
N647 G1X429.25Y925  ;
N648 G1X436.75Y925  ;
N649 G1X440.51Y918.5  ;
N650 G1X436.75Y912  ;
N651 G65 P9104 A101 B02  ;
N652 G0X432.78Y918.63  ;
N653 G65 P9102 A101 B02  ;
N654 G1X429.29Y922.13  ;
N655 G3X429.33Y922.17I3.71J-3.63  ;
N656 G65 P9104 A101 B01  ;
N657 G0X432.94Y879.5  ;
N658 G65 P9102 A101 B01  ;
N659 G1X432.94Y883.44  ;
N660 G3X433Y883.44I0.06J-19.94  ;
N661 G65 P9104 A101 B02  ;
N662 G0X432.78Y808.63  ;
N663 G65 P9102 A101 B02  ;
N664 G1X429.29Y812.13  ;
N665 G3X429.33Y812.17I3.71J-3.63  ;
N666 G65 P9104 A101 B01  ;
N667 G0X521.7Y788.44  ;
N668 G65 P9102 A101 B01  ;
N669 G1X517.7Y788.44  ;
N670 G1X502.76Y788.44  ;
N671 G1X502.76Y785.44  ;
N672 G1X492.64Y785.44  ;
N673 G1X492.64Y788.44  ;
N674 G1X487.64Y788.44  ;
N675 G1X487.64Y791.5  ;
N676 G3X485.7Y793.44I-1.94J0  ;
N677 G1X465.5Y793.44  ;
N678 G3X463.56Y791.5I0J-1.94  ;
N679 G1X463.56Y788.44  ;
N680 G1X426.56Y788.44  ;
N681 G1X426.56Y785.44  ;
N682 G1X416.44Y785.44  ;
N683 G1X416.44Y788.44  ;
N684 G1X378.48Y788.44  ;
N685 G1X368.44Y798.48  ;
N686 G1X368.44Y928.52  ;
N687 G1X378.48Y938.56  ;
N688 G1X416.44Y938.56  ;
N689 G1X416.44Y941.56  ;
N690 G1X426.56Y941.56  ;
N691 G1X426.56Y938.56  ;
N692 G1X463.56Y938.56  ;
N693 G1X463.56Y935.5  ;
N694 G3X465.5Y933.56I1.94J0  ;
N695 G1X485.7Y933.56  ;
N696 G3X487.64Y935.5I0J1.94  ;
N697 G1X487.64Y938.56  ;
N698 G1X492.64Y938.56  ;
N699 G1X492.64Y941.56  ;
N700 G1X502.76Y941.56  ;
N701 G1X502.76Y938.56  ;
N702 G1X517.76Y938.56  ;
N703 G1X517.76Y788.5  ;
N704 G65 P9104 A102 B04  ;
N705 M98 P9103  ;
(P10:ID6:W56197519)  ;
N706 M98 P9101  ;
N707 G0X125.9Y939.89  ;
N708 G65 P9102 A102 B04  ;
N709 G1X125.9Y931.11  ;
N710 G1X133.5Y926.72  ;
N711 G1X141.1Y931.11  ;
N712 G1X141.1Y939.89  ;
N713 G1X133.5Y944.28  ;
N714 G1X125.9Y939.89  ;
N715 G65 P9104 A102 B04  ;
N716 G0X117Y839.28  ;
N717 G65 P9102 A102 B04  ;
N718 G1X109.4Y834.89  ;
N719 G1X109.4Y826.11  ;
N720 G1X117Y821.72  ;
N721 G1X124.6Y826.11  ;
N722 G1X124.6Y834.89  ;
N723 G1X117Y839.28  ;
N724 G65 P9104 A101 B02  ;
N725 G0X117.93Y829.66  ;
N726 G65 P9102 A101 B02  ;
N727 G1X121.42Y826.17  ;
N728 G3X121.38Y826.12I-4.42J4.33  ;
N729 G65 P9104 A101 B01  ;
N730 G0X129.2Y890.32  ;
N731 G65 P9102 A101 B01  ;
N732 G1X133.2Y890.26  ;
N733 G3X133.44Y890.5I0J0.24  ;
N734 G3X113.5Y910.44I-19.94J0  ;
N735 G1X53.5Y910.44  ;
N736 G3X53.5Y870.56I0J-19.94  ;
N737 G1X113.5Y870.56  ;
N738 G3X133.44Y890.5I0J19.94  ;
N739 G65 P9104 A101 B02  ;
N740 G0X134.43Y934.66  ;
N741 G65 P9102 A101 B02  ;
N742 G1X137.92Y931.17  ;
N743 G3X137.88Y931.12I-4.42J4.33  ;
N744 G65 P9104 A101 B01  ;
N745 G0X3Y970.56  ;
N746 G65 P9102 A101 B01  ;
N747 G1X7Y970.56  ;
N748 G1X156.56Y970.56  ;
N749 G1X156.56Y810.44  ;
N750 G1X6.94Y810.44  ;
N751 G1X6.94Y815.31  ;
N752 G1X9.94Y815.31  ;
N753 G1X9.94Y965.69  ;
N754 G1X6.94Y965.69  ;
N755 G1X6.94Y970.5  ;
N756 G65 P9104 A102 B04  ;
N757 M98 P9103  ;
(P11:ID6:W56197519)  ;
N758 M98 P9101  ;
N759 G0X282.9Y986.89  ;
N760 G65 P9102 A102 B04  ;
N761 G1X282.9Y978.11  ;
N762 G1X290.5Y973.72  ;
N763 G1X298.1Y978.11  ;
N764 G1X298.1Y986.89  ;
N765 G1X290.5Y991.28  ;
N766 G1X282.9Y986.89  ;
N767 G65 P9104 A102 B04  ;
N768 G0X274Y886.28  ;
N769 G65 P9102 A102 B04  ;
N770 G1X266.4Y881.89  ;
N771 G1X266.4Y873.11  ;
N772 G1X274Y868.72  ;
N773 G1X281.6Y873.11  ;
N774 G1X281.6Y881.89  ;
N775 G1X274Y886.28  ;
N776 G65 P9104 A101 B02  ;
N777 G0X274.93Y876.66  ;
N778 G65 P9102 A101 B02  ;
N779 G1X278.42Y873.17  ;
N780 G3X278.38Y873.12I-4.42J4.33  ;
N781 G65 P9104 A101 B01  ;
N782 G0X286.2Y937.32  ;
N783 G65 P9102 A101 B01  ;
N784 G1X290.2Y937.26  ;
N785 G3X290.44Y937.5I0J0.24  ;
N786 G3X270.5Y957.44I-19.94J0  ;
N787 G1X210.5Y957.44  ;
N788 G3X210.5Y917.56I0J-19.94  ;
N789 G1X270.5Y917.56  ;
N790 G3X290.44Y937.5I0J19.94  ;
N791 G65 P9104 A101 B02  ;
N792 G0X291.43Y981.66  ;
N793 G65 P9102 A101 B02  ;
N794 G1X294.92Y978.17  ;
N795 G3X294.88Y978.12I-4.42J4.33  ;
N796 G65 P9104 A101 B01  ;
N797 G0X160Y1017.56  ;
N798 G65 P9102 A101 B01  ;
N799 G1X164Y1017.56  ;
N800 G1X313.56Y1017.56  ;
N801 G1X313.56Y857.44  ;
N802 G1X163.94Y857.44  ;
N803 G1X163.94Y862.31  ;
N804 G1X166.94Y862.31  ;
N805 G1X166.94Y1012.69  ;
N806 G1X163.94Y1012.69  ;
N807 G1X163.94Y1017.5  ;
N808 G65 P9104 A101 B01  ;
N809 M98 P9103  ;
(P12:ID7:W56197514)  ;
N810 M98 P9101  ;
N811 G0X947.76Y1030.73  ;
N812 G65 P9102 A101 B01  ;
N813 G1X947.76Y1034.73  ;
N814 G2X948Y1034.97I0.24J0  ;
N815 G1X953.5Y1034.97  ;
N816 G2X956.44Y1032.03I0J-2.94  ;
N817 G1X956.44Y1013.03  ;
N818 G2X953.5Y1010.09I-2.94J0  ;
N819 G1X942.5Y1010.09  ;
N820 G2X939.56Y1013.03I0J2.94  ;
N821 G1X939.56Y1032.03  ;
N822 G2X942.5Y1034.97I2.94J0  ;
N823 G1X948Y1034.97  ;
N824 G65 P9104 A101 B01  ;
N825 G0X942.49Y944.03  ;
N826 G65 P9102 A101 B01  ;
N827 G1X942.49Y948.97  ;
N828 G1X939.44Y948.97  ;
N829 G1X939.44Y951.47  ;
N830 G1X932.48Y951.47  ;
N831 G1X924.44Y959.5  ;
N832 G1X924.44Y1130.55  ;
N833 G1X932.48Y1138.59  ;
N834 G1X969.55Y1138.59  ;
N835 G1X976.81Y1099.13  ;
N836 G3X981.66Y1095.09I4.85J0.9  ;
N837 G1X989.56Y1095.09  ;
N838 G1X989.56Y1051.59  ;
N839 G1X992.06Y1051.59  ;
N840 G1X992.06Y1041.47  ;
N841 G1X989.56Y1041.47  ;
N842 G1X989.56Y994.97  ;
N843 G1X981.66Y994.97  ;
N844 G3X976.81Y990.92I0J-4.94  ;
N845 G1X969.55Y951.47  ;
N846 G1X949.56Y951.47  ;
N847 G1X949.56Y948.97  ;
N848 G1X943.3Y948.97  ;
N849 G65 P9104 A101 B01  ;
N850 M98 P9103  ;
(P13:ID7:W56197514)  ;
N851 M98 P9101  ;
N852 G0X871.76Y1031.73  ;
N853 G65 P9102 A101 B01  ;
N854 G1X871.76Y1035.73  ;
N855 G2X872Y1035.97I0.24J0  ;
N856 G1X877.5Y1035.97  ;
N857 G2X880.44Y1033.03I0J-2.94  ;
N858 G1X880.44Y1014.03  ;
N859 G2X877.5Y1011.09I-2.94J0  ;
N860 G1X866.5Y1011.09  ;
N861 G2X863.56Y1014.03I0J2.94  ;
N862 G1X863.56Y1033.03  ;
N863 G2X866.5Y1035.97I2.94J0  ;
N864 G1X872Y1035.97  ;
N865 G65 P9104 A101 B01  ;
N866 G0X866.49Y945.03  ;
N867 G65 P9102 A101 B01  ;
N868 G1X866.49Y949.97  ;
N869 G1X863.44Y949.97  ;
N870 G1X863.44Y952.47  ;
N871 G1X856.48Y952.47  ;
N872 G1X848.44Y960.5  ;
N873 G1X848.44Y1131.55  ;
N874 G1X856.48Y1139.59  ;
N875 G1X893.55Y1139.59  ;
N876 G1X900.81Y1100.13  ;
N877 G3X905.66Y1096.09I4.85J0.9  ;
N878 G1X913.56Y1096.09  ;
N879 G1X913.56Y1052.59  ;
N880 G1X916.06Y1052.59  ;
N881 G1X916.06Y1042.47  ;
N882 G1X913.56Y1042.47  ;
N883 G1X913.56Y995.97  ;
N884 G1X905.66Y995.97  ;
N885 G3X900.81Y991.92I0J-4.94  ;
N886 G1X893.55Y952.47  ;
N887 G1X873.56Y952.47  ;
N888 G1X873.56Y949.97  ;
N889 G1X867.3Y949.97  ;
N890 G65 P9104 A101 B01  ;
N891 M98 P9103  ;
(P14:ID7:W56197514)  ;
N892 M98 P9101  ;
N893 G0X795.76Y1030.73  ;
N894 G65 P9102 A101 B01  ;
N895 G1X795.76Y1034.73  ;
N896 G2X796Y1034.97I0.24J0  ;
N897 G1X801.5Y1034.97  ;
N898 G2X804.44Y1032.03I0J-2.94  ;
N899 G1X804.44Y1013.03  ;
N900 G2X801.5Y1010.09I-2.94J0  ;
N901 G1X790.5Y1010.09  ;
N902 G2X787.56Y1013.03I0J2.94  ;
N903 G1X787.56Y1032.03  ;
N904 G2X790.5Y1034.97I2.94J0  ;
N905 G1X796Y1034.97  ;
N906 G65 P9104 A101 B01  ;
N907 G0X790.49Y944.03  ;
N908 G65 P9102 A101 B01  ;
N909 G1X790.49Y948.97  ;
N910 G1X787.44Y948.97  ;
N911 G1X787.44Y951.47  ;
N912 G1X780.48Y951.47  ;
N913 G1X772.44Y959.5  ;
N914 G1X772.44Y1130.55  ;
N915 G1X780.48Y1138.59  ;
N916 G1X817.55Y1138.59  ;
N917 G1X824.81Y1099.13  ;
N918 G3X829.66Y1095.09I4.85J0.9  ;
N919 G1X837.56Y1095.09  ;
N920 G1X837.56Y1051.59  ;
N921 G1X840.06Y1051.59  ;
N922 G1X840.06Y1041.47  ;
N923 G1X837.56Y1041.47  ;
N924 G1X837.56Y994.97  ;
N925 G1X829.66Y994.97  ;
N926 G3X824.81Y990.92I0J-4.94  ;
N927 G1X817.55Y951.47  ;
N928 G1X797.56Y951.47  ;
N929 G1X797.56Y948.97  ;
N930 G1X791.3Y948.97  ;
N931 G65 P9104 A101 B01  ;
N932 M98 P9103  ;
(P15:ID7:W56197514)  ;
N933 M98 P9101  ;
N934 G0X719.76Y1031.73  ;
N935 G65 P9102 A101 B01  ;
N936 G1X719.76Y1035.73  ;
N937 G2X720Y1035.97I0.24J0  ;
N938 G1X725.5Y1035.97  ;
N939 G2X728.44Y1033.03I0J-2.94  ;
N940 G1X728.44Y1014.03  ;
N941 G2X725.5Y1011.09I-2.94J0  ;
N942 G1X714.5Y1011.09  ;
N943 G2X711.56Y1014.03I0J2.94  ;
N944 G1X711.56Y1033.03  ;
N945 G2X714.5Y1035.97I2.94J0  ;
N946 G1X720Y1035.97  ;
N947 G65 P9104 A101 B01  ;
N948 G0X714.49Y945.03  ;
N949 G65 P9102 A101 B01  ;
N950 G1X714.49Y949.97  ;
N951 G1X711.44Y949.97  ;
N952 G1X711.44Y952.47  ;
N953 G1X704.48Y952.47  ;
N954 G1X696.44Y960.5  ;
N955 G1X696.44Y1131.55  ;
N956 G1X704.48Y1139.59  ;
N957 G1X741.55Y1139.59  ;
N958 G1X748.81Y1100.13  ;
N959 G3X753.66Y1096.09I4.85J0.9  ;
N960 G1X761.56Y1096.09  ;
N961 G1X761.56Y1052.59  ;
N962 G1X764.06Y1052.59  ;
N963 G1X764.06Y1042.47  ;
N964 G1X761.56Y1042.47  ;
N965 G1X761.56Y995.97  ;
N966 G1X753.66Y995.97  ;
N967 G3X748.81Y991.92I0J-4.94  ;
N968 G1X741.55Y952.47  ;
N969 G1X721.56Y952.47  ;
N970 G1X721.56Y949.97  ;
N971 G1X715.3Y949.97  ;
N972 G65 P9104 A102 B04  ;
N973 M98 P9103  ;
(P16:ID8:W56197513S)  ;
N974 M98 P9101  ;
N975 G0X623.98Y1007.03  ;
N976 G65 P9102 A102 B04  ;
N977 G1X627.74Y1013.53  ;
N978 G1X623.98Y1020.03  ;
N979 G1X616.48Y1020.03  ;
N980 G1X612.72Y1013.53  ;
N981 G1X616.48Y1007.03  ;
N982 G1X623.98Y1007.03  ;
N983 G65 P9104 A102 B04  ;
N984 G0X646.48Y1067.03  ;
N985 G65 P9102 A102 B04  ;
N986 G1X653.98Y1067.03  ;
N987 G1X657.74Y1073.53  ;
N988 G1X653.98Y1080.03  ;
N989 G1X646.48Y1080.03  ;
N990 G1X642.72Y1073.53  ;
N991 G1X646.48Y1067.03  ;
N992 G65 P9104 A101 B02  ;
N993 G0X650.01Y1073.66  ;
N994 G65 P9102 A101 B02  ;
N995 G1X646.52Y1077.16  ;
N996 G3X646.56Y1077.2I3.71J-3.63  ;
N997 G65 P9104 A101 B02  ;
N998 G0X635.25Y1045.76  ;
N999 G65 P9102 A101 B02  ;
N1000 G1X634.65Y1047.18  ;
N1001 G1X630.06Y1045.23  ;
N1002 G1X631.26Y1042.39  ;
N1003 G1X640.54Y1046.33  ;
N1004 G1X639.34Y1049.17  ;
N1005 G1X634.7Y1047.2  ;
N1006 G65 P9104 A101 B02  ;
N1007 G0X620.01Y1013.66  ;
N1008 G65 P9102 A101 B02  ;
N1009 G1X616.52Y1017.16  ;
N1010 G3X616.56Y1017.2I3.71J-3.63  ;
N1011 G65 P9104 A101 B01  ;
N1012 G0X641.93Y942.53  ;
N1013 G65 P9102 A101 B01  ;
N1014 G1X641.93Y947.47  ;
N1015 G1X640.17Y947.47  ;
N1016 G1X640.17Y948.47  ;
N1017 G1X614.73Y948.47  ;
N1018 G1X594.06Y997.16  ;
N1019 G1X596.91Y998.37  ;
N1020 G1X592.86Y1007.93  ;
N1021 G1X590.01Y1006.72  ;
N1022 G1X585Y1018.51  ;
N1023 G2X585.98Y1025.67I6.5J2.75  ;
N1024 G1X640.2Y1093.59  ;
N1025 G1X670.29Y1093.59  ;
N1026 G1X670.29Y1073.53  ;
N1027 G3X675.23Y1068.59I4.94J0  ;
N1028 G1X685.29Y1068.59  ;
N1029 G1X685.29Y973.47  ;
N1030 G1X665.23Y973.47  ;
N1031 G3X660.29Y968.53I0J-4.94  ;
N1032 G1X660.29Y948.47  ;
N1033 G1X645.29Y948.47  ;
N1034 G1X645.29Y947.47  ;
N1035 G1X642.74Y947.47  ;
N1036 G65 P9104 A102 B04  ;
N1037 M98 P9103  ;
(P17:ID8:W56197513S)  ;
N1038 M98 P9101  ;
N1039 G0X495.98Y1007.03  ;
N1040 G65 P9102 A102 B04  ;
N1041 G1X499.74Y1013.53  ;
N1042 G1X495.98Y1020.03  ;
N1043 G1X488.48Y1020.03  ;
N1044 G1X484.72Y1013.53  ;
N1045 G1X488.48Y1007.03  ;
N1046 G1X495.98Y1007.03  ;
N1047 G65 P9104 A102 B04  ;
N1048 G0X518.48Y1067.03  ;
N1049 G65 P9102 A102 B04  ;
N1050 G1X525.98Y1067.03  ;
N1051 G1X529.74Y1073.53  ;
N1052 G1X525.98Y1080.03  ;
N1053 G1X518.48Y1080.03  ;
N1054 G1X514.72Y1073.53  ;
N1055 G1X518.48Y1067.03  ;
N1056 G65 P9104 A101 B02  ;
N1057 G0X522.01Y1073.66  ;
N1058 G65 P9102 A101 B02  ;
N1059 G1X518.52Y1077.16  ;
N1060 G3X518.56Y1077.2I3.71J-3.63  ;
N1061 G65 P9104 A101 B02  ;
N1062 G0X507.25Y1045.76  ;
N1063 G65 P9102 A101 B02  ;
N1064 G1X506.65Y1047.18  ;
N1065 G1X502.06Y1045.23  ;
N1066 G1X503.26Y1042.39  ;
N1067 G1X512.54Y1046.33  ;
N1068 G1X511.34Y1049.17  ;
N1069 G1X506.7Y1047.2  ;
N1070 G65 P9104 A101 B02  ;
N1071 G0X492.01Y1013.66  ;
N1072 G65 P9102 A101 B02  ;
N1073 G1X488.52Y1017.16  ;
N1074 G3X488.56Y1017.2I3.71J-3.63  ;
N1075 G65 P9104 A101 B01  ;
N1076 G0X513.93Y942.53  ;
N1077 G65 P9102 A101 B01  ;
N1078 G1X513.93Y947.47  ;
N1079 G1X512.17Y947.47  ;
N1080 G1X512.17Y948.47  ;
N1081 G1X486.73Y948.47  ;
N1082 G1X466.06Y997.16  ;
N1083 G1X468.91Y998.37  ;
N1084 G1X464.86Y1007.93  ;
N1085 G1X462.01Y1006.72  ;
N1086 G1X457Y1018.51  ;
N1087 G2X457.98Y1025.67I6.5J2.75  ;
N1088 G1X512.2Y1093.59  ;
N1089 G1X542.29Y1093.59  ;
N1090 G1X542.29Y1073.53  ;
N1091 G3X547.23Y1068.59I4.94J0  ;
N1092 G1X557.29Y1068.59  ;
N1093 G1X557.29Y973.47  ;
N1094 G1X537.23Y973.47  ;
N1095 G3X532.29Y968.53I0J-4.94  ;
N1096 G1X532.29Y948.47  ;
N1097 G1X517.29Y948.47  ;
N1098 G1X517.29Y947.47  ;
N1099 G1X514.74Y947.47  ;
N1100 G65 P9104 A102 B04  ;
N1101 M98 P9103  ;
(P18:ID8:W56197513S)  ;
N1102 M98 P9101  ;
N1103 G0X369.98Y1006.53  ;
N1104 G65 P9102 A102 B04  ;
N1105 G1X373.74Y1013.03  ;
N1106 G1X369.98Y1019.53  ;
N1107 G1X362.48Y1019.53  ;
N1108 G1X358.72Y1013.03  ;
N1109 G1X362.48Y1006.53  ;
N1110 G1X369.98Y1006.53  ;
N1111 G65 P9104 A102 B04  ;
N1112 G0X392.48Y1066.53  ;
N1113 G65 P9102 A102 B04  ;
N1114 G1X399.98Y1066.53  ;
N1115 G1X403.74Y1073.03  ;
N1116 G1X399.98Y1079.53  ;
N1117 G1X392.48Y1079.53  ;
N1118 G1X388.72Y1073.03  ;
N1119 G1X392.48Y1066.53  ;
N1120 G65 P9104 A101 B02  ;
N1121 G0X396.01Y1073.16  ;
N1122 G65 P9102 A101 B02  ;
N1123 G1X392.52Y1076.66  ;
N1124 G3X392.56Y1076.7I3.71J-3.63  ;
N1125 G65 P9104 A101 B02  ;
N1126 G0X381.25Y1045.26  ;
N1127 G65 P9102 A101 B02  ;
N1128 G1X380.65Y1046.68  ;
N1129 G1X376.06Y1044.73  ;
N1130 G1X377.26Y1041.89  ;
N1131 G1X386.54Y1045.83  ;
N1132 G1X385.34Y1048.67  ;
N1133 G1X380.7Y1046.7  ;
N1134 G65 P9104 A101 B02  ;
N1135 G0X366.01Y1013.16  ;
N1136 G65 P9102 A101 B02  ;
N1137 G1X362.52Y1016.66  ;
N1138 G3X362.56Y1016.7I3.71J-3.63  ;
N1139 G65 P9104 A101 B01  ;
N1140 G0X387.93Y942.03  ;
N1141 G65 P9102 A101 B01  ;
N1142 G1X387.93Y946.97  ;
N1143 G1X386.17Y946.97  ;
N1144 G1X386.17Y947.97  ;
N1145 G1X360.73Y947.97  ;
N1146 G1X340.06Y996.66  ;
N1147 G1X342.91Y997.87  ;
N1148 G1X338.86Y1007.43  ;
N1149 G1X336.01Y1006.22  ;
N1150 G1X331Y1018.01  ;
N1151 G2X331.98Y1025.17I6.5J2.75  ;
N1152 G1X386.2Y1093.09  ;
N1153 G1X416.29Y1093.09  ;
N1154 G1X416.29Y1073.03  ;
N1155 G3X421.23Y1068.09I4.94J0  ;
N1156 G1X431.29Y1068.09  ;
N1157 G1X431.29Y972.97  ;
N1158 G1X411.23Y972.97  ;
N1159 G3X406.29Y968.03I0J-4.94  ;
N1160 G1X406.29Y947.97  ;
N1161 G1X391.29Y947.97  ;
N1162 G1X391.29Y946.97  ;
N1163 G1X388.74Y946.97  ;
N1164 G65 P9104 A102 B04  ;
N1165 M98 P9103  ;
(P19:ID9:W56197513)  ;
N1166 M98 P9101  ;
N1167 G0X269.74Y1044.5  ;
N1168 G65 P9102 A102 B04  ;
N1169 G1X265.98Y1038  ;
N1170 G1X258.48Y1038  ;
N1171 G1X254.72Y1044.5  ;
N1172 G1X258.48Y1051  ;
N1173 G1X265.98Y1051  ;
N1174 G1X269.74Y1044.5  ;
N1175 G65 P9104 A102 B04  ;
N1176 G0X235.98Y1098  ;
N1177 G65 P9102 A102 B04  ;
N1178 G1X228.48Y1098  ;
N1179 G1X224.72Y1104.5  ;
N1180 G1X228.48Y1111  ;
N1181 G1X235.98Y1111  ;
N1182 G1X239.74Y1104.5  ;
N1183 G1X235.98Y1098  ;
N1184 G65 P9104 A101 B02  ;
N1185 G0X232.01Y1104.63  ;
N1186 G65 P9102 A101 B02  ;
N1187 G1X228.52Y1108.13  ;
N1188 G3X228.56Y1108.17I3.71J-3.63  ;
N1189 G65 P9104 A101 B02  ;
N1190 G0X246.31Y1072.73  ;
N1191 G65 P9102 A101 B02  ;
N1192 G1X242.69Y1074.27  ;
N1193 G1X243.26Y1075.63  ;
N1194 G1X252.54Y1071.69  ;
N1195 G1X251.34Y1068.86  ;
N1196 G1X242.06Y1072.8  ;
N1197 G1X242.66Y1074.22  ;
N1198 G65 P9104 A101 B02  ;
N1199 G0X262.01Y1044.63  ;
N1200 G65 P9102 A101 B02  ;
N1201 G1X258.52Y1048.13  ;
N1202 G3X258.56Y1048.17I3.71J-3.63  ;
N1203 G65 P9104 A101 B01  ;
N1204 G0X254.13Y1175.5  ;
N1205 G65 P9102 A101 B01  ;
N1206 G1X254.13Y1170.56  ;
N1207 G1X252.17Y1170.56  ;
N1208 G1X252.17Y1169.56  ;
N1209 G1X226.73Y1169.56  ;
N1210 G1X206.06Y1120.87  ;
N1211 G1X208.91Y1119.65  ;
N1212 G1X204.86Y1110.1  ;
N1213 G1X202.01Y1111.31  ;
N1214 G1X197Y1099.52  ;
N1215 G3X197.98Y1092.36I6.5J-2.76  ;
N1216 G1X252.2Y1024.44  ;
N1217 G1X282.29Y1024.44  ;
N1218 G1X282.29Y1044.5  ;
N1219 G2X287.23Y1049.44I4.94J0  ;
N1220 G1X297.29Y1049.44  ;
N1221 G1X297.29Y1144.56  ;
N1222 G1X277.23Y1144.56  ;
N1223 G2X272.29Y1149.5I0J4.94  ;
N1224 G1X272.29Y1169.56  ;
N1225 G1X257.29Y1169.56  ;
N1226 G1X257.29Y1170.56  ;
N1227 G1X254.94Y1170.56  ;
N1228 G65 P9104 A102 B04  ;
N1229 M98 P9103  ;
(P20:ID9:W56197513)  ;
N1230 M98 P9101  ;
N1231 G0X161.74Y1044.5  ;
N1232 G65 P9102 A102 B04  ;
N1233 G1X157.98Y1038  ;
N1234 G1X150.48Y1038  ;
N1235 G1X146.72Y1044.5  ;
N1236 G1X150.48Y1051  ;
N1237 G1X157.98Y1051  ;
N1238 G1X161.74Y1044.5  ;
N1239 G65 P9104 A102 B04  ;
N1240 G0X127.98Y1098  ;
N1241 G65 P9102 A102 B04  ;
N1242 G1X120.48Y1098  ;
N1243 G1X116.72Y1104.5  ;
N1244 G1X120.48Y1111  ;
N1245 G1X127.98Y1111  ;
N1246 G1X131.74Y1104.5  ;
N1247 G1X127.98Y1098  ;
N1248 G65 P9104 A101 B02  ;
N1249 G0X124.01Y1104.63  ;
N1250 G65 P9102 A101 B02  ;
N1251 G1X120.52Y1108.13  ;
N1252 G3X120.56Y1108.17I3.71J-3.63  ;
N1253 G65 P9104 A101 B02  ;
N1254 G0X138.31Y1072.73  ;
N1255 G65 P9102 A101 B02  ;
N1256 G1X134.69Y1074.27  ;
N1257 G1X135.26Y1075.63  ;
N1258 G1X144.54Y1071.69  ;
N1259 G1X143.34Y1068.86  ;
N1260 G1X134.06Y1072.8  ;
N1261 G1X134.66Y1074.22  ;
N1262 G65 P9104 A101 B02  ;
N1263 G0X154.01Y1044.63  ;
N1264 G65 P9102 A101 B02  ;
N1265 G1X150.52Y1048.13  ;
N1266 G3X150.56Y1048.17I3.71J-3.63  ;
N1267 G65 P9104 A101 B01  ;
N1268 G0X146.13Y1175.5  ;
N1269 G65 P9102 A101 B01  ;
N1270 G1X146.13Y1170.56  ;
N1271 G1X144.17Y1170.56  ;
N1272 G1X144.17Y1169.56  ;
N1273 G1X118.73Y1169.56  ;
N1274 G1X98.06Y1120.87  ;
N1275 G1X100.91Y1119.65  ;
N1276 G1X96.86Y1110.1  ;
N1277 G1X94.01Y1111.31  ;
N1278 G1X89Y1099.52  ;
N1279 G3X89.98Y1092.36I6.5J-2.76  ;
N1280 G1X144.2Y1024.44  ;
N1281 G1X174.29Y1024.44  ;
N1282 G1X174.29Y1044.5  ;
N1283 G2X179.23Y1049.44I4.94J0  ;
N1284 G1X189.29Y1049.44  ;
N1285 G1X189.29Y1144.56  ;
N1286 G1X169.23Y1144.56  ;
N1287 G2X164.29Y1149.5I0J4.94  ;
N1288 G1X164.29Y1169.56  ;
N1289 G1X149.29Y1169.56  ;
N1290 G1X149.29Y1170.56  ;
N1291 G1X146.94Y1170.56  ;
N1292 G65 P9104 A102 B04  ;
N1293 M98 P9103  ;
(P21:ID9:W56197513)  ;
N1294 M98 P9101  ;
N1295 G0X33.99Y1105.03  ;
N1296 G65 P9102 A102 B04  ;
N1297 G1X37.75Y1111.53  ;
N1298 G1X45.25Y1111.53  ;
N1299 G1X49.01Y1105.03  ;
N1300 G1X45.25Y1098.53  ;
N1301 G1X37.75Y1098.53  ;
N1302 G1X33.99Y1105.03  ;
N1303 G65 P9104 A102 B04  ;
N1304 G0X67.75Y1051.53  ;
N1305 G65 P9102 A102 B04  ;
N1306 G1X75.25Y1051.53  ;
N1307 G1X79.01Y1045.03  ;
N1308 G1X75.25Y1038.53  ;
N1309 G1X67.75Y1038.53  ;
N1310 G1X63.99Y1045.03  ;
N1311 G1X67.75Y1051.53  ;
N1312 G65 P9104 A101 B02  ;
N1313 G0X71.72Y1044.89  ;
N1314 G65 P9102 A101 B02  ;
N1315 G1X75.21Y1041.4  ;
N1316 G3X75.17Y1041.36I-3.71J3.63  ;
N1317 G65 P9104 A101 B02  ;
N1318 G0X57.42Y1076.8  ;
N1319 G65 P9102 A101 B02  ;
N1320 G1X61.04Y1075.26  ;
N1321 G1X60.47Y1073.89  ;
N1322 G1X51.19Y1077.83  ;
N1323 G1X52.39Y1080.67  ;
N1324 G1X61.67Y1076.73  ;
N1325 G1X61.07Y1075.31  ;
N1326 G65 P9104 A101 B02  ;
N1327 G0X41.72Y1104.89  ;
N1328 G65 P9102 A101 B02  ;
N1329 G1X45.21Y1101.4  ;
N1330 G3X45.17Y1101.36I-3.71J3.63  ;
N1331 G65 P9104 A101 B01  ;
N1332 G0X49.6Y974.03  ;
N1333 G65 P9102 A101 B01  ;
N1334 G1X49.6Y978.97  ;
N1335 G1X51.56Y978.97  ;
N1336 G1X51.56Y979.97  ;
N1337 G1X77Y979.97  ;
N1338 G1X97.67Y1028.66  ;
N1339 G1X94.82Y1029.87  ;
N1340 G1X98.87Y1039.43  ;
N1341 G1X101.72Y1038.22  ;
N1342 G1X106.73Y1050.01  ;
N1343 G3X105.75Y1057.17I-6.5J2.75  ;
N1344 G1X51.53Y1125.09  ;
N1345 G1X21.44Y1125.09  ;
N1346 G1X21.44Y1105.03  ;
N1347 G2X16.5Y1100.09I-4.94J0  ;
N1348 G1X6.44Y1100.09  ;
N1349 G1X6.44Y1004.97  ;
N1350 G1X26.5Y1004.97  ;
N1351 G2X31.44Y1000.03I0J-4.94  ;
N1352 G1X31.44Y979.97  ;
N1353 G1X46.44Y979.97  ;
N1354 G1X46.44Y978.97  ;
N1355 G1X48.79Y978.97  ;
N1356 G65 P9104 A102 B04  ;
N1357 M98 P9103  ;
(P22:ID9:W56197513)  ;
N1358 M98 P9101  ;
N1359 G0X45.99Y1257.03  ;
N1360 G65 P9102 A102 B04  ;
N1361 G1X49.75Y1263.53  ;
N1362 G1X57.25Y1263.53  ;
N1363 G1X61.01Y1257.03  ;
N1364 G1X57.25Y1250.53  ;
N1365 G1X49.75Y1250.53  ;
N1366 G1X45.99Y1257.03  ;
N1367 G65 P9104 A102 B04  ;
N1368 G0X79.75Y1203.53  ;
N1369 G65 P9102 A102 B04  ;
N1370 G1X87.25Y1203.53  ;
N1371 G1X91.01Y1197.03  ;
N1372 G1X87.25Y1190.53  ;
N1373 G1X79.75Y1190.53  ;
N1374 G1X75.99Y1197.03  ;
N1375 G1X79.75Y1203.53  ;
N1376 G65 P9104 A101 B02  ;
N1377 G0X83.72Y1196.89  ;
N1378 G65 P9102 A101 B02  ;
N1379 G1X87.21Y1193.4  ;
N1380 G3X87.17Y1193.36I-3.71J3.63  ;
N1381 G65 P9104 A101 B02  ;
N1382 G0X69.42Y1228.8  ;
N1383 G65 P9102 A101 B02  ;
N1384 G1X73.04Y1227.26  ;
N1385 G1X72.47Y1225.89  ;
N1386 G1X63.19Y1229.83  ;
N1387 G1X64.39Y1232.67  ;
N1388 G1X73.67Y1228.73  ;
N1389 G1X73.07Y1227.31  ;
N1390 G65 P9104 A101 B02  ;
N1391 G0X53.72Y1256.89  ;
N1392 G65 P9102 A101 B02  ;
N1393 G1X57.21Y1253.4  ;
N1394 G3X57.17Y1253.36I-3.71J3.63  ;
N1395 G65 P9104 A101 B01  ;
N1396 G0X61.6Y1126.03  ;
N1397 G65 P9102 A101 B01  ;
N1398 G1X61.6Y1130.97  ;
N1399 G1X63.56Y1130.97  ;
N1400 G1X63.56Y1131.97  ;
N1401 G1X89Y1131.97  ;
N1402 G1X109.67Y1180.66  ;
N1403 G1X106.82Y1181.87  ;
N1404 G1X110.87Y1191.43  ;
N1405 G1X113.72Y1190.22  ;
N1406 G1X118.73Y1202.01  ;
N1407 G3X117.75Y1209.17I-6.5J2.75  ;
N1408 G1X63.53Y1277.09  ;
N1409 G1X33.44Y1277.09  ;
N1410 G1X33.44Y1257.03  ;
N1411 G2X28.5Y1252.09I-4.94J0  ;
N1412 G1X18.44Y1252.09  ;
N1413 G1X18.44Y1156.97  ;
N1414 G1X38.5Y1156.97  ;
N1415 G2X43.44Y1152.03I0J-4.94  ;
N1416 G1X43.44Y1131.97  ;
N1417 G1X58.44Y1131.97  ;
N1418 G1X58.44Y1130.97  ;
N1419 G1X60.79Y1130.97  ;
N1420 G65 P9104 A102 B04  ;
N1421 M98 P9103  ;
(P23:ID9:W56197513)  ;
N1422 M98 P9101  ;
N1423 G0X172.5Y1206.49  ;
N1424 G65 P9102 A102 B04  ;
N1425 G1X166Y1210.25  ;
N1426 G1X166Y1217.75  ;
N1427 G1X172.5Y1221.51  ;
N1428 G1X179Y1217.75  ;
N1429 G1X179Y1210.25  ;
N1430 G1X172.5Y1206.49  ;
N1431 G65 P9104 A102 B04  ;
N1432 G0X226Y1240.25  ;
N1433 G65 P9102 A102 B04  ;
N1434 G1X226Y1247.75  ;
N1435 G1X232.5Y1251.51  ;
N1436 G1X239Y1247.75  ;
N1437 G1X239Y1240.25  ;
N1438 G1X232.5Y1236.49  ;
N1439 G1X226Y1240.25  ;
N1440 G65 P9104 A101 B02  ;
N1441 G0X232.63Y1244.22  ;
N1442 G65 P9102 A101 B02  ;
N1443 G1X236.13Y1247.71  ;
N1444 G3X236.17Y1247.67I-3.63J-3.71  ;
N1445 G65 P9104 A101 B02  ;
N1446 G0X200.73Y1229.92  ;
N1447 G65 P9102 A101 B02  ;
N1448 G1X202.27Y1233.54  ;
N1449 G1X203.63Y1232.97  ;
N1450 G1X199.69Y1223.69  ;
N1451 G1X196.86Y1224.89  ;
N1452 G1X200.8Y1234.17  ;
N1453 G1X202.22Y1233.57  ;
N1454 G65 P9104 A101 B02  ;
N1455 G0X172.63Y1214.22  ;
N1456 G65 P9102 A101 B02  ;
N1457 G1X176.13Y1217.71  ;
N1458 G3X176.17Y1217.67I-3.63J-3.71  ;
N1459 G65 P9104 A101 B01  ;
N1460 G0X303.5Y1222.1  ;
N1461 G65 P9102 A101 B01  ;
N1462 G1X298.56Y1222.1  ;
N1463 G1X298.56Y1224.06  ;
N1464 G1X297.56Y1224.06  ;
N1465 G1X297.56Y1249.5  ;
N1466 G1X248.87Y1270.17  ;
N1467 G1X247.65Y1267.32  ;
N1468 G1X238.1Y1271.37  ;
N1469 G1X239.31Y1274.22  ;
N1470 G1X227.52Y1279.23  ;
N1471 G3X220.36Y1278.25I-2.76J-6.5  ;
N1472 G1X152.44Y1224.03  ;
N1473 G1X152.44Y1193.94  ;
N1474 G1X172.5Y1193.94  ;
N1475 G2X177.44Y1189I0J-4.94  ;
N1476 G1X177.44Y1178.94  ;
N1477 G1X272.56Y1178.94  ;
N1478 G1X272.56Y1199  ;
N1479 G2X277.5Y1203.94I4.94J0  ;
N1480 G1X297.56Y1203.94  ;
N1481 G1X297.56Y1218.94  ;
N1482 G1X298.56Y1218.94  ;
N1483 G1X298.56Y1221.29  ;
N1484 G65 P9104 A102 B04  ;
N1485 M98 P9103  ;
(P24:ID9:W56197513)  ;
N1486 M98 P9101  ;
N1487 G0X331.99Y1217.43  ;
N1488 G65 P9102 A102 B04  ;
N1489 G1X335.75Y1223.93  ;
N1490 G1X343.25Y1223.93  ;
N1491 G1X347.01Y1217.43  ;
N1492 G1X343.25Y1210.93  ;
N1493 G1X335.75Y1210.93  ;
N1494 G1X331.99Y1217.43  ;
N1495 G65 P9104 A102 B04  ;
N1496 G0X365.75Y1163.93  ;
N1497 G65 P9102 A102 B04  ;
N1498 G1X373.25Y1163.93  ;
N1499 G1X377.01Y1157.43  ;
N1500 G1X373.25Y1150.93  ;
N1501 G1X365.75Y1150.93  ;
N1502 G1X361.99Y1157.43  ;
N1503 G1X365.75Y1163.93  ;
N1504 G65 P9104 A101 B02  ;
N1505 G0X369.72Y1157.29  ;
N1506 G65 P9102 A101 B02  ;
N1507 G1X373.21Y1153.8  ;
N1508 G3X373.17Y1153.76I-3.71J3.63  ;
N1509 G65 P9104 A101 B02  ;
N1510 G0X355.42Y1189.2  ;
N1511 G65 P9102 A101 B02  ;
N1512 G1X359.04Y1187.66  ;
N1513 G1X358.47Y1186.29  ;
N1514 G1X349.19Y1190.23  ;
N1515 G1X350.39Y1193.07  ;
N1516 G1X359.67Y1189.13  ;
N1517 G1X359.07Y1187.71  ;
N1518 G65 P9104 A101 B02  ;
N1519 G0X339.72Y1217.29  ;
N1520 G65 P9102 A101 B02  ;
N1521 G1X343.21Y1213.8  ;
N1522 G3X343.17Y1213.76I-3.71J3.63  ;
N1523 G65 P9104 A101 B01  ;
N1524 G0X347.6Y1086.43  ;
N1525 G65 P9102 A101 B01  ;
N1526 G1X347.6Y1091.37  ;
N1527 G1X349.56Y1091.37  ;
N1528 G1X349.56Y1092.37  ;
N1529 G1X375Y1092.37  ;
N1530 G1X395.67Y1141.06  ;
N1531 G1X392.82Y1142.27  ;
N1532 G1X396.87Y1151.83  ;
N1533 G1X399.72Y1150.62  ;
N1534 G1X404.73Y1162.41  ;
N1535 G3X403.75Y1169.57I-6.5J2.75  ;
N1536 G1X349.53Y1237.49  ;
N1537 G1X319.44Y1237.49  ;
N1538 G1X319.44Y1217.43  ;
N1539 G2X314.5Y1212.49I-4.94J0  ;
N1540 G1X304.44Y1212.49  ;
N1541 G1X304.44Y1117.37  ;
N1542 G1X324.5Y1117.37  ;
N1543 G2X329.44Y1112.43I0J-4.94  ;
N1544 G1X329.44Y1092.37  ;
N1545 G1X344.44Y1092.37  ;
N1546 G1X344.44Y1091.37  ;
N1547 G1X346.79Y1091.37  ;
N1548 G65 P9104 A102 B04  ;
N1549 M98 P9103  ;
(P25:ID8:W56197513S)  ;
N1550 M98 P9101  ;
N1551 G0X485.75Y1140.3  ;
N1552 G65 P9102 A102 B04  ;
N1553 G1X481.99Y1133.8  ;
N1554 G1X485.75Y1127.3  ;
N1555 G1X493.25Y1127.3  ;
N1556 G1X497.01Y1133.8  ;
N1557 G1X493.25Y1140.3  ;
N1558 G1X485.75Y1140.3  ;
N1559 G65 P9104 A102 B04  ;
N1560 G0X463.25Y1080.3  ;
N1561 G65 P9102 A102 B04  ;
N1562 G1X455.75Y1080.3  ;
N1563 G1X451.99Y1073.8  ;
N1564 G1X455.75Y1067.3  ;
N1565 G1X463.25Y1067.3  ;
N1566 G1X467.01Y1073.8  ;
N1567 G1X463.25Y1080.3  ;
N1568 G65 P9104 A101 B02  ;
N1569 G0X459.72Y1073.67  ;
N1570 G65 P9102 A101 B02  ;
N1571 G1X463.21Y1070.17  ;
N1572 G3X463.17Y1070.13I-3.71J3.63  ;
N1573 G65 P9104 A101 B02  ;
N1574 G0X474.48Y1101.57  ;
N1575 G65 P9102 A101 B02  ;
N1576 G1X475.08Y1100.15  ;
N1577 G1X479.67Y1102.1  ;
N1578 G1X478.47Y1104.93  ;
N1579 G1X469.19Y1100.99  ;
N1580 G1X470.39Y1098.16  ;
N1581 G1X475.03Y1100.13  ;
N1582 G65 P9104 A101 B02  ;
N1583 G0X489.72Y1133.67  ;
N1584 G65 P9102 A101 B02  ;
N1585 G1X493.21Y1130.17  ;
N1586 G3X493.17Y1130.13I-3.71J3.63  ;
N1587 G65 P9104 A101 B01  ;
N1588 G0X467.8Y1204.8  ;
N1589 G65 P9102 A101 B01  ;
N1590 G1X467.8Y1199.86  ;
N1591 G1X469.56Y1199.86  ;
N1592 G1X469.56Y1198.86  ;
N1593 G1X495Y1198.86  ;
N1594 G1X515.67Y1150.17  ;
N1595 G1X512.82Y1148.95  ;
N1596 G1X516.87Y1139.4  ;
N1597 G1X519.72Y1140.61  ;
N1598 G1X524.73Y1128.82  ;
N1599 G2X523.75Y1121.66I-6.5J-2.76  ;
N1600 G1X469.53Y1053.74  ;
N1601 G1X439.44Y1053.74  ;
N1602 G1X439.44Y1073.8  ;
N1603 G3X434.5Y1078.74I-4.94J0  ;
N1604 G1X424.44Y1078.74  ;
N1605 G1X424.44Y1173.86  ;
N1606 G1X444.5Y1173.86  ;
N1607 G3X449.44Y1178.8I0J4.94  ;
N1608 G1X449.44Y1198.86  ;
N1609 G1X464.44Y1198.86  ;
N1610 G1X464.44Y1199.86  ;
N1611 G1X466.99Y1199.86  ;
N1612 G65 P9104 A102 B04  ;
N1613 M98 P9103  ;
(P26:ID8:W56197513S)  ;
N1614 M98 P9101  ;
N1615 G0X611.75Y1137.8  ;
N1616 G65 P9102 A102 B04  ;
N1617 G1X607.99Y1131.3  ;
N1618 G1X611.75Y1124.8  ;
N1619 G1X619.25Y1124.8  ;
N1620 G1X623.01Y1131.3  ;
N1621 G1X619.25Y1137.8  ;
N1622 G1X611.75Y1137.8  ;
N1623 G65 P9104 A102 B04  ;
N1624 G0X589.25Y1077.8  ;
N1625 G65 P9102 A102 B04  ;
N1626 G1X581.75Y1077.8  ;
N1627 G1X577.99Y1071.3  ;
N1628 G1X581.75Y1064.8  ;
N1629 G1X589.25Y1064.8  ;
N1630 G1X593.01Y1071.3  ;
N1631 G1X589.25Y1077.8  ;
N1632 G65 P9104 A101 B02  ;
N1633 G0X585.72Y1071.17  ;
N1634 G65 P9102 A101 B02  ;
N1635 G1X589.21Y1067.67  ;
N1636 G3X589.17Y1067.63I-3.71J3.63  ;
N1637 G65 P9104 A101 B02  ;
N1638 G0X600.48Y1099.07  ;
N1639 G65 P9102 A101 B02  ;
N1640 G1X601.08Y1097.65  ;
N1641 G1X605.67Y1099.6  ;
N1642 G1X604.47Y1102.43  ;
N1643 G1X595.19Y1098.49  ;
N1644 G1X596.39Y1095.66  ;
N1645 G1X601.03Y1097.63  ;
N1646 G65 P9104 A101 B02  ;
N1647 G0X615.72Y1131.17  ;
N1648 G65 P9102 A101 B02  ;
N1649 G1X619.21Y1127.67  ;
N1650 G3X619.17Y1127.63I-3.71J3.63  ;
N1651 G65 P9104 A101 B01  ;
N1652 G0X593.8Y1202.3  ;
N1653 G65 P9102 A101 B01  ;
N1654 G1X593.8Y1197.36  ;
N1655 G1X595.56Y1197.36  ;
N1656 G1X595.56Y1196.36  ;
N1657 G1X621Y1196.36  ;
N1658 G1X641.67Y1147.67  ;
N1659 G1X638.82Y1146.45  ;
N1660 G1X642.87Y1136.9  ;
N1661 G1X645.72Y1138.11  ;
N1662 G1X650.73Y1126.32  ;
N1663 G2X649.75Y1119.16I-6.5J-2.76  ;
N1664 G1X595.53Y1051.24  ;
N1665 G1X565.44Y1051.24  ;
N1666 G1X565.44Y1071.3  ;
N1667 G3X560.5Y1076.24I-4.94J0  ;
N1668 G1X550.44Y1076.24  ;
N1669 G1X550.44Y1171.36  ;
N1670 G1X570.5Y1171.36  ;
N1671 G3X575.44Y1176.3I0J4.94  ;
N1672 G1X575.44Y1196.36  ;
N1673 G1X590.44Y1196.36  ;
N1674 G1X590.44Y1197.36  ;
N1675 G1X592.99Y1197.36  ;
N1676 G65 P9104 A103 B01  ;
N1677 M98 P9103  ;
N1678 M98 P9101  ;
N1679 G0X500Y1294.73  ;
N1680 G65 P9102 A103 B01  ;
N1681 G1X0.02Y1294.73  ;
N1682 G65 P9104 A103 B01  ;
N1683 M98 P9103  ;
N1684 M98 P9101  ;
N1685 G0X500Y1294.73  ;
N1686 G65 P9102 A103 B01  ;
N1687 G1X999.98Y1294.73  ;
N1688 M98 P9104  ;
N1689 M98 P9103  ;
(FOOTER)
N1690 M98 P9110  ;
N1691 M30  ;
%
