O0099  ;
( MACHINE : TCI Laser )  ;
( MATERIAL : Acero al carbono N2 )  ;
( THICKNESS : 4 )  ;
( REPETITIONS : 5 )  ;
( SIMULATION TIME : 00:32:24 )  ;
( FORMAT : 1500x3000 )  ;
( JOB NUMBER : VARS5640\K564121s40 )  ;
( PROGRAM NUMBER : 12102 )  ;
( TYPE : 0 )  ;
( NUMBER OF SHEETS : 1 )  ;
( CUTTING HEADS : 1 )  ;
#516= 1  ;
#517= 1  ;
N105 G65 P9100 A103 B01  ;
(P1:ID1:W56409408)  ;
N106 M98 P9101  ;
N107 G0X408.45Y82.5  ;
N108 G65 P9102 A101 B01  ;
N109 G1X408.45Y86.45  ;
N110 G3X408.5Y86.45I0.05J-30.45  ;
N111 G65 P9104 A101 B01  ;
N112 G0X541.06Y22.49  ;
N113 G65 P9102 A101 B01  ;
N114 G1X537.56Y25.99  ;
N115 G1X544.61Y33.04  ;
N116 G3X547.55Y40.14I-7.11J7.1  ;
N117 G1X547.55Y108.05  ;
N118 G1X298.48Y108.05  ;
N119 G1X292.45Y102.02  ;
N120 G1X292.45Y60.14  ;
N121 G3X295.39Y53.04I10.05J0  ;
N122 G1X329.54Y18.89  ;
N123 G3X336.64Y15.95I7.1J7.11  ;
N124 G1X523.36Y15.95  ;
N125 G3X530.46Y18.89I0J10.05  ;
N126 G1X537.06Y25.49  ;
N127 G65 P9104 A101 B01  ;
N128 M98 P9103  ;
(P2:ID1:W56409408)  ;
N129 M98 P9101  ;
N130 G0X675.45Y82.5  ;
N131 G65 P9102 A101 B01  ;
N132 G1X675.45Y86.45  ;
N133 G3X675.5Y86.45I0.05J-30.45  ;
N134 G65 P9104 A101 B01  ;
N135 G0X808.06Y22.49  ;
N136 G65 P9102 A101 B01  ;
N137 G1X804.56Y25.99  ;
N138 G1X811.61Y33.04  ;
N139 G3X814.55Y40.14I-7.11J7.1  ;
N140 G1X814.55Y108.05  ;
N141 G1X565.48Y108.05  ;
N142 G1X559.45Y102.02  ;
N143 G1X559.45Y60.14  ;
N144 G3X562.39Y53.04I10.05J0  ;
N145 G1X596.54Y18.89  ;
N146 G3X603.64Y15.95I7.1J7.11  ;
N147 G1X790.36Y15.95  ;
N148 G3X797.46Y18.89I0J10.05  ;
N149 G1X804.06Y25.49  ;
N150 G65 P9104 A102 B04  ;
N151 M98 P9103  ;
(P3:ID2:W56378914)  ;
N152 M98 P9101  ;
N153 G0X895.27Y120.92  ;
N154 G65 P9102 A102 B04  ;
N155 G1X895.27Y128.07  ;
N156 G1X896.7Y129.49  ;
N157 G1X900.99Y129.49  ;
N158 G1X902.42Y128.07  ;
N159 G1X902.42Y120.92  ;
N160 G1X900.99Y119.49  ;
N161 G1X896.7Y119.49  ;
N162 G1X895.27Y120.92  ;
N163 G65 P9104 A102 B04  ;
N164 G0X898.85Y122.35  ;
N165 G65 P9102 A102 B04  ;
N166 G1X902.42Y119.49  ;
N167 G65 P9104 A102 B04  ;
N168 G0X903.31Y119.49  ;
N169 G65 P9102 A102 B04  ;
N170 G1X903.31Y122.35  ;
N171 G1X910.45Y122.35  ;
N172 G1X906.88Y129.49  ;
N173 G1X903.31Y122.35  ;
N174 G65 P9104 A102 B04  ;
N175 G0X910.45Y122.35  ;
N176 G65 P9102 A102 B04  ;
N177 G1X910.45Y119.49  ;
N178 G65 P9104 A102 B04  ;
N179 G0X911.35Y120.92  ;
N180 G65 P9102 A102 B04  ;
N181 G1X912.77Y119.49  ;
N182 G1X917.06Y119.49  ;
N183 G1X918.49Y120.92  ;
N184 G1X918.49Y122.35  ;
N185 G1X917.06Y123.78  ;
N186 G1X912.77Y123.78  ;
N187 G1X911.35Y125.21  ;
N188 G1X911.35Y128.07  ;
N189 G1X912.77Y129.49  ;
N190 G1X917.06Y129.49  ;
N191 G1X918.49Y128.07  ;
N192 G65 P9104 A102 B04  ;
N193 G0X927.42Y129.49  ;
N194 G65 P9102 A102 B04  ;
N195 G1X933.13Y129.49  ;
N196 G1X934.56Y128.07  ;
N197 G1X934.56Y120.92  ;
N198 G1X933.13Y119.49  ;
N199 G1X927.42Y119.49  ;
N200 G1X927.42Y129.49  ;
N201 G65 P9104 A101 B02  ;
N202 G0X888.76Y79.56  ;
N203 G65 P9102 A101 B02  ;
N204 G1X889.43Y82.49  ;
N205 G3X888.5Y83.65I-0.93J0.21  ;
N206 G3X883.05Y78.2I0J-5.45  ;
N207 G1X883.05Y69.2  ;
N208 G3X893.95Y69.2I5.45J0  ;
N209 G1X893.95Y78.2  ;
N210 G3X888.5Y83.65I-5.45J0  ;
N211 G65 P9104 A101 B02  ;
N212 G0X853.76Y79.56  ;
N213 G65 P9102 A101 B02  ;
N214 G1X854.43Y82.49  ;
N215 G3X853.5Y83.65I-0.93J0.21  ;
N216 G3X848.05Y78.2I0J-5.45  ;
N217 G1X848.05Y69.2  ;
N218 G3X858.95Y69.2I5.45J0  ;
N219 G1X858.95Y78.2  ;
N220 G3X853.5Y83.65I-5.45J0  ;
N221 G65 P9104 A101 B01  ;
N222 G0X818.5Y141.77  ;
N223 G65 P9102 A101 B01  ;
N224 G1X823.45Y141.77  ;
N225 G1X823.45Y146.7  ;
N226 G2X825.5Y148.75I2.05J0  ;
N227 G1X827.45Y148.75  ;
N228 G1X827.45Y158.72  ;
N229 G1X837.48Y168.75  ;
N230 G1X1081.52Y168.75  ;
N231 G1X1091.55Y158.72  ;
N232 G1X1091.55Y121.67  ;
N233 G1X911.51Y48.65  ;
N234 G1X837.48Y48.65  ;
N235 G1X827.45Y58.68  ;
N236 G1X827.45Y133.65  ;
N237 G1X825.5Y133.65  ;
N238 G2X823.45Y135.7I0J2.05  ;
N239 G1X823.45Y141.07  ;
N240 G65 P9104 A102 B04  ;
N241 M98 P9103  ;
(P4:ID2:W56378914)  ;
N242 M98 P9101  ;
N243 G0X1175.27Y120.92  ;
N244 G65 P9102 A102 B04  ;
N245 G1X1175.27Y128.07  ;
N246 G1X1176.7Y129.49  ;
N247 G1X1180.99Y129.49  ;
N248 G1X1182.42Y128.07  ;
N249 G1X1182.42Y120.92  ;
N250 G1X1180.99Y119.49  ;
N251 G1X1176.7Y119.49  ;
N252 G1X1175.27Y120.92  ;
N253 G65 P9104 A102 B04  ;
N254 G0X1178.85Y122.35  ;
N255 G65 P9102 A102 B04  ;
N256 G1X1182.42Y119.49  ;
N257 G65 P9104 A102 B04  ;
N258 G0X1183.31Y119.49  ;
N259 G65 P9102 A102 B04  ;
N260 G1X1183.31Y122.35  ;
N261 G1X1190.45Y122.35  ;
N262 G1X1186.88Y129.49  ;
N263 G1X1183.31Y122.35  ;
N264 G65 P9104 A102 B04  ;
N265 G0X1190.45Y122.35  ;
N266 G65 P9102 A102 B04  ;
N267 G1X1190.45Y119.49  ;
N268 G65 P9104 A102 B04  ;
N269 G0X1191.35Y120.92  ;
N270 G65 P9102 A102 B04  ;
N271 G1X1192.77Y119.49  ;
N272 G1X1197.06Y119.49  ;
N273 G1X1198.49Y120.92  ;
N274 G1X1198.49Y122.35  ;
N275 G1X1197.06Y123.78  ;
N276 G1X1192.77Y123.78  ;
N277 G1X1191.35Y125.21  ;
N278 G1X1191.35Y128.07  ;
N279 G1X1192.77Y129.49  ;
N280 G1X1197.06Y129.49  ;
N281 G1X1198.49Y128.07  ;
N282 G65 P9104 A102 B04  ;
N283 G0X1207.42Y129.49  ;
N284 G65 P9102 A102 B04  ;
N285 G1X1213.13Y129.49  ;
N286 G1X1214.56Y128.07  ;
N287 G1X1214.56Y120.92  ;
N288 G1X1213.13Y119.49  ;
N289 G1X1207.42Y119.49  ;
N290 G1X1207.42Y129.49  ;
N291 G65 P9104 A101 B02  ;
N292 G0X1168.76Y79.56  ;
N293 G65 P9102 A101 B02  ;
N294 G1X1169.43Y82.49  ;
N295 G3X1168.5Y83.65I-0.93J0.21  ;
N296 G3X1163.05Y78.2I0J-5.45  ;
N297 G1X1163.05Y69.2  ;
N298 G3X1173.95Y69.2I5.45J0  ;
N299 G1X1173.95Y78.2  ;
N300 G3X1168.5Y83.65I-5.45J0  ;
N301 G65 P9104 A101 B02  ;
N302 G0X1133.76Y79.56  ;
N303 G65 P9102 A101 B02  ;
N304 G1X1134.43Y82.49  ;
N305 G3X1133.5Y83.65I-0.93J0.21  ;
N306 G3X1128.05Y78.2I0J-5.45  ;
N307 G1X1128.05Y69.2  ;
N308 G3X1138.95Y69.2I5.45J0  ;
N309 G1X1138.95Y78.2  ;
N310 G3X1133.5Y83.65I-5.45J0  ;
N311 G65 P9104 A101 B01  ;
N312 G0X1098.5Y141.77  ;
N313 G65 P9102 A101 B01  ;
N314 G1X1103.45Y141.77  ;
N315 G1X1103.45Y146.7  ;
N316 G2X1105.5Y148.75I2.05J0  ;
N317 G1X1107.45Y148.75  ;
N318 G1X1107.45Y158.72  ;
N319 G1X1117.48Y168.75  ;
N320 G1X1361.52Y168.75  ;
N321 G1X1371.55Y158.72  ;
N322 G1X1371.55Y121.67  ;
N323 G1X1191.51Y48.65  ;
N324 G1X1117.48Y48.65  ;
N325 G1X1107.45Y58.68  ;
N326 G1X1107.45Y133.65  ;
N327 G1X1105.5Y133.65  ;
N328 G2X1103.45Y135.7I0J2.05  ;
N329 G1X1103.45Y141.07  ;
N330 G65 P9104 A101 B01  ;
N331 M98 P9103  ;
(P5:ID3:W56402106)  ;
N332 M98 P9101  ;
N333 G0X214Y116.95  ;
N334 G65 P9102 A101 B01  ;
N335 G1X210.05Y116.95  ;
N336 G3X210.05Y117I30.45J0.05  ;
N337 G65 P9104 A101 B01  ;
N338 G0X264.02Y199.55  ;
N339 G65 P9102 A101 B01  ;
N340 G1X260.52Y196.05  ;
N341 G1X279.07Y177.5  ;
N342 G2X280.55Y173.93I-3.57J-3.57  ;
N343 G1X280.55Y58.07  ;
N344 G2X279.07Y54.5I-5.05J0  ;
N345 G1X242Y17.43  ;
N346 G2X238.43Y15.95I-3.57J3.57  ;
N347 G1X194.48Y15.95  ;
N348 G1X188.45Y21.98  ;
N349 G1X188.45Y127.95  ;
N350 G1X126.48Y127.95  ;
N351 G1X120.45Y133.98  ;
N352 G1X120.45Y216.05  ;
N353 G1X238.43Y216.05  ;
N354 G2X242Y214.57I0J-5.05  ;
N355 G1X260.02Y196.55  ;
N356 G65 P9104 A101 B01  ;
N357 M98 P9103  ;
(P6:ID3:W56402106)  ;
N358 M98 P9101  ;
N359 G0X82.5Y115.05  ;
N360 G65 P9102 A101 B01  ;
N361 G1X86.45Y115.05  ;
N362 G3X86.45Y115I-30.45J-0.05  ;
N363 G65 P9104 A101 B01  ;
N364 G0X32.48Y32.45  ;
N365 G65 P9102 A101 B01  ;
N366 G1X35.98Y35.95  ;
N367 G1X17.43Y54.5  ;
N368 G2X15.95Y58.07I3.57J3.57  ;
N369 G1X15.95Y173.93  ;
N370 G2X17.43Y177.5I5.05J0  ;
N371 G1X54.5Y214.57  ;
N372 G2X58.07Y216.05I3.57J-3.57  ;
N373 G1X102.02Y216.05  ;
N374 G1X108.05Y210.02  ;
N375 G1X108.05Y104.05  ;
N376 G1X170.02Y104.05  ;
N377 G1X176.05Y98.02  ;
N378 G1X176.05Y15.95  ;
N379 G1X58.07Y15.95  ;
N380 G2X54.5Y17.43I0J5.05  ;
N381 G1X36.48Y35.45  ;
N382 G65 P9104 A101 B01  ;
N383 M98 P9103  ;
(P7:ID4:W56397733)  ;
N384 M98 P9101  ;
N385 G0X1486Y15.95  ;
N386 G65 P9102 A101 B01  ;
N387 G1X1482Y15.95  ;
N388 G1X1477.05Y15.95  ;
N389 G1X1477.05Y13.5  ;
N390 G2X1476.5Y12.95I-0.55J0  ;
N391 G1X1467.5Y12.95  ;
N392 G2X1466.95Y13.5I0J0.55  ;
N393 G1X1466.95Y15.95  ;
N394 G1X1456.95Y15.95  ;
N395 G3X1431.95Y40.95I-24.95J0.05  ;
N396 G1X1431.95Y86.05  ;
N397 G1X1442Y86.05  ;
N398 G3X1451.95Y96I0J9.95  ;
N399 G1X1451.95Y157.5  ;
N400 G3X1442Y167.45I-9.95J0  ;
N401 G1X1431.95Y167.45  ;
N402 G1X1431.95Y212.55  ;
N403 G1X1442Y212.55  ;
N404 G3X1451.95Y222.5I0J9.95  ;
N405 G1X1451.95Y284  ;
N406 G3X1442Y293.95I-9.95J0  ;
N407 G1X1431.95Y293.95  ;
N408 G1X1431.95Y298.95  ;
N409 G1X1430Y298.95  ;
N410 G2X1428.95Y300I0J1.05  ;
N411 G1X1428.95Y308  ;
N412 G2X1430Y309.05I1.05J0  ;
N413 G1X1431.95Y309.05  ;
N414 G1X1431.95Y339.05  ;
N415 G3X1456.95Y364.05I0.05J24.95  ;
N416 G1X1482.02Y364.05  ;
N417 G1X1487.05Y359.02  ;
N418 G1X1487.05Y20.98  ;
N419 G1X1482.04Y15.96  ;
N420 G65 P9104 A101 B02  ;
N421 M98 P9103  ;
(P8:ID5:W56402101)  ;
N422 M98 P9101  ;
N423 G0X310.66Y382.87  ;
N424 G65 P9102 A101 B02  ;
N425 G1X307.2Y384.87  ;
N426 G2X307.11Y385.21I0.12J0.22  ;
N427 G1X307.77Y386.36  ;
N428 G1X310.46Y386.36  ;
N429 G2X311.52Y386.36I0.53J-5.57  ;
N430 G1X314.21Y386.36  ;
N431 G1X315.55Y384.03  ;
N432 G2X316.08Y383.12I-4.56J-3.24  ;
N433 G1X317.43Y380.79  ;
N434 G1X316.08Y378.46  ;
N435 G2X315.55Y377.55I-5.09J2.33  ;
N436 G1X314.21Y375.21  ;
N437 G1X311.52Y375.21  ;
N438 G2X310.46Y375.21I-0.53J5.58  ;
N439 G1X307.77Y375.21  ;
N440 G1X306.42Y377.55  ;
N441 G2X305.9Y378.46I4.57J3.24  ;
N442 G1X304.55Y380.79  ;
N443 G1X305.9Y383.12  ;
N444 G2X306.42Y384.03I5.09J-2.33  ;
N445 G1X307.11Y385.21  ;
N446 G65 P9104 A101 B02  ;
N447 G0X310.66Y432.87  ;
N448 G65 P9102 A101 B02  ;
N449 G1X307.2Y434.87  ;
N450 G2X307.11Y435.21I0.12J0.22  ;
N451 G1X307.77Y436.36  ;
N452 G1X310.46Y436.36  ;
N453 G2X311.52Y436.36I0.53J-5.57  ;
N454 G1X314.21Y436.36  ;
N455 G1X315.55Y434.03  ;
N456 G2X316.08Y433.12I-4.56J-3.24  ;
N457 G1X317.43Y430.79  ;
N458 G1X316.08Y428.46  ;
N459 G2X315.55Y427.55I-5.09J2.33  ;
N460 G1X314.21Y425.21  ;
N461 G1X311.52Y425.21  ;
N462 G2X310.46Y425.21I-0.53J5.58  ;
N463 G1X307.77Y425.21  ;
N464 G1X306.42Y427.55  ;
N465 G2X305.9Y428.46I4.57J3.24  ;
N466 G1X304.55Y430.79  ;
N467 G1X305.9Y433.12  ;
N468 G2X306.42Y434.03I5.09J-2.33  ;
N469 G1X307.11Y435.21  ;
N470 G65 P9104 A101 B02  ;
N471 G0X234.47Y495.87  ;
N472 G65 P9102 A101 B02  ;
N473 G1X232.47Y499.33  ;
N474 G2X232.57Y499.67I0.22J0.13  ;
N475 G1X233.75Y500.35  ;
N476 G2X234.66Y500.88I3.24J-4.56  ;
N477 G1X236.99Y502.23  ;
N478 G1X239.32Y500.88  ;
N479 G2X240.23Y500.35I-2.33J-5.09  ;
N480 G1X242.56Y499.01  ;
N481 G1X242.56Y496.32  ;
N482 G2X242.56Y495.26I-5.57J-0.53  ;
N483 G1X242.56Y492.57  ;
N484 G1X240.23Y491.22  ;
N485 G2X239.32Y490.7I-3.24J4.57  ;
N486 G1X236.99Y489.35  ;
N487 G1X234.66Y490.7  ;
N488 G2X233.75Y491.22I2.33J5.09  ;
N489 G1X231.41Y492.57  ;
N490 G1X231.41Y495.26  ;
N491 G2X231.41Y496.32I5.58J0.53  ;
N492 G1X231.41Y499.01  ;
N493 G1X232.57Y499.67  ;
N494 G65 P9104 A101 B02  ;
N495 G0X50.47Y495.87  ;
N496 G65 P9102 A101 B02  ;
N497 G1X48.47Y499.33  ;
N498 G2X48.57Y499.67I0.22J0.13  ;
N499 G1X49.75Y500.35  ;
N500 G2X50.66Y500.88I3.24J-4.56  ;
N501 G1X52.99Y502.23  ;
N502 G1X55.32Y500.88  ;
N503 G2X56.23Y500.35I-2.33J-5.09  ;
N504 G1X58.56Y499.01  ;
N505 G1X58.56Y496.32  ;
N506 G2X58.56Y495.26I-5.57J-0.53  ;
N507 G1X58.56Y492.57  ;
N508 G1X56.23Y491.22  ;
N509 G2X55.32Y490.7I-3.24J4.57  ;
N510 G1X52.99Y489.35  ;
N511 G1X50.66Y490.7  ;
N512 G2X49.75Y491.22I2.33J5.09  ;
N513 G1X47.41Y492.57  ;
N514 G1X47.41Y495.26  ;
N515 G2X47.41Y496.32I5.58J0.53  ;
N516 G1X47.41Y499.01  ;
N517 G1X48.57Y499.67  ;
N518 G65 P9104 A101 B02  ;
N519 G0X50.47Y315.87  ;
N520 G65 P9102 A101 B02  ;
N521 G1X48.47Y319.33  ;
N522 G2X48.57Y319.67I0.22J0.13  ;
N523 G1X49.75Y320.35  ;
N524 G2X50.66Y320.88I3.24J-4.56  ;
N525 G1X52.99Y322.23  ;
N526 G1X55.32Y320.88  ;
N527 G2X56.23Y320.35I-2.33J-5.09  ;
N528 G1X58.56Y319.01  ;
N529 G1X58.56Y316.32  ;
N530 G2X58.56Y315.26I-5.57J-0.53  ;
N531 G1X58.56Y312.57  ;
N532 G1X56.23Y311.22  ;
N533 G2X55.32Y310.7I-3.24J4.57  ;
N534 G1X52.99Y309.35  ;
N535 G1X50.66Y310.7  ;
N536 G2X49.75Y311.22I2.33J5.09  ;
N537 G1X47.41Y312.57  ;
N538 G1X47.41Y315.26  ;
N539 G2X47.41Y316.32I5.58J0.53  ;
N540 G1X47.41Y319.01  ;
N541 G1X48.57Y319.67  ;
N542 G65 P9104 A101 B02  ;
N543 G0X234.47Y315.87  ;
N544 G65 P9102 A101 B02  ;
N545 G1X232.47Y319.33  ;
N546 G2X232.57Y319.67I0.22J0.13  ;
N547 G1X233.75Y320.35  ;
N548 G2X234.66Y320.88I3.24J-4.56  ;
N549 G1X236.99Y322.23  ;
N550 G1X239.32Y320.88  ;
N551 G2X240.23Y320.35I-2.33J-5.09  ;
N552 G1X242.56Y319.01  ;
N553 G1X242.56Y316.32  ;
N554 G2X242.56Y315.26I-5.57J-0.53  ;
N555 G1X242.56Y312.57  ;
N556 G1X240.23Y311.22  ;
N557 G2X239.32Y310.7I-3.24J4.57  ;
N558 G1X236.99Y309.35  ;
N559 G1X234.66Y310.7  ;
N560 G2X233.75Y311.22I2.33J5.09  ;
N561 G1X231.41Y312.57  ;
N562 G1X231.41Y315.26  ;
N563 G2X231.41Y316.32I5.58J0.53  ;
N564 G1X231.41Y319.01  ;
N565 G1X232.57Y319.67  ;
N566 G65 P9104 A101 B01  ;
N567 G0X363.86Y361.79  ;
N568 G65 P9102 A101 B01  ;
N569 G1X363.86Y365.79  ;
N570 G1X363.86Y445.84  ;
N571 G1X255.99Y445.84  ;
N572 G2X246.04Y455.79I0J9.95  ;
N573 G1X246.04Y558.83  ;
N574 G1X43.94Y558.83  ;
N575 G1X43.94Y487.79  ;
N576 G3X46.99Y484.74I3.05J0  ;
N577 G1X55.94Y484.74  ;
N578 G1X55.94Y480.84  ;
N579 G1X15.95Y480.84  ;
N580 G1X15.95Y330.74  ;
N581 G1X55.94Y330.74  ;
N582 G1X55.94Y326.84  ;
N583 G1X46.99Y326.84  ;
N584 G3X43.94Y323.79I0J-3.05  ;
N585 G1X43.94Y252.75  ;
N586 G1X246.04Y252.75  ;
N587 G1X246.04Y355.79  ;
N588 G2X255.99Y365.74I9.95J0  ;
N589 G1X363.81Y365.74  ;
N590 G65 P9104 A101 B01  ;
N591 M98 P9103  ;
(P9:ID4:W56397733)  ;
N592 M98 P9101  ;
N593 G0X1486Y378.95  ;
N594 G65 P9102 A101 B01  ;
N595 G1X1482Y378.95  ;
N596 G1X1477.05Y378.95  ;
N597 G1X1477.05Y376.5  ;
N598 G2X1476.5Y375.95I-0.55J0  ;
N599 G1X1467.5Y375.95  ;
N600 G2X1466.95Y376.5I0J0.55  ;
N601 G1X1466.95Y378.95  ;
N602 G1X1456.95Y378.95  ;
N603 G3X1431.95Y403.95I-24.95J0.05  ;
N604 G1X1431.95Y449.05  ;
N605 G1X1442Y449.05  ;
N606 G3X1451.95Y459I0J9.95  ;
N607 G1X1451.95Y520.5  ;
N608 G3X1442Y530.45I-9.95J0  ;
N609 G1X1431.95Y530.45  ;
N610 G1X1431.95Y575.55  ;
N611 G1X1442Y575.55  ;
N612 G3X1451.95Y585.5I0J9.95  ;
N613 G1X1451.95Y647  ;
N614 G3X1442Y656.95I-9.95J0  ;
N615 G1X1431.95Y656.95  ;
N616 G1X1431.95Y661.95  ;
N617 G1X1430Y661.95  ;
N618 G2X1428.95Y663I0J1.05  ;
N619 G1X1428.95Y671  ;
N620 G2X1430Y672.05I1.05J0  ;
N621 G1X1431.95Y672.05  ;
N622 G1X1431.95Y702.05  ;
N623 G3X1456.95Y727.05I0.05J24.95  ;
N624 G1X1482.02Y727.05  ;
N625 G1X1487.05Y722.02  ;
N626 G1X1487.05Y383.98  ;
N627 G1X1482.04Y378.96  ;
N628 G65 P9104 A101 B02  ;
N629 M98 P9103  ;
(P10:ID5:W56402101)  ;
N630 M98 P9101  ;
N631 G0X310.66Y700.77  ;
N632 G65 P9102 A101 B02  ;
N633 G1X307.2Y702.77  ;
N634 G2X307.11Y703.11I0.12J0.22  ;
N635 G1X307.77Y704.26  ;
N636 G1X310.46Y704.26  ;
N637 G2X311.52Y704.26I0.53J-5.57  ;
N638 G1X314.21Y704.26  ;
N639 G1X315.55Y701.93  ;
N640 G2X316.08Y701.02I-4.56J-3.24  ;
N641 G1X317.43Y698.69  ;
N642 G1X316.08Y696.36  ;
N643 G2X315.55Y695.45I-5.09J2.33  ;
N644 G1X314.21Y693.11  ;
N645 G1X311.52Y693.11  ;
N646 G2X310.46Y693.11I-0.53J5.58  ;
N647 G1X307.77Y693.11  ;
N648 G1X306.42Y695.45  ;
N649 G2X305.9Y696.36I4.57J3.24  ;
N650 G1X304.55Y698.69  ;
N651 G1X305.9Y701.02  ;
N652 G2X306.42Y701.93I5.09J-2.33  ;
N653 G1X307.11Y703.11  ;
N654 G65 P9104 A101 B02  ;
N655 G0X310.66Y750.77  ;
N656 G65 P9102 A101 B02  ;
N657 G1X307.2Y752.77  ;
N658 G2X307.11Y753.11I0.12J0.22  ;
N659 G1X307.77Y754.26  ;
N660 G1X310.46Y754.26  ;
N661 G2X311.52Y754.26I0.53J-5.57  ;
N662 G1X314.21Y754.26  ;
N663 G1X315.55Y751.93  ;
N664 G2X316.08Y751.02I-4.56J-3.24  ;
N665 G1X317.43Y748.69  ;
N666 G1X316.08Y746.36  ;
N667 G2X315.55Y745.45I-5.09J2.33  ;
N668 G1X314.21Y743.11  ;
N669 G1X311.52Y743.11  ;
N670 G2X310.46Y743.11I-0.53J5.58  ;
N671 G1X307.77Y743.11  ;
N672 G1X306.42Y745.45  ;
N673 G2X305.9Y746.36I4.57J3.24  ;
N674 G1X304.55Y748.69  ;
N675 G1X305.9Y751.02  ;
N676 G2X306.42Y751.93I5.09J-2.33  ;
N677 G1X307.11Y753.11  ;
N678 G65 P9104 A101 B02  ;
N679 G0X234.47Y813.77  ;
N680 G65 P9102 A101 B02  ;
N681 G1X232.47Y817.23  ;
N682 G2X232.57Y817.57I0.22J0.13  ;
N683 G1X233.75Y818.25  ;
N684 G2X234.66Y818.78I3.24J-4.56  ;
N685 G1X236.99Y820.13  ;
N686 G1X239.32Y818.78  ;
N687 G2X240.23Y818.25I-2.33J-5.09  ;
N688 G1X242.56Y816.91  ;
N689 G1X242.56Y814.22  ;
N690 G2X242.56Y813.16I-5.57J-0.53  ;
N691 G1X242.56Y810.47  ;
N692 G1X240.23Y809.12  ;
N693 G2X239.32Y808.6I-3.24J4.57  ;
N694 G1X236.99Y807.25  ;
N695 G1X234.66Y808.6  ;
N696 G2X233.75Y809.12I2.33J5.09  ;
N697 G1X231.41Y810.47  ;
N698 G1X231.41Y813.16  ;
N699 G2X231.41Y814.22I5.58J0.53  ;
N700 G1X231.41Y816.91  ;
N701 G1X232.57Y817.57  ;
N702 G65 P9104 A101 B02  ;
N703 G0X50.47Y813.77  ;
N704 G65 P9102 A101 B02  ;
N705 G1X48.47Y817.23  ;
N706 G2X48.57Y817.57I0.22J0.13  ;
N707 G1X49.75Y818.25  ;
N708 G2X50.66Y818.78I3.24J-4.56  ;
N709 G1X52.99Y820.13  ;
N710 G1X55.32Y818.78  ;
N711 G2X56.23Y818.25I-2.33J-5.09  ;
N712 G1X58.56Y816.91  ;
N713 G1X58.56Y814.22  ;
N714 G2X58.56Y813.16I-5.57J-0.53  ;
N715 G1X58.56Y810.47  ;
N716 G1X56.23Y809.12  ;
N717 G2X55.32Y808.6I-3.24J4.57  ;
N718 G1X52.99Y807.25  ;
N719 G1X50.66Y808.6  ;
N720 G2X49.75Y809.12I2.33J5.09  ;
N721 G1X47.41Y810.47  ;
N722 G1X47.41Y813.16  ;
N723 G2X47.41Y814.22I5.58J0.53  ;
N724 G1X47.41Y816.91  ;
N725 G1X48.57Y817.57  ;
N726 G65 P9104 A101 B02  ;
N727 G0X50.47Y633.77  ;
N728 G65 P9102 A101 B02  ;
N729 G1X48.47Y637.23  ;
N730 G2X48.57Y637.57I0.22J0.13  ;
N731 G1X49.75Y638.25  ;
N732 G2X50.66Y638.78I3.24J-4.56  ;
N733 G1X52.99Y640.13  ;
N734 G1X55.32Y638.78  ;
N735 G2X56.23Y638.25I-2.33J-5.09  ;
N736 G1X58.56Y636.91  ;
N737 G1X58.56Y634.22  ;
N738 G2X58.56Y633.16I-5.57J-0.53  ;
N739 G1X58.56Y630.47  ;
N740 G1X56.23Y629.12  ;
N741 G2X55.32Y628.6I-3.24J4.57  ;
N742 G1X52.99Y627.25  ;
N743 G1X50.66Y628.6  ;
N744 G2X49.75Y629.12I2.33J5.09  ;
N745 G1X47.41Y630.47  ;
N746 G1X47.41Y633.16  ;
N747 G2X47.41Y634.22I5.58J0.53  ;
N748 G1X47.41Y636.91  ;
N749 G1X48.57Y637.57  ;
N750 G65 P9104 A101 B02  ;
N751 G0X234.47Y633.77  ;
N752 G65 P9102 A101 B02  ;
N753 G1X232.47Y637.23  ;
N754 G2X232.57Y637.57I0.22J0.13  ;
N755 G1X233.75Y638.25  ;
N756 G2X234.66Y638.78I3.24J-4.56  ;
N757 G1X236.99Y640.13  ;
N758 G1X239.32Y638.78  ;
N759 G2X240.23Y638.25I-2.33J-5.09  ;
N760 G1X242.56Y636.91  ;
N761 G1X242.56Y634.22  ;
N762 G2X242.56Y633.16I-5.57J-0.53  ;
N763 G1X242.56Y630.47  ;
N764 G1X240.23Y629.12  ;
N765 G2X239.32Y628.6I-3.24J4.57  ;
N766 G1X236.99Y627.25  ;
N767 G1X234.66Y628.6  ;
N768 G2X233.75Y629.12I2.33J5.09  ;
N769 G1X231.41Y630.47  ;
N770 G1X231.41Y633.16  ;
N771 G2X231.41Y634.22I5.58J0.53  ;
N772 G1X231.41Y636.91  ;
N773 G1X232.57Y637.57  ;
N774 G65 P9104 A101 B01  ;
N775 G0X363.86Y679.69  ;
N776 G65 P9102 A101 B01  ;
N777 G1X363.86Y683.69  ;
N778 G1X363.86Y763.74  ;
N779 G1X255.99Y763.74  ;
N780 G2X246.04Y773.69I0J9.95  ;
N781 G1X246.04Y876.73  ;
N782 G1X43.94Y876.73  ;
N783 G1X43.94Y805.69  ;
N784 G3X46.99Y802.64I3.05J0  ;
N785 G1X55.94Y802.64  ;
N786 G1X55.94Y798.74  ;
N787 G1X15.95Y798.74  ;
N788 G1X15.95Y648.64  ;
N789 G1X55.94Y648.64  ;
N790 G1X55.94Y644.74  ;
N791 G1X46.99Y644.74  ;
N792 G3X43.94Y641.69I0J-3.05  ;
N793 G1X43.94Y570.65  ;
N794 G1X246.04Y570.65  ;
N795 G1X246.04Y673.69  ;
N796 G2X255.99Y683.64I9.95J0  ;
N797 G1X363.81Y683.64  ;
N798 G65 P9104 A101 B01  ;
N799 M98 P9103  ;
(P11:ID4:W56397733)  ;
N800 M98 P9101  ;
N801 G0X1486Y741.95  ;
N802 G65 P9102 A101 B01  ;
N803 G1X1482Y741.95  ;
N804 G1X1477.05Y741.95  ;
N805 G1X1477.05Y739.5  ;
N806 G2X1476.5Y738.95I-0.55J0  ;
N807 G1X1467.5Y738.95  ;
N808 G2X1466.95Y739.5I0J0.55  ;
N809 G1X1466.95Y741.95  ;
N810 G1X1456.95Y741.95  ;
N811 G3X1431.95Y766.95I-24.95J0.05  ;
N812 G1X1431.95Y812.05  ;
N813 G1X1442Y812.05  ;
N814 G3X1451.95Y822I0J9.95  ;
N815 G1X1451.95Y883.5  ;
N816 G3X1442Y893.45I-9.95J0  ;
N817 G1X1431.95Y893.45  ;
N818 G1X1431.95Y938.55  ;
N819 G1X1442Y938.55  ;
N820 G3X1451.95Y948.5I0J9.95  ;
N821 G1X1451.95Y1010  ;
N822 G3X1442Y1019.95I-9.95J0  ;
N823 G1X1431.95Y1019.95  ;
N824 G1X1431.95Y1024.95  ;
N825 G1X1430Y1024.95  ;
N826 G2X1428.95Y1026I0J1.05  ;
N827 G1X1428.95Y1034  ;
N828 G2X1430Y1035.05I1.05J0  ;
N829 G1X1431.95Y1035.05  ;
N830 G1X1431.95Y1065.05  ;
N831 G3X1456.95Y1090.05I0.05J24.95  ;
N832 G1X1482.02Y1090.05  ;
N833 G1X1487.05Y1085.02  ;
N834 G1X1487.05Y746.98  ;
N835 G1X1482.04Y741.96  ;
N836 G65 P9104 A101 B02  ;
N837 M98 P9103  ;
(P12:ID6:W56402109)  ;
N838 M98 P9101  ;
N839 G0X144.96Y993.56  ;
N840 G65 P9102 A101 B02  ;
N841 G1X142.6Y995.93  ;
N842 G3X142.63Y995.97I2.4J-2.33  ;
N843 G65 P9104 A101 B01  ;
N844 G0X87.6Y1181.69  ;
N845 G65 P9102 A101 B01  ;
N846 G1X87.6Y1186.64  ;
N847 G1X67Y1186.64  ;
N848 G3X57.05Y1176.69I0J-9.95  ;
N849 G1X57.05Y1046.69  ;
N850 G3X67Y1036.74I9.95J0  ;
N851 G1X105Y1036.74  ;
N852 G3X114.95Y1046.69I0J9.95  ;
N853 G1X114.95Y1176.69  ;
N854 G3X105Y1186.64I-9.95J0  ;
N855 G1X88.3Y1186.64  ;
N856 G65 P9104 A101 B02  ;
N857 G0X144.96Y1229.75  ;
N858 G65 P9102 A101 B02  ;
N859 G1X142.6Y1232.12  ;
N860 G3X142.63Y1232.15I2.4J-2.34  ;
N861 G65 P9104 A101 B01  ;
N862 G0X303.77Y908.55  ;
N863 G65 P9102 A101 B01  ;
N864 G1X299.77Y908.55  ;
N865 G1X287.77Y908.55  ;
N866 G3X279.82Y900.6I0J-7.95  ;
N867 G1X279.82Y888.55  ;
N868 G1X45Y888.55  ;
N869 G2X36.95Y896.6I0J8.05  ;
N870 G1X36.95Y957.6  ;
N871 G3X29Y965.55I-7.95J0  ;
N872 G1X15.95Y965.55  ;
N873 G1X15.95Y970.65  ;
N874 G1X18.81Y970.65  ;
N875 G3X18.95Y970.79I0.19J-0.05  ;
N876 G1X18.95Y1252.59  ;
N877 G3X18.81Y1252.73I0.05J0.19  ;
N878 G1X15.95Y1252.73  ;
N879 G1X15.95Y1257.83  ;
N880 G1X29Y1257.83  ;
N881 G3X36.95Y1265.78I0J7.95  ;
N882 G1X36.95Y1326.78  ;
N883 G2X45Y1334.83I8.05J0  ;
N884 G1X279.82Y1334.83  ;
N885 G1X279.82Y1322.78  ;
N886 G3X287.77Y1314.83I7.95J0  ;
N887 G1X299.82Y1314.83  ;
N888 G1X299.82Y1280.2  ;
N889 G1X173.68Y1215.93  ;
N890 G1X159.82Y1215.93  ;
N891 G1X159.82Y1210.54  ;
N892 G1X317.56Y1210.54  ;
N893 G1X317.56Y1131.64  ;
N894 G1X307.51Y1131.64  ;
N895 G3X297.56Y1121.69I0J-9.95  ;
N896 G1X297.56Y1101.69  ;
N897 G3X307.51Y1091.74I9.95J0  ;
N898 G1X317.56Y1091.74  ;
N899 G1X317.56Y1012.84  ;
N900 G1X159.82Y1012.84  ;
N901 G1X159.82Y1007.45  ;
N902 G1X173.68Y1007.45  ;
N903 G1X299.82Y943.18  ;
N904 G1X299.82Y908.6  ;
N905 G65 P9104 A101 B01  ;
N906 M98 P9103  ;
(P13:ID4:W56397733)  ;
N907 M98 P9101  ;
N908 G0X1486Y1104.95  ;
N909 G65 P9102 A101 B01  ;
N910 G1X1482Y1104.95  ;
N911 G1X1477.05Y1104.95  ;
N912 G1X1477.05Y1102.5  ;
N913 G2X1476.5Y1101.95I-0.55J0  ;
N914 G1X1467.5Y1101.95  ;
N915 G2X1466.95Y1102.5I0J0.55  ;
N916 G1X1466.95Y1104.95  ;
N917 G1X1456.95Y1104.95  ;
N918 G3X1431.95Y1129.95I-24.95J0.05  ;
N919 G1X1431.95Y1175.05  ;
N920 G1X1442Y1175.05  ;
N921 G3X1451.95Y1185I0J9.95  ;
N922 G1X1451.95Y1246.5  ;
N923 G3X1442Y1256.45I-9.95J0  ;
N924 G1X1431.95Y1256.45  ;
N925 G1X1431.95Y1301.55  ;
N926 G1X1442Y1301.55  ;
N927 G3X1451.95Y1311.5I0J9.95  ;
N928 G1X1451.95Y1373  ;
N929 G3X1442Y1382.95I-9.95J0  ;
N930 G1X1431.95Y1382.95  ;
N931 G1X1431.95Y1387.95  ;
N932 G1X1430Y1387.95  ;
N933 G2X1428.95Y1389I0J1.05  ;
N934 G1X1428.95Y1397  ;
N935 G2X1430Y1398.05I1.05J0  ;
N936 G1X1431.95Y1398.05  ;
N937 G1X1431.95Y1428.05  ;
N938 G3X1456.95Y1453.05I0.05J24.95  ;
N939 G1X1482.02Y1453.05  ;
N940 G1X1487.05Y1448.02  ;
N941 G1X1487.05Y1109.98  ;
N942 G1X1482.04Y1104.96  ;
N943 G65 P9104 A101 B02  ;
N944 M98 P9103  ;
(P14:ID7:W56402110)  ;
N945 M98 P9101  ;
N946 G0X1454.02Y1492.66  ;
N947 G65 P9102 A101 B02  ;
N948 G1X1450.52Y1496.16  ;
N949 G3X1450.55Y1496.2I5.23J-5.16  ;
N950 G65 P9104 A101 B02  ;
N951 G0X1454.02Y1577.66  ;
N952 G65 P9102 A101 B02  ;
N953 G1X1450.52Y1581.16  ;
N954 G3X1450.55Y1581.2I5.23J-5.16  ;
N955 G65 P9104 A101 B02  ;
N956 G0X1454.02Y1662.66  ;
N957 G65 P9102 A101 B02  ;
N958 G1X1450.52Y1666.16  ;
N959 G3X1450.55Y1666.2I5.23J-5.16  ;
N960 G65 P9104 A101 B01  ;
N961 G0X1487.32Y1464.48  ;
N962 G65 P9102 A101 B01  ;
N963 G1X1483.57Y1467.71  ;
N964 G2X1477.5Y1464.95I-6.07J5.29  ;
N965 G1X1434.95Y1464.95  ;
N966 G1X1434.95Y1470.85  ;
N967 G1X1439.91Y1470.85  ;
N968 G3X1440.05Y1470.99I0.19J-0.05  ;
N969 G1X1440.05Y1475.01  ;
N970 G3X1439.91Y1475.15I0.05J0.19  ;
N971 G1X1434.95Y1475.15  ;
N972 G1X1434.95Y1676.85  ;
N973 G1X1439.91Y1676.85  ;
N974 G3X1440.05Y1676.99I0.19J-0.05  ;
N975 G1X1440.05Y1681.01  ;
N976 G3X1439.91Y1681.15I0.05J0.19  ;
N977 G1X1434.95Y1681.15  ;
N978 G1X1434.95Y1687.05  ;
N979 G1X1477.5Y1687.05  ;
N980 G2X1485.55Y1679I0J-8.05  ;
N981 G1X1485.55Y1473  ;
N982 G2X1484.01Y1468.26I-8.05J0  ;
N983 G65 P9104 A101 B02  ;
N984 M98 P9103  ;
(P15:ID6:W56402109)  ;
N985 M98 P9101  ;
N986 G0X144.96Y1451.66  ;
N987 G65 P9102 A101 B02  ;
N988 G1X142.6Y1454.03  ;
N989 G3X142.63Y1454.07I2.4J-2.33  ;
N990 G65 P9104 A101 B01  ;
N991 G0X87.6Y1639.79  ;
N992 G65 P9102 A101 B01  ;
N993 G1X87.6Y1644.74  ;
N994 G1X67Y1644.74  ;
N995 G3X57.05Y1634.79I0J-9.95  ;
N996 G1X57.05Y1504.79  ;
N997 G3X67Y1494.84I9.95J0  ;
N998 G1X105Y1494.84  ;
N999 G3X114.95Y1504.79I0J9.95  ;
N1000 G1X114.95Y1634.79  ;
N1001 G3X105Y1644.74I-9.95J0  ;
N1002 G1X88.3Y1644.74  ;
N1003 G65 P9104 A101 B02  ;
N1004 G0X144.96Y1687.85  ;
N1005 G65 P9102 A101 B02  ;
N1006 G1X142.6Y1690.22  ;
N1007 G3X142.63Y1690.25I2.4J-2.34  ;
N1008 G65 P9104 A101 B01  ;
N1009 G0X303.77Y1366.65  ;
N1010 G65 P9102 A101 B01  ;
N1011 G1X299.77Y1366.65  ;
N1012 G1X287.77Y1366.65  ;
N1013 G3X279.82Y1358.7I0J-7.95  ;
N1014 G1X279.82Y1346.65  ;
N1015 G1X45Y1346.65  ;
N1016 G2X36.95Y1354.7I0J8.05  ;
N1017 G1X36.95Y1415.7  ;
N1018 G3X29Y1423.65I-7.95J0  ;
N1019 G1X15.95Y1423.65  ;
N1020 G1X15.95Y1428.75  ;
N1021 G1X18.81Y1428.75  ;
N1022 G3X18.95Y1428.89I0.19J-0.05  ;
N1023 G1X18.95Y1710.69  ;
N1024 G3X18.81Y1710.83I0.05J0.19  ;
N1025 G1X15.95Y1710.83  ;
N1026 G1X15.95Y1715.93  ;
N1027 G1X29Y1715.93  ;
N1028 G3X36.95Y1723.88I0J7.95  ;
N1029 G1X36.95Y1784.88  ;
N1030 G2X45Y1792.93I8.05J0  ;
N1031 G1X279.82Y1792.93  ;
N1032 G1X279.82Y1780.88  ;
N1033 G3X287.77Y1772.93I7.95J0  ;
N1034 G1X299.82Y1772.93  ;
N1035 G1X299.82Y1738.3  ;
N1036 G1X173.68Y1674.03  ;
N1037 G1X159.82Y1674.03  ;
N1038 G1X159.82Y1668.64  ;
N1039 G1X317.56Y1668.64  ;
N1040 G1X317.56Y1589.74  ;
N1041 G1X307.51Y1589.74  ;
N1042 G3X297.56Y1579.79I0J-9.95  ;
N1043 G1X297.56Y1559.79  ;
N1044 G3X307.51Y1549.84I9.95J0  ;
N1045 G1X317.56Y1549.84  ;
N1046 G1X317.56Y1470.94  ;
N1047 G1X159.82Y1470.94  ;
N1048 G1X159.82Y1465.55  ;
N1049 G1X173.68Y1465.55  ;
N1050 G1X299.82Y1401.28  ;
N1051 G1X299.82Y1366.7  ;
N1052 G65 P9104 A101 B02  ;
N1053 M98 P9103  ;
(P16:ID7:W56402110)  ;
N1054 M98 P9101  ;
N1055 G0X1454.02Y1726.66  ;
N1056 G65 P9102 A101 B02  ;
N1057 G1X1450.52Y1730.16  ;
N1058 G3X1450.55Y1730.2I5.23J-5.16  ;
N1059 G65 P9104 A101 B02  ;
N1060 G0X1454.02Y1811.66  ;
N1061 G65 P9102 A101 B02  ;
N1062 G1X1450.52Y1815.16  ;
N1063 G3X1450.55Y1815.2I5.23J-5.16  ;
N1064 G65 P9104 A101 B02  ;
N1065 G0X1454.02Y1896.66  ;
N1066 G65 P9102 A101 B02  ;
N1067 G1X1450.52Y1900.16  ;
N1068 G3X1450.55Y1900.2I5.23J-5.16  ;
N1069 G65 P9104 A101 B01  ;
N1070 G0X1487.32Y1698.48  ;
N1071 G65 P9102 A101 B01  ;
N1072 G1X1483.57Y1701.71  ;
N1073 G2X1477.5Y1698.95I-6.07J5.29  ;
N1074 G1X1434.95Y1698.95  ;
N1075 G1X1434.95Y1704.85  ;
N1076 G1X1439.91Y1704.85  ;
N1077 G3X1440.05Y1704.99I0.19J-0.05  ;
N1078 G1X1440.05Y1709.01  ;
N1079 G3X1439.91Y1709.15I0.05J0.19  ;
N1080 G1X1434.95Y1709.15  ;
N1081 G1X1434.95Y1910.85  ;
N1082 G1X1439.91Y1910.85  ;
N1083 G3X1440.05Y1910.99I0.19J-0.05  ;
N1084 G1X1440.05Y1915.01  ;
N1085 G3X1439.91Y1915.15I0.05J0.19  ;
N1086 G1X1434.95Y1915.15  ;
N1087 G1X1434.95Y1921.05  ;
N1088 G1X1477.5Y1921.05  ;
N1089 G2X1485.55Y1913I0J-8.05  ;
N1090 G1X1485.55Y1707  ;
N1091 G2X1484.01Y1702.26I-8.05J0  ;
N1092 G65 P9104 A101 B02  ;
N1093 M98 P9103  ;
(P17:ID8:W56402111)  ;
N1094 M98 P9101  ;
N1095 G0X144.96Y1909.76  ;
N1096 G65 P9102 A101 B02  ;
N1097 G1X142.6Y1912.13  ;
N1098 G3X142.63Y1912.17I2.4J-2.33  ;
N1099 G65 P9104 A101 B01  ;
N1100 G0X86.12Y2053.89  ;
N1101 G65 P9102 A101 B01  ;
N1102 G1X86.12Y2058.84  ;
N1103 G1X67Y2058.84  ;
N1104 G3X57.05Y2048.89I0J-9.95  ;
N1105 G1X57.05Y1962.89  ;
N1106 G3X67Y1952.94I9.95J0  ;
N1107 G1X105Y1952.94  ;
N1108 G3X114.95Y1962.89I0J9.95  ;
N1109 G1X114.95Y2048.89  ;
N1110 G3X105Y2058.84I-9.95J0  ;
N1111 G1X86.82Y2058.84  ;
N1112 G65 P9104 A101 B02  ;
N1113 G0X144.96Y2101.95  ;
N1114 G65 P9102 A101 B02  ;
N1115 G1X142.6Y2104.32  ;
N1116 G3X142.63Y2104.35I2.4J-2.34  ;
N1117 G65 P9104 A101 B01  ;
N1118 G0X303.77Y1824.75  ;
N1119 G65 P9102 A101 B01  ;
N1120 G1X299.77Y1824.75  ;
N1121 G1X287.77Y1824.75  ;
N1122 G3X279.82Y1816.8I0J-7.95  ;
N1123 G1X279.82Y1804.75  ;
N1124 G1X45Y1804.75  ;
N1125 G2X36.95Y1812.8I0J8.05  ;
N1126 G1X36.95Y1873.8  ;
N1127 G3X29Y1881.75I-7.95J0  ;
N1128 G1X15.95Y1881.75  ;
N1129 G1X15.95Y1886.85  ;
N1130 G1X18.81Y1886.85  ;
N1131 G3X18.95Y1886.99I0.19J-0.05  ;
N1132 G1X18.95Y2124.79  ;
N1133 G3X18.81Y2124.93I0.05J0.19  ;
N1134 G1X15.95Y2124.93  ;
N1135 G1X15.95Y2130.03  ;
N1136 G1X29Y2130.03  ;
N1137 G3X36.95Y2137.98I0J7.95  ;
N1138 G1X36.95Y2198.98  ;
N1139 G2X45Y2207.03I8.05J0  ;
N1140 G1X279.82Y2207.03  ;
N1141 G1X279.82Y2194.98  ;
N1142 G3X287.77Y2187.03I7.95J0  ;
N1143 G1X299.82Y2187.03  ;
N1144 G1X299.82Y2152.4  ;
N1145 G1X173.68Y2088.13  ;
N1146 G1X159.82Y2088.13  ;
N1147 G1X159.82Y2082.74  ;
N1148 G1X317.56Y2082.74  ;
N1149 G1X317.56Y2025.84  ;
N1150 G1X307.51Y2025.84  ;
N1151 G3X297.56Y2015.89I0J-9.95  ;
N1152 G1X297.56Y1995.89  ;
N1153 G3X307.51Y1985.94I9.95J0  ;
N1154 G1X317.56Y1985.94  ;
N1155 G1X317.56Y1929.04  ;
N1156 G1X159.82Y1929.04  ;
N1157 G1X159.82Y1923.65  ;
N1158 G1X173.68Y1923.65  ;
N1159 G1X299.82Y1859.38  ;
N1160 G1X299.82Y1824.8  ;
N1161 G65 P9104 A101 B02  ;
N1162 M98 P9103  ;
(P18:ID9:W56402112)  ;
N1163 M98 P9101  ;
N1164 G0X1454.02Y1963.66  ;
N1165 G65 P9102 A101 B02  ;
N1166 G1X1450.52Y1967.16  ;
N1167 G3X1450.55Y1967.2I5.23J-5.16  ;
N1168 G65 P9104 A101 B02  ;
N1169 G0X1454.02Y2023.66  ;
N1170 G65 P9102 A101 B02  ;
N1171 G1X1450.52Y2027.16  ;
N1172 G3X1450.55Y2027.2I5.23J-5.16  ;
N1173 G65 P9104 A101 B02  ;
N1174 G0X1454.02Y2083.66  ;
N1175 G65 P9102 A101 B02  ;
N1176 G1X1450.52Y2087.16  ;
N1177 G3X1450.55Y2087.2I5.23J-5.16  ;
N1178 G65 P9104 A101 B01  ;
N1179 G0X1487.77Y1933.03  ;
N1180 G65 P9102 A101 B01  ;
N1181 G1X1483.87Y1936.08  ;
N1182 G3X1485.55Y1941I-6.37J4.92  ;
N1183 G1X1485.55Y2103  ;
N1184 G3X1477.5Y2111.05I-8.05J0  ;
N1185 G1X1434.95Y2111.05  ;
N1186 G1X1434.95Y2105.15  ;
N1187 G1X1439.91Y2105.15  ;
N1188 G2X1440.05Y2105.01I0.19J0.05  ;
N1189 G1X1440.05Y2100.99  ;
N1190 G2X1439.91Y2100.85I0.05J-0.19  ;
N1191 G1X1434.95Y2100.85  ;
N1192 G1X1434.95Y1943.15  ;
N1193 G1X1439.91Y1943.15  ;
N1194 G2X1440.05Y1943.01I0.19J0.05  ;
N1195 G1X1440.05Y1938.99  ;
N1196 G2X1439.91Y1938.85I0.05J-0.19  ;
N1197 G1X1434.95Y1938.85  ;
N1198 G1X1434.95Y1932.95  ;
N1199 G1X1477.5Y1932.95  ;
N1200 G3X1483.42Y1935.54I0J8.05  ;
N1201 G65 P9104 A101 B02  ;
N1202 M98 P9103  ;
(P19:ID9:W56402112)  ;
N1203 M98 P9101  ;
N1204 G0X1454.02Y2153.66  ;
N1205 G65 P9102 A101 B02  ;
N1206 G1X1450.52Y2157.16  ;
N1207 G3X1450.55Y2157.2I5.23J-5.16  ;
N1208 G65 P9104 A101 B02  ;
N1209 G0X1454.02Y2213.66  ;
N1210 G65 P9102 A101 B02  ;
N1211 G1X1450.52Y2217.16  ;
N1212 G3X1450.55Y2217.2I5.23J-5.16  ;
N1213 G65 P9104 A101 B02  ;
N1214 G0X1454.02Y2273.66  ;
N1215 G65 P9102 A101 B02  ;
N1216 G1X1450.52Y2277.16  ;
N1217 G3X1450.55Y2277.2I5.23J-5.16  ;
N1218 G65 P9104 A101 B01  ;
N1219 G0X1487.77Y2123.03  ;
N1220 G65 P9102 A101 B01  ;
N1221 G1X1483.87Y2126.08  ;
N1222 G3X1485.55Y2131I-6.37J4.92  ;
N1223 G1X1485.55Y2293  ;
N1224 G3X1477.5Y2301.05I-8.05J0  ;
N1225 G1X1434.95Y2301.05  ;
N1226 G1X1434.95Y2295.15  ;
N1227 G1X1439.91Y2295.15  ;
N1228 G2X1440.05Y2295.01I0.19J0.05  ;
N1229 G1X1440.05Y2290.99  ;
N1230 G2X1439.91Y2290.85I0.05J-0.19  ;
N1231 G1X1434.95Y2290.85  ;
N1232 G1X1434.95Y2133.15  ;
N1233 G1X1439.91Y2133.15  ;
N1234 G2X1440.05Y2133.01I0.19J0.05  ;
N1235 G1X1440.05Y2128.99  ;
N1236 G2X1439.91Y2128.85I0.05J-0.19  ;
N1237 G1X1434.95Y2128.85  ;
N1238 G1X1434.95Y2122.95  ;
N1239 G1X1477.5Y2122.95  ;
N1240 G3X1483.42Y2125.54I0J8.05  ;
N1241 G65 P9104 A101 B02  ;
N1242 M98 P9103  ;
(P20:ID8:W56402111)  ;
N1243 M98 P9101  ;
N1244 G0X144.96Y2323.86  ;
N1245 G65 P9102 A101 B02  ;
N1246 G1X142.6Y2326.23  ;
N1247 G3X142.63Y2326.27I2.4J-2.33  ;
N1248 G65 P9104 A101 B01  ;
N1249 G0X86.12Y2467.99  ;
N1250 G65 P9102 A101 B01  ;
N1251 G1X86.12Y2472.94  ;
N1252 G1X67Y2472.94  ;
N1253 G3X57.05Y2462.99I0J-9.95  ;
N1254 G1X57.05Y2376.99  ;
N1255 G3X67Y2367.04I9.95J0  ;
N1256 G1X105Y2367.04  ;
N1257 G3X114.95Y2376.99I0J9.95  ;
N1258 G1X114.95Y2462.99  ;
N1259 G3X105Y2472.94I-9.95J0  ;
N1260 G1X86.82Y2472.94  ;
N1261 G65 P9104 A101 B02  ;
N1262 G0X144.96Y2516.05  ;
N1263 G65 P9102 A101 B02  ;
N1264 G1X142.6Y2518.42  ;
N1265 G3X142.63Y2518.45I2.4J-2.34  ;
N1266 G65 P9104 A101 B01  ;
N1267 G0X303.77Y2238.85  ;
N1268 G65 P9102 A101 B01  ;
N1269 G1X299.77Y2238.85  ;
N1270 G1X287.77Y2238.85  ;
N1271 G3X279.82Y2230.9I0J-7.95  ;
N1272 G1X279.82Y2218.85  ;
N1273 G1X45Y2218.85  ;
N1274 G2X36.95Y2226.9I0J8.05  ;
N1275 G1X36.95Y2287.9  ;
N1276 G3X29Y2295.85I-7.95J0  ;
N1277 G1X15.95Y2295.85  ;
N1278 G1X15.95Y2300.95  ;
N1279 G1X18.81Y2300.95  ;
N1280 G3X18.95Y2301.09I0.19J-0.05  ;
N1281 G1X18.95Y2538.89  ;
N1282 G3X18.81Y2539.03I0.05J0.19  ;
N1283 G1X15.95Y2539.03  ;
N1284 G1X15.95Y2544.13  ;
N1285 G1X29Y2544.13  ;
N1286 G3X36.95Y2552.08I0J7.95  ;
N1287 G1X36.95Y2613.08  ;
N1288 G2X45Y2621.13I8.05J0  ;
N1289 G1X279.82Y2621.13  ;
N1290 G1X279.82Y2609.08  ;
N1291 G3X287.77Y2601.13I7.95J0  ;
N1292 G1X299.82Y2601.13  ;
N1293 G1X299.82Y2566.5  ;
N1294 G1X173.68Y2502.23  ;
N1295 G1X159.82Y2502.23  ;
N1296 G1X159.82Y2496.84  ;
N1297 G1X317.56Y2496.84  ;
N1298 G1X317.56Y2439.94  ;
N1299 G1X307.51Y2439.94  ;
N1300 G3X297.56Y2429.99I0J-9.95  ;
N1301 G1X297.56Y2409.99  ;
N1302 G3X307.51Y2400.04I9.95J0  ;
N1303 G1X317.56Y2400.04  ;
N1304 G1X317.56Y2343.14  ;
N1305 G1X159.82Y2343.14  ;
N1306 G1X159.82Y2337.75  ;
N1307 G1X173.68Y2337.75  ;
N1308 G1X299.82Y2273.48  ;
N1309 G1X299.82Y2238.9  ;
N1310 G65 P9104 A102 B04  ;
N1311 M98 P9103  ;
(P21:ID10:W56402103)  ;
N1312 M98 P9101  ;
N1313 G0X1470.41Y2537.37  ;
N1314 G65 P9102 A102 B04  ;
N1315 G1X1470.41Y2540.23  ;
N1316 G65 P9104 A102 B04  ;
N1317 G0X1470.31Y2540.33  ;
N1318 G65 P9102 A102 B04  ;
N1319 G1X1470.31Y2537.47  ;
N1320 G65 P9104 A102 B04  ;
N1321 G0X1470.41Y2538.8  ;
N1322 G65 P9102 A102 B04  ;
N1323 G1X1460.41Y2538.8  ;
N1324 G65 P9104 A102 B04  ;
N1325 G0X1460.31Y2538.9  ;
N1326 G65 P9102 A102 B04  ;
N1327 G1X1470.31Y2538.9  ;
N1328 G65 P9104 A102 B04  ;
N1329 G0X1470.41Y2541.23  ;
N1330 G65 P9102 A102 B04  ;
N1331 G1X1460.41Y2541.23  ;
N1332 G1X1470.41Y2548.37  ;
N1333 G1X1460.41Y2548.37  ;
N1334 G65 P9104 A102 B04  ;
N1335 G0X1460.31Y2548.47  ;
N1336 G65 P9102 A102 B04  ;
N1337 G1X1470.31Y2548.47  ;
N1338 G1X1460.31Y2541.33  ;
N1339 G1X1470.31Y2541.33  ;
N1340 G65 P9104 A102 B04  ;
N1341 G0X1460.41Y2540.23  ;
N1342 G65 P9102 A102 B04  ;
N1343 G1X1460.41Y2537.37  ;
N1344 G65 P9104 A102 B04  ;
N1345 G0X1460.31Y2537.47  ;
N1346 G65 P9102 A102 B04  ;
N1347 G1X1460.31Y2540.33  ;
N1348 G65 P9104 A102 B04  ;
N1349 G0X1460.41Y2549.37  ;
N1350 G65 P9102 A102 B04  ;
N1351 G1X1460.41Y2556.51  ;
N1352 G65 P9104 A102 B04  ;
N1353 G0X1460.31Y2556.61  ;
N1354 G65 P9102 A102 B04  ;
N1355 G1X1460.31Y2549.47  ;
N1356 G65 P9104 A102 B04  ;
N1357 G0X1460.41Y2552.94  ;
N1358 G65 P9102 A102 B04  ;
N1359 G1X1470.41Y2552.94  ;
N1360 G65 P9104 A102 B04  ;
N1361 G0X1470.31Y2553.04  ;
N1362 G65 P9102 A102 B04  ;
N1363 G1X1460.31Y2553.04  ;
N1364 G65 P9104 A101 B02  ;
N1365 G0X1465.79Y2575.99  ;
N1366 G65 P9102 A101 B02  ;
N1367 G1X1462.29Y2579.49  ;
N1368 G3X1462.32Y2579.53I3.71J-3.64  ;
N1369 G65 P9104 A101 B02  ;
N1370 G0X1465.79Y2515.99  ;
N1371 G65 P9102 A101 B02  ;
N1372 G1X1462.29Y2519.49  ;
N1373 G3X1462.32Y2519.53I3.71J-3.64  ;
N1374 G65 P9104 A101 B01  ;
N1375 G0X1491.89Y2470.63  ;
N1376 G65 P9102 A101 B01  ;
N1377 G1X1488.39Y2474.13  ;
N1378 G1X1486.02Y2471.76  ;
N1379 G1X1445.98Y2471.76  ;
N1380 G1X1440.95Y2476.79  ;
N1381 G1X1440.95Y2668.9  ;
N1382 G1X1481.02Y2668.9  ;
N1383 G1X1491.05Y2658.87  ;
N1384 G1X1491.05Y2476.79  ;
N1385 G1X1488.89Y2474.63  ;
N1386 G65 P9104 A102 B04  ;
N1387 M98 P9103  ;
(P22:ID11:W56397703A)  ;
N1388 M98 P9101  ;
N1389 G0X1336Y965.89  ;
N1390 G65 P9102 A102 B04  ;
N1391 G1X1336Y1167.89  ;
N1392 G65 P9104 A102 B04  ;
N1393 G0X1251Y1253.89  ;
N1394 G65 P9102 A102 B04  ;
N1395 G1X1171Y1253.89  ;
N1396 G65 P9104 A102 B04  ;
N1397 G0X1086Y1167.89  ;
N1398 G65 P9102 A102 B04  ;
N1399 G1X1086Y965.89  ;
N1400 G65 P9104 A102 B04  ;
N1401 G0X1136Y965.89  ;
N1402 G65 P9102 A102 B04  ;
N1403 G1X1286Y965.89  ;
N1404 G65 P9104 A102 B04  ;
N1405 G0X1286Y1411.9  ;
N1406 G65 P9102 A102 B04  ;
N1407 G1X1136Y1411.9  ;
N1408 G65 P9104 A102 B04  ;
N1409 G0X1086Y1411.9  ;
N1410 G65 P9102 A102 B04  ;
N1411 G1X1086Y1613.9  ;
N1412 G65 P9104 A102 B04  ;
N1413 G0X1171Y1703.9  ;
N1414 G65 P9102 A102 B04  ;
N1415 G1X1251Y1703.9  ;
N1416 G65 P9104 A102 B04  ;
N1417 G0X1336Y1613.9  ;
N1418 G65 P9102 A102 B04  ;
N1419 G1X1336Y1411.9  ;
N1420 G65 P9104 A102 B04  ;
N1421 G0X1366Y1998.79  ;
N1422 G65 P9102 A102 B04  ;
N1423 G1X1416Y1998.79  ;
N1424 G65 P9104 A102 B04  ;
N1425 G0X1416Y2001.79  ;
N1426 G65 P9102 A102 B04  ;
N1427 G1X1366Y2001.79  ;
N1428 G65 P9104 A102 B04  ;
N1429 G0X1206Y2001.79  ;
N1430 G65 P9102 A102 B04  ;
N1431 G1X1163Y2001.79  ;
N1432 G2X1159Y2005.79I0J4  ;
N1433 G1X1159Y2048.79  ;
N1434 G65 P9104 A102 B04  ;
N1435 G0X1156Y2048.79  ;
N1436 G65 P9102 A102 B04  ;
N1437 G1X1156Y2005.79  ;
N1438 G3X1163Y1998.79I7J0  ;
N1439 G1X1206Y1998.79  ;
N1440 G65 P9104 A102 B04  ;
N1441 G0X1159Y2359.3  ;
N1442 G65 P9102 A102 B04  ;
N1443 G1X1159Y2459.3  ;
N1444 G65 P9104 A102 B04  ;
N1445 G0X1156Y2459.3  ;
N1446 G65 P9102 A102 B04  ;
N1447 G1X1156Y2359.3  ;
N1448 G65 P9104 A101 B02  ;
N1449 G0X1214.55Y2364.08  ;
N1450 G65 P9102 A101 B02  ;
N1451 G1X1212.46Y2366.16  ;
N1452 G3X1212.5Y2366.2I3.54J-3.46  ;
N1453 G65 P9104 A101 B02  ;
N1454 G0X1364.55Y2364.08  ;
N1455 G65 P9102 A101 B02  ;
N1456 G1X1362.46Y2366.16  ;
N1457 G3X1362.5Y2366.2I3.54J-3.46  ;
N1458 G65 P9104 A101 B02  ;
N1459 G0X1364.55Y2044.08  ;
N1460 G65 P9102 A101 B02  ;
N1461 G1X1362.46Y2046.16  ;
N1462 G3X1362.5Y2046.2I3.54J-3.46  ;
N1463 G65 P9104 A101 B02  ;
N1464 G0X1214.55Y2044.08  ;
N1465 G65 P9102 A101 B02  ;
N1466 G1X1212.46Y2046.16  ;
N1467 G3X1212.5Y2046.2I3.54J-3.46  ;
N1468 G65 P9104 A101 B01  ;
N1469 G0X1206.65Y1338.92  ;
N1470 G65 P9102 A101 B01  ;
N1471 G1X1201.8Y1339.93  ;
N1472 G3X1201.95Y1340.61I59.2J-12.23  ;
N1473 G65 P9104 A101 B02  ;
N1474 G0X419.51Y2962.37  ;
N1475 G65 P9102 A101 B02  ;
N1476 G1X416.91Y2963.87  ;
N1477 G3X415.62Y2963.52I-0.47J-0.82  ;
N1478 G1X414.93Y2962.34  ;
N1479 G3X414.41Y2961.43I4.57J-3.24  ;
N1480 G1X413.06Y2959.1  ;
N1481 G1X414.41Y2956.77  ;
N1482 G3X414.93Y2955.85I5.09J2.33  ;
N1483 G1X416.28Y2953.52  ;
N1484 G1X418.97Y2953.52  ;
N1485 G3X420.03Y2953.52I0.53J5.58  ;
N1486 G1X422.72Y2953.52  ;
N1487 G1X424.07Y2955.85  ;
N1488 G3X424.59Y2956.77I-4.57J3.25  ;
N1489 G1X425.94Y2959.1  ;
N1490 G1X424.59Y2961.43  ;
N1491 G3X424.07Y2962.34I-5.09J-2.33  ;
N1492 G1X422.72Y2964.67  ;
N1493 G1X420.03Y2964.67  ;
N1494 G3X418.97Y2964.67I-0.53J-5.57  ;
N1495 G1X416.28Y2964.67  ;
N1496 G1X415.62Y2963.52  ;
N1497 G65 P9104 A101 B02  ;
N1498 G0X446.01Y2900.17  ;
N1499 G65 P9102 A101 B02  ;
N1500 G1X443.41Y2901.67  ;
N1501 G3X442.12Y2901.32I-0.47J-0.82  ;
N1502 G1X441.43Y2900.14  ;
N1503 G3X440.91Y2899.23I4.57J-3.24  ;
N1504 G1X439.56Y2896.9  ;
N1505 G1X440.91Y2894.57  ;
N1506 G3X441.43Y2893.66I5.09J2.33  ;
N1507 G1X442.78Y2891.32  ;
N1508 G1X445.47Y2891.32  ;
N1509 G3X446.53Y2891.32I0.53J5.58  ;
N1510 G1X449.22Y2891.32  ;
N1511 G1X450.57Y2893.66  ;
N1512 G3X451.09Y2894.57I-4.57J3.24  ;
N1513 G1X452.44Y2896.9  ;
N1514 G1X451.09Y2899.23  ;
N1515 G3X450.57Y2900.14I-5.09J-2.33  ;
N1516 G1X449.22Y2902.47  ;
N1517 G1X446.53Y2902.47  ;
N1518 G3X445.47Y2902.47I-0.53J-5.57  ;
N1519 G1X442.78Y2902.47  ;
N1520 G1X442.12Y2901.32  ;
N1521 G65 P9104 A101 B02  ;
N1522 G0X596.01Y2962.37  ;
N1523 G65 P9102 A101 B02  ;
N1524 G1X593.41Y2963.87  ;
N1525 G3X592.12Y2963.52I-0.47J-0.82  ;
N1526 G1X591.43Y2962.34  ;
N1527 G3X590.91Y2961.43I4.57J-3.24  ;
N1528 G1X589.56Y2959.1  ;
N1529 G1X590.91Y2956.77  ;
N1530 G3X591.43Y2955.85I5.09J2.33  ;
N1531 G1X592.78Y2953.52  ;
N1532 G1X595.47Y2953.52  ;
N1533 G3X596.53Y2953.52I0.53J5.58  ;
N1534 G1X599.22Y2953.52  ;
N1535 G1X600.57Y2955.85  ;
N1536 G3X601.09Y2956.77I-4.57J3.25  ;
N1537 G1X602.44Y2959.1  ;
N1538 G1X601.09Y2961.43  ;
N1539 G3X600.57Y2962.34I-5.09J-2.33  ;
N1540 G1X599.22Y2964.67  ;
N1541 G1X596.53Y2964.67  ;
N1542 G3X595.47Y2964.67I-0.53J-5.57  ;
N1543 G1X592.78Y2964.67  ;
N1544 G1X592.12Y2963.52  ;
N1545 G65 P9104 A101 B02  ;
N1546 G0X746.01Y2900.17  ;
N1547 G65 P9102 A101 B02  ;
N1548 G1X743.41Y2901.67  ;
N1549 G3X742.12Y2901.32I-0.47J-0.82  ;
N1550 G1X741.43Y2900.14  ;
N1551 G3X740.91Y2899.23I4.57J-3.24  ;
N1552 G1X739.56Y2896.9  ;
N1553 G1X740.91Y2894.57  ;
N1554 G3X741.43Y2893.66I5.09J2.33  ;
N1555 G1X742.78Y2891.32  ;
N1556 G1X745.47Y2891.32  ;
N1557 G3X746.53Y2891.32I0.53J5.58  ;
N1558 G1X749.22Y2891.32  ;
N1559 G1X750.57Y2893.66  ;
N1560 G3X751.09Y2894.57I-4.57J3.24  ;
N1561 G1X752.44Y2896.9  ;
N1562 G1X751.09Y2899.23  ;
N1563 G3X750.57Y2900.14I-5.09J-2.33  ;
N1564 G1X749.22Y2902.47  ;
N1565 G1X746.53Y2902.47  ;
N1566 G3X745.47Y2902.47I-0.53J-5.57  ;
N1567 G1X742.78Y2902.47  ;
N1568 G1X742.12Y2901.32  ;
N1569 G65 P9104 A101 B02  ;
N1570 G0X896.01Y2962.37  ;
N1571 G65 P9102 A101 B02  ;
N1572 G1X893.41Y2963.87  ;
N1573 G3X892.12Y2963.52I-0.47J-0.82  ;
N1574 G1X891.43Y2962.34  ;
N1575 G3X890.91Y2961.43I4.57J-3.24  ;
N1576 G1X889.56Y2959.1  ;
N1577 G1X890.91Y2956.77  ;
N1578 G3X891.43Y2955.85I5.09J2.33  ;
N1579 G1X892.78Y2953.52  ;
N1580 G1X895.47Y2953.52  ;
N1581 G3X896.53Y2953.52I0.53J5.58  ;
N1582 G1X899.22Y2953.52  ;
N1583 G1X900.57Y2955.85  ;
N1584 G3X901.09Y2956.77I-4.57J3.25  ;
N1585 G1X902.44Y2959.1  ;
N1586 G1X901.09Y2961.43  ;
N1587 G3X900.57Y2962.34I-5.09J-2.33  ;
N1588 G1X899.22Y2964.67  ;
N1589 G1X896.53Y2964.67  ;
N1590 G3X895.47Y2964.67I-0.53J-5.57  ;
N1591 G1X892.78Y2964.67  ;
N1592 G1X892.12Y2963.52  ;
N1593 G65 P9104 A101 B02  ;
N1594 G0X1046.01Y2900.17  ;
N1595 G65 P9102 A101 B02  ;
N1596 G1X1043.41Y2901.67  ;
N1597 G3X1042.12Y2901.32I-0.47J-0.82  ;
N1598 G1X1041.43Y2900.14  ;
N1599 G3X1040.91Y2899.23I4.57J-3.24  ;
N1600 G1X1039.56Y2896.9  ;
N1601 G1X1040.91Y2894.57  ;
N1602 G3X1041.43Y2893.66I5.09J2.33  ;
N1603 G1X1042.78Y2891.32  ;
N1604 G1X1045.47Y2891.32  ;
N1605 G3X1046.53Y2891.32I0.53J5.58  ;
N1606 G1X1049.22Y2891.32  ;
N1607 G1X1050.57Y2893.66  ;
N1608 G3X1051.09Y2894.57I-4.57J3.24  ;
N1609 G1X1052.44Y2896.9  ;
N1610 G1X1051.09Y2899.23  ;
N1611 G3X1050.57Y2900.14I-5.09J-2.33  ;
N1612 G1X1049.22Y2902.47  ;
N1613 G1X1046.53Y2902.47  ;
N1614 G3X1045.47Y2902.47I-0.53J-5.57  ;
N1615 G1X1042.78Y2902.47  ;
N1616 G1X1042.12Y2901.32  ;
N1617 G65 P9104 A101 B02  ;
N1618 G0X1156.55Y2841.3  ;
N1619 G65 P9102 A101 B02  ;
N1620 G1X1156.55Y2844.3  ;
N1621 G2X1157.5Y2845.25I0.95J0  ;
N1622 G1X1159.45Y2845.25  ;
N1623 G1X1159.45Y2836.35  ;
N1624 G1X1155.55Y2836.35  ;
N1625 G1X1155.55Y2845.25  ;
N1626 G1X1157.5Y2845.25  ;
N1627 G65 P9104 A101 B01  ;
N1628 G0X1180.35Y2820.9  ;
N1629 G65 P9102 A101 B01  ;
N1630 G1X1175.42Y2820.44  ;
N1631 G3X1175.36Y2821.14I84.58J7.96  ;
N1632 G65 P9104 A101 B02  ;
N1633 G0X1173.61Y2762.97  ;
N1634 G65 P9102 A101 B02  ;
N1635 G1X1171.01Y2764.47  ;
N1636 G3X1169.72Y2764.12I-0.47J-0.82  ;
N1637 G1X1169.03Y2762.94  ;
N1638 G3X1168.51Y2762.03I4.57J-3.24  ;
N1639 G1X1167.16Y2759.7  ;
N1640 G1X1168.51Y2757.37  ;
N1641 G3X1169.03Y2756.46I5.09J2.33  ;
N1642 G1X1170.38Y2754.12  ;
N1643 G1X1173.07Y2754.12  ;
N1644 G3X1174.13Y2754.12I0.53J5.58  ;
N1645 G1X1176.82Y2754.12  ;
N1646 G1X1178.17Y2756.46  ;
N1647 G3X1178.69Y2757.37I-4.57J3.24  ;
N1648 G1X1180.04Y2759.7  ;
N1649 G1X1178.69Y2762.03  ;
N1650 G3X1178.17Y2762.94I-5.09J-2.33  ;
N1651 G1X1176.82Y2765.27  ;
N1652 G1X1174.13Y2765.27  ;
N1653 G3X1173.07Y2765.27I-0.53J-5.57  ;
N1654 G1X1170.38Y2765.27  ;
N1655 G1X1169.72Y2764.12  ;
N1656 G65 P9104 A101 B02  ;
N1657 G0X1346.01Y2762.97  ;
N1658 G65 P9102 A101 B02  ;
N1659 G1X1343.41Y2764.47  ;
N1660 G3X1342.12Y2764.12I-0.47J-0.82  ;
N1661 G1X1341.43Y2762.94  ;
N1662 G3X1340.91Y2762.03I4.57J-3.24  ;
N1663 G1X1339.56Y2759.7  ;
N1664 G1X1340.91Y2757.37  ;
N1665 G3X1341.43Y2756.46I5.09J2.33  ;
N1666 G1X1342.78Y2754.12  ;
N1667 G1X1345.47Y2754.12  ;
N1668 G3X1346.53Y2754.12I0.53J5.58  ;
N1669 G1X1349.22Y2754.12  ;
N1670 G1X1350.57Y2756.46  ;
N1671 G3X1351.09Y2757.37I-4.57J3.24  ;
N1672 G1X1352.44Y2759.7  ;
N1673 G1X1351.09Y2762.03  ;
N1674 G3X1350.57Y2762.94I-5.09J-2.33  ;
N1675 G1X1349.22Y2765.27  ;
N1676 G1X1346.53Y2765.27  ;
N1677 G3X1345.47Y2765.27I-0.53J-5.57  ;
N1678 G1X1342.78Y2765.27  ;
N1679 G1X1342.12Y2764.12  ;
N1680 G65 P9104 A101 B02  ;
N1681 G0X1346.01Y2900.17  ;
N1682 G65 P9102 A101 B02  ;
N1683 G1X1343.41Y2901.67  ;
N1684 G3X1342.12Y2901.32I-0.47J-0.82  ;
N1685 G1X1341.43Y2900.14  ;
N1686 G3X1340.91Y2899.23I4.57J-3.24  ;
N1687 G1X1339.56Y2896.9  ;
N1688 G1X1340.91Y2894.57  ;
N1689 G3X1341.43Y2893.66I5.09J2.33  ;
N1690 G1X1342.78Y2891.32  ;
N1691 G1X1345.47Y2891.32  ;
N1692 G3X1346.53Y2891.32I0.53J5.58  ;
N1693 G1X1349.22Y2891.32  ;
N1694 G1X1350.57Y2893.66  ;
N1695 G3X1351.09Y2894.57I-4.57J3.24  ;
N1696 G1X1352.44Y2896.9  ;
N1697 G1X1351.09Y2899.23  ;
N1698 G3X1350.57Y2900.14I-5.09J-2.33  ;
N1699 G1X1349.22Y2902.47  ;
N1700 G1X1346.53Y2902.47  ;
N1701 G3X1345.47Y2902.47I-0.53J-5.57  ;
N1702 G1X1342.78Y2902.47  ;
N1703 G1X1342.12Y2901.32  ;
N1704 G65 P9104 A101 B02  ;
N1705 G0X1372.51Y2962.37  ;
N1706 G65 P9102 A101 B02  ;
N1707 G1X1369.91Y2963.87  ;
N1708 G3X1368.62Y2963.52I-0.47J-0.82  ;
N1709 G1X1367.93Y2962.34  ;
N1710 G3X1367.41Y2961.43I4.57J-3.24  ;
N1711 G1X1366.06Y2959.1  ;
N1712 G1X1367.41Y2956.77  ;
N1713 G3X1367.93Y2955.85I5.09J2.33  ;
N1714 G1X1369.28Y2953.52  ;
N1715 G1X1371.97Y2953.52  ;
N1716 G3X1373.03Y2953.52I0.53J5.58  ;
N1717 G1X1375.72Y2953.52  ;
N1718 G1X1377.07Y2955.85  ;
N1719 G3X1377.59Y2956.77I-4.57J3.25  ;
N1720 G1X1378.94Y2959.1  ;
N1721 G1X1377.59Y2961.43  ;
N1722 G3X1377.07Y2962.34I-5.09J-2.33  ;
N1723 G1X1375.72Y2964.67  ;
N1724 G1X1373.03Y2964.67  ;
N1725 G3X1371.97Y2964.67I-0.53J-5.57  ;
N1726 G1X1369.28Y2964.67  ;
N1727 G1X1368.62Y2963.52  ;
N1728 G65 P9104 A101 B02  ;
N1729 G0X1196.01Y2962.37  ;
N1730 G65 P9102 A101 B02  ;
N1731 G1X1193.41Y2963.87  ;
N1732 G3X1192.12Y2963.52I-0.47J-0.82  ;
N1733 G1X1191.43Y2962.34  ;
N1734 G3X1190.91Y2961.43I4.57J-3.24  ;
N1735 G1X1189.56Y2959.1  ;
N1736 G1X1190.91Y2956.77  ;
N1737 G3X1191.43Y2955.85I5.09J2.33  ;
N1738 G1X1192.78Y2953.52  ;
N1739 G1X1195.47Y2953.52  ;
N1740 G3X1196.53Y2953.52I0.53J5.58  ;
N1741 G1X1199.22Y2953.52  ;
N1742 G1X1200.57Y2955.85  ;
N1743 G3X1201.09Y2956.77I-4.57J3.25  ;
N1744 G1X1202.44Y2959.1  ;
N1745 G1X1201.09Y2961.43  ;
N1746 G3X1200.57Y2962.34I-5.09J-2.33  ;
N1747 G1X1199.22Y2964.67  ;
N1748 G1X1196.53Y2964.67  ;
N1749 G3X1195.47Y2964.67I-0.53J-5.57  ;
N1750 G1X1192.78Y2964.67  ;
N1751 G1X1192.12Y2963.52  ;
N1752 G65 P9104 A101 B02  ;
N1753 G0X1173.61Y2900.17  ;
N1754 G65 P9102 A101 B02  ;
N1755 G1X1171.01Y2901.67  ;
N1756 G3X1169.72Y2901.32I-0.47J-0.82  ;
N1757 G1X1169.03Y2900.14  ;
N1758 G3X1168.51Y2899.23I4.57J-3.24  ;
N1759 G1X1167.16Y2896.9  ;
N1760 G1X1168.51Y2894.57  ;
N1761 G3X1169.03Y2893.66I5.09J2.33  ;
N1762 G1X1170.38Y2891.32  ;
N1763 G1X1173.07Y2891.32  ;
N1764 G3X1174.13Y2891.32I0.53J5.58  ;
N1765 G1X1176.82Y2891.32  ;
N1766 G1X1178.17Y2893.66  ;
N1767 G3X1178.69Y2894.57I-4.57J3.24  ;
N1768 G1X1180.04Y2896.9  ;
N1769 G1X1178.69Y2899.23  ;
N1770 G3X1178.17Y2900.14I-5.09J-2.33  ;
N1771 G1X1176.82Y2902.47  ;
N1772 G1X1174.13Y2902.47  ;
N1773 G3X1173.07Y2902.47I-0.53J-5.57  ;
N1774 G1X1170.38Y2902.47  ;
N1775 G1X1169.72Y2901.32  ;
N1776 G65 P9104 A101 B01  ;
N1777 G0X1416.05Y181.7  ;
N1778 G65 P9102 A101 B01  ;
N1779 G1X1416.05Y184.7  ;
N1780 G1X1416.05Y2404.35  ;
N1781 G1X1415.05Y2404.35  ;
N1782 G1X1415.05Y2663.9  ;
N1783 G2X1423Y2671.85I7.95J0  ;
N1784 G1X1467Y2671.85  ;
N1785 G3X1475.05Y2679.9I0J8.05  ;
N1786 G1X1475.05Y2929.95  ;
N1787 G1X1400.05Y2929.95  ;
N1788 G1X1400.05Y2984.15  ;
N1789 G1X391.95Y2984.15  ;
N1790 G1X391.95Y2929.95  ;
N1791 G1X316.95Y2929.95  ;
N1792 G1X316.95Y2679.9  ;
N1793 G3X325Y2671.85I8.05J0  ;
N1794 G1X369Y2671.85  ;
N1795 G2X376.95Y2663.9I0J-7.95  ;
N1796 G1X376.95Y2404.35  ;
N1797 G1X375.95Y2404.35  ;
N1798 G1X375.95Y184.65  ;
N1799 G1X415.95Y184.65  ;
N1800 G1X415.95Y180.65  ;
N1801 G1X1376.05Y180.65  ;
N1802 G1X1376.05Y184.65  ;
N1803 G1X1416Y184.65  ;
N1804 G65 P9104 A101 B01  ;
N1805 M98 P9103  ;
(P23:ID4:W56397733)  ;
N1806 M98 P9101  ;
N1807 G0X283Y2635.95  ;
N1808 G65 P9102 A101 B01  ;
N1809 G1X279Y2635.95  ;
N1810 G1X274.05Y2635.95  ;
N1811 G1X274.05Y2633.5  ;
N1812 G2X273.5Y2632.95I-0.55J0  ;
N1813 G1X264.5Y2632.95  ;
N1814 G2X263.95Y2633.5I0J0.55  ;
N1815 G1X263.95Y2635.95  ;
N1816 G1X253.95Y2635.95  ;
N1817 G3X228.95Y2660.95I-24.95J0.05  ;
N1818 G1X228.95Y2706.05  ;
N1819 G1X239Y2706.05  ;
N1820 G3X248.95Y2716I0J9.95  ;
N1821 G1X248.95Y2777.5  ;
N1822 G3X239Y2787.45I-9.95J0  ;
N1823 G1X228.95Y2787.45  ;
N1824 G1X228.95Y2832.55  ;
N1825 G1X239Y2832.55  ;
N1826 G3X248.95Y2842.5I0J9.95  ;
N1827 G1X248.95Y2904  ;
N1828 G3X239Y2913.95I-9.95J0  ;
N1829 G1X228.95Y2913.95  ;
N1830 G1X228.95Y2918.95  ;
N1831 G1X227Y2918.95  ;
N1832 G2X225.95Y2920I0J1.05  ;
N1833 G1X225.95Y2928  ;
N1834 G2X227Y2929.05I1.05J0  ;
N1835 G1X228.95Y2929.05  ;
N1836 G1X228.95Y2959.05  ;
N1837 G3X253.95Y2984.05I0.05J24.95  ;
N1838 G1X279.02Y2984.05  ;
N1839 G1X284.05Y2979.02  ;
N1840 G1X284.05Y2640.98  ;
N1841 G1X279.04Y2635.96  ;
N1842 G65 P9104 A101 B01  ;
N1843 M98 P9103  ;
(P24:ID4:W56397733)  ;
N1844 M98 P9101  ;
N1845 G0X213Y2635.95  ;
N1846 G65 P9102 A101 B01  ;
N1847 G1X209Y2635.95  ;
N1848 G1X204.05Y2635.95  ;
N1849 G1X204.05Y2633.5  ;
N1850 G2X203.5Y2632.95I-0.55J0  ;
N1851 G1X194.5Y2632.95  ;
N1852 G2X193.95Y2633.5I0J0.55  ;
N1853 G1X193.95Y2635.95  ;
N1854 G1X183.95Y2635.95  ;
N1855 G3X158.95Y2660.95I-24.95J0.05  ;
N1856 G1X158.95Y2706.05  ;
N1857 G1X169Y2706.05  ;
N1858 G3X178.95Y2716I0J9.95  ;
N1859 G1X178.95Y2777.5  ;
N1860 G3X169Y2787.45I-9.95J0  ;
N1861 G1X158.95Y2787.45  ;
N1862 G1X158.95Y2832.55  ;
N1863 G1X169Y2832.55  ;
N1864 G3X178.95Y2842.5I0J9.95  ;
N1865 G1X178.95Y2904  ;
N1866 G3X169Y2913.95I-9.95J0  ;
N1867 G1X158.95Y2913.95  ;
N1868 G1X158.95Y2918.95  ;
N1869 G1X157Y2918.95  ;
N1870 G2X155.95Y2920I0J1.05  ;
N1871 G1X155.95Y2928  ;
N1872 G2X157Y2929.05I1.05J0  ;
N1873 G1X158.95Y2929.05  ;
N1874 G1X158.95Y2959.05  ;
N1875 G3X183.95Y2984.05I0.05J24.95  ;
N1876 G1X209.02Y2984.05  ;
N1877 G1X214.05Y2979.02  ;
N1878 G1X214.05Y2640.98  ;
N1879 G1X209.04Y2635.96  ;
N1880 G65 P9104 A101 B01  ;
N1881 M98 P9103  ;
(P25:ID4:W56397733)  ;
N1882 M98 P9101  ;
N1883 G0X143Y2635.95  ;
N1884 G65 P9102 A101 B01  ;
N1885 G1X139Y2635.95  ;
N1886 G1X134.05Y2635.95  ;
N1887 G1X134.05Y2633.5  ;
N1888 G2X133.5Y2632.95I-0.55J0  ;
N1889 G1X124.5Y2632.95  ;
N1890 G2X123.95Y2633.5I0J0.55  ;
N1891 G1X123.95Y2635.95  ;
N1892 G1X113.95Y2635.95  ;
N1893 G3X88.95Y2660.95I-24.95J0.05  ;
N1894 G1X88.95Y2706.05  ;
N1895 G1X99Y2706.05  ;
N1896 G3X108.95Y2716I0J9.95  ;
N1897 G1X108.95Y2777.5  ;
N1898 G3X99Y2787.45I-9.95J0  ;
N1899 G1X88.95Y2787.45  ;
N1900 G1X88.95Y2832.55  ;
N1901 G1X99Y2832.55  ;
N1902 G3X108.95Y2842.5I0J9.95  ;
N1903 G1X108.95Y2904  ;
N1904 G3X99Y2913.95I-9.95J0  ;
N1905 G1X88.95Y2913.95  ;
N1906 G1X88.95Y2918.95  ;
N1907 G1X87Y2918.95  ;
N1908 G2X85.95Y2920I0J1.05  ;
N1909 G1X85.95Y2928  ;
N1910 G2X87Y2929.05I1.05J0  ;
N1911 G1X88.95Y2929.05  ;
N1912 G1X88.95Y2959.05  ;
N1913 G3X113.95Y2984.05I0.05J24.95  ;
N1914 G1X139.02Y2984.05  ;
N1915 G1X144.05Y2979.02  ;
N1916 G1X144.05Y2640.98  ;
N1917 G1X139.04Y2635.96  ;
N1918 G65 P9104 A101 B01  ;
N1919 M98 P9103  ;
(P26:ID4:W56397733)  ;
N1920 M98 P9101  ;
N1921 G0X73Y2635.95  ;
N1922 G65 P9102 A101 B01  ;
N1923 G1X69Y2635.95  ;
N1924 G1X64.05Y2635.95  ;
N1925 G1X64.05Y2633.5  ;
N1926 G2X63.5Y2632.95I-0.55J0  ;
N1927 G1X54.5Y2632.95  ;
N1928 G2X53.95Y2633.5I0J0.55  ;
N1929 G1X53.95Y2635.95  ;
N1930 G1X43.95Y2635.95  ;
N1931 G3X18.95Y2660.95I-24.95J0.05  ;
N1932 G1X18.95Y2706.05  ;
N1933 G1X29Y2706.05  ;
N1934 G3X38.95Y2716I0J9.95  ;
N1935 G1X38.95Y2777.5  ;
N1936 G3X29Y2787.45I-9.95J0  ;
N1937 G1X18.95Y2787.45  ;
N1938 G1X18.95Y2832.55  ;
N1939 G1X29Y2832.55  ;
N1940 G3X38.95Y2842.5I0J9.95  ;
N1941 G1X38.95Y2904  ;
N1942 G3X29Y2913.95I-9.95J0  ;
N1943 G1X18.95Y2913.95  ;
N1944 G1X18.95Y2918.95  ;
N1945 G1X17Y2918.95  ;
N1946 G2X15.95Y2920I0J1.05  ;
N1947 G1X15.95Y2928  ;
N1948 G2X17Y2929.05I1.05J0  ;
N1949 G1X18.95Y2929.05  ;
N1950 G1X18.95Y2959.05  ;
N1951 G3X43.95Y2984.05I0.05J24.95  ;
N1952 G1X69.02Y2984.05  ;
N1953 G1X74.05Y2979.02  ;
N1954 G1X74.05Y2640.98  ;
N1955 G1X69.04Y2635.96  ;
N1956 M98 P9104  ;
N1957 M98 P9103  ;
(FOOTER)
N1958 M98 P9110  ;
N1959 M30  ;
%
