O0099  ;
( MACHINE : TCI Laser )  ;
( MATERIAL : Acero al carbono N2 )  ;
( THICKNESS : 4 )  ;
( REPETITIONS : 5 )  ;
( SIMULATION TIME : 00:09:53 )  ;
( FORMAT : 1250x2100 )  ;
( JOB NUMBER : VARS5640\K564121s40 )  ;
( PROGRAM NUMBER : 12103 )  ;
( TYPE : 0 )  ;
( NUMBER OF SHEETS : 1 )  ;
( CUTTING HEADS : 1 )  ;
#516= 1  ;
#517= 1  ;
N105 G65 P9100 A103 B04  ;
(P1:ID1:W56409404)  ;
N106 M98 P9101  ;
N107 G0X475.1Y403.7  ;
N108 G65 P9102 A102 B04  ;
N109 G1X475.1Y683.5  ;
N110 G65 P9104 A102 B04  ;
N111 G0X438Y623.6  ;
N112 G65 P9102 A102 B04  ;
N113 G1X435Y623.6  ;
N114 G1X435Y463.6  ;
N115 G1X438Y463.6  ;
N116 G65 P9104 A102 B04  ;
N117 G0X745.59Y684.25  ;
N118 G65 P9102 A102 B04  ;
N119 G1X748.45Y684.25  ;
N120 G65 P9104 A102 B04  ;
N121 G0X749.34Y684.25  ;
N122 G65 P9102 A102 B04  ;
N123 G1X749.34Y694.25  ;
N124 G1X756.48Y684.25  ;
N125 G1X756.48Y694.25  ;
N126 G65 P9104 A102 B04  ;
N127 G0X757.37Y694.25  ;
N128 G65 P9102 A102 B04  ;
N129 G1X764.52Y694.25  ;
N130 G65 P9104 A102 B04  ;
N131 G0X760.95Y694.25  ;
N132 G65 P9102 A102 B04  ;
N133 G1X760.95Y684.25  ;
N134 G65 P9104 A102 B04  ;
N135 G0X765.41Y688.53  ;
N136 G65 P9102 A102 B04  ;
N137 G1X771.12Y688.53  ;
N138 G65 P9104 A102 B04  ;
N139 G0X773.45Y688.53  ;
N140 G65 P9102 A102 B04  ;
N141 G1X779.16Y688.53  ;
N142 G1X780.59Y689.96  ;
N143 G1X780.59Y692.82  ;
N144 G1X779.16Y694.25  ;
N145 G1X773.45Y694.25  ;
N146 G1X773.45Y684.25  ;
N147 G65 P9104 A102 B04  ;
N148 G0X772.55Y684.25  ;
N149 G65 P9102 A102 B04  ;
N150 G1X765.41Y684.25  ;
N151 G1X765.41Y694.25  ;
N152 G1X772.55Y694.25  ;
N153 G65 P9104 A102 B04  ;
N154 G0X776.3Y688.53  ;
N155 G65 P9102 A102 B04  ;
N156 G1X780.59Y684.25  ;
N157 G65 P9104 A102 B04  ;
N158 G0X781.48Y684.25  ;
N159 G65 P9102 A102 B04  ;
N160 G1X784.34Y684.25  ;
N161 G65 P9104 A102 B04  ;
N162 G0X782.91Y684.25  ;
N163 G65 P9102 A102 B04  ;
N164 G1X782.91Y694.25  ;
N165 G65 P9104 A102 B04  ;
N166 G0X781.48Y694.25  ;
N167 G65 P9102 A102 B04  ;
N168 G1X784.34Y694.25  ;
N169 G65 P9104 A102 B04  ;
N170 G0X785.23Y692.82  ;
N171 G65 P9102 A102 B04  ;
N172 G1X786.66Y694.25  ;
N173 G1X790.95Y694.25  ;
N174 G1X792.37Y692.82  ;
N175 G1X792.37Y685.68  ;
N176 G1X790.95Y684.25  ;
N177 G1X786.66Y684.25  ;
N178 G1X785.23Y685.68  ;
N179 G1X785.23Y692.82  ;
N180 G65 P9104 A102 B04  ;
N181 G0X793.27Y688.53  ;
N182 G65 P9102 A102 B04  ;
N183 G1X798.98Y688.53  ;
N184 G1X800.41Y689.96  ;
N185 G1X800.41Y692.82  ;
N186 G1X798.98Y694.25  ;
N187 G1X793.27Y694.25  ;
N188 G1X793.27Y684.25  ;
N189 G65 P9104 A102 B04  ;
N190 G0X796.12Y688.53  ;
N191 G65 P9102 A102 B04  ;
N192 G1X800.41Y684.25  ;
N193 G65 P9104 A102 B04  ;
N194 G0X748.45Y694.25  ;
N195 G65 P9102 A102 B04  ;
N196 G1X745.59Y694.25  ;
N197 G65 P9104 A102 B04  ;
N198 G0X747.02Y694.25  ;
N199 G65 P9102 A102 B04  ;
N200 G1X747.02Y684.25  ;
N201 G65 P9104 A102 B04  ;
N202 G0X1074.9Y683.5  ;
N203 G65 P9102 A102 B04  ;
N204 G1X1074.9Y403.7  ;
N205 G65 P9104 A102 B04  ;
N206 G0X1112Y463.6  ;
N207 G65 P9102 A102 B04  ;
N208 G1X1115Y463.6  ;
N209 G1X1115Y623.6  ;
N210 G1X1112Y623.6  ;
N211 G65 P9104 A102 B04  ;
N212 G0X764.9Y103.7  ;
N213 G65 P9102 A102 B04  ;
N214 G1X635.1Y103.7  ;
N215 G65 P9104 A102 B04  ;
N216 G0X675Y66.6  ;
N217 G65 P9102 A102 B04  ;
N218 G1X675Y63.6  ;
N219 G1X725Y63.6  ;
N220 G1X725Y66.6  ;
N221 G65 P9104 A101 B02  ;
N222 G0X771.3Y101.35  ;
N223 G65 P9102 A101 B02  ;
N224 G1X774.3Y101.35  ;
N225 G3X775.05Y102.1I0J0.75  ;
N226 G1X775.05Y103.65  ;
N227 G1X764.95Y103.65  ;
N228 G1X764.95Y100.55  ;
N229 G1X775.05Y100.55  ;
N230 G1X775.05Y102.1  ;
N231 G65 P9104 A101 B02  ;
N232 G0X631.3Y102.85  ;
N233 G65 P9102 A101 B02  ;
N234 G1X634.3Y102.85  ;
N235 G2X635.05Y102.1I0J-0.75  ;
N236 G1X635.05Y100.55  ;
N237 G1X624.95Y100.55  ;
N238 G1X624.95Y103.65  ;
N239 G1X635.05Y103.65  ;
N240 G1X635.05Y102.1  ;
N241 G65 P9104 A101 B02  ;
N242 G0X1096.95Y75.13  ;
N243 G65 P9102 A101 B02  ;
N244 G1X1099.04Y77.21  ;
N245 G3X1099.07Y77.18I-10.54J-10.61  ;
N246 G65 P9104 A101 B02  ;
N247 G0X1075.75Y399.9  ;
N248 G65 P9102 A101 B02  ;
N249 G1X1075.75Y402.9  ;
N250 G2X1076.5Y403.65I0.75J0  ;
N251 G1X1078.05Y403.65  ;
N252 G1X1078.05Y393.55  ;
N253 G1X1074.95Y393.55  ;
N254 G1X1074.95Y403.65  ;
N255 G1X1076.5Y403.65  ;
N256 G65 P9104 A101 B02  ;
N257 G0X1075.75Y689.9  ;
N258 G65 P9102 A101 B02  ;
N259 G1X1075.75Y692.9  ;
N260 G2X1076.5Y693.65I0.75J0  ;
N261 G1X1078.05Y693.65  ;
N262 G1X1078.05Y683.55  ;
N263 G1X1074.95Y683.55  ;
N264 G1X1074.95Y693.65  ;
N265 G1X1076.5Y693.65  ;
N266 G65 P9104 A101 B02  ;
N267 G0X1096.76Y1049.45  ;
N268 G65 P9102 A101 B02  ;
N269 G1X1097.43Y1052.37  ;
N270 G3X1096.5Y1053.53I-0.93J0.21  ;
N271 G3X1091.05Y1048.08I0J-5.45  ;
N272 G1X1091.05Y1039.08  ;
N273 G3X1101.95Y1039.08I5.45J0  ;
N274 G1X1101.95Y1048.08  ;
N275 G3X1096.5Y1053.53I-5.45J0  ;
N276 G65 P9104 A101 B02  ;
N277 G0X673.64Y951.5  ;
N278 G65 P9102 A101 B02  ;
N279 G1X676.24Y953  ;
N280 G3X676.59Y954.29I-0.47J0.82  ;
N281 G1X676.11Y955.12  ;
N282 G1X674.17Y955.12  ;
N283 G3X672.83Y955.12I-0.67J-4.53  ;
N284 G1X670.89Y955.12  ;
N285 G1X669.92Y953.44  ;
N286 G3X669.25Y952.28I3.58J-2.85  ;
N287 G1X668.27Y950.59  ;
N288 G1X669.25Y948.91  ;
N289 G3X669.92Y947.75I4.25J1.68  ;
N290 G1X670.89Y946.07  ;
N291 G1X672.83Y946.07  ;
N292 G3X674.17Y946.07I0.67J4.52  ;
N293 G1X676.11Y946.07  ;
N294 G1X677.08Y947.75  ;
N295 G3X677.75Y948.91I-3.58J2.84  ;
N296 G1X678.73Y950.59  ;
N297 G1X677.75Y952.28  ;
N298 G3X677.08Y953.44I-4.25J-1.69  ;
N299 G1X676.59Y954.29  ;
N300 G65 P9104 A101 B02  ;
N301 G0X673.64Y841.5  ;
N302 G65 P9102 A101 B02  ;
N303 G1X676.24Y843  ;
N304 G3X676.59Y844.29I-0.47J0.82  ;
N305 G1X676.11Y845.12  ;
N306 G1X674.17Y845.12  ;
N307 G3X672.83Y845.12I-0.67J-4.53  ;
N308 G1X670.89Y845.12  ;
N309 G1X669.92Y843.44  ;
N310 G3X669.25Y842.28I3.58J-2.85  ;
N311 G1X668.27Y840.59  ;
N312 G1X669.25Y838.91  ;
N313 G3X669.92Y837.75I4.25J1.68  ;
N314 G1X670.89Y836.07  ;
N315 G1X672.83Y836.07  ;
N316 G3X674.17Y836.07I0.67J4.52  ;
N317 G1X676.11Y836.07  ;
N318 G1X677.08Y837.75  ;
N319 G3X677.75Y838.91I-3.58J2.84  ;
N320 G1X678.73Y840.59  ;
N321 G1X677.75Y842.28  ;
N322 G3X677.08Y843.44I-4.25J-1.69  ;
N323 G1X676.59Y844.29  ;
N324 G65 P9104 A101 B01  ;
N325 G0X567.35Y845.59  ;
N326 G65 P9102 A101 B01  ;
N327 G1X567.35Y840.64  ;
N328 G1X618.5Y840.64  ;
N329 G3X628.45Y850.59I0J9.95  ;
N330 G1X628.45Y975.59  ;
N331 G3X618.5Y985.54I-9.95J0  ;
N332 G1X518.5Y985.54  ;
N333 G3X508.55Y975.59I0J-9.95  ;
N334 G1X508.55Y850.59  ;
N335 G3X518.5Y840.64I9.95J0  ;
N336 G1X566.65Y840.64  ;
N337 G65 P9104 A101 B02  ;
N338 G0X463.64Y951.5  ;
N339 G65 P9102 A101 B02  ;
N340 G1X466.24Y953  ;
N341 G3X466.59Y954.29I-0.47J0.82  ;
N342 G1X466.11Y955.12  ;
N343 G1X464.17Y955.12  ;
N344 G3X462.83Y955.12I-0.67J-4.53  ;
N345 G1X460.89Y955.12  ;
N346 G1X459.92Y953.44  ;
N347 G3X459.25Y952.28I3.58J-2.85  ;
N348 G1X458.27Y950.59  ;
N349 G1X459.25Y948.91  ;
N350 G3X459.92Y947.75I4.25J1.68  ;
N351 G1X460.89Y946.07  ;
N352 G1X462.83Y946.07  ;
N353 G3X464.17Y946.07I0.67J4.52  ;
N354 G1X466.11Y946.07  ;
N355 G1X467.08Y947.75  ;
N356 G3X467.75Y948.91I-3.58J2.84  ;
N357 G1X468.73Y950.59  ;
N358 G1X467.75Y952.28  ;
N359 G3X467.08Y953.44I-4.25J-1.69  ;
N360 G1X466.59Y954.29  ;
N361 G65 P9104 A101 B02  ;
N362 G0X463.64Y841.5  ;
N363 G65 P9102 A101 B02  ;
N364 G1X466.24Y843  ;
N365 G3X466.59Y844.29I-0.47J0.82  ;
N366 G1X466.11Y845.12  ;
N367 G1X464.17Y845.12  ;
N368 G3X462.83Y845.12I-0.67J-4.53  ;
N369 G1X460.89Y845.12  ;
N370 G1X459.92Y843.44  ;
N371 G3X459.25Y842.28I3.58J-2.85  ;
N372 G1X458.27Y840.59  ;
N373 G1X459.25Y838.91  ;
N374 G3X459.92Y837.75I4.25J1.68  ;
N375 G1X460.89Y836.07  ;
N376 G1X462.83Y836.07  ;
N377 G3X464.17Y836.07I0.67J4.52  ;
N378 G1X466.11Y836.07  ;
N379 G1X467.08Y837.75  ;
N380 G3X467.75Y838.91I-3.58J2.84  ;
N381 G1X468.73Y840.59  ;
N382 G1X467.75Y842.28  ;
N383 G3X467.08Y843.44I-4.25J-1.69  ;
N384 G1X466.59Y844.29  ;
N385 G65 P9104 A101 B02  ;
N386 G0X200.76Y1049.45  ;
N387 G65 P9102 A101 B02  ;
N388 G1X201.43Y1052.37  ;
N389 G3X200.5Y1053.53I-0.93J0.21  ;
N390 G3X195.05Y1048.08I0J-5.45  ;
N391 G1X195.05Y1039.08  ;
N392 G3X205.95Y1039.08I5.45J0  ;
N393 G1X205.95Y1048.08  ;
N394 G3X200.5Y1053.53I-5.45J0  ;
N395 G65 P9104 A101 B02  ;
N396 G0X472.75Y689.9  ;
N397 G65 P9102 A101 B02  ;
N398 G1X472.75Y692.9  ;
N399 G2X473.5Y693.65I0.75J0  ;
N400 G1X475.05Y693.65  ;
N401 G1X475.05Y683.55  ;
N402 G1X471.95Y683.55  ;
N403 G1X471.95Y693.65  ;
N404 G1X473.5Y693.65  ;
N405 G65 P9104 A101 B02  ;
N406 G0X474.25Y399.9  ;
N407 G65 P9102 A101 B02  ;
N408 G1X474.25Y402.9  ;
N409 G3X473.5Y403.65I-0.75J0  ;
N410 G1X471.95Y403.65  ;
N411 G1X471.95Y393.55  ;
N412 G1X475.05Y393.55  ;
N413 G1X475.05Y403.65  ;
N414 G1X473.5Y403.65  ;
N415 G65 P9104 A101 B02  ;
N416 G0X106.95Y75.13  ;
N417 G65 P9102 A101 B02  ;
N418 G1X109.04Y77.21  ;
N419 G3X109.07Y77.18I-10.54J-10.61  ;
N420 G65 P9104 A101 B01  ;
N421 G0X18.45Y0.62  ;
N422 G65 P9102 A101 B01  ;
N423 G1X18.45Y3.62  ;
N424 G1X18.45Y756.54  ;
N425 G1X13.45Y756.54  ;
N426 G1X13.45Y1000.6  ;
N427 G2X23.5Y1009.14I9.3J-0.76  ;
N428 G1X58.83Y1009.14  ;
N429 G2X67.52Y1005.64I1.31J-9.3  ;
N430 G1X69.45Y1005.64  ;
N431 G1X69.45Y1037.64  ;
N432 G3X69.5Y1038.53I0.05J0.44  ;
N433 G1X67Y1038.53  ;
N434 G2X66.45Y1039.08I0J0.55  ;
N435 G1X66.45Y1048.08  ;
N436 G2X67Y1048.63I0.55J0  ;
N437 G1X69.5Y1048.63  ;
N438 G3X69.45Y1049.53I0J0.45  ;
N439 G1X69.45Y1104.84  ;
N440 G1X1117.55Y1104.84  ;
N441 G1X1117.55Y1049.53  ;
N442 G3X1117.5Y1048.63I-0.05J-0.45  ;
N443 G1X1120Y1048.63  ;
N444 G2X1120.55Y1048.08I0J-0.55  ;
N445 G1X1120.55Y1039.08  ;
N446 G2X1120Y1038.53I-0.55J0  ;
N447 G1X1117.5Y1038.53  ;
N448 G3X1117.55Y1037.64I0J-0.45  ;
N449 G1X1117.55Y1005.64  ;
N450 G1X1119.48Y1005.64  ;
N451 G2X1128.17Y1009.14I7.38J-5.8  ;
N452 G1X1163.5Y1009.14  ;
N453 G2X1173.55Y1000.6I0.75J-9.3  ;
N454 G1X1173.55Y756.54  ;
N455 G1X1168.55Y756.54  ;
N456 G1X1168.55Y3.57  ;
N457 G1X18.5Y3.57  ;
N458 G65 P9104 A102 B04  ;
N459 M98 P9103  ;
(P2:ID2:W56409403B)  ;
N460 M98 P9101  ;
N461 G0X145.78Y1887.72  ;
N462 G65 P9102 A102 B04  ;
N463 G1X145.78Y1966.72  ;
N464 G1X265.78Y1966.72  ;
N465 G1X265.78Y1887.72  ;
N466 G1X145.78Y1887.72  ;
N467 G65 P9104 A102 B04  ;
N468 G0X710.28Y1905.72  ;
N469 G65 P9102 A102 B04  ;
N470 G1X710.28Y2034.72  ;
N471 G65 P9104 A102 B04  ;
N472 G0X882.28Y2034.72  ;
N473 G65 P9102 A102 B04  ;
N474 G1X882.28Y1905.72  ;
N475 G65 P9104 A101 B02  ;
N476 G0X880.81Y1989.72  ;
N477 G65 P9102 A101 B02  ;
N478 G1X880.81Y1992.67  ;
N479 G1X882.51Y1992.67  ;
N480 G1X882.51Y1986.77  ;
N481 G1X879.01Y1986.77  ;
N482 G1X879.01Y1992.67  ;
N483 G1X880.76Y1992.67  ;
N484 G65 P9104 A101 B02  ;
N485 G0X711.71Y1989.72  ;
N486 G65 P9102 A101 B02  ;
N487 G1X711.71Y1992.67  ;
N488 G1X710.01Y1992.67  ;
N489 G1X710.01Y1986.77  ;
N490 G1X713.51Y1986.77  ;
N491 G1X713.51Y1992.67  ;
N492 G1X711.76Y1992.67  ;
N493 G65 P9104 A101 B02  ;
N494 G0X263.28Y1965.17  ;
N495 G65 P9102 A101 B02  ;
N496 G1X266.23Y1965.17  ;
N497 G1X266.23Y1963.47  ;
N498 G1X260.33Y1963.47  ;
N499 G1X260.33Y1966.97  ;
N500 G1X266.23Y1966.97  ;
N501 G1X266.23Y1965.22  ;
N502 G65 P9104 A101 B02  ;
N503 G0X148.28Y1965.17  ;
N504 G65 P9102 A101 B02  ;
N505 G1X151.23Y1965.17  ;
N506 G1X151.23Y1963.47  ;
N507 G1X145.33Y1963.47  ;
N508 G1X145.33Y1966.97  ;
N509 G1X151.23Y1966.97  ;
N510 G1X151.23Y1965.22  ;
N511 G65 P9104 A101 B01  ;
N512 G0X642.78Y1284.24  ;
N513 G65 P9102 A101 B01  ;
N514 G1X646.73Y1284.24  ;
N515 G3X646.73Y1284.19I-19.45J-0.05  ;
N516 G65 P9104 A101 B01  ;
N517 G0X1027.78Y1502.76  ;
N518 G65 P9102 A101 B01  ;
N519 G1X1031.73Y1502.76  ;
N520 G3X1031.73Y1502.71I-60.45J-0.05  ;
N521 G65 P9104 A101 B01  ;
N522 G0X104.41Y1114.49  ;
N523 G65 P9102 A101 B01  ;
N524 G1X107.24Y1111.66  ;
N525 G1X110.26Y1108.64  ;
N526 G1X1144.3Y1108.64  ;
N527 G1X1147.33Y1111.67  ;
N528 G1X1147.33Y1418.25  ;
N529 G1X1146.33Y1418.25  ;
N530 G1X1146.33Y1717.71  ;
N531 G2X1154.28Y1725.66I7.95J0  ;
N532 G1X1198.28Y1725.66  ;
N533 G3X1206.33Y1733.71I0J8.05  ;
N534 G1X1206.33Y2042.73  ;
N535 G3X1198.28Y2050.78I-8.05J0  ;
N536 G1X1139.28Y2050.78  ;
N537 G2X1131.33Y2058.73I0J7.95  ;
N538 G1X1131.33Y2097.78  ;
N539 G1X123.23Y2097.78  ;
N540 G1X123.23Y2058.73  ;
N541 G2X115.28Y2050.78I-7.95J0  ;
N542 G1X56.28Y2050.78  ;
N543 G3X48.23Y2042.73I0J-8.05  ;
N544 G1X48.23Y1733.71  ;
N545 G3X56.28Y1725.66I8.05J0  ;
N546 G1X100.28Y1725.66  ;
N547 G2X108.23Y1717.71I0J-7.95  ;
N548 G1X108.23Y1418.25  ;
N549 G1X107.23Y1418.25  ;
N550 G1X107.23Y1111.69  ;
N551 M98 P9104  ;
N552 M98 P9103  ;
(FOOTER)
N553 M98 P9110  ;
N554 M30  ;
%
