O0099  ;
( MACHINE : TCI Laser )  ;
( MATERIAL : Acero al carbono N2 )  ;
( THICKNESS : 4 )  ;
( REPETITIONS : 1 )  ;
( SIMULATION TIME : 00:36:42 )  ;
( FORMAT : 1500x3000 )  ;
( JOB NUMBER : VARS5640\K564121s40 )  ;
( PROGRAM NUMBER : 12101 )  ;
( TYPE : 0 )  ;
( NUMBER OF SHEETS : 1 )  ;
( CUTTING HEADS : 1 )  ;
#516= 1  ;
#517= 1  ;
N105 G65 P9100 A103 B02  ;
(P1:ID1:w56397705)  ;
N106 M98 P9101  ;
N107 G0X464.33Y198.77  ;
N108 G65 P9102 A101 B02  ;
N109 G1X464.93Y201.71  ;
N110 G3X464Y202.85I-0.93J0.19  ;
N111 G3X458.05Y196.9I0J-5.95  ;
N112 G1X458.05Y194.9  ;
N113 G3X469.95Y194.9I5.95J0  ;
N114 G1X469.95Y196.9  ;
N115 G3X464Y202.85I-5.95J0  ;
N116 G65 P9104 A101 B02  ;
N117 G0X464.33Y358.77  ;
N118 G65 P9102 A101 B02  ;
N119 G1X464.93Y361.71  ;
N120 G3X464Y362.85I-0.93J0.19  ;
N121 G3X458.05Y356.9I0J-5.95  ;
N122 G1X458.05Y354.9  ;
N123 G3X469.95Y354.9I5.95J0  ;
N124 G1X469.95Y356.9  ;
N125 G3X464Y362.85I-5.95J0  ;
N126 G65 P9104 A101 B01  ;
N127 G0X825Y274.95  ;
N128 G65 P9102 A101 B01  ;
N129 G1X828Y274.95  ;
N130 G3X828.95Y275.9I0J0.95  ;
N131 G1X828.95Y360.9  ;
N132 G3X809Y380.85I-19.95J0  ;
N133 G1X549Y380.85  ;
N134 G3X529.05Y360.9I0J-19.95  ;
N135 G1X529.05Y190.9  ;
N136 G3X549Y170.95I19.95J0  ;
N137 G1X809Y170.95  ;
N138 G3X828.95Y190.9I0J19.95  ;
N139 G1X828.95Y275.9  ;
N140 G65 P9104 A101 B02  ;
N141 G0X1444.33Y358.77  ;
N142 G65 P9102 A101 B02  ;
N143 G1X1444.93Y361.71  ;
N144 G3X1444Y362.85I-0.93J0.19  ;
N145 G3X1438.05Y356.9I0J-5.95  ;
N146 G1X1438.05Y354.9  ;
N147 G3X1449.95Y354.9I5.95J0  ;
N148 G1X1449.95Y356.9  ;
N149 G3X1444Y362.85I-5.95J0  ;
N150 G65 P9104 A101 B01  ;
N151 G0X1375Y274.95  ;
N152 G65 P9102 A101 B01  ;
N153 G1X1378Y274.95  ;
N154 G3X1378.95Y275.9I0J0.95  ;
N155 G1X1378.95Y360.9  ;
N156 G3X1359Y380.85I-19.95J0  ;
N157 G1X1099Y380.85  ;
N158 G3X1079.05Y360.9I0J-19.95  ;
N159 G1X1079.05Y190.9  ;
N160 G3X1099Y170.95I19.95J0  ;
N161 G1X1359Y170.95  ;
N162 G3X1378.95Y190.9I0J19.95  ;
N163 G1X1378.95Y275.9  ;
N164 G65 P9104 A101 B02  ;
N165 G0X1444.33Y198.77  ;
N166 G65 P9102 A101 B02  ;
N167 G1X1444.93Y201.71  ;
N168 G3X1444Y202.85I-0.93J0.19  ;
N169 G3X1438.05Y196.9I0J-5.95  ;
N170 G1X1438.05Y194.9  ;
N171 G3X1449.95Y194.9I5.95J0  ;
N172 G1X1449.95Y196.9  ;
N173 G3X1444Y202.85I-5.95J0  ;
N174 G65 P9104 A101 B01  ;
N175 G0X433.5Y14.6  ;
N176 G65 P9102 A101 B01  ;
N177 G1X432.04Y17.23  ;
N178 G3X430.75Y17.6I-0.83J-0.46  ;
N179 G1X428.48Y16.33  ;
N180 G2X423.95Y19I-1.48J2.67  ;
N181 G1X423.95Y532.8  ;
N182 G2X428.48Y535.47I3.05J0  ;
N183 G1X433.01Y532.95  ;
N184 G1X1474.99Y532.95  ;
N185 G1X1479.52Y535.47  ;
N186 G2X1484.05Y532.8I1.48J-2.67  ;
N187 G1X1484.05Y19  ;
N188 G2X1479.52Y16.33I-3.05J0  ;
N189 G1X1474.99Y18.85  ;
N190 G1X433.01Y18.85  ;
N191 G1X430.75Y17.6  ;
N192 G65 P9104 A101 B01  ;
N193 M98 P9103  ;
(P2:ID2:W56397706)  ;
N194 M98 P9101  ;
N195 G0X336.5Y15.95  ;
N196 G65 P9102 A101 B01  ;
N197 G1X341.5Y15.95  ;
N198 G1X399.05Y15.95  ;
N199 G1X399.05Y679.04  ;
N200 G1X341.45Y679.04  ;
N201 G1X341.45Y16.65  ;
N202 G65 P9104 A101 B01  ;
N203 M98 P9103  ;
(P3:ID2:W56397706)  ;
N204 M98 P9101  ;
N205 G0X251Y15.95  ;
N206 G65 P9102 A101 B01  ;
N207 G1X256Y15.95  ;
N208 G1X313.55Y15.95  ;
N209 G1X313.55Y679.04  ;
N210 G1X255.95Y679.04  ;
N211 G1X255.95Y16.65  ;
N212 G65 P9104 A101 B01  ;
N213 M98 P9103  ;
(P4:ID2:W56397706)  ;
N214 M98 P9101  ;
N215 G0X173Y15.95  ;
N216 G65 P9102 A101 B01  ;
N217 G1X178Y15.95  ;
N218 G1X235.55Y15.95  ;
N219 G1X235.55Y679.04  ;
N220 G1X177.95Y679.04  ;
N221 G1X177.95Y16.65  ;
N222 G65 P9104 A101 B01  ;
N223 M98 P9103  ;
(P5:ID2:W56397706)  ;
N224 M98 P9101  ;
N225 G0X11Y15.95  ;
N226 G65 P9102 A101 B01  ;
N227 G1X16Y15.95  ;
N228 G1X73.55Y15.95  ;
N229 G1X73.55Y679.04  ;
N230 G1X15.95Y679.04  ;
N231 G1X15.95Y16.65  ;
N232 G65 P9104 A101 B01  ;
N233 M98 P9103  ;
(P6:ID3:W56397733)  ;
N234 M98 P9101  ;
N235 G0X105Y693.85  ;
N236 G65 P9102 A101 B01  ;
N237 G1X101Y693.85  ;
N238 G1X96.05Y693.85  ;
N239 G1X96.05Y691.4  ;
N240 G2X95.5Y690.85I-0.55J0  ;
N241 G1X86.5Y690.85  ;
N242 G2X85.95Y691.4I0J0.55  ;
N243 G1X85.95Y693.85  ;
N244 G1X75.95Y693.85  ;
N245 G3X50.95Y718.85I-24.95J0.05  ;
N246 G1X50.95Y763.95  ;
N247 G1X61Y763.95  ;
N248 G3X70.95Y773.9I0J9.95  ;
N249 G1X70.95Y835.4  ;
N250 G3X61Y845.35I-9.95J0  ;
N251 G1X50.95Y845.35  ;
N252 G1X50.95Y890.45  ;
N253 G1X61Y890.45  ;
N254 G3X70.95Y900.4I0J9.95  ;
N255 G1X70.95Y961.9  ;
N256 G3X61Y971.85I-9.95J0  ;
N257 G1X50.95Y971.85  ;
N258 G1X50.95Y976.85  ;
N259 G1X49Y976.85  ;
N260 G2X47.95Y977.9I0J1.05  ;
N261 G1X47.95Y985.9  ;
N262 G2X49Y986.95I1.05J0  ;
N263 G1X50.95Y986.95  ;
N264 G1X50.95Y1016.95  ;
N265 G3X75.95Y1041.95I0.05J24.95  ;
N266 G1X101.02Y1041.95  ;
N267 G1X106.05Y1036.92  ;
N268 G1X106.05Y698.88  ;
N269 G1X101.04Y693.86  ;
N270 G65 P9104 A101 B01  ;
N271 M98 P9103  ;
(P7:ID3:W56397733)  ;
N272 M98 P9101  ;
N273 G0X177Y690.55  ;
N274 G65 P9102 A101 B01  ;
N275 G1X173Y690.55  ;
N276 G1X168.05Y690.55  ;
N277 G1X168.05Y688.1  ;
N278 G2X167.5Y687.55I-0.55J0  ;
N279 G1X158.5Y687.55  ;
N280 G2X157.95Y688.1I0J0.55  ;
N281 G1X157.95Y690.55  ;
N282 G1X147.95Y690.55  ;
N283 G3X122.95Y715.55I-24.95J0.05  ;
N284 G1X122.95Y760.65  ;
N285 G1X133Y760.65  ;
N286 G3X142.95Y770.6I0J9.95  ;
N287 G1X142.95Y832.1  ;
N288 G3X133Y842.05I-9.95J0  ;
N289 G1X122.95Y842.05  ;
N290 G1X122.95Y887.15  ;
N291 G1X133Y887.15  ;
N292 G3X142.95Y897.1I0J9.95  ;
N293 G1X142.95Y958.6  ;
N294 G3X133Y968.55I-9.95J0  ;
N295 G1X122.95Y968.55  ;
N296 G1X122.95Y973.55  ;
N297 G1X121Y973.55  ;
N298 G2X119.95Y974.6I0J1.05  ;
N299 G1X119.95Y982.6  ;
N300 G2X121Y983.65I1.05J0  ;
N301 G1X122.95Y983.65  ;
N302 G1X122.95Y1013.65  ;
N303 G3X147.95Y1038.65I0.05J24.95  ;
N304 G1X173.02Y1038.65  ;
N305 G1X178.05Y1033.62  ;
N306 G1X178.05Y695.58  ;
N307 G1X173.04Y690.56  ;
N308 G65 P9104 A101 B02  ;
N309 M98 P9103  ;
(P8:ID1:w56397705)  ;
N310 M98 P9101  ;
N311 G0X464.33Y730.57  ;
N312 G65 P9102 A101 B02  ;
N313 G1X464.93Y733.51  ;
N314 G3X464Y734.65I-0.93J0.19  ;
N315 G3X458.05Y728.7I0J-5.95  ;
N316 G1X458.05Y726.7  ;
N317 G3X469.95Y726.7I5.95J0  ;
N318 G1X469.95Y728.7  ;
N319 G3X464Y734.65I-5.95J0  ;
N320 G65 P9104 A101 B02  ;
N321 G0X464.33Y890.57  ;
N322 G65 P9102 A101 B02  ;
N323 G1X464.93Y893.51  ;
N324 G3X464Y894.65I-0.93J0.19  ;
N325 G3X458.05Y888.7I0J-5.95  ;
N326 G1X458.05Y886.7  ;
N327 G3X469.95Y886.7I5.95J0  ;
N328 G1X469.95Y888.7  ;
N329 G3X464Y894.65I-5.95J0  ;
N330 G65 P9104 A101 B01  ;
N331 G0X825Y806.75  ;
N332 G65 P9102 A101 B01  ;
N333 G1X828Y806.75  ;
N334 G3X828.95Y807.7I0J0.95  ;
N335 G1X828.95Y892.7  ;
N336 G3X809Y912.65I-19.95J0  ;
N337 G1X549Y912.65  ;
N338 G3X529.05Y892.7I0J-19.95  ;
N339 G1X529.05Y722.7  ;
N340 G3X549Y702.75I19.95J0  ;
N341 G1X809Y702.75  ;
N342 G3X828.95Y722.7I0J19.95  ;
N343 G1X828.95Y807.7  ;
N344 G65 P9104 A101 B02  ;
N345 G0X1444.33Y890.57  ;
N346 G65 P9102 A101 B02  ;
N347 G1X1444.93Y893.51  ;
N348 G3X1444Y894.65I-0.93J0.19  ;
N349 G3X1438.05Y888.7I0J-5.95  ;
N350 G1X1438.05Y886.7  ;
N351 G3X1449.95Y886.7I5.95J0  ;
N352 G1X1449.95Y888.7  ;
N353 G3X1444Y894.65I-5.95J0  ;
N354 G65 P9104 A101 B01  ;
N355 G0X1375Y806.75  ;
N356 G65 P9102 A101 B01  ;
N357 G1X1378Y806.75  ;
N358 G3X1378.95Y807.7I0J0.95  ;
N359 G1X1378.95Y892.7  ;
N360 G3X1359Y912.65I-19.95J0  ;
N361 G1X1099Y912.65  ;
N362 G3X1079.05Y892.7I0J-19.95  ;
N363 G1X1079.05Y722.7  ;
N364 G3X1099Y702.75I19.95J0  ;
N365 G1X1359Y702.75  ;
N366 G3X1378.95Y722.7I0J19.95  ;
N367 G1X1378.95Y807.7  ;
N368 G65 P9104 A101 B02  ;
N369 G0X1444.33Y730.57  ;
N370 G65 P9102 A101 B02  ;
N371 G1X1444.93Y733.51  ;
N372 G3X1444Y734.65I-0.93J0.19  ;
N373 G3X1438.05Y728.7I0J-5.95  ;
N374 G1X1438.05Y726.7  ;
N375 G3X1449.95Y726.7I5.95J0  ;
N376 G1X1449.95Y728.7  ;
N377 G3X1444Y734.65I-5.95J0  ;
N378 G65 P9104 A101 B01  ;
N379 G0X433.5Y546.4  ;
N380 G65 P9102 A101 B01  ;
N381 G1X432.04Y549.03  ;
N382 G3X430.75Y549.4I-0.83J-0.46  ;
N383 G1X428.48Y548.13  ;
N384 G2X423.95Y550.8I-1.48J2.67  ;
N385 G1X423.95Y1064.6  ;
N386 G2X428.48Y1067.27I3.05J0  ;
N387 G1X433.01Y1064.75  ;
N388 G1X1474.99Y1064.75  ;
N389 G1X1479.52Y1067.27  ;
N390 G2X1484.05Y1064.6I1.48J-2.67  ;
N391 G1X1484.05Y550.8  ;
N392 G2X1479.52Y548.13I-3.05J0  ;
N393 G1X1474.99Y550.65  ;
N394 G1X433.01Y550.65  ;
N395 G1X430.75Y549.4  ;
N396 G65 P9104 A101 B01  ;
N397 M98 P9103  ;
(P9:ID2:W56397706)  ;
N398 M98 P9101  ;
N399 G0X349Y690.85  ;
N400 G65 P9102 A101 B01  ;
N401 G1X354Y690.85  ;
N402 G1X411.55Y690.85  ;
N403 G1X411.55Y1353.94  ;
N404 G1X353.95Y1353.94  ;
N405 G1X353.95Y691.55  ;
N406 G65 P9104 A101 B01  ;
N407 M98 P9103  ;
(P10:ID2:W56397706)  ;
N408 M98 P9101  ;
N409 G0X185Y690.85  ;
N410 G65 P9102 A101 B01  ;
N411 G1X190Y690.85  ;
N412 G1X247.55Y690.85  ;
N413 G1X247.55Y1353.94  ;
N414 G1X189.95Y1353.94  ;
N415 G1X189.95Y691.55  ;
N416 G65 P9104 A101 B02  ;
N417 M98 P9103  ;
(P11:ID1:w56397705)  ;
N418 M98 P9101  ;
N419 G0X464.33Y1262.37  ;
N420 G65 P9102 A101 B02  ;
N421 G1X464.93Y1265.31  ;
N422 G3X464Y1266.45I-0.93J0.19  ;
N423 G3X458.05Y1260.5I0J-5.95  ;
N424 G1X458.05Y1258.5  ;
N425 G3X469.95Y1258.5I5.95J0  ;
N426 G1X469.95Y1260.5  ;
N427 G3X464Y1266.45I-5.95J0  ;
N428 G65 P9104 A101 B02  ;
N429 G0X464.33Y1422.37  ;
N430 G65 P9102 A101 B02  ;
N431 G1X464.93Y1425.31  ;
N432 G3X464Y1426.45I-0.93J0.19  ;
N433 G3X458.05Y1420.5I0J-5.95  ;
N434 G1X458.05Y1418.5  ;
N435 G3X469.95Y1418.5I5.95J0  ;
N436 G1X469.95Y1420.5  ;
N437 G3X464Y1426.45I-5.95J0  ;
N438 G65 P9104 A101 B01  ;
N439 G0X825Y1338.55  ;
N440 G65 P9102 A101 B01  ;
N441 G1X828Y1338.55  ;
N442 G3X828.95Y1339.5I0J0.95  ;
N443 G1X828.95Y1424.5  ;
N444 G3X809Y1444.45I-19.95J0  ;
N445 G1X549Y1444.45  ;
N446 G3X529.05Y1424.5I0J-19.95  ;
N447 G1X529.05Y1254.5  ;
N448 G3X549Y1234.55I19.95J0  ;
N449 G1X809Y1234.55  ;
N450 G3X828.95Y1254.5I0J19.95  ;
N451 G1X828.95Y1339.5  ;
N452 G65 P9104 A101 B02  ;
N453 G0X1444.33Y1422.37  ;
N454 G65 P9102 A101 B02  ;
N455 G1X1444.93Y1425.31  ;
N456 G3X1444Y1426.45I-0.93J0.19  ;
N457 G3X1438.05Y1420.5I0J-5.95  ;
N458 G1X1438.05Y1418.5  ;
N459 G3X1449.95Y1418.5I5.95J0  ;
N460 G1X1449.95Y1420.5  ;
N461 G3X1444Y1426.45I-5.95J0  ;
N462 G65 P9104 A101 B01  ;
N463 G0X1375Y1338.55  ;
N464 G65 P9102 A101 B01  ;
N465 G1X1378Y1338.55  ;
N466 G3X1378.95Y1339.5I0J0.95  ;
N467 G1X1378.95Y1424.5  ;
N468 G3X1359Y1444.45I-19.95J0  ;
N469 G1X1099Y1444.45  ;
N470 G3X1079.05Y1424.5I0J-19.95  ;
N471 G1X1079.05Y1254.5  ;
N472 G3X1099Y1234.55I19.95J0  ;
N473 G1X1359Y1234.55  ;
N474 G3X1378.95Y1254.5I0J19.95  ;
N475 G1X1378.95Y1339.5  ;
N476 G65 P9104 A101 B02  ;
N477 G0X1444.33Y1262.37  ;
N478 G65 P9102 A101 B02  ;
N479 G1X1444.93Y1265.31  ;
N480 G3X1444Y1266.45I-0.93J0.19  ;
N481 G3X1438.05Y1260.5I0J-5.95  ;
N482 G1X1438.05Y1258.5  ;
N483 G3X1449.95Y1258.5I5.95J0  ;
N484 G1X1449.95Y1260.5  ;
N485 G3X1444Y1266.45I-5.95J0  ;
N486 G65 P9104 A101 B01  ;
N487 G0X433.5Y1078.2  ;
N488 G65 P9102 A101 B01  ;
N489 G1X432.04Y1080.83  ;
N490 G3X430.75Y1081.2I-0.83J-0.46  ;
N491 G1X428.48Y1079.93  ;
N492 G2X423.95Y1082.6I-1.48J2.67  ;
N493 G1X423.95Y1596.4  ;
N494 G2X428.48Y1599.07I3.05J0  ;
N495 G1X433.01Y1596.55  ;
N496 G1X1474.99Y1596.55  ;
N497 G1X1479.52Y1599.07  ;
N498 G2X1484.05Y1596.4I1.48J-2.67  ;
N499 G1X1484.05Y1082.6  ;
N500 G2X1479.52Y1079.93I-3.05J0  ;
N501 G1X1474.99Y1082.45  ;
N502 G1X433.01Y1082.45  ;
N503 G1X430.75Y1081.2  ;
N504 G65 P9104 A101 B02  ;
N505 M98 P9103  ;
(P12:ID1:w56397705)  ;
N506 M98 P9101  ;
N507 G0X464.33Y1794.17  ;
N508 G65 P9102 A101 B02  ;
N509 G1X464.93Y1797.11  ;
N510 G3X464Y1798.25I-0.93J0.19  ;
N511 G3X458.05Y1792.3I0J-5.95  ;
N512 G1X458.05Y1790.3  ;
N513 G3X469.95Y1790.3I5.95J0  ;
N514 G1X469.95Y1792.3  ;
N515 G3X464Y1798.25I-5.95J0  ;
N516 G65 P9104 A101 B02  ;
N517 G0X464.33Y1954.17  ;
N518 G65 P9102 A101 B02  ;
N519 G1X464.93Y1957.11  ;
N520 G3X464Y1958.25I-0.93J0.19  ;
N521 G3X458.05Y1952.3I0J-5.95  ;
N522 G1X458.05Y1950.3  ;
N523 G3X469.95Y1950.3I5.95J0  ;
N524 G1X469.95Y1952.3  ;
N525 G3X464Y1958.25I-5.95J0  ;
N526 G65 P9104 A101 B01  ;
N527 G0X825Y1870.35  ;
N528 G65 P9102 A101 B01  ;
N529 G1X828Y1870.35  ;
N530 G3X828.95Y1871.3I0J0.95  ;
N531 G1X828.95Y1956.3  ;
N532 G3X809Y1976.25I-19.95J0  ;
N533 G1X549Y1976.25  ;
N534 G3X529.05Y1956.3I0J-19.95  ;
N535 G1X529.05Y1786.3  ;
N536 G3X549Y1766.35I19.95J0  ;
N537 G1X809Y1766.35  ;
N538 G3X828.95Y1786.3I0J19.95  ;
N539 G1X828.95Y1871.3  ;
N540 G65 P9104 A101 B02  ;
N541 G0X1444.33Y1954.17  ;
N542 G65 P9102 A101 B02  ;
N543 G1X1444.93Y1957.11  ;
N544 G3X1444Y1958.25I-0.93J0.19  ;
N545 G3X1438.05Y1952.3I0J-5.95  ;
N546 G1X1438.05Y1950.3  ;
N547 G3X1449.95Y1950.3I5.95J0  ;
N548 G1X1449.95Y1952.3  ;
N549 G3X1444Y1958.25I-5.95J0  ;
N550 G65 P9104 A101 B01  ;
N551 G0X1375Y1870.35  ;
N552 G65 P9102 A101 B01  ;
N553 G1X1378Y1870.35  ;
N554 G3X1378.95Y1871.3I0J0.95  ;
N555 G1X1378.95Y1956.3  ;
N556 G3X1359Y1976.25I-19.95J0  ;
N557 G1X1099Y1976.25  ;
N558 G3X1079.05Y1956.3I0J-19.95  ;
N559 G1X1079.05Y1786.3  ;
N560 G3X1099Y1766.35I19.95J0  ;
N561 G1X1359Y1766.35  ;
N562 G3X1378.95Y1786.3I0J19.95  ;
N563 G1X1378.95Y1871.3  ;
N564 G65 P9104 A101 B02  ;
N565 G0X1444.33Y1794.17  ;
N566 G65 P9102 A101 B02  ;
N567 G1X1444.93Y1797.11  ;
N568 G3X1444Y1798.25I-0.93J0.19  ;
N569 G3X1438.05Y1792.3I0J-5.95  ;
N570 G1X1438.05Y1790.3  ;
N571 G3X1449.95Y1790.3I5.95J0  ;
N572 G1X1449.95Y1792.3  ;
N573 G3X1444Y1798.25I-5.95J0  ;
N574 G65 P9104 A101 B01  ;
N575 G0X433.5Y1610  ;
N576 G65 P9102 A101 B01  ;
N577 G1X432.04Y1612.63  ;
N578 G3X430.75Y1613I-0.83J-0.46  ;
N579 G1X428.48Y1611.73  ;
N580 G2X423.95Y1614.4I-1.48J2.67  ;
N581 G1X423.95Y2128.2  ;
N582 G2X428.48Y2130.87I3.05J0  ;
N583 G1X433.01Y2128.35  ;
N584 G1X1474.99Y2128.35  ;
N585 G1X1479.52Y2130.87  ;
N586 G2X1484.05Y2128.2I1.48J-2.67  ;
N587 G1X1484.05Y1614.4  ;
N588 G2X1479.52Y1611.73I-3.05J0  ;
N589 G1X1474.99Y1614.25  ;
N590 G1X433.01Y1614.25  ;
N591 G1X430.75Y1613  ;
N592 G65 P9104 A101 B01  ;
N593 M98 P9103  ;
(P13:ID2:W56397706)  ;
N594 M98 P9101  ;
N595 G0X349Y1365.75  ;
N596 G65 P9102 A101 B01  ;
N597 G1X354Y1365.75  ;
N598 G1X411.55Y1365.75  ;
N599 G1X411.55Y2028.84  ;
N600 G1X353.95Y2028.84  ;
N601 G1X353.95Y1366.45  ;
N602 G65 P9104 A101 B01  ;
N603 M98 P9103  ;
(P14:ID2:W56397706)  ;
N604 M98 P9101  ;
N605 G0X258Y1360.65  ;
N606 G65 P9102 A101 B01  ;
N607 G1X263Y1360.65  ;
N608 G1X320.55Y1360.65  ;
N609 G1X320.55Y2023.74  ;
N610 G1X262.95Y2023.74  ;
N611 G1X262.95Y1361.35  ;
N612 G65 P9104 A101 B02  ;
N613 M98 P9103  ;
(P15:ID4:W56402108)  ;
N614 M98 P9101  ;
N615 G0X85Y1556.85  ;
N616 G65 P9102 A101 B02  ;
N617 G1X80.05Y1556.86  ;
N618 G3X85.5Y1551.45I5.45J0.04  ;
N619 G1X109.5Y1551.45  ;
N620 G3X109.5Y1562.35I0J5.45  ;
N621 G1X85.5Y1562.35  ;
N622 G3X80.09Y1557.56I0J-5.45  ;
N623 G65 P9104 A101 B01  ;
N624 G0X128.5Y1053.85  ;
N625 G65 P9102 A101 B01  ;
N626 G1X123.5Y1053.85  ;
N627 G1X71.45Y1053.85  ;
N628 G1X71.45Y2059.95  ;
N629 G1X123.55Y2059.95  ;
N630 G1X123.55Y1054.55  ;
N631 G65 P9104 A101 B02  ;
N632 M98 P9103  ;
(P16:ID4:W56402108)  ;
N633 M98 P9101  ;
N634 G0X209.5Y1868.75  ;
N635 G65 P9102 A101 B02  ;
N636 G1X204.55Y1868.76  ;
N637 G3X210Y1863.35I5.45J0.04  ;
N638 G1X234Y1863.35  ;
N639 G3X234Y1874.25I0J5.45  ;
N640 G1X210Y1874.25  ;
N641 G3X204.59Y1869.46I0J-5.45  ;
N642 G65 P9104 A101 B01  ;
N643 G0X253Y1365.75  ;
N644 G65 P9102 A101 B01  ;
N645 G1X248Y1365.75  ;
N646 G1X195.95Y1365.75  ;
N647 G1X195.95Y2371.85  ;
N648 G1X248.05Y2371.85  ;
N649 G1X248.05Y1366.45  ;
N650 G65 P9104 A101 B02  ;
N651 M98 P9103  ;
(P17:ID1:w56397705)  ;
N652 M98 P9101  ;
N653 G0X464.33Y2325.97  ;
N654 G65 P9102 A101 B02  ;
N655 G1X464.93Y2328.91  ;
N656 G3X464Y2330.05I-0.93J0.19  ;
N657 G3X458.05Y2324.1I0J-5.95  ;
N658 G1X458.05Y2322.1  ;
N659 G3X469.95Y2322.1I5.95J0  ;
N660 G1X469.95Y2324.1  ;
N661 G3X464Y2330.05I-5.95J0  ;
N662 G65 P9104 A101 B02  ;
N663 G0X464.33Y2485.97  ;
N664 G65 P9102 A101 B02  ;
N665 G1X464.93Y2488.91  ;
N666 G3X464Y2490.05I-0.93J0.19  ;
N667 G3X458.05Y2484.1I0J-5.95  ;
N668 G1X458.05Y2482.1  ;
N669 G3X469.95Y2482.1I5.95J0  ;
N670 G1X469.95Y2484.1  ;
N671 G3X464Y2490.05I-5.95J0  ;
N672 G65 P9104 A101 B01  ;
N673 G0X825Y2402.15  ;
N674 G65 P9102 A101 B01  ;
N675 G1X828Y2402.15  ;
N676 G3X828.95Y2403.1I0J0.95  ;
N677 G1X828.95Y2488.1  ;
N678 G3X809Y2508.05I-19.95J0  ;
N679 G1X549Y2508.05  ;
N680 G3X529.05Y2488.1I0J-19.95  ;
N681 G1X529.05Y2318.1  ;
N682 G3X549Y2298.15I19.95J0  ;
N683 G1X809Y2298.15  ;
N684 G3X828.95Y2318.1I0J19.95  ;
N685 G1X828.95Y2403.1  ;
N686 G65 P9104 A101 B02  ;
N687 G0X1444.33Y2485.97  ;
N688 G65 P9102 A101 B02  ;
N689 G1X1444.93Y2488.91  ;
N690 G3X1444Y2490.05I-0.93J0.19  ;
N691 G3X1438.05Y2484.1I0J-5.95  ;
N692 G1X1438.05Y2482.1  ;
N693 G3X1449.95Y2482.1I5.95J0  ;
N694 G1X1449.95Y2484.1  ;
N695 G3X1444Y2490.05I-5.95J0  ;
N696 G65 P9104 A101 B01  ;
N697 G0X1375Y2402.15  ;
N698 G65 P9102 A101 B01  ;
N699 G1X1378Y2402.15  ;
N700 G3X1378.95Y2403.1I0J0.95  ;
N701 G1X1378.95Y2488.1  ;
N702 G3X1359Y2508.05I-19.95J0  ;
N703 G1X1099Y2508.05  ;
N704 G3X1079.05Y2488.1I0J-19.95  ;
N705 G1X1079.05Y2318.1  ;
N706 G3X1099Y2298.15I19.95J0  ;
N707 G1X1359Y2298.15  ;
N708 G3X1378.95Y2318.1I0J19.95  ;
N709 G1X1378.95Y2403.1  ;
N710 G65 P9104 A101 B02  ;
N711 G0X1444.33Y2325.97  ;
N712 G65 P9102 A101 B02  ;
N713 G1X1444.93Y2328.91  ;
N714 G3X1444Y2330.05I-0.93J0.19  ;
N715 G3X1438.05Y2324.1I0J-5.95  ;
N716 G1X1438.05Y2322.1  ;
N717 G3X1449.95Y2322.1I5.95J0  ;
N718 G1X1449.95Y2324.1  ;
N719 G3X1444Y2330.05I-5.95J0  ;
N720 G65 P9104 A101 B01  ;
N721 G0X433.5Y2141.8  ;
N722 G65 P9102 A101 B01  ;
N723 G1X432.04Y2144.43  ;
N724 G3X430.75Y2144.8I-0.83J-0.46  ;
N725 G1X428.48Y2143.53  ;
N726 G2X423.95Y2146.2I-1.48J2.67  ;
N727 G1X423.95Y2660  ;
N728 G2X428.48Y2662.67I3.05J0  ;
N729 G1X433.01Y2660.15  ;
N730 G1X1474.99Y2660.15  ;
N731 G1X1479.52Y2662.67  ;
N732 G2X1484.05Y2660I1.48J-2.67  ;
N733 G1X1484.05Y2146.2  ;
N734 G2X1479.52Y2143.53I-3.05J0  ;
N735 G1X1474.99Y2146.05  ;
N736 G1X433.01Y2146.05  ;
N737 G1X430.75Y2144.8  ;
N738 G65 P9104 A101 B01  ;
N739 M98 P9103  ;
(P18:ID2:W56397706)  ;
N740 M98 P9101  ;
N741 G0X349Y2040.65  ;
N742 G65 P9102 A101 B01  ;
N743 G1X354Y2040.65  ;
N744 G1X411.55Y2040.65  ;
N745 G1X411.55Y2703.74  ;
N746 G1X353.95Y2703.74  ;
N747 G1X353.95Y2041.35  ;
N748 G65 P9104 A101 B01  ;
N749 M98 P9103  ;
(P19:ID3:W56397733)  ;
N750 M98 P9101  ;
N751 G0X332.5Y2386.75  ;
N752 G65 P9102 A101 B01  ;
N753 G1X328.5Y2386.75  ;
N754 G1X323.55Y2386.75  ;
N755 G1X323.55Y2384.3  ;
N756 G2X323Y2383.75I-0.55J0  ;
N757 G1X314Y2383.75  ;
N758 G2X313.45Y2384.3I0J0.55  ;
N759 G1X313.45Y2386.75  ;
N760 G1X303.45Y2386.75  ;
N761 G3X278.45Y2411.75I-24.95J0.05  ;
N762 G1X278.45Y2456.85  ;
N763 G1X288.5Y2456.85  ;
N764 G3X298.45Y2466.8I0J9.95  ;
N765 G1X298.45Y2528.3  ;
N766 G3X288.5Y2538.25I-9.95J0  ;
N767 G1X278.45Y2538.25  ;
N768 G1X278.45Y2583.35  ;
N769 G1X288.5Y2583.35  ;
N770 G3X298.45Y2593.3I0J9.95  ;
N771 G1X298.45Y2654.8  ;
N772 G3X288.5Y2664.75I-9.95J0  ;
N773 G1X278.45Y2664.75  ;
N774 G1X278.45Y2669.75  ;
N775 G1X276.5Y2669.75  ;
N776 G2X275.45Y2670.8I0J1.05  ;
N777 G1X275.45Y2678.8  ;
N778 G2X276.5Y2679.85I1.05J0  ;
N779 G1X278.45Y2679.85  ;
N780 G1X278.45Y2709.85  ;
N781 G3X303.45Y2734.85I0.05J24.95  ;
N782 G1X328.52Y2734.85  ;
N783 G1X333.55Y2729.82  ;
N784 G1X333.55Y2391.78  ;
N785 G1X328.54Y2386.76  ;
N786 G65 P9104 A101 B01  ;
N787 M98 P9103  ;
(P20:ID3:W56397733)  ;
N788 M98 P9101  ;
N789 G0X261Y2386.75  ;
N790 G65 P9102 A101 B01  ;
N791 G1X257Y2386.75  ;
N792 G1X252.05Y2386.75  ;
N793 G1X252.05Y2384.3  ;
N794 G2X251.5Y2383.75I-0.55J0  ;
N795 G1X242.5Y2383.75  ;
N796 G2X241.95Y2384.3I0J0.55  ;
N797 G1X241.95Y2386.75  ;
N798 G1X231.95Y2386.75  ;
N799 G3X206.95Y2411.75I-24.95J0.05  ;
N800 G1X206.95Y2456.85  ;
N801 G1X217Y2456.85  ;
N802 G3X226.95Y2466.8I0J9.95  ;
N803 G1X226.95Y2528.3  ;
N804 G3X217Y2538.25I-9.95J0  ;
N805 G1X206.95Y2538.25  ;
N806 G1X206.95Y2583.35  ;
N807 G1X217Y2583.35  ;
N808 G3X226.95Y2593.3I0J9.95  ;
N809 G1X226.95Y2654.8  ;
N810 G3X217Y2664.75I-9.95J0  ;
N811 G1X206.95Y2664.75  ;
N812 G1X206.95Y2669.75  ;
N813 G1X205Y2669.75  ;
N814 G2X203.95Y2670.8I0J1.05  ;
N815 G1X203.95Y2678.8  ;
N816 G2X205Y2679.85I1.05J0  ;
N817 G1X206.95Y2679.85  ;
N818 G1X206.95Y2709.85  ;
N819 G3X231.95Y2734.85I0.05J24.95  ;
N820 G1X257.02Y2734.85  ;
N821 G1X262.05Y2729.82  ;
N822 G1X262.05Y2391.78  ;
N823 G1X257.04Y2386.76  ;
N824 G65 P9104 A101 B01  ;
N825 M98 P9103  ;
(P21:ID3:W56397733)  ;
N826 M98 P9101  ;
N827 G0X191Y2383.75  ;
N828 G65 P9102 A101 B01  ;
N829 G1X187Y2383.75  ;
N830 G1X182.05Y2383.75  ;
N831 G1X182.05Y2381.3  ;
N832 G2X181.5Y2380.75I-0.55J0  ;
N833 G1X172.5Y2380.75  ;
N834 G2X171.95Y2381.3I0J0.55  ;
N835 G1X171.95Y2383.75  ;
N836 G1X161.95Y2383.75  ;
N837 G3X136.95Y2408.75I-24.95J0.05  ;
N838 G1X136.95Y2453.85  ;
N839 G1X147Y2453.85  ;
N840 G3X156.95Y2463.8I0J9.95  ;
N841 G1X156.95Y2525.3  ;
N842 G3X147Y2535.25I-9.95J0  ;
N843 G1X136.95Y2535.25  ;
N844 G1X136.95Y2580.35  ;
N845 G1X147Y2580.35  ;
N846 G3X156.95Y2590.3I0J9.95  ;
N847 G1X156.95Y2651.8  ;
N848 G3X147Y2661.75I-9.95J0  ;
N849 G1X136.95Y2661.75  ;
N850 G1X136.95Y2666.75  ;
N851 G1X135Y2666.75  ;
N852 G2X133.95Y2667.8I0J1.05  ;
N853 G1X133.95Y2675.8  ;
N854 G2X135Y2676.85I1.05J0  ;
N855 G1X136.95Y2676.85  ;
N856 G1X136.95Y2706.85  ;
N857 G3X161.95Y2731.85I0.05J24.95  ;
N858 G1X187.02Y2731.85  ;
N859 G1X192.05Y2726.82  ;
N860 G1X192.05Y2388.78  ;
N861 G1X187.04Y2383.76  ;
N862 G65 P9104 A101 B01  ;
N863 M98 P9103  ;
(P22:ID2:W56397706)  ;
N864 M98 P9101  ;
N865 G0X49Y2071.85  ;
N866 G65 P9102 A101 B01  ;
N867 G1X54Y2071.85  ;
N868 G1X111.55Y2071.85  ;
N869 G1X111.55Y2734.94  ;
N870 G1X53.95Y2734.94  ;
N871 G1X53.95Y2072.55  ;
N872 M98 P9104  ;
N873 M98 P9103  ;
(FOOTER)
N874 M98 P9110  ;
N875 M30  ;
%
