O0099  ;
( MACHINE : TCI Laser )  ;
( MATERIAL : Acero al Carbono )  ;
( THICKNESS : 5 )  ;
( REPETITIONS : 1 )  ;
( SIMULATION TIME : 00:42:02 )  ;
( FORMAT : 1500x3000 )  ;
( JOB NUMBER : VARS8600\K860115 )  ;
( PROGRAM NUMBER : 12094 )  ;
( TYPE : 0 )  ;
( NUMBER OF SHEETS : 1 )  ;
( CUTTING HEADS : 1 )  ;
#516= 1  ;
#517= 1  ;
N105 G65 P9100 A103 B01  ;
(P1:ID1:W86011507)  ;
N106 M98 P9101  ;
N107 G0X12Y746.05  ;
N108 G65 P9102 A101 B01  ;
N109 G1X15Y746.05  ;
N110 G1X55.05Y746.05  ;
N111 G1X55.05Y742.05  ;
N112 G1X75.02Y742.05  ;
N113 G1X110.05Y707.02  ;
N114 G1X110.05Y656.95  ;
N115 G1X105.05Y656.95  ;
N116 G1X105.05Y651.05  ;
N117 G1X116.08Y651.05  ;
N118 G1X116.08Y655.55  ;
N119 G1X175.08Y655.55  ;
N120 G1X175.08Y657.05  ;
N121 G1X181.18Y657.05  ;
N122 G1X181.18Y14.95  ;
N123 G1X14.95Y14.95  ;
N124 G1X14.95Y746  ;
N125 G65 P9104 A101 B01  ;
N126 M98 P9103  ;
(P2:ID1:W86011507)  ;
N127 M98 P9101  ;
N128 G0X270.13Y642.95  ;
N129 G65 P9102 A101 B01  ;
N130 G1X267.13Y642.95  ;
N131 G1X227.08Y642.95  ;
N132 G1X227.08Y646.95  ;
N133 G1X207.11Y646.95  ;
N134 G1X172.08Y681.98  ;
N135 G1X172.08Y732.05  ;
N136 G1X177.08Y732.05  ;
N137 G1X177.08Y737.95  ;
N138 G1X166.05Y737.95  ;
N139 G1X166.05Y733.45  ;
N140 G1X107.05Y733.45  ;
N141 G1X107.05Y731.95  ;
N142 G1X100.95Y731.95  ;
N143 G1X100.95Y1374.05  ;
N144 G1X267.18Y1374.05  ;
N145 G1X267.18Y643  ;
N146 G65 P9104 A101 B01  ;
N147 M98 P9103  ;
(P3:ID1:W86011507)  ;
N148 M98 P9101  ;
N149 G0X12Y2115.05  ;
N150 G65 P9102 A101 B01  ;
N151 G1X15Y2115.05  ;
N152 G1X55.05Y2115.05  ;
N153 G1X55.05Y2111.05  ;
N154 G1X75.02Y2111.05  ;
N155 G1X110.05Y2076.02  ;
N156 G1X110.05Y2025.95  ;
N157 G1X105.05Y2025.95  ;
N158 G1X105.05Y2020.05  ;
N159 G1X116.08Y2020.05  ;
N160 G1X116.08Y2024.55  ;
N161 G1X175.08Y2024.55  ;
N162 G1X175.08Y2026.05  ;
N163 G1X181.18Y2026.05  ;
N164 G1X181.18Y1383.95  ;
N165 G1X14.95Y1383.95  ;
N166 G1X14.95Y2115  ;
N167 G65 P9104 A102 B04  ;
N168 M98 P9103  ;
(P4:ID2:W86011518)  ;
N169 M98 P9101  ;
N170 G0X1456.26Y257.19  ;
N171 G65 P9102 A102 B04  ;
N172 G1X1464.76Y262.09  ;
N173 G1X1464.76Y271.91  ;
N174 G1X1456.26Y276.81  ;
N175 G1X1447.76Y271.91  ;
N176 G1X1447.76Y262.09  ;
N177 G1X1456.26Y257.19  ;
N178 G65 P9104 A102 B04  ;
N179 G0X1456.26Y707.19  ;
N180 G65 P9102 A102 B04  ;
N181 G1X1464.76Y712.09  ;
N182 G1X1464.76Y721.91  ;
N183 G1X1456.26Y726.81  ;
N184 G1X1447.76Y721.91  ;
N185 G1X1447.76Y712.09  ;
N186 G1X1456.26Y707.19  ;
N187 G65 P9104 A102 B04  ;
N188 G0X1456.26Y1157.19  ;
N189 G65 P9102 A102 B04  ;
N190 G1X1464.76Y1162.09  ;
N191 G1X1464.76Y1171.91  ;
N192 G1X1456.26Y1176.81  ;
N193 G1X1447.76Y1171.91  ;
N194 G1X1447.76Y1162.09  ;
N195 G1X1456.26Y1157.19  ;
N196 G65 P9104 A102 B04  ;
N197 G0X1345.9Y1196.83  ;
N198 G65 P9102 A102 B04  ;
N199 G1X1345.9Y1199.69  ;
N200 G65 P9104 A102 B04  ;
N201 G0X1345.9Y1200.58  ;
N202 G65 P9102 A102 B04  ;
N203 G1X1335.9Y1200.58  ;
N204 G1X1345.9Y1207.73  ;
N205 G1X1335.9Y1207.73  ;
N206 G65 P9104 A102 B04  ;
N207 G0X1335.9Y1208.62  ;
N208 G65 P9102 A102 B04  ;
N209 G1X1335.9Y1215.76  ;
N210 G65 P9104 A102 B04  ;
N211 G0X1335.9Y1212.19  ;
N212 G65 P9102 A102 B04  ;
N213 G1X1345.9Y1212.19  ;
N214 G65 P9104 A102 B04  ;
N215 G0X1345.9Y1198.26  ;
N216 G65 P9102 A102 B04  ;
N217 G1X1335.9Y1198.26  ;
N218 G65 P9104 A102 B04  ;
N219 G0X1335.9Y1196.83  ;
N220 G65 P9102 A102 B04  ;
N221 G1X1335.9Y1199.69  ;
N222 G65 P9104 A102 B04  ;
N223 G0X1456.26Y1607.19  ;
N224 G65 P9102 A102 B04  ;
N225 G1X1464.76Y1612.09  ;
N226 G1X1464.76Y1621.91  ;
N227 G1X1456.26Y1626.81  ;
N228 G1X1447.76Y1621.91  ;
N229 G1X1447.76Y1612.09  ;
N230 G1X1456.26Y1607.19  ;
N231 G65 P9104 A102 B04  ;
N232 G0X1456.26Y2057.19  ;
N233 G65 P9102 A102 B04  ;
N234 G1X1464.76Y2062.09  ;
N235 G1X1464.76Y2071.91  ;
N236 G1X1456.26Y2076.81  ;
N237 G1X1447.76Y2071.91  ;
N238 G1X1447.76Y2062.09  ;
N239 G1X1456.26Y2057.19  ;
N240 G65 P9104 A101 B02  ;
N241 G0X1453.92Y2069.26  ;
N242 G65 P9102 A101 B02  ;
N243 G1X1451.84Y2071.35  ;
N244 G3X1451.87Y2071.38I4.42J-4.35  ;
N245 G65 P9104 A101 B02  ;
N246 G0X1318Y2149.56  ;
N247 G65 P9102 A101 B02  ;
N248 G1X1315.92Y2151.64  ;
N249 G3X1315.95Y2151.68I21.21J-21.14  ;
N250 G65 P9104 A101 B02  ;
N251 G0X1318Y1849.56  ;
N252 G65 P9102 A101 B02  ;
N253 G1X1315.92Y1851.64  ;
N254 G3X1315.95Y1851.68I21.21J-21.14  ;
N255 G65 P9104 A101 B02  ;
N256 G0X1260.63Y1797.05  ;
N257 G65 P9102 A101 B02  ;
N258 G1X1263.63Y1797.05  ;
N259 G1X1267.08Y1797.05  ;
N260 G1X1267.08Y1798.45  ;
N261 G1X1257.18Y1798.45  ;
N262 G1X1257.18Y1788.55  ;
N263 G1X1260.72Y1788.55  ;
N264 G1X1261.75Y1787.52  ;
N265 G1X1261.75Y1683.48  ;
N266 G1X1260.72Y1682.45  ;
N267 G1X1257.18Y1682.45  ;
N268 G1X1257.18Y1672.55  ;
N269 G1X1267.08Y1672.55  ;
N270 G1X1267.08Y1673.95  ;
N271 G1X1263.58Y1673.95  ;
N272 G1X1263.58Y1797  ;
N273 G65 P9104 A101 B02  ;
N274 G0X1290.3Y1734.63  ;
N275 G65 P9102 A101 B02  ;
N276 G1X1288.15Y1734.63  ;
N277 G2X1287.28Y1735.5I0J0.87  ;
N278 G1X1287.28Y1738.05  ;
N279 G1X1292.98Y1738.05  ;
N280 G1X1292.98Y1732.95  ;
N281 G1X1287.28Y1732.95  ;
N282 G1X1287.28Y1735.5  ;
N283 G65 P9104 A101 B02  ;
N284 G0X1413.63Y1797.05  ;
N285 G65 P9102 A101 B02  ;
N286 G1X1410.63Y1797.05  ;
N287 G1X1407.18Y1797.05  ;
N288 G1X1407.18Y1798.45  ;
N289 G1X1417.08Y1798.45  ;
N290 G1X1417.08Y1788.55  ;
N291 G1X1413.54Y1788.55  ;
N292 G1X1412.51Y1787.52  ;
N293 G1X1412.51Y1683.48  ;
N294 G1X1413.54Y1682.45  ;
N295 G1X1417.08Y1682.45  ;
N296 G1X1417.08Y1672.55  ;
N297 G1X1407.18Y1672.55  ;
N298 G1X1407.18Y1673.95  ;
N299 G1X1410.68Y1673.95  ;
N300 G1X1410.68Y1797  ;
N301 G65 P9104 A101 B02  ;
N302 G0X1453.92Y1619.26  ;
N303 G65 P9102 A101 B02  ;
N304 G1X1451.84Y1621.35  ;
N305 G3X1451.87Y1621.38I4.42J-4.35  ;
N306 G65 P9104 A101 B02  ;
N307 G0X1318Y1499.56  ;
N308 G65 P9102 A101 B02  ;
N309 G1X1315.92Y1501.64  ;
N310 G3X1315.95Y1501.68I21.21J-21.14  ;
N311 G65 P9104 A101 B02  ;
N312 G0X1260.63Y1247.05  ;
N313 G65 P9102 A101 B02  ;
N314 G1X1263.63Y1247.05  ;
N315 G1X1267.08Y1247.05  ;
N316 G1X1267.08Y1248.45  ;
N317 G1X1257.18Y1248.45  ;
N318 G1X1257.18Y1238.55  ;
N319 G1X1260.72Y1238.55  ;
N320 G1X1261.75Y1237.52  ;
N321 G1X1261.75Y1133.48  ;
N322 G1X1260.72Y1132.45  ;
N323 G1X1257.18Y1132.45  ;
N324 G1X1257.18Y1122.55  ;
N325 G1X1267.08Y1122.55  ;
N326 G1X1267.08Y1123.95  ;
N327 G1X1263.58Y1123.95  ;
N328 G1X1263.58Y1247  ;
N329 G65 P9104 A101 B02  ;
N330 G0X1290.3Y1184.63  ;
N331 G65 P9102 A101 B02  ;
N332 G1X1288.15Y1184.63  ;
N333 G2X1287.28Y1185.5I0J0.87  ;
N334 G1X1287.28Y1188.05  ;
N335 G1X1292.98Y1188.05  ;
N336 G1X1292.98Y1182.95  ;
N337 G1X1287.28Y1182.95  ;
N338 G1X1287.28Y1185.5  ;
N339 G65 P9104 A101 B02  ;
N340 G0X1413.63Y1247.05  ;
N341 G65 P9102 A101 B02  ;
N342 G1X1410.63Y1247.05  ;
N343 G1X1407.18Y1247.05  ;
N344 G1X1407.18Y1248.45  ;
N345 G1X1417.08Y1248.45  ;
N346 G1X1417.08Y1238.55  ;
N347 G1X1413.54Y1238.55  ;
N348 G1X1412.51Y1237.52  ;
N349 G1X1412.51Y1133.48  ;
N350 G1X1413.54Y1132.45  ;
N351 G1X1417.08Y1132.45  ;
N352 G1X1417.08Y1122.55  ;
N353 G1X1407.18Y1122.55  ;
N354 G1X1407.18Y1123.95  ;
N355 G1X1410.68Y1123.95  ;
N356 G1X1410.68Y1247  ;
N357 G65 P9104 A101 B02  ;
N358 G0X1453.92Y1169.26  ;
N359 G65 P9102 A101 B02  ;
N360 G1X1451.84Y1171.35  ;
N361 G3X1451.87Y1171.38I4.42J-4.35  ;
N362 G65 P9104 A101 B02  ;
N363 G0X1318Y832.06  ;
N364 G65 P9102 A101 B02  ;
N365 G1X1315.92Y834.14  ;
N366 G3X1315.95Y834.18I21.21J-21.14  ;
N367 G65 P9104 A101 B02  ;
N368 G0X1260.63Y697.05  ;
N369 G65 P9102 A101 B02  ;
N370 G1X1263.63Y697.05  ;
N371 G1X1267.08Y697.05  ;
N372 G1X1267.08Y698.45  ;
N373 G1X1257.18Y698.45  ;
N374 G1X1257.18Y688.55  ;
N375 G1X1260.72Y688.55  ;
N376 G1X1261.75Y687.52  ;
N377 G1X1261.75Y583.48  ;
N378 G1X1260.72Y582.45  ;
N379 G1X1257.18Y582.45  ;
N380 G1X1257.18Y572.55  ;
N381 G1X1267.08Y572.55  ;
N382 G1X1267.08Y573.95  ;
N383 G1X1263.58Y573.95  ;
N384 G1X1263.58Y697  ;
N385 G65 P9104 A101 B02  ;
N386 G0X1290.3Y634.63  ;
N387 G65 P9102 A101 B02  ;
N388 G1X1288.15Y634.63  ;
N389 G2X1287.28Y635.5I0J0.87  ;
N390 G1X1287.28Y638.05  ;
N391 G1X1292.98Y638.05  ;
N392 G1X1292.98Y632.95  ;
N393 G1X1287.28Y632.95  ;
N394 G1X1287.28Y635.5  ;
N395 G65 P9104 A101 B02  ;
N396 G0X1413.63Y697.05  ;
N397 G65 P9102 A101 B02  ;
N398 G1X1410.63Y697.05  ;
N399 G1X1407.18Y697.05  ;
N400 G1X1407.18Y698.45  ;
N401 G1X1417.08Y698.45  ;
N402 G1X1417.08Y688.55  ;
N403 G1X1413.54Y688.55  ;
N404 G1X1412.51Y687.52  ;
N405 G1X1412.51Y583.48  ;
N406 G1X1413.54Y582.45  ;
N407 G1X1417.08Y582.45  ;
N408 G1X1417.08Y572.55  ;
N409 G1X1407.18Y572.55  ;
N410 G1X1407.18Y573.95  ;
N411 G1X1410.68Y573.95  ;
N412 G1X1410.68Y697  ;
N413 G65 P9104 A101 B02  ;
N414 G0X1453.92Y719.26  ;
N415 G65 P9102 A101 B02  ;
N416 G1X1451.84Y721.35  ;
N417 G3X1451.87Y721.38I4.42J-4.35  ;
N418 G65 P9104 A101 B02  ;
N419 G0X1318Y482.06  ;
N420 G65 P9102 A101 B02  ;
N421 G1X1315.92Y484.14  ;
N422 G3X1315.95Y484.18I21.21J-21.14  ;
N423 G65 P9104 A101 B02  ;
N424 G0X1453.92Y269.26  ;
N425 G65 P9102 A101 B02  ;
N426 G1X1451.84Y271.35  ;
N427 G3X1451.87Y271.38I4.42J-4.35  ;
N428 G65 P9104 A101 B02  ;
N429 G0X1318Y182.06  ;
N430 G65 P9102 A101 B02  ;
N431 G1X1315.92Y184.14  ;
N432 G3X1315.95Y184.18I21.21J-21.14  ;
N433 G65 P9104 A101 B01  ;
N434 G0X1381.13Y18.95  ;
N435 G65 P9102 A101 B01  ;
N436 G1X1378.13Y18.95  ;
N437 G1X1356.68Y18.95  ;
N438 G1X1356.68Y15.5  ;
N439 G2X1356.13Y14.95I-0.55J0  ;
N440 G1X1318.13Y14.95  ;
N441 G2X1317.58Y15.5I0J0.55  ;
N442 G1X1317.58Y18.95  ;
N443 G1X1296.11Y18.95  ;
N444 G1X1262.58Y52.98  ;
N445 G1X1262.58Y148.05  ;
N446 G1X1267.08Y148.05  ;
N447 G1X1267.08Y153.95  ;
N448 G1X1256.05Y153.95  ;
N449 G1X1256.05Y149.45  ;
N450 G1X1197.05Y149.45  ;
N451 G1X1197.05Y147.95  ;
N452 G1X1190.95Y147.95  ;
N453 G1X1190.95Y632.95  ;
N454 G1X1196.65Y632.95  ;
N455 G1X1196.65Y638.05  ;
N456 G1X1190.95Y638.05  ;
N457 G1X1190.95Y1182.95  ;
N458 G1X1196.65Y1182.95  ;
N459 G1X1196.65Y1188.05  ;
N460 G1X1190.95Y1188.05  ;
N461 G1X1190.95Y1732.95  ;
N462 G1X1196.65Y1732.95  ;
N463 G1X1196.65Y1738.05  ;
N464 G1X1190.95Y1738.05  ;
N465 G1X1190.95Y2189.05  ;
N466 G1X1197.05Y2189.05  ;
N467 G1X1197.05Y2187.55  ;
N468 G1X1256.05Y2187.55  ;
N469 G1X1256.05Y2184.55  ;
N470 G1X1267.08Y2184.55  ;
N471 G1X1267.08Y2190.45  ;
N472 G1X1262.58Y2190.45  ;
N473 G1X1262.58Y2240.52  ;
N474 G1X1296.11Y2273.55  ;
N475 G1X1317.58Y2273.55  ;
N476 G1X1317.58Y2278  ;
N477 G2X1318.13Y2278.55I0.55J0  ;
N478 G1X1356.13Y2278.55  ;
N479 G2X1356.68Y2278I0J-0.55  ;
N480 G1X1356.68Y2273.55  ;
N481 G1X1378.15Y2273.55  ;
N482 G1X1411.68Y2240.52  ;
N483 G1X1411.68Y2190.45  ;
N484 G1X1407.18Y2190.45  ;
N485 G1X1407.18Y2184.55  ;
N486 G1X1418.21Y2184.55  ;
N487 G1X1418.21Y2187.55  ;
N488 G1X1477.21Y2187.55  ;
N489 G1X1477.21Y2189.05  ;
N490 G1X1483.31Y2189.05  ;
N491 G1X1483.31Y1738.05  ;
N492 G1X1477.61Y1738.05  ;
N493 G1X1477.61Y1732.95  ;
N494 G1X1483.31Y1732.95  ;
N495 G1X1483.31Y1188.05  ;
N496 G1X1477.61Y1188.05  ;
N497 G1X1477.61Y1182.95  ;
N498 G1X1483.31Y1182.95  ;
N499 G1X1483.31Y638.05  ;
N500 G1X1477.61Y638.05  ;
N501 G1X1477.61Y632.95  ;
N502 G1X1483.31Y632.95  ;
N503 G1X1483.31Y147.95  ;
N504 G1X1477.21Y147.95  ;
N505 G1X1477.21Y149.45  ;
N506 G1X1418.21Y149.45  ;
N507 G1X1418.21Y153.95  ;
N508 G1X1407.18Y153.95  ;
N509 G1X1407.18Y148.05  ;
N510 G1X1411.68Y148.05  ;
N511 G1X1411.68Y52.98  ;
N512 G1X1378.16Y18.96  ;
N513 G65 P9104 A102 B04  ;
N514 M98 P9103  ;
(P5:ID2:W86011518)  ;
N515 M98 P9101  ;
N516 G0X1152.26Y257.19  ;
N517 G65 P9102 A102 B04  ;
N518 G1X1160.76Y262.09  ;
N519 G1X1160.76Y271.91  ;
N520 G1X1152.26Y276.81  ;
N521 G1X1143.76Y271.91  ;
N522 G1X1143.76Y262.09  ;
N523 G1X1152.26Y257.19  ;
N524 G65 P9104 A102 B04  ;
N525 G0X1152.26Y707.19  ;
N526 G65 P9102 A102 B04  ;
N527 G1X1160.76Y712.09  ;
N528 G1X1160.76Y721.91  ;
N529 G1X1152.26Y726.81  ;
N530 G1X1143.76Y721.91  ;
N531 G1X1143.76Y712.09  ;
N532 G1X1152.26Y707.19  ;
N533 G65 P9104 A102 B04  ;
N534 G0X1152.26Y1157.19  ;
N535 G65 P9102 A102 B04  ;
N536 G1X1160.76Y1162.09  ;
N537 G1X1160.76Y1171.91  ;
N538 G1X1152.26Y1176.81  ;
N539 G1X1143.76Y1171.91  ;
N540 G1X1143.76Y1162.09  ;
N541 G1X1152.26Y1157.19  ;
N542 G65 P9104 A102 B04  ;
N543 G0X1041.9Y1196.83  ;
N544 G65 P9102 A102 B04  ;
N545 G1X1041.9Y1199.69  ;
N546 G65 P9104 A102 B04  ;
N547 G0X1041.9Y1200.58  ;
N548 G65 P9102 A102 B04  ;
N549 G1X1031.9Y1200.58  ;
N550 G1X1041.9Y1207.73  ;
N551 G1X1031.9Y1207.73  ;
N552 G65 P9104 A102 B04  ;
N553 G0X1031.9Y1208.62  ;
N554 G65 P9102 A102 B04  ;
N555 G1X1031.9Y1215.76  ;
N556 G65 P9104 A102 B04  ;
N557 G0X1031.9Y1212.19  ;
N558 G65 P9102 A102 B04  ;
N559 G1X1041.9Y1212.19  ;
N560 G65 P9104 A102 B04  ;
N561 G0X1041.9Y1198.26  ;
N562 G65 P9102 A102 B04  ;
N563 G1X1031.9Y1198.26  ;
N564 G65 P9104 A102 B04  ;
N565 G0X1031.9Y1196.83  ;
N566 G65 P9102 A102 B04  ;
N567 G1X1031.9Y1199.69  ;
N568 G65 P9104 A102 B04  ;
N569 G0X1152.26Y1607.19  ;
N570 G65 P9102 A102 B04  ;
N571 G1X1160.76Y1612.09  ;
N572 G1X1160.76Y1621.91  ;
N573 G1X1152.26Y1626.81  ;
N574 G1X1143.76Y1621.91  ;
N575 G1X1143.76Y1612.09  ;
N576 G1X1152.26Y1607.19  ;
N577 G65 P9104 A102 B04  ;
N578 G0X1152.26Y2057.19  ;
N579 G65 P9102 A102 B04  ;
N580 G1X1160.76Y2062.09  ;
N581 G1X1160.76Y2071.91  ;
N582 G1X1152.26Y2076.81  ;
N583 G1X1143.76Y2071.91  ;
N584 G1X1143.76Y2062.09  ;
N585 G1X1152.26Y2057.19  ;
N586 G65 P9104 A101 B02  ;
N587 G0X1149.92Y2069.26  ;
N588 G65 P9102 A101 B02  ;
N589 G1X1147.84Y2071.35  ;
N590 G3X1147.87Y2071.38I4.42J-4.35  ;
N591 G65 P9104 A101 B02  ;
N592 G0X1014Y2149.56  ;
N593 G65 P9102 A101 B02  ;
N594 G1X1011.92Y2151.64  ;
N595 G3X1011.95Y2151.68I21.21J-21.14  ;
N596 G65 P9104 A101 B02  ;
N597 G0X1014Y1849.56  ;
N598 G65 P9102 A101 B02  ;
N599 G1X1011.92Y1851.64  ;
N600 G3X1011.95Y1851.68I21.21J-21.14  ;
N601 G65 P9104 A101 B02  ;
N602 G0X956.63Y1797.05  ;
N603 G65 P9102 A101 B02  ;
N604 G1X959.63Y1797.05  ;
N605 G1X963.08Y1797.05  ;
N606 G1X963.08Y1798.45  ;
N607 G1X953.18Y1798.45  ;
N608 G1X953.18Y1788.55  ;
N609 G1X956.72Y1788.55  ;
N610 G1X957.75Y1787.52  ;
N611 G1X957.75Y1683.48  ;
N612 G1X956.72Y1682.45  ;
N613 G1X953.18Y1682.45  ;
N614 G1X953.18Y1672.55  ;
N615 G1X963.08Y1672.55  ;
N616 G1X963.08Y1673.95  ;
N617 G1X959.58Y1673.95  ;
N618 G1X959.58Y1797  ;
N619 G65 P9104 A101 B02  ;
N620 G0X986.3Y1734.63  ;
N621 G65 P9102 A101 B02  ;
N622 G1X984.15Y1734.63  ;
N623 G2X983.28Y1735.5I0J0.87  ;
N624 G1X983.28Y1738.05  ;
N625 G1X988.98Y1738.05  ;
N626 G1X988.98Y1732.95  ;
N627 G1X983.28Y1732.95  ;
N628 G1X983.28Y1735.5  ;
N629 G65 P9104 A101 B02  ;
N630 G0X1109.63Y1797.05  ;
N631 G65 P9102 A101 B02  ;
N632 G1X1106.63Y1797.05  ;
N633 G1X1103.18Y1797.05  ;
N634 G1X1103.18Y1798.45  ;
N635 G1X1113.08Y1798.45  ;
N636 G1X1113.08Y1788.55  ;
N637 G1X1109.54Y1788.55  ;
N638 G1X1108.51Y1787.52  ;
N639 G1X1108.51Y1683.48  ;
N640 G1X1109.54Y1682.45  ;
N641 G1X1113.08Y1682.45  ;
N642 G1X1113.08Y1672.55  ;
N643 G1X1103.18Y1672.55  ;
N644 G1X1103.18Y1673.95  ;
N645 G1X1106.68Y1673.95  ;
N646 G1X1106.68Y1797  ;
N647 G65 P9104 A101 B02  ;
N648 G0X1149.92Y1619.26  ;
N649 G65 P9102 A101 B02  ;
N650 G1X1147.84Y1621.35  ;
N651 G3X1147.87Y1621.38I4.42J-4.35  ;
N652 G65 P9104 A101 B02  ;
N653 G0X1014Y1499.56  ;
N654 G65 P9102 A101 B02  ;
N655 G1X1011.92Y1501.64  ;
N656 G3X1011.95Y1501.68I21.21J-21.14  ;
N657 G65 P9104 A101 B02  ;
N658 G0X956.63Y1247.05  ;
N659 G65 P9102 A101 B02  ;
N660 G1X959.63Y1247.05  ;
N661 G1X963.08Y1247.05  ;
N662 G1X963.08Y1248.45  ;
N663 G1X953.18Y1248.45  ;
N664 G1X953.18Y1238.55  ;
N665 G1X956.72Y1238.55  ;
N666 G1X957.75Y1237.52  ;
N667 G1X957.75Y1133.48  ;
N668 G1X956.72Y1132.45  ;
N669 G1X953.18Y1132.45  ;
N670 G1X953.18Y1122.55  ;
N671 G1X963.08Y1122.55  ;
N672 G1X963.08Y1123.95  ;
N673 G1X959.58Y1123.95  ;
N674 G1X959.58Y1247  ;
N675 G65 P9104 A101 B02  ;
N676 G0X986.3Y1184.63  ;
N677 G65 P9102 A101 B02  ;
N678 G1X984.15Y1184.63  ;
N679 G2X983.28Y1185.5I0J0.87  ;
N680 G1X983.28Y1188.05  ;
N681 G1X988.98Y1188.05  ;
N682 G1X988.98Y1182.95  ;
N683 G1X983.28Y1182.95  ;
N684 G1X983.28Y1185.5  ;
N685 G65 P9104 A101 B02  ;
N686 G0X1109.63Y1247.05  ;
N687 G65 P9102 A101 B02  ;
N688 G1X1106.63Y1247.05  ;
N689 G1X1103.18Y1247.05  ;
N690 G1X1103.18Y1248.45  ;
N691 G1X1113.08Y1248.45  ;
N692 G1X1113.08Y1238.55  ;
N693 G1X1109.54Y1238.55  ;
N694 G1X1108.51Y1237.52  ;
N695 G1X1108.51Y1133.48  ;
N696 G1X1109.54Y1132.45  ;
N697 G1X1113.08Y1132.45  ;
N698 G1X1113.08Y1122.55  ;
N699 G1X1103.18Y1122.55  ;
N700 G1X1103.18Y1123.95  ;
N701 G1X1106.68Y1123.95  ;
N702 G1X1106.68Y1247  ;
N703 G65 P9104 A101 B02  ;
N704 G0X1149.92Y1169.26  ;
N705 G65 P9102 A101 B02  ;
N706 G1X1147.84Y1171.35  ;
N707 G3X1147.87Y1171.38I4.42J-4.35  ;
N708 G65 P9104 A101 B02  ;
N709 G0X1014Y832.06  ;
N710 G65 P9102 A101 B02  ;
N711 G1X1011.92Y834.14  ;
N712 G3X1011.95Y834.18I21.21J-21.14  ;
N713 G65 P9104 A101 B02  ;
N714 G0X956.63Y697.05  ;
N715 G65 P9102 A101 B02  ;
N716 G1X959.63Y697.05  ;
N717 G1X963.08Y697.05  ;
N718 G1X963.08Y698.45  ;
N719 G1X953.18Y698.45  ;
N720 G1X953.18Y688.55  ;
N721 G1X956.72Y688.55  ;
N722 G1X957.75Y687.52  ;
N723 G1X957.75Y583.48  ;
N724 G1X956.72Y582.45  ;
N725 G1X953.18Y582.45  ;
N726 G1X953.18Y572.55  ;
N727 G1X963.08Y572.55  ;
N728 G1X963.08Y573.95  ;
N729 G1X959.58Y573.95  ;
N730 G1X959.58Y697  ;
N731 G65 P9104 A101 B02  ;
N732 G0X986.3Y634.63  ;
N733 G65 P9102 A101 B02  ;
N734 G1X984.15Y634.63  ;
N735 G2X983.28Y635.5I0J0.87  ;
N736 G1X983.28Y638.05  ;
N737 G1X988.98Y638.05  ;
N738 G1X988.98Y632.95  ;
N739 G1X983.28Y632.95  ;
N740 G1X983.28Y635.5  ;
N741 G65 P9104 A101 B02  ;
N742 G0X1109.63Y697.05  ;
N743 G65 P9102 A101 B02  ;
N744 G1X1106.63Y697.05  ;
N745 G1X1103.18Y697.05  ;
N746 G1X1103.18Y698.45  ;
N747 G1X1113.08Y698.45  ;
N748 G1X1113.08Y688.55  ;
N749 G1X1109.54Y688.55  ;
N750 G1X1108.51Y687.52  ;
N751 G1X1108.51Y583.48  ;
N752 G1X1109.54Y582.45  ;
N753 G1X1113.08Y582.45  ;
N754 G1X1113.08Y572.55  ;
N755 G1X1103.18Y572.55  ;
N756 G1X1103.18Y573.95  ;
N757 G1X1106.68Y573.95  ;
N758 G1X1106.68Y697  ;
N759 G65 P9104 A101 B02  ;
N760 G0X1149.92Y719.26  ;
N761 G65 P9102 A101 B02  ;
N762 G1X1147.84Y721.35  ;
N763 G3X1147.87Y721.38I4.42J-4.35  ;
N764 G65 P9104 A101 B02  ;
N765 G0X1014Y482.06  ;
N766 G65 P9102 A101 B02  ;
N767 G1X1011.92Y484.14  ;
N768 G3X1011.95Y484.18I21.21J-21.14  ;
N769 G65 P9104 A101 B02  ;
N770 G0X1149.92Y269.26  ;
N771 G65 P9102 A101 B02  ;
N772 G1X1147.84Y271.35  ;
N773 G3X1147.87Y271.38I4.42J-4.35  ;
N774 G65 P9104 A101 B02  ;
N775 G0X1014Y182.06  ;
N776 G65 P9102 A101 B02  ;
N777 G1X1011.92Y184.14  ;
N778 G3X1011.95Y184.18I21.21J-21.14  ;
N779 G65 P9104 A101 B01  ;
N780 G0X1077.13Y18.95  ;
N781 G65 P9102 A101 B01  ;
N782 G1X1074.13Y18.95  ;
N783 G1X1052.68Y18.95  ;
N784 G1X1052.68Y15.5  ;
N785 G2X1052.13Y14.95I-0.55J0  ;
N786 G1X1014.13Y14.95  ;
N787 G2X1013.58Y15.5I0J0.55  ;
N788 G1X1013.58Y18.95  ;
N789 G1X992.11Y18.95  ;
N790 G1X958.58Y52.98  ;
N791 G1X958.58Y148.05  ;
N792 G1X963.08Y148.05  ;
N793 G1X963.08Y153.95  ;
N794 G1X952.05Y153.95  ;
N795 G1X952.05Y149.45  ;
N796 G1X893.05Y149.45  ;
N797 G1X893.05Y147.95  ;
N798 G1X886.95Y147.95  ;
N799 G1X886.95Y632.95  ;
N800 G1X892.65Y632.95  ;
N801 G1X892.65Y638.05  ;
N802 G1X886.95Y638.05  ;
N803 G1X886.95Y1182.95  ;
N804 G1X892.65Y1182.95  ;
N805 G1X892.65Y1188.05  ;
N806 G1X886.95Y1188.05  ;
N807 G1X886.95Y1732.95  ;
N808 G1X892.65Y1732.95  ;
N809 G1X892.65Y1738.05  ;
N810 G1X886.95Y1738.05  ;
N811 G1X886.95Y2189.05  ;
N812 G1X893.05Y2189.05  ;
N813 G1X893.05Y2187.55  ;
N814 G1X952.05Y2187.55  ;
N815 G1X952.05Y2184.55  ;
N816 G1X963.08Y2184.55  ;
N817 G1X963.08Y2190.45  ;
N818 G1X958.58Y2190.45  ;
N819 G1X958.58Y2240.52  ;
N820 G1X992.11Y2273.55  ;
N821 G1X1013.58Y2273.55  ;
N822 G1X1013.58Y2278  ;
N823 G2X1014.13Y2278.55I0.55J0  ;
N824 G1X1052.13Y2278.55  ;
N825 G2X1052.68Y2278I0J-0.55  ;
N826 G1X1052.68Y2273.55  ;
N827 G1X1074.15Y2273.55  ;
N828 G1X1107.68Y2240.52  ;
N829 G1X1107.68Y2190.45  ;
N830 G1X1103.18Y2190.45  ;
N831 G1X1103.18Y2184.55  ;
N832 G1X1114.21Y2184.55  ;
N833 G1X1114.21Y2187.55  ;
N834 G1X1173.21Y2187.55  ;
N835 G1X1173.21Y2189.05  ;
N836 G1X1179.31Y2189.05  ;
N837 G1X1179.31Y1738.05  ;
N838 G1X1173.61Y1738.05  ;
N839 G1X1173.61Y1732.95  ;
N840 G1X1179.31Y1732.95  ;
N841 G1X1179.31Y1188.05  ;
N842 G1X1173.61Y1188.05  ;
N843 G1X1173.61Y1182.95  ;
N844 G1X1179.31Y1182.95  ;
N845 G1X1179.31Y638.05  ;
N846 G1X1173.61Y638.05  ;
N847 G1X1173.61Y632.95  ;
N848 G1X1179.31Y632.95  ;
N849 G1X1179.31Y147.95  ;
N850 G1X1173.21Y147.95  ;
N851 G1X1173.21Y149.45  ;
N852 G1X1114.21Y149.45  ;
N853 G1X1114.21Y153.95  ;
N854 G1X1103.18Y153.95  ;
N855 G1X1103.18Y148.05  ;
N856 G1X1107.68Y148.05  ;
N857 G1X1107.68Y52.98  ;
N858 G1X1074.16Y18.96  ;
N859 G65 P9104 A102 B04  ;
N860 M98 P9103  ;
(P6:ID2:W86011518)  ;
N861 M98 P9101  ;
N862 G0X848.26Y257.19  ;
N863 G65 P9102 A102 B04  ;
N864 G1X856.76Y262.09  ;
N865 G1X856.76Y271.91  ;
N866 G1X848.26Y276.81  ;
N867 G1X839.76Y271.91  ;
N868 G1X839.76Y262.09  ;
N869 G1X848.26Y257.19  ;
N870 G65 P9104 A102 B04  ;
N871 G0X848.26Y707.19  ;
N872 G65 P9102 A102 B04  ;
N873 G1X856.76Y712.09  ;
N874 G1X856.76Y721.91  ;
N875 G1X848.26Y726.81  ;
N876 G1X839.76Y721.91  ;
N877 G1X839.76Y712.09  ;
N878 G1X848.26Y707.19  ;
N879 G65 P9104 A102 B04  ;
N880 G0X848.26Y1157.19  ;
N881 G65 P9102 A102 B04  ;
N882 G1X856.76Y1162.09  ;
N883 G1X856.76Y1171.91  ;
N884 G1X848.26Y1176.81  ;
N885 G1X839.76Y1171.91  ;
N886 G1X839.76Y1162.09  ;
N887 G1X848.26Y1157.19  ;
N888 G65 P9104 A102 B04  ;
N889 G0X737.9Y1196.83  ;
N890 G65 P9102 A102 B04  ;
N891 G1X737.9Y1199.69  ;
N892 G65 P9104 A102 B04  ;
N893 G0X737.9Y1200.58  ;
N894 G65 P9102 A102 B04  ;
N895 G1X727.9Y1200.58  ;
N896 G1X737.9Y1207.73  ;
N897 G1X727.9Y1207.73  ;
N898 G65 P9104 A102 B04  ;
N899 G0X727.9Y1208.62  ;
N900 G65 P9102 A102 B04  ;
N901 G1X727.9Y1215.76  ;
N902 G65 P9104 A102 B04  ;
N903 G0X727.9Y1212.19  ;
N904 G65 P9102 A102 B04  ;
N905 G1X737.9Y1212.19  ;
N906 G65 P9104 A102 B04  ;
N907 G0X737.9Y1198.26  ;
N908 G65 P9102 A102 B04  ;
N909 G1X727.9Y1198.26  ;
N910 G65 P9104 A102 B04  ;
N911 G0X727.9Y1196.83  ;
N912 G65 P9102 A102 B04  ;
N913 G1X727.9Y1199.69  ;
N914 G65 P9104 A102 B04  ;
N915 G0X848.26Y1607.19  ;
N916 G65 P9102 A102 B04  ;
N917 G1X856.76Y1612.09  ;
N918 G1X856.76Y1621.91  ;
N919 G1X848.26Y1626.81  ;
N920 G1X839.76Y1621.91  ;
N921 G1X839.76Y1612.09  ;
N922 G1X848.26Y1607.19  ;
N923 G65 P9104 A102 B04  ;
N924 G0X848.26Y2057.19  ;
N925 G65 P9102 A102 B04  ;
N926 G1X856.76Y2062.09  ;
N927 G1X856.76Y2071.91  ;
N928 G1X848.26Y2076.81  ;
N929 G1X839.76Y2071.91  ;
N930 G1X839.76Y2062.09  ;
N931 G1X848.26Y2057.19  ;
N932 G65 P9104 A101 B02  ;
N933 G0X845.92Y2069.26  ;
N934 G65 P9102 A101 B02  ;
N935 G1X843.84Y2071.35  ;
N936 G3X843.87Y2071.38I4.42J-4.35  ;
N937 G65 P9104 A101 B02  ;
N938 G0X710Y2149.56  ;
N939 G65 P9102 A101 B02  ;
N940 G1X707.92Y2151.64  ;
N941 G3X707.95Y2151.68I21.21J-21.14  ;
N942 G65 P9104 A101 B02  ;
N943 G0X710Y1849.56  ;
N944 G65 P9102 A101 B02  ;
N945 G1X707.92Y1851.64  ;
N946 G3X707.95Y1851.68I21.21J-21.14  ;
N947 G65 P9104 A101 B02  ;
N948 G0X652.63Y1797.05  ;
N949 G65 P9102 A101 B02  ;
N950 G1X655.63Y1797.05  ;
N951 G1X659.08Y1797.05  ;
N952 G1X659.08Y1798.45  ;
N953 G1X649.18Y1798.45  ;
N954 G1X649.18Y1788.55  ;
N955 G1X652.72Y1788.55  ;
N956 G1X653.75Y1787.52  ;
N957 G1X653.75Y1683.48  ;
N958 G1X652.72Y1682.45  ;
N959 G1X649.18Y1682.45  ;
N960 G1X649.18Y1672.55  ;
N961 G1X659.08Y1672.55  ;
N962 G1X659.08Y1673.95  ;
N963 G1X655.58Y1673.95  ;
N964 G1X655.58Y1797  ;
N965 G65 P9104 A101 B02  ;
N966 G0X682.3Y1734.63  ;
N967 G65 P9102 A101 B02  ;
N968 G1X680.15Y1734.63  ;
N969 G2X679.28Y1735.5I0J0.87  ;
N970 G1X679.28Y1738.05  ;
N971 G1X684.98Y1738.05  ;
N972 G1X684.98Y1732.95  ;
N973 G1X679.28Y1732.95  ;
N974 G1X679.28Y1735.5  ;
N975 G65 P9104 A101 B02  ;
N976 G0X805.63Y1797.05  ;
N977 G65 P9102 A101 B02  ;
N978 G1X802.63Y1797.05  ;
N979 G1X799.18Y1797.05  ;
N980 G1X799.18Y1798.45  ;
N981 G1X809.08Y1798.45  ;
N982 G1X809.08Y1788.55  ;
N983 G1X805.54Y1788.55  ;
N984 G1X804.51Y1787.52  ;
N985 G1X804.51Y1683.48  ;
N986 G1X805.54Y1682.45  ;
N987 G1X809.08Y1682.45  ;
N988 G1X809.08Y1672.55  ;
N989 G1X799.18Y1672.55  ;
N990 G1X799.18Y1673.95  ;
N991 G1X802.68Y1673.95  ;
N992 G1X802.68Y1797  ;
N993 G65 P9104 A101 B02  ;
N994 G0X845.92Y1619.26  ;
N995 G65 P9102 A101 B02  ;
N996 G1X843.84Y1621.35  ;
N997 G3X843.87Y1621.38I4.42J-4.35  ;
N998 G65 P9104 A101 B02  ;
N999 G0X710Y1499.56  ;
N1000 G65 P9102 A101 B02  ;
N1001 G1X707.92Y1501.64  ;
N1002 G3X707.95Y1501.68I21.21J-21.14  ;
N1003 G65 P9104 A101 B02  ;
N1004 G0X652.63Y1247.05  ;
N1005 G65 P9102 A101 B02  ;
N1006 G1X655.63Y1247.05  ;
N1007 G1X659.08Y1247.05  ;
N1008 G1X659.08Y1248.45  ;
N1009 G1X649.18Y1248.45  ;
N1010 G1X649.18Y1238.55  ;
N1011 G1X652.72Y1238.55  ;
N1012 G1X653.75Y1237.52  ;
N1013 G1X653.75Y1133.48  ;
N1014 G1X652.72Y1132.45  ;
N1015 G1X649.18Y1132.45  ;
N1016 G1X649.18Y1122.55  ;
N1017 G1X659.08Y1122.55  ;
N1018 G1X659.08Y1123.95  ;
N1019 G1X655.58Y1123.95  ;
N1020 G1X655.58Y1247  ;
N1021 G65 P9104 A101 B02  ;
N1022 G0X682.3Y1184.63  ;
N1023 G65 P9102 A101 B02  ;
N1024 G1X680.15Y1184.63  ;
N1025 G2X679.28Y1185.5I0J0.87  ;
N1026 G1X679.28Y1188.05  ;
N1027 G1X684.98Y1188.05  ;
N1028 G1X684.98Y1182.95  ;
N1029 G1X679.28Y1182.95  ;
N1030 G1X679.28Y1185.5  ;
N1031 G65 P9104 A101 B02  ;
N1032 G0X805.63Y1247.05  ;
N1033 G65 P9102 A101 B02  ;
N1034 G1X802.63Y1247.05  ;
N1035 G1X799.18Y1247.05  ;
N1036 G1X799.18Y1248.45  ;
N1037 G1X809.08Y1248.45  ;
N1038 G1X809.08Y1238.55  ;
N1039 G1X805.54Y1238.55  ;
N1040 G1X804.51Y1237.52  ;
N1041 G1X804.51Y1133.48  ;
N1042 G1X805.54Y1132.45  ;
N1043 G1X809.08Y1132.45  ;
N1044 G1X809.08Y1122.55  ;
N1045 G1X799.18Y1122.55  ;
N1046 G1X799.18Y1123.95  ;
N1047 G1X802.68Y1123.95  ;
N1048 G1X802.68Y1247  ;
N1049 G65 P9104 A101 B02  ;
N1050 G0X845.92Y1169.26  ;
N1051 G65 P9102 A101 B02  ;
N1052 G1X843.84Y1171.35  ;
N1053 G3X843.87Y1171.38I4.42J-4.35  ;
N1054 G65 P9104 A101 B02  ;
N1055 G0X710Y832.06  ;
N1056 G65 P9102 A101 B02  ;
N1057 G1X707.92Y834.14  ;
N1058 G3X707.95Y834.18I21.21J-21.14  ;
N1059 G65 P9104 A101 B02  ;
N1060 G0X652.63Y697.05  ;
N1061 G65 P9102 A101 B02  ;
N1062 G1X655.63Y697.05  ;
N1063 G1X659.08Y697.05  ;
N1064 G1X659.08Y698.45  ;
N1065 G1X649.18Y698.45  ;
N1066 G1X649.18Y688.55  ;
N1067 G1X652.72Y688.55  ;
N1068 G1X653.75Y687.52  ;
N1069 G1X653.75Y583.48  ;
N1070 G1X652.72Y582.45  ;
N1071 G1X649.18Y582.45  ;
N1072 G1X649.18Y572.55  ;
N1073 G1X659.08Y572.55  ;
N1074 G1X659.08Y573.95  ;
N1075 G1X655.58Y573.95  ;
N1076 G1X655.58Y697  ;
N1077 G65 P9104 A101 B02  ;
N1078 G0X682.3Y634.63  ;
N1079 G65 P9102 A101 B02  ;
N1080 G1X680.15Y634.63  ;
N1081 G2X679.28Y635.5I0J0.87  ;
N1082 G1X679.28Y638.05  ;
N1083 G1X684.98Y638.05  ;
N1084 G1X684.98Y632.95  ;
N1085 G1X679.28Y632.95  ;
N1086 G1X679.28Y635.5  ;
N1087 G65 P9104 A101 B02  ;
N1088 G0X805.63Y697.05  ;
N1089 G65 P9102 A101 B02  ;
N1090 G1X802.63Y697.05  ;
N1091 G1X799.18Y697.05  ;
N1092 G1X799.18Y698.45  ;
N1093 G1X809.08Y698.45  ;
N1094 G1X809.08Y688.55  ;
N1095 G1X805.54Y688.55  ;
N1096 G1X804.51Y687.52  ;
N1097 G1X804.51Y583.48  ;
N1098 G1X805.54Y582.45  ;
N1099 G1X809.08Y582.45  ;
N1100 G1X809.08Y572.55  ;
N1101 G1X799.18Y572.55  ;
N1102 G1X799.18Y573.95  ;
N1103 G1X802.68Y573.95  ;
N1104 G1X802.68Y697  ;
N1105 G65 P9104 A101 B02  ;
N1106 G0X845.92Y719.26  ;
N1107 G65 P9102 A101 B02  ;
N1108 G1X843.84Y721.35  ;
N1109 G3X843.87Y721.38I4.42J-4.35  ;
N1110 G65 P9104 A101 B02  ;
N1111 G0X710Y482.06  ;
N1112 G65 P9102 A101 B02  ;
N1113 G1X707.92Y484.14  ;
N1114 G3X707.95Y484.18I21.21J-21.14  ;
N1115 G65 P9104 A101 B02  ;
N1116 G0X845.92Y269.26  ;
N1117 G65 P9102 A101 B02  ;
N1118 G1X843.84Y271.35  ;
N1119 G3X843.87Y271.38I4.42J-4.35  ;
N1120 G65 P9104 A101 B02  ;
N1121 G0X710Y182.06  ;
N1122 G65 P9102 A101 B02  ;
N1123 G1X707.92Y184.14  ;
N1124 G3X707.95Y184.18I21.21J-21.14  ;
N1125 G65 P9104 A101 B01  ;
N1126 G0X773.13Y18.95  ;
N1127 G65 P9102 A101 B01  ;
N1128 G1X770.13Y18.95  ;
N1129 G1X748.68Y18.95  ;
N1130 G1X748.68Y15.5  ;
N1131 G2X748.13Y14.95I-0.55J0  ;
N1132 G1X710.13Y14.95  ;
N1133 G2X709.58Y15.5I0J0.55  ;
N1134 G1X709.58Y18.95  ;
N1135 G1X688.11Y18.95  ;
N1136 G1X654.58Y52.98  ;
N1137 G1X654.58Y148.05  ;
N1138 G1X659.08Y148.05  ;
N1139 G1X659.08Y153.95  ;
N1140 G1X648.05Y153.95  ;
N1141 G1X648.05Y149.45  ;
N1142 G1X589.05Y149.45  ;
N1143 G1X589.05Y147.95  ;
N1144 G1X582.95Y147.95  ;
N1145 G1X582.95Y632.95  ;
N1146 G1X588.65Y632.95  ;
N1147 G1X588.65Y638.05  ;
N1148 G1X582.95Y638.05  ;
N1149 G1X582.95Y1182.95  ;
N1150 G1X588.65Y1182.95  ;
N1151 G1X588.65Y1188.05  ;
N1152 G1X582.95Y1188.05  ;
N1153 G1X582.95Y1732.95  ;
N1154 G1X588.65Y1732.95  ;
N1155 G1X588.65Y1738.05  ;
N1156 G1X582.95Y1738.05  ;
N1157 G1X582.95Y2189.05  ;
N1158 G1X589.05Y2189.05  ;
N1159 G1X589.05Y2187.55  ;
N1160 G1X648.05Y2187.55  ;
N1161 G1X648.05Y2184.55  ;
N1162 G1X659.08Y2184.55  ;
N1163 G1X659.08Y2190.45  ;
N1164 G1X654.58Y2190.45  ;
N1165 G1X654.58Y2240.52  ;
N1166 G1X688.11Y2273.55  ;
N1167 G1X709.58Y2273.55  ;
N1168 G1X709.58Y2278  ;
N1169 G2X710.13Y2278.55I0.55J0  ;
N1170 G1X748.13Y2278.55  ;
N1171 G2X748.68Y2278I0J-0.55  ;
N1172 G1X748.68Y2273.55  ;
N1173 G1X770.15Y2273.55  ;
N1174 G1X803.68Y2240.52  ;
N1175 G1X803.68Y2190.45  ;
N1176 G1X799.18Y2190.45  ;
N1177 G1X799.18Y2184.55  ;
N1178 G1X810.21Y2184.55  ;
N1179 G1X810.21Y2187.55  ;
N1180 G1X869.21Y2187.55  ;
N1181 G1X869.21Y2189.05  ;
N1182 G1X875.31Y2189.05  ;
N1183 G1X875.31Y1738.05  ;
N1184 G1X869.61Y1738.05  ;
N1185 G1X869.61Y1732.95  ;
N1186 G1X875.31Y1732.95  ;
N1187 G1X875.31Y1188.05  ;
N1188 G1X869.61Y1188.05  ;
N1189 G1X869.61Y1182.95  ;
N1190 G1X875.31Y1182.95  ;
N1191 G1X875.31Y638.05  ;
N1192 G1X869.61Y638.05  ;
N1193 G1X869.61Y632.95  ;
N1194 G1X875.31Y632.95  ;
N1195 G1X875.31Y147.95  ;
N1196 G1X869.21Y147.95  ;
N1197 G1X869.21Y149.45  ;
N1198 G1X810.21Y149.45  ;
N1199 G1X810.21Y153.95  ;
N1200 G1X799.18Y153.95  ;
N1201 G1X799.18Y148.05  ;
N1202 G1X803.68Y148.05  ;
N1203 G1X803.68Y52.98  ;
N1204 G1X770.16Y18.96  ;
N1205 G65 P9104 A102 B04  ;
N1206 M98 P9103  ;
(P7:ID2:W86011518)  ;
N1207 M98 P9101  ;
N1208 G0X544.26Y257.19  ;
N1209 G65 P9102 A102 B04  ;
N1210 G1X552.76Y262.09  ;
N1211 G1X552.76Y271.91  ;
N1212 G1X544.26Y276.81  ;
N1213 G1X535.76Y271.91  ;
N1214 G1X535.76Y262.09  ;
N1215 G1X544.26Y257.19  ;
N1216 G65 P9104 A102 B04  ;
N1217 G0X544.26Y707.19  ;
N1218 G65 P9102 A102 B04  ;
N1219 G1X552.76Y712.09  ;
N1220 G1X552.76Y721.91  ;
N1221 G1X544.26Y726.81  ;
N1222 G1X535.76Y721.91  ;
N1223 G1X535.76Y712.09  ;
N1224 G1X544.26Y707.19  ;
N1225 G65 P9104 A102 B04  ;
N1226 G0X544.26Y1157.19  ;
N1227 G65 P9102 A102 B04  ;
N1228 G1X552.76Y1162.09  ;
N1229 G1X552.76Y1171.91  ;
N1230 G1X544.26Y1176.81  ;
N1231 G1X535.76Y1171.91  ;
N1232 G1X535.76Y1162.09  ;
N1233 G1X544.26Y1157.19  ;
N1234 G65 P9104 A102 B04  ;
N1235 G0X433.9Y1196.83  ;
N1236 G65 P9102 A102 B04  ;
N1237 G1X433.9Y1199.69  ;
N1238 G65 P9104 A102 B04  ;
N1239 G0X433.9Y1200.58  ;
N1240 G65 P9102 A102 B04  ;
N1241 G1X423.9Y1200.58  ;
N1242 G1X433.9Y1207.73  ;
N1243 G1X423.9Y1207.73  ;
N1244 G65 P9104 A102 B04  ;
N1245 G0X423.9Y1208.62  ;
N1246 G65 P9102 A102 B04  ;
N1247 G1X423.9Y1215.76  ;
N1248 G65 P9104 A102 B04  ;
N1249 G0X423.9Y1212.19  ;
N1250 G65 P9102 A102 B04  ;
N1251 G1X433.9Y1212.19  ;
N1252 G65 P9104 A102 B04  ;
N1253 G0X433.9Y1198.26  ;
N1254 G65 P9102 A102 B04  ;
N1255 G1X423.9Y1198.26  ;
N1256 G65 P9104 A102 B04  ;
N1257 G0X423.9Y1196.83  ;
N1258 G65 P9102 A102 B04  ;
N1259 G1X423.9Y1199.69  ;
N1260 G65 P9104 A102 B04  ;
N1261 G0X544.26Y1607.19  ;
N1262 G65 P9102 A102 B04  ;
N1263 G1X552.76Y1612.09  ;
N1264 G1X552.76Y1621.91  ;
N1265 G1X544.26Y1626.81  ;
N1266 G1X535.76Y1621.91  ;
N1267 G1X535.76Y1612.09  ;
N1268 G1X544.26Y1607.19  ;
N1269 G65 P9104 A102 B04  ;
N1270 G0X544.26Y2057.19  ;
N1271 G65 P9102 A102 B04  ;
N1272 G1X552.76Y2062.09  ;
N1273 G1X552.76Y2071.91  ;
N1274 G1X544.26Y2076.81  ;
N1275 G1X535.76Y2071.91  ;
N1276 G1X535.76Y2062.09  ;
N1277 G1X544.26Y2057.19  ;
N1278 G65 P9104 A101 B02  ;
N1279 G0X541.92Y2069.26  ;
N1280 G65 P9102 A101 B02  ;
N1281 G1X539.84Y2071.35  ;
N1282 G3X539.87Y2071.38I4.42J-4.35  ;
N1283 G65 P9104 A101 B02  ;
N1284 G0X406Y2149.56  ;
N1285 G65 P9102 A101 B02  ;
N1286 G1X403.92Y2151.64  ;
N1287 G3X403.95Y2151.68I21.21J-21.14  ;
N1288 G65 P9104 A101 B02  ;
N1289 G0X406Y1849.56  ;
N1290 G65 P9102 A101 B02  ;
N1291 G1X403.92Y1851.64  ;
N1292 G3X403.95Y1851.68I21.21J-21.14  ;
N1293 G65 P9104 A101 B02  ;
N1294 G0X348.63Y1797.05  ;
N1295 G65 P9102 A101 B02  ;
N1296 G1X351.63Y1797.05  ;
N1297 G1X355.08Y1797.05  ;
N1298 G1X355.08Y1798.45  ;
N1299 G1X345.18Y1798.45  ;
N1300 G1X345.18Y1788.55  ;
N1301 G1X348.72Y1788.55  ;
N1302 G1X349.75Y1787.52  ;
N1303 G1X349.75Y1683.48  ;
N1304 G1X348.72Y1682.45  ;
N1305 G1X345.18Y1682.45  ;
N1306 G1X345.18Y1672.55  ;
N1307 G1X355.08Y1672.55  ;
N1308 G1X355.08Y1673.95  ;
N1309 G1X351.58Y1673.95  ;
N1310 G1X351.58Y1797  ;
N1311 G65 P9104 A101 B02  ;
N1312 G0X378.3Y1734.63  ;
N1313 G65 P9102 A101 B02  ;
N1314 G1X376.15Y1734.63  ;
N1315 G2X375.28Y1735.5I0J0.87  ;
N1316 G1X375.28Y1738.05  ;
N1317 G1X380.98Y1738.05  ;
N1318 G1X380.98Y1732.95  ;
N1319 G1X375.28Y1732.95  ;
N1320 G1X375.28Y1735.5  ;
N1321 G65 P9104 A101 B02  ;
N1322 G0X501.63Y1797.05  ;
N1323 G65 P9102 A101 B02  ;
N1324 G1X498.63Y1797.05  ;
N1325 G1X495.18Y1797.05  ;
N1326 G1X495.18Y1798.45  ;
N1327 G1X505.08Y1798.45  ;
N1328 G1X505.08Y1788.55  ;
N1329 G1X501.54Y1788.55  ;
N1330 G1X500.51Y1787.52  ;
N1331 G1X500.51Y1683.48  ;
N1332 G1X501.54Y1682.45  ;
N1333 G1X505.08Y1682.45  ;
N1334 G1X505.08Y1672.55  ;
N1335 G1X495.18Y1672.55  ;
N1336 G1X495.18Y1673.95  ;
N1337 G1X498.68Y1673.95  ;
N1338 G1X498.68Y1797  ;
N1339 G65 P9104 A101 B02  ;
N1340 G0X541.92Y1619.26  ;
N1341 G65 P9102 A101 B02  ;
N1342 G1X539.84Y1621.35  ;
N1343 G3X539.87Y1621.38I4.42J-4.35  ;
N1344 G65 P9104 A101 B02  ;
N1345 G0X406Y1499.56  ;
N1346 G65 P9102 A101 B02  ;
N1347 G1X403.92Y1501.64  ;
N1348 G3X403.95Y1501.68I21.21J-21.14  ;
N1349 G65 P9104 A101 B02  ;
N1350 G0X348.63Y1247.05  ;
N1351 G65 P9102 A101 B02  ;
N1352 G1X351.63Y1247.05  ;
N1353 G1X355.08Y1247.05  ;
N1354 G1X355.08Y1248.45  ;
N1355 G1X345.18Y1248.45  ;
N1356 G1X345.18Y1238.55  ;
N1357 G1X348.72Y1238.55  ;
N1358 G1X349.75Y1237.52  ;
N1359 G1X349.75Y1133.48  ;
N1360 G1X348.72Y1132.45  ;
N1361 G1X345.18Y1132.45  ;
N1362 G1X345.18Y1122.55  ;
N1363 G1X355.08Y1122.55  ;
N1364 G1X355.08Y1123.95  ;
N1365 G1X351.58Y1123.95  ;
N1366 G1X351.58Y1247  ;
N1367 G65 P9104 A101 B02  ;
N1368 G0X378.3Y1184.63  ;
N1369 G65 P9102 A101 B02  ;
N1370 G1X376.15Y1184.63  ;
N1371 G2X375.28Y1185.5I0J0.87  ;
N1372 G1X375.28Y1188.05  ;
N1373 G1X380.98Y1188.05  ;
N1374 G1X380.98Y1182.95  ;
N1375 G1X375.28Y1182.95  ;
N1376 G1X375.28Y1185.5  ;
N1377 G65 P9104 A101 B02  ;
N1378 G0X501.63Y1247.05  ;
N1379 G65 P9102 A101 B02  ;
N1380 G1X498.63Y1247.05  ;
N1381 G1X495.18Y1247.05  ;
N1382 G1X495.18Y1248.45  ;
N1383 G1X505.08Y1248.45  ;
N1384 G1X505.08Y1238.55  ;
N1385 G1X501.54Y1238.55  ;
N1386 G1X500.51Y1237.52  ;
N1387 G1X500.51Y1133.48  ;
N1388 G1X501.54Y1132.45  ;
N1389 G1X505.08Y1132.45  ;
N1390 G1X505.08Y1122.55  ;
N1391 G1X495.18Y1122.55  ;
N1392 G1X495.18Y1123.95  ;
N1393 G1X498.68Y1123.95  ;
N1394 G1X498.68Y1247  ;
N1395 G65 P9104 A101 B02  ;
N1396 G0X541.92Y1169.26  ;
N1397 G65 P9102 A101 B02  ;
N1398 G1X539.84Y1171.35  ;
N1399 G3X539.87Y1171.38I4.42J-4.35  ;
N1400 G65 P9104 A101 B02  ;
N1401 G0X406Y832.06  ;
N1402 G65 P9102 A101 B02  ;
N1403 G1X403.92Y834.14  ;
N1404 G3X403.95Y834.18I21.21J-21.14  ;
N1405 G65 P9104 A101 B02  ;
N1406 G0X348.63Y697.05  ;
N1407 G65 P9102 A101 B02  ;
N1408 G1X351.63Y697.05  ;
N1409 G1X355.08Y697.05  ;
N1410 G1X355.08Y698.45  ;
N1411 G1X345.18Y698.45  ;
N1412 G1X345.18Y688.55  ;
N1413 G1X348.72Y688.55  ;
N1414 G1X349.75Y687.52  ;
N1415 G1X349.75Y583.48  ;
N1416 G1X348.72Y582.45  ;
N1417 G1X345.18Y582.45  ;
N1418 G1X345.18Y572.55  ;
N1419 G1X355.08Y572.55  ;
N1420 G1X355.08Y573.95  ;
N1421 G1X351.58Y573.95  ;
N1422 G1X351.58Y697  ;
N1423 G65 P9104 A101 B02  ;
N1424 G0X378.3Y634.63  ;
N1425 G65 P9102 A101 B02  ;
N1426 G1X376.15Y634.63  ;
N1427 G2X375.28Y635.5I0J0.87  ;
N1428 G1X375.28Y638.05  ;
N1429 G1X380.98Y638.05  ;
N1430 G1X380.98Y632.95  ;
N1431 G1X375.28Y632.95  ;
N1432 G1X375.28Y635.5  ;
N1433 G65 P9104 A101 B02  ;
N1434 G0X501.63Y697.05  ;
N1435 G65 P9102 A101 B02  ;
N1436 G1X498.63Y697.05  ;
N1437 G1X495.18Y697.05  ;
N1438 G1X495.18Y698.45  ;
N1439 G1X505.08Y698.45  ;
N1440 G1X505.08Y688.55  ;
N1441 G1X501.54Y688.55  ;
N1442 G1X500.51Y687.52  ;
N1443 G1X500.51Y583.48  ;
N1444 G1X501.54Y582.45  ;
N1445 G1X505.08Y582.45  ;
N1446 G1X505.08Y572.55  ;
N1447 G1X495.18Y572.55  ;
N1448 G1X495.18Y573.95  ;
N1449 G1X498.68Y573.95  ;
N1450 G1X498.68Y697  ;
N1451 G65 P9104 A101 B02  ;
N1452 G0X541.92Y719.26  ;
N1453 G65 P9102 A101 B02  ;
N1454 G1X539.84Y721.35  ;
N1455 G3X539.87Y721.38I4.42J-4.35  ;
N1456 G65 P9104 A101 B02  ;
N1457 G0X406Y482.06  ;
N1458 G65 P9102 A101 B02  ;
N1459 G1X403.92Y484.14  ;
N1460 G3X403.95Y484.18I21.21J-21.14  ;
N1461 G65 P9104 A101 B02  ;
N1462 G0X541.92Y269.26  ;
N1463 G65 P9102 A101 B02  ;
N1464 G1X539.84Y271.35  ;
N1465 G3X539.87Y271.38I4.42J-4.35  ;
N1466 G65 P9104 A101 B02  ;
N1467 G0X406Y182.06  ;
N1468 G65 P9102 A101 B02  ;
N1469 G1X403.92Y184.14  ;
N1470 G3X403.95Y184.18I21.21J-21.14  ;
N1471 G65 P9104 A101 B01  ;
N1472 G0X469.13Y18.95  ;
N1473 G65 P9102 A101 B01  ;
N1474 G1X466.13Y18.95  ;
N1475 G1X444.68Y18.95  ;
N1476 G1X444.68Y15.5  ;
N1477 G2X444.13Y14.95I-0.55J0  ;
N1478 G1X406.13Y14.95  ;
N1479 G2X405.58Y15.5I0J0.55  ;
N1480 G1X405.58Y18.95  ;
N1481 G1X384.11Y18.95  ;
N1482 G1X350.58Y52.98  ;
N1483 G1X350.58Y148.05  ;
N1484 G1X355.08Y148.05  ;
N1485 G1X355.08Y153.95  ;
N1486 G1X344.05Y153.95  ;
N1487 G1X344.05Y149.45  ;
N1488 G1X285.05Y149.45  ;
N1489 G1X285.05Y147.95  ;
N1490 G1X278.95Y147.95  ;
N1491 G1X278.95Y632.95  ;
N1492 G1X284.65Y632.95  ;
N1493 G1X284.65Y638.05  ;
N1494 G1X278.95Y638.05  ;
N1495 G1X278.95Y1182.95  ;
N1496 G1X284.65Y1182.95  ;
N1497 G1X284.65Y1188.05  ;
N1498 G1X278.95Y1188.05  ;
N1499 G1X278.95Y1732.95  ;
N1500 G1X284.65Y1732.95  ;
N1501 G1X284.65Y1738.05  ;
N1502 G1X278.95Y1738.05  ;
N1503 G1X278.95Y2189.05  ;
N1504 G1X285.05Y2189.05  ;
N1505 G1X285.05Y2187.55  ;
N1506 G1X344.05Y2187.55  ;
N1507 G1X344.05Y2184.55  ;
N1508 G1X355.08Y2184.55  ;
N1509 G1X355.08Y2190.45  ;
N1510 G1X350.58Y2190.45  ;
N1511 G1X350.58Y2240.52  ;
N1512 G1X384.11Y2273.55  ;
N1513 G1X405.58Y2273.55  ;
N1514 G1X405.58Y2278  ;
N1515 G2X406.13Y2278.55I0.55J0  ;
N1516 G1X444.13Y2278.55  ;
N1517 G2X444.68Y2278I0J-0.55  ;
N1518 G1X444.68Y2273.55  ;
N1519 G1X466.15Y2273.55  ;
N1520 G1X499.68Y2240.52  ;
N1521 G1X499.68Y2190.45  ;
N1522 G1X495.18Y2190.45  ;
N1523 G1X495.18Y2184.55  ;
N1524 G1X506.21Y2184.55  ;
N1525 G1X506.21Y2187.55  ;
N1526 G1X565.21Y2187.55  ;
N1527 G1X565.21Y2189.05  ;
N1528 G1X571.31Y2189.05  ;
N1529 G1X571.31Y1738.05  ;
N1530 G1X565.61Y1738.05  ;
N1531 G1X565.61Y1732.95  ;
N1532 G1X571.31Y1732.95  ;
N1533 G1X571.31Y1188.05  ;
N1534 G1X565.61Y1188.05  ;
N1535 G1X565.61Y1182.95  ;
N1536 G1X571.31Y1182.95  ;
N1537 G1X571.31Y638.05  ;
N1538 G1X565.61Y638.05  ;
N1539 G1X565.61Y632.95  ;
N1540 G1X571.31Y632.95  ;
N1541 G1X571.31Y147.95  ;
N1542 G1X565.21Y147.95  ;
N1543 G1X565.21Y149.45  ;
N1544 G1X506.21Y149.45  ;
N1545 G1X506.21Y153.95  ;
N1546 G1X495.18Y153.95  ;
N1547 G1X495.18Y148.05  ;
N1548 G1X499.68Y148.05  ;
N1549 G1X499.68Y52.98  ;
N1550 G1X466.16Y18.96  ;
N1551 G65 P9104 A101 B01  ;
N1552 M98 P9103  ;
(P8:ID3:W86011517)  ;
N1553 M98 P9101  ;
N1554 G0X404.99Y2362.38  ;
N1555 G65 P9102 A101 B01  ;
N1556 G1X409.93Y2362.1  ;
N1557 G3X395Y2377.85I-14.93J0.8  ;
N1558 G1X391.98Y2377.85  ;
N1559 G1X390.95Y2378.88  ;
N1560 G1X390.95Y2381.92  ;
N1561 G1X391.98Y2382.95  ;
N1562 G1X394.95Y2382.95  ;
N1563 G1X394.95Y2404.85  ;
N1564 G1X394.45Y2404.85  ;
N1565 G1X394.45Y2407.95  ;
N1566 G1X394.98Y2407.95  ;
N1567 G1X422.98Y2436.95  ;
N1568 G1X465.95Y2436.95  ;
N1569 G1X465.95Y2437.45  ;
N1570 G1X468.95Y2437.45  ;
N1571 G1X468.95Y2442.45  ;
N1572 G1X474.05Y2442.45  ;
N1573 G1X474.05Y2283.35  ;
N1574 G1X468.95Y2283.35  ;
N1575 G1X468.95Y2288.35  ;
N1576 G1X465.95Y2288.35  ;
N1577 G1X465.95Y2288.85  ;
N1578 G1X422.98Y2288.85  ;
N1579 G1X394.98Y2317.85  ;
N1580 G1X394.45Y2317.85  ;
N1581 G1X394.45Y2320.95  ;
N1582 G1X394.95Y2320.95  ;
N1583 G1X394.95Y2347.95  ;
N1584 G3X409.87Y2361.4I0.05J14.95  ;
N1585 G65 P9104 A101 B01  ;
N1586 M98 P9103  ;
(P9:ID3:W86011517)  ;
N1587 M98 P9101  ;
N1588 G0X675.09Y2367.48  ;
N1589 G65 P9102 A101 B01  ;
N1590 G1X680.03Y2367.2  ;
N1591 G3X665.1Y2382.95I-14.93J0.8  ;
N1592 G1X662.08Y2382.95  ;
N1593 G1X661.05Y2383.98  ;
N1594 G1X661.05Y2387.02  ;
N1595 G1X662.08Y2388.05  ;
N1596 G1X665.05Y2388.05  ;
N1597 G1X665.05Y2409.95  ;
N1598 G1X664.55Y2409.95  ;
N1599 G1X664.55Y2413.05  ;
N1600 G1X665.08Y2413.05  ;
N1601 G1X693.08Y2442.05  ;
N1602 G1X736.05Y2442.05  ;
N1603 G1X736.05Y2442.55  ;
N1604 G1X739.05Y2442.55  ;
N1605 G1X739.05Y2447.55  ;
N1606 G1X744.15Y2447.55  ;
N1607 G1X744.15Y2288.45  ;
N1608 G1X739.05Y2288.45  ;
N1609 G1X739.05Y2293.45  ;
N1610 G1X736.05Y2293.45  ;
N1611 G1X736.05Y2293.95  ;
N1612 G1X693.08Y2293.95  ;
N1613 G1X665.08Y2322.95  ;
N1614 G1X664.55Y2322.95  ;
N1615 G1X664.55Y2326.05  ;
N1616 G1X665.05Y2326.05  ;
N1617 G1X665.05Y2353.05  ;
N1618 G3X679.97Y2366.5I0.05J14.95  ;
N1619 G65 P9104 A101 B01  ;
N1620 M98 P9103  ;
(P10:ID3:W86011517)  ;
N1621 M98 P9101  ;
N1622 G0X675.09Y2536.48  ;
N1623 G65 P9102 A101 B01  ;
N1624 G1X680.03Y2536.2  ;
N1625 G3X665.1Y2551.95I-14.93J0.8  ;
N1626 G1X662.08Y2551.95  ;
N1627 G1X661.05Y2552.98  ;
N1628 G1X661.05Y2556.02  ;
N1629 G1X662.08Y2557.05  ;
N1630 G1X665.05Y2557.05  ;
N1631 G1X665.05Y2578.95  ;
N1632 G1X664.55Y2578.95  ;
N1633 G1X664.55Y2582.05  ;
N1634 G1X665.08Y2582.05  ;
N1635 G1X693.08Y2611.05  ;
N1636 G1X736.05Y2611.05  ;
N1637 G1X736.05Y2611.55  ;
N1638 G1X739.05Y2611.55  ;
N1639 G1X739.05Y2616.55  ;
N1640 G1X744.15Y2616.55  ;
N1641 G1X744.15Y2457.45  ;
N1642 G1X739.05Y2457.45  ;
N1643 G1X739.05Y2462.45  ;
N1644 G1X736.05Y2462.45  ;
N1645 G1X736.05Y2462.95  ;
N1646 G1X693.08Y2462.95  ;
N1647 G1X665.08Y2491.95  ;
N1648 G1X664.55Y2491.95  ;
N1649 G1X664.55Y2495.05  ;
N1650 G1X665.05Y2495.05  ;
N1651 G1X665.05Y2522.05  ;
N1652 G3X679.97Y2535.5I0.05J14.95  ;
N1653 G65 P9104 A101 B01  ;
N1654 M98 P9103  ;
(P11:ID3:W86011517)  ;
N1655 M98 P9101  ;
N1656 G0X675.09Y2705.48  ;
N1657 G65 P9102 A101 B01  ;
N1658 G1X680.03Y2705.2  ;
N1659 G3X665.1Y2720.95I-14.93J0.8  ;
N1660 G1X662.08Y2720.95  ;
N1661 G1X661.05Y2721.98  ;
N1662 G1X661.05Y2725.02  ;
N1663 G1X662.08Y2726.05  ;
N1664 G1X665.05Y2726.05  ;
N1665 G1X665.05Y2747.95  ;
N1666 G1X664.55Y2747.95  ;
N1667 G1X664.55Y2751.05  ;
N1668 G1X665.08Y2751.05  ;
N1669 G1X693.08Y2780.05  ;
N1670 G1X736.05Y2780.05  ;
N1671 G1X736.05Y2780.55  ;
N1672 G1X739.05Y2780.55  ;
N1673 G1X739.05Y2785.55  ;
N1674 G1X744.15Y2785.55  ;
N1675 G1X744.15Y2626.45  ;
N1676 G1X739.05Y2626.45  ;
N1677 G1X739.05Y2631.45  ;
N1678 G1X736.05Y2631.45  ;
N1679 G1X736.05Y2631.95  ;
N1680 G1X693.08Y2631.95  ;
N1681 G1X665.08Y2660.95  ;
N1682 G1X664.55Y2660.95  ;
N1683 G1X664.55Y2664.05  ;
N1684 G1X665.05Y2664.05  ;
N1685 G1X665.05Y2691.05  ;
N1686 G3X679.97Y2704.5I0.05J14.95  ;
N1687 G65 P9104 A101 B01  ;
N1688 M98 P9103  ;
(P12:ID1:W86011507)  ;
N1689 M98 P9101  ;
N1690 G0X1486.13Y2253.95  ;
N1691 G65 P9102 A101 B01  ;
N1692 G1X1483.13Y2253.95  ;
N1693 G1X1443.08Y2253.95  ;
N1694 G1X1443.08Y2257.95  ;
N1695 G1X1423.11Y2257.95  ;
N1696 G1X1388.08Y2292.98  ;
N1697 G1X1388.08Y2343.05  ;
N1698 G1X1393.08Y2343.05  ;
N1699 G1X1393.08Y2348.95  ;
N1700 G1X1382.05Y2348.95  ;
N1701 G1X1382.05Y2344.45  ;
N1702 G1X1323.05Y2344.45  ;
N1703 G1X1323.05Y2342.95  ;
N1704 G1X1316.95Y2342.95  ;
N1705 G1X1316.95Y2985.05  ;
N1706 G1X1483.18Y2985.05  ;
N1707 G1X1483.18Y2254  ;
N1708 G65 P9104 A101 B01  ;
N1709 M98 P9103  ;
(P13:ID1:W86011507)  ;
N1710 M98 P9101  ;
N1711 G0X1262.13Y2253.95  ;
N1712 G65 P9102 A101 B01  ;
N1713 G1X1259.13Y2253.95  ;
N1714 G1X1219.08Y2253.95  ;
N1715 G1X1219.08Y2257.95  ;
N1716 G1X1199.11Y2257.95  ;
N1717 G1X1164.08Y2292.98  ;
N1718 G1X1164.08Y2343.05  ;
N1719 G1X1169.08Y2343.05  ;
N1720 G1X1169.08Y2348.95  ;
N1721 G1X1158.05Y2348.95  ;
N1722 G1X1158.05Y2344.45  ;
N1723 G1X1099.05Y2344.45  ;
N1724 G1X1099.05Y2342.95  ;
N1725 G1X1092.95Y2342.95  ;
N1726 G1X1092.95Y2985.05  ;
N1727 G1X1259.18Y2985.05  ;
N1728 G1X1259.18Y2254  ;
N1729 G65 P9104 A101 B01  ;
N1730 M98 P9103  ;
(P14:ID1:W86011507)  ;
N1731 M98 P9101  ;
N1732 G0X958.13Y2253.95  ;
N1733 G65 P9102 A101 B01  ;
N1734 G1X955.13Y2253.95  ;
N1735 G1X915.08Y2253.95  ;
N1736 G1X915.08Y2257.95  ;
N1737 G1X895.11Y2257.95  ;
N1738 G1X860.08Y2292.98  ;
N1739 G1X860.08Y2343.05  ;
N1740 G1X865.08Y2343.05  ;
N1741 G1X865.08Y2348.95  ;
N1742 G1X854.05Y2348.95  ;
N1743 G1X854.05Y2344.45  ;
N1744 G1X795.05Y2344.45  ;
N1745 G1X795.05Y2342.95  ;
N1746 G1X788.95Y2342.95  ;
N1747 G1X788.95Y2985.05  ;
N1748 G1X955.18Y2985.05  ;
N1749 G1X955.18Y2254  ;
N1750 G65 P9104 A101 B01  ;
N1751 M98 P9103  ;
(P15:ID1:W86011507)  ;
N1752 M98 P9101  ;
N1753 G0X654.13Y2253.95  ;
N1754 G65 P9102 A101 B01  ;
N1755 G1X651.13Y2253.95  ;
N1756 G1X611.08Y2253.95  ;
N1757 G1X611.08Y2257.95  ;
N1758 G1X591.11Y2257.95  ;
N1759 G1X556.08Y2292.98  ;
N1760 G1X556.08Y2343.05  ;
N1761 G1X561.08Y2343.05  ;
N1762 G1X561.08Y2348.95  ;
N1763 G1X550.05Y2348.95  ;
N1764 G1X550.05Y2344.45  ;
N1765 G1X491.05Y2344.45  ;
N1766 G1X491.05Y2342.95  ;
N1767 G1X484.95Y2342.95  ;
N1768 G1X484.95Y2985.05  ;
N1769 G1X651.18Y2985.05  ;
N1770 G1X651.18Y2254  ;
N1771 G65 P9104 A101 B01  ;
N1772 M98 P9103  ;
(P16:ID1:W86011507)  ;
N1773 M98 P9101  ;
N1774 G0X341.93Y2222.31  ;
N1775 G65 P9102 A101 B01  ;
N1776 G1X338.97Y2222.78  ;
N1777 G1X299.41Y2229.05  ;
N1778 G1X300.04Y2233  ;
N1779 G1X280.32Y2236.12  ;
N1780 G1X251.2Y2276.2  ;
N1781 G1X259.03Y2325.65  ;
N1782 G1X263.97Y2324.87  ;
N1783 G1X264.89Y2330.7  ;
N1784 G1X254Y2332.42  ;
N1785 G1X253.29Y2327.98  ;
N1786 G1X195.02Y2337.21  ;
N1787 G1X194.79Y2335.73  ;
N1788 G1X188.76Y2336.68  ;
N1789 G1X289.21Y2970.88  ;
N1790 G1X453.39Y2944.87  ;
N1791 G1X339.03Y2222.82  ;
N1792 G65 P9104 A101 B01  ;
N1793 M98 P9103  ;
(P17:ID1:W86011507)  ;
N1794 M98 P9101  ;
N1795 G0X184.13Y2253.95  ;
N1796 G65 P9102 A101 B01  ;
N1797 G1X181.13Y2253.95  ;
N1798 G1X141.08Y2253.95  ;
N1799 G1X141.08Y2257.95  ;
N1800 G1X121.11Y2257.95  ;
N1801 G1X86.08Y2292.98  ;
N1802 G1X86.08Y2343.05  ;
N1803 G1X91.08Y2343.05  ;
N1804 G1X91.08Y2348.95  ;
N1805 G1X80.05Y2348.95  ;
N1806 G1X80.05Y2344.45  ;
N1807 G1X21.05Y2344.45  ;
N1808 G1X21.05Y2342.95  ;
N1809 G1X14.95Y2342.95  ;
N1810 G1X14.95Y2985.05  ;
N1811 G1X181.18Y2985.05  ;
N1812 G1X181.18Y2254  ;
N1813 M98 P9104  ;
N1814 M98 P9103  ;
(FOOTER)
N1815 M98 P9110  ;
N1816 M30  ;
%
