O0099  ;
( MACHINE : TCI Laser )  ;
( MATERIAL : Acero al carbono N2 )  ;
( THICKNESS : 3 )  ;
( REPETITIONS : 1 )  ;
( SIMULATION TIME : 01:38:44 )  ;
( FORMAT : 1500x3000 )  ;
( JOB NUMBER : VARS8600\K860088 )  ;
( PROGRAM NUMBER : 7736 )  ;
( TYPE : 0 )  ;
( NUMBER OF SHEETS : 1 )  ;
( CUTTING HEADS : 1 )  ;
#516= 1  ;
#517= 1  ;
N105 G65 P9100 A103 B01  ;
(P1:ID1:W86008801)  ;
N106 M98 P9101  ;
N107 G0X26.78Y133.6  ;
N108 G65 P9102 A101 B01  ;
N109 G1X26.78Y128.65  ;
N110 G1X28.05Y128.65  ;
N111 G1X28.05Y125.65  ;
N112 G1X35.02Y125.65  ;
N113 G1X40.05Y120.62  ;
N114 G1X40.05Y110.65  ;
N115 G1X43.05Y110.65  ;
N116 G1X43.05Y100.55  ;
N117 G1X40.05Y100.55  ;
N118 G1X40.05Y38.05  ;
N119 G1X43.05Y38.05  ;
N120 G1X43.05Y27.95  ;
N121 G1X40.05Y27.95  ;
N122 G1X40.05Y19.48  ;
N123 G1X33.52Y12.95  ;
N124 G1X17.98Y12.95  ;
N125 G1X12.95Y17.98  ;
N126 G1X12.95Y120.62  ;
N127 G1X17.98Y125.65  ;
N128 G1X24.95Y125.65  ;
N129 G1X24.95Y128.65  ;
N130 G1X26.08Y128.65  ;
N131 G65 P9104 A101 B01  ;
N132 M98 P9103  ;
(P2:ID2:W86008804)  ;
N133 M98 P9101  ;
N134 G0X95Y136.98  ;
N135 G65 P9102 A101 B01  ;
N136 G1X90.05Y136.98  ;
N137 G1X90.05Y131.77  ;
N138 G1X87.05Y131.77  ;
N139 G1X87.05Y63.77  ;
N140 G1X90.05Y63.77  ;
N141 G1X90.05Y53.67  ;
N142 G1X87.05Y53.67  ;
N143 G1X87.05Y23.67  ;
N144 G1X83.95Y23.67  ;
N145 G1X83.95Y24.67  ;
N146 G1X63.05Y24.67  ;
N147 G1X63.05Y23.67  ;
N148 G1X59.95Y23.67  ;
N149 G1X59.95Y156.87  ;
N150 G1X80.52Y156.87  ;
N151 G1X87.05Y150.34  ;
N152 G1X87.05Y141.87  ;
N153 G1X90.05Y141.87  ;
N154 G1X90.05Y137.68  ;
N155 G65 P9104 A101 B01  ;
N156 M98 P9103  ;
(P3:ID2:W86008804)  ;
N157 M98 P9101  ;
N158 G0X133.5Y136.98  ;
N159 G65 P9102 A101 B01  ;
N160 G1X128.55Y136.98  ;
N161 G1X128.55Y131.77  ;
N162 G1X125.55Y131.77  ;
N163 G1X125.55Y63.77  ;
N164 G1X128.55Y63.77  ;
N165 G1X128.55Y53.67  ;
N166 G1X125.55Y53.67  ;
N167 G1X125.55Y23.67  ;
N168 G1X122.45Y23.67  ;
N169 G1X122.45Y24.67  ;
N170 G1X101.55Y24.67  ;
N171 G1X101.55Y23.67  ;
N172 G1X98.45Y23.67  ;
N173 G1X98.45Y156.87  ;
N174 G1X119.02Y156.87  ;
N175 G1X125.55Y150.34  ;
N176 G1X125.55Y141.87  ;
N177 G1X128.55Y141.87  ;
N178 G1X128.55Y137.68  ;
N179 G65 P9104 A101 B01  ;
N180 M98 P9103  ;
(P4:ID2:W86008804)  ;
N181 M98 P9101  ;
N182 G0X172Y136.98  ;
N183 G65 P9102 A101 B01  ;
N184 G1X167.05Y136.98  ;
N185 G1X167.05Y131.77  ;
N186 G1X164.05Y131.77  ;
N187 G1X164.05Y63.77  ;
N188 G1X167.05Y63.77  ;
N189 G1X167.05Y53.67  ;
N190 G1X164.05Y53.67  ;
N191 G1X164.05Y23.67  ;
N192 G1X160.95Y23.67  ;
N193 G1X160.95Y24.67  ;
N194 G1X140.05Y24.67  ;
N195 G1X140.05Y23.67  ;
N196 G1X136.95Y23.67  ;
N197 G1X136.95Y156.87  ;
N198 G1X157.52Y156.87  ;
N199 G1X164.05Y150.34  ;
N200 G1X164.05Y141.87  ;
N201 G1X167.05Y141.87  ;
N202 G1X167.05Y137.68  ;
N203 G65 P9104 A101 B01  ;
N204 M98 P9103  ;
(P5:ID2:W86008804)  ;
N205 M98 P9101  ;
N206 G0X210.5Y136.98  ;
N207 G65 P9102 A101 B01  ;
N208 G1X205.55Y136.98  ;
N209 G1X205.55Y131.77  ;
N210 G1X202.55Y131.77  ;
N211 G1X202.55Y63.77  ;
N212 G1X205.55Y63.77  ;
N213 G1X205.55Y53.67  ;
N214 G1X202.55Y53.67  ;
N215 G1X202.55Y23.67  ;
N216 G1X199.45Y23.67  ;
N217 G1X199.45Y24.67  ;
N218 G1X178.55Y24.67  ;
N219 G1X178.55Y23.67  ;
N220 G1X175.45Y23.67  ;
N221 G1X175.45Y156.87  ;
N222 G1X196.02Y156.87  ;
N223 G1X202.55Y150.34  ;
N224 G1X202.55Y141.87  ;
N225 G1X205.55Y141.87  ;
N226 G1X205.55Y137.68  ;
N227 G65 P9104 A101 B01  ;
N228 M98 P9103  ;
(P6:ID2:W86008804)  ;
N229 M98 P9101  ;
N230 G0X249Y136.98  ;
N231 G65 P9102 A101 B01  ;
N232 G1X244.05Y136.98  ;
N233 G1X244.05Y131.77  ;
N234 G1X241.05Y131.77  ;
N235 G1X241.05Y63.77  ;
N236 G1X244.05Y63.77  ;
N237 G1X244.05Y53.67  ;
N238 G1X241.05Y53.67  ;
N239 G1X241.05Y23.67  ;
N240 G1X237.95Y23.67  ;
N241 G1X237.95Y24.67  ;
N242 G1X217.05Y24.67  ;
N243 G1X217.05Y23.67  ;
N244 G1X213.95Y23.67  ;
N245 G1X213.95Y156.87  ;
N246 G1X234.52Y156.87  ;
N247 G1X241.05Y150.34  ;
N248 G1X241.05Y141.87  ;
N249 G1X244.05Y141.87  ;
N250 G1X244.05Y137.68  ;
N251 G65 P9104 A101 B01  ;
N252 M98 P9103  ;
(P7:ID2:W86008804)  ;
N253 M98 P9101  ;
N254 G0X287.5Y136.98  ;
N255 G65 P9102 A101 B01  ;
N256 G1X282.55Y136.98  ;
N257 G1X282.55Y131.77  ;
N258 G1X279.55Y131.77  ;
N259 G1X279.55Y63.77  ;
N260 G1X282.55Y63.77  ;
N261 G1X282.55Y53.67  ;
N262 G1X279.55Y53.67  ;
N263 G1X279.55Y23.67  ;
N264 G1X276.45Y23.67  ;
N265 G1X276.45Y24.67  ;
N266 G1X255.55Y24.67  ;
N267 G1X255.55Y23.67  ;
N268 G1X252.45Y23.67  ;
N269 G1X252.45Y156.87  ;
N270 G1X273.02Y156.87  ;
N271 G1X279.55Y150.34  ;
N272 G1X279.55Y141.87  ;
N273 G1X282.55Y141.87  ;
N274 G1X282.55Y137.68  ;
N275 G65 P9104 A101 B01  ;
N276 M98 P9103  ;
(P8:ID2:W86008804)  ;
N277 M98 P9101  ;
N278 G0X326Y136.98  ;
N279 G65 P9102 A101 B01  ;
N280 G1X321.05Y136.98  ;
N281 G1X321.05Y131.77  ;
N282 G1X318.05Y131.77  ;
N283 G1X318.05Y63.77  ;
N284 G1X321.05Y63.77  ;
N285 G1X321.05Y53.67  ;
N286 G1X318.05Y53.67  ;
N287 G1X318.05Y23.67  ;
N288 G1X314.95Y23.67  ;
N289 G1X314.95Y24.67  ;
N290 G1X294.05Y24.67  ;
N291 G1X294.05Y23.67  ;
N292 G1X290.95Y23.67  ;
N293 G1X290.95Y156.87  ;
N294 G1X311.52Y156.87  ;
N295 G1X318.05Y150.34  ;
N296 G1X318.05Y141.87  ;
N297 G1X321.05Y141.87  ;
N298 G1X321.05Y137.68  ;
N299 G65 P9104 A101 B01  ;
N300 M98 P9103  ;
(P9:ID2:W86008804)  ;
N301 M98 P9101  ;
N302 G0X364.5Y136.98  ;
N303 G65 P9102 A101 B01  ;
N304 G1X359.55Y136.98  ;
N305 G1X359.55Y131.77  ;
N306 G1X356.55Y131.77  ;
N307 G1X356.55Y63.77  ;
N308 G1X359.55Y63.77  ;
N309 G1X359.55Y53.67  ;
N310 G1X356.55Y53.67  ;
N311 G1X356.55Y23.67  ;
N312 G1X353.45Y23.67  ;
N313 G1X353.45Y24.67  ;
N314 G1X332.55Y24.67  ;
N315 G1X332.55Y23.67  ;
N316 G1X329.45Y23.67  ;
N317 G1X329.45Y156.87  ;
N318 G1X350.02Y156.87  ;
N319 G1X356.55Y150.34  ;
N320 G1X356.55Y141.87  ;
N321 G1X359.55Y141.87  ;
N322 G1X359.55Y137.68  ;
N323 G65 P9104 A101 B01  ;
N324 M98 P9103  ;
(P10:ID2:W86008804)  ;
N325 M98 P9101  ;
N326 G0X403Y136.98  ;
N327 G65 P9102 A101 B01  ;
N328 G1X398.05Y136.98  ;
N329 G1X398.05Y131.77  ;
N330 G1X395.05Y131.77  ;
N331 G1X395.05Y63.77  ;
N332 G1X398.05Y63.77  ;
N333 G1X398.05Y53.67  ;
N334 G1X395.05Y53.67  ;
N335 G1X395.05Y23.67  ;
N336 G1X391.95Y23.67  ;
N337 G1X391.95Y24.67  ;
N338 G1X371.05Y24.67  ;
N339 G1X371.05Y23.67  ;
N340 G1X367.95Y23.67  ;
N341 G1X367.95Y156.87  ;
N342 G1X388.52Y156.87  ;
N343 G1X395.05Y150.34  ;
N344 G1X395.05Y141.87  ;
N345 G1X398.05Y141.87  ;
N346 G1X398.05Y137.68  ;
N347 G65 P9104 A101 B01  ;
N348 M98 P9103  ;
(P11:ID2:W86008804)  ;
N349 M98 P9101  ;
N350 G0X441.5Y136.98  ;
N351 G65 P9102 A101 B01  ;
N352 G1X436.55Y136.98  ;
N353 G1X436.55Y131.77  ;
N354 G1X433.55Y131.77  ;
N355 G1X433.55Y63.77  ;
N356 G1X436.55Y63.77  ;
N357 G1X436.55Y53.67  ;
N358 G1X433.55Y53.67  ;
N359 G1X433.55Y23.67  ;
N360 G1X430.45Y23.67  ;
N361 G1X430.45Y24.67  ;
N362 G1X409.55Y24.67  ;
N363 G1X409.55Y23.67  ;
N364 G1X406.45Y23.67  ;
N365 G1X406.45Y156.87  ;
N366 G1X427.02Y156.87  ;
N367 G1X433.55Y150.34  ;
N368 G1X433.55Y141.87  ;
N369 G1X436.55Y141.87  ;
N370 G1X436.55Y137.68  ;
N371 G65 P9104 A101 B01  ;
N372 M98 P9103  ;
(P12:ID2:W86008804)  ;
N373 M98 P9101  ;
N374 G0X480Y136.98  ;
N375 G65 P9102 A101 B01  ;
N376 G1X475.05Y136.98  ;
N377 G1X475.05Y131.77  ;
N378 G1X472.05Y131.77  ;
N379 G1X472.05Y63.77  ;
N380 G1X475.05Y63.77  ;
N381 G1X475.05Y53.67  ;
N382 G1X472.05Y53.67  ;
N383 G1X472.05Y23.67  ;
N384 G1X468.95Y23.67  ;
N385 G1X468.95Y24.67  ;
N386 G1X448.05Y24.67  ;
N387 G1X448.05Y23.67  ;
N388 G1X444.95Y23.67  ;
N389 G1X444.95Y156.87  ;
N390 G1X465.52Y156.87  ;
N391 G1X472.05Y150.34  ;
N392 G1X472.05Y141.87  ;
N393 G1X475.05Y141.87  ;
N394 G1X475.05Y137.68  ;
N395 G65 P9104 A101 B01  ;
N396 M98 P9103  ;
(P13:ID2:W86008804)  ;
N397 M98 P9101  ;
N398 G0X518.5Y136.98  ;
N399 G65 P9102 A101 B01  ;
N400 G1X513.55Y136.98  ;
N401 G1X513.55Y131.77  ;
N402 G1X510.55Y131.77  ;
N403 G1X510.55Y63.77  ;
N404 G1X513.55Y63.77  ;
N405 G1X513.55Y53.67  ;
N406 G1X510.55Y53.67  ;
N407 G1X510.55Y23.67  ;
N408 G1X507.45Y23.67  ;
N409 G1X507.45Y24.67  ;
N410 G1X486.55Y24.67  ;
N411 G1X486.55Y23.67  ;
N412 G1X483.45Y23.67  ;
N413 G1X483.45Y156.87  ;
N414 G1X504.02Y156.87  ;
N415 G1X510.55Y150.34  ;
N416 G1X510.55Y141.87  ;
N417 G1X513.55Y141.87  ;
N418 G1X513.55Y137.68  ;
N419 G65 P9104 A101 B01  ;
N420 M98 P9103  ;
(P14:ID2:W86008804)  ;
N421 M98 P9101  ;
N422 G0X557Y136.98  ;
N423 G65 P9102 A101 B01  ;
N424 G1X552.05Y136.98  ;
N425 G1X552.05Y131.77  ;
N426 G1X549.05Y131.77  ;
N427 G1X549.05Y63.77  ;
N428 G1X552.05Y63.77  ;
N429 G1X552.05Y53.67  ;
N430 G1X549.05Y53.67  ;
N431 G1X549.05Y23.67  ;
N432 G1X545.95Y23.67  ;
N433 G1X545.95Y24.67  ;
N434 G1X525.05Y24.67  ;
N435 G1X525.05Y23.67  ;
N436 G1X521.95Y23.67  ;
N437 G1X521.95Y156.87  ;
N438 G1X542.52Y156.87  ;
N439 G1X549.05Y150.34  ;
N440 G1X549.05Y141.87  ;
N441 G1X552.05Y141.87  ;
N442 G1X552.05Y137.68  ;
N443 G65 P9104 A101 B01  ;
N444 M98 P9103  ;
(P15:ID2:W86008804)  ;
N445 M98 P9101  ;
N446 G0X595.5Y136.98  ;
N447 G65 P9102 A101 B01  ;
N448 G1X590.55Y136.98  ;
N449 G1X590.55Y131.77  ;
N450 G1X587.55Y131.77  ;
N451 G1X587.55Y63.77  ;
N452 G1X590.55Y63.77  ;
N453 G1X590.55Y53.67  ;
N454 G1X587.55Y53.67  ;
N455 G1X587.55Y23.67  ;
N456 G1X584.45Y23.67  ;
N457 G1X584.45Y24.67  ;
N458 G1X563.55Y24.67  ;
N459 G1X563.55Y23.67  ;
N460 G1X560.45Y23.67  ;
N461 G1X560.45Y156.87  ;
N462 G1X581.02Y156.87  ;
N463 G1X587.55Y150.34  ;
N464 G1X587.55Y141.87  ;
N465 G1X590.55Y141.87  ;
N466 G1X590.55Y137.68  ;
N467 G65 P9104 A101 B01  ;
N468 M98 P9103  ;
(P16:ID2:W86008804)  ;
N469 M98 P9101  ;
N470 G0X634Y136.98  ;
N471 G65 P9102 A101 B01  ;
N472 G1X629.05Y136.98  ;
N473 G1X629.05Y131.77  ;
N474 G1X626.05Y131.77  ;
N475 G1X626.05Y63.77  ;
N476 G1X629.05Y63.77  ;
N477 G1X629.05Y53.67  ;
N478 G1X626.05Y53.67  ;
N479 G1X626.05Y23.67  ;
N480 G1X622.95Y23.67  ;
N481 G1X622.95Y24.67  ;
N482 G1X602.05Y24.67  ;
N483 G1X602.05Y23.67  ;
N484 G1X598.95Y23.67  ;
N485 G1X598.95Y156.87  ;
N486 G1X619.52Y156.87  ;
N487 G1X626.05Y150.34  ;
N488 G1X626.05Y141.87  ;
N489 G1X629.05Y141.87  ;
N490 G1X629.05Y137.68  ;
N491 G65 P9104 A101 B01  ;
N492 M98 P9103  ;
(P17:ID2:W86008804)  ;
N493 M98 P9101  ;
N494 G0X672.5Y136.98  ;
N495 G65 P9102 A101 B01  ;
N496 G1X667.55Y136.98  ;
N497 G1X667.55Y131.77  ;
N498 G1X664.55Y131.77  ;
N499 G1X664.55Y63.77  ;
N500 G1X667.55Y63.77  ;
N501 G1X667.55Y53.67  ;
N502 G1X664.55Y53.67  ;
N503 G1X664.55Y23.67  ;
N504 G1X661.45Y23.67  ;
N505 G1X661.45Y24.67  ;
N506 G1X640.55Y24.67  ;
N507 G1X640.55Y23.67  ;
N508 G1X637.45Y23.67  ;
N509 G1X637.45Y156.87  ;
N510 G1X658.02Y156.87  ;
N511 G1X664.55Y150.34  ;
N512 G1X664.55Y141.87  ;
N513 G1X667.55Y141.87  ;
N514 G1X667.55Y137.68  ;
N515 G65 P9104 A101 B01  ;
N516 M98 P9103  ;
(P18:ID2:W86008804)  ;
N517 M98 P9101  ;
N518 G0X711Y136.98  ;
N519 G65 P9102 A101 B01  ;
N520 G1X706.05Y136.98  ;
N521 G1X706.05Y131.77  ;
N522 G1X703.05Y131.77  ;
N523 G1X703.05Y63.77  ;
N524 G1X706.05Y63.77  ;
N525 G1X706.05Y53.67  ;
N526 G1X703.05Y53.67  ;
N527 G1X703.05Y23.67  ;
N528 G1X699.95Y23.67  ;
N529 G1X699.95Y24.67  ;
N530 G1X679.05Y24.67  ;
N531 G1X679.05Y23.67  ;
N532 G1X675.95Y23.67  ;
N533 G1X675.95Y156.87  ;
N534 G1X696.52Y156.87  ;
N535 G1X703.05Y150.34  ;
N536 G1X703.05Y141.87  ;
N537 G1X706.05Y141.87  ;
N538 G1X706.05Y137.68  ;
N539 G65 P9104 A101 B01  ;
N540 M98 P9103  ;
(P19:ID2:W86008804)  ;
N541 M98 P9101  ;
N542 G0X749.5Y136.98  ;
N543 G65 P9102 A101 B01  ;
N544 G1X744.55Y136.98  ;
N545 G1X744.55Y131.77  ;
N546 G1X741.55Y131.77  ;
N547 G1X741.55Y63.77  ;
N548 G1X744.55Y63.77  ;
N549 G1X744.55Y53.67  ;
N550 G1X741.55Y53.67  ;
N551 G1X741.55Y23.67  ;
N552 G1X738.45Y23.67  ;
N553 G1X738.45Y24.67  ;
N554 G1X717.55Y24.67  ;
N555 G1X717.55Y23.67  ;
N556 G1X714.45Y23.67  ;
N557 G1X714.45Y156.87  ;
N558 G1X735.02Y156.87  ;
N559 G1X741.55Y150.34  ;
N560 G1X741.55Y141.87  ;
N561 G1X744.55Y141.87  ;
N562 G1X744.55Y137.68  ;
N563 G65 P9104 A101 B01  ;
N564 M98 P9103  ;
(P20:ID2:W86008804)  ;
N565 M98 P9101  ;
N566 G0X788Y136.98  ;
N567 G65 P9102 A101 B01  ;
N568 G1X783.05Y136.98  ;
N569 G1X783.05Y131.77  ;
N570 G1X780.05Y131.77  ;
N571 G1X780.05Y63.77  ;
N572 G1X783.05Y63.77  ;
N573 G1X783.05Y53.67  ;
N574 G1X780.05Y53.67  ;
N575 G1X780.05Y23.67  ;
N576 G1X776.95Y23.67  ;
N577 G1X776.95Y24.67  ;
N578 G1X756.05Y24.67  ;
N579 G1X756.05Y23.67  ;
N580 G1X752.95Y23.67  ;
N581 G1X752.95Y156.87  ;
N582 G1X773.52Y156.87  ;
N583 G1X780.05Y150.34  ;
N584 G1X780.05Y141.87  ;
N585 G1X783.05Y141.87  ;
N586 G1X783.05Y137.68  ;
N587 G65 P9104 A101 B01  ;
N588 M98 P9103  ;
(P21:ID2:W86008804)  ;
N589 M98 P9101  ;
N590 G0X826.5Y136.98  ;
N591 G65 P9102 A101 B01  ;
N592 G1X821.55Y136.98  ;
N593 G1X821.55Y131.77  ;
N594 G1X818.55Y131.77  ;
N595 G1X818.55Y63.77  ;
N596 G1X821.55Y63.77  ;
N597 G1X821.55Y53.67  ;
N598 G1X818.55Y53.67  ;
N599 G1X818.55Y23.67  ;
N600 G1X815.45Y23.67  ;
N601 G1X815.45Y24.67  ;
N602 G1X794.55Y24.67  ;
N603 G1X794.55Y23.67  ;
N604 G1X791.45Y23.67  ;
N605 G1X791.45Y156.87  ;
N606 G1X812.02Y156.87  ;
N607 G1X818.55Y150.34  ;
N608 G1X818.55Y141.87  ;
N609 G1X821.55Y141.87  ;
N610 G1X821.55Y137.68  ;
N611 G65 P9104 A101 B01  ;
N612 M98 P9103  ;
(P22:ID2:W86008804)  ;
N613 M98 P9101  ;
N614 G0X865Y136.98  ;
N615 G65 P9102 A101 B01  ;
N616 G1X860.05Y136.98  ;
N617 G1X860.05Y131.77  ;
N618 G1X857.05Y131.77  ;
N619 G1X857.05Y63.77  ;
N620 G1X860.05Y63.77  ;
N621 G1X860.05Y53.67  ;
N622 G1X857.05Y53.67  ;
N623 G1X857.05Y23.67  ;
N624 G1X853.95Y23.67  ;
N625 G1X853.95Y24.67  ;
N626 G1X833.05Y24.67  ;
N627 G1X833.05Y23.67  ;
N628 G1X829.95Y23.67  ;
N629 G1X829.95Y156.87  ;
N630 G1X850.52Y156.87  ;
N631 G1X857.05Y150.34  ;
N632 G1X857.05Y141.87  ;
N633 G1X860.05Y141.87  ;
N634 G1X860.05Y137.68  ;
N635 G65 P9104 A101 B01  ;
N636 M98 P9103  ;
(P23:ID2:W86008804)  ;
N637 M98 P9101  ;
N638 G0X903.5Y136.98  ;
N639 G65 P9102 A101 B01  ;
N640 G1X898.55Y136.98  ;
N641 G1X898.55Y131.77  ;
N642 G1X895.55Y131.77  ;
N643 G1X895.55Y63.77  ;
N644 G1X898.55Y63.77  ;
N645 G1X898.55Y53.67  ;
N646 G1X895.55Y53.67  ;
N647 G1X895.55Y23.67  ;
N648 G1X892.45Y23.67  ;
N649 G1X892.45Y24.67  ;
N650 G1X871.55Y24.67  ;
N651 G1X871.55Y23.67  ;
N652 G1X868.45Y23.67  ;
N653 G1X868.45Y156.87  ;
N654 G1X889.02Y156.87  ;
N655 G1X895.55Y150.34  ;
N656 G1X895.55Y141.87  ;
N657 G1X898.55Y141.87  ;
N658 G1X898.55Y137.68  ;
N659 G65 P9104 A101 B01  ;
N660 M98 P9103  ;
(P24:ID2:W86008804)  ;
N661 M98 P9101  ;
N662 G0X942Y136.98  ;
N663 G65 P9102 A101 B01  ;
N664 G1X937.05Y136.98  ;
N665 G1X937.05Y131.77  ;
N666 G1X934.05Y131.77  ;
N667 G1X934.05Y63.77  ;
N668 G1X937.05Y63.77  ;
N669 G1X937.05Y53.67  ;
N670 G1X934.05Y53.67  ;
N671 G1X934.05Y23.67  ;
N672 G1X930.95Y23.67  ;
N673 G1X930.95Y24.67  ;
N674 G1X910.05Y24.67  ;
N675 G1X910.05Y23.67  ;
N676 G1X906.95Y23.67  ;
N677 G1X906.95Y156.87  ;
N678 G1X927.52Y156.87  ;
N679 G1X934.05Y150.34  ;
N680 G1X934.05Y141.87  ;
N681 G1X937.05Y141.87  ;
N682 G1X937.05Y137.68  ;
N683 G65 P9104 A101 B01  ;
N684 M98 P9103  ;
(P25:ID2:W86008804)  ;
N685 M98 P9101  ;
N686 G0X980.5Y136.98  ;
N687 G65 P9102 A101 B01  ;
N688 G1X975.55Y136.98  ;
N689 G1X975.55Y131.77  ;
N690 G1X972.55Y131.77  ;
N691 G1X972.55Y63.77  ;
N692 G1X975.55Y63.77  ;
N693 G1X975.55Y53.67  ;
N694 G1X972.55Y53.67  ;
N695 G1X972.55Y23.67  ;
N696 G1X969.45Y23.67  ;
N697 G1X969.45Y24.67  ;
N698 G1X948.55Y24.67  ;
N699 G1X948.55Y23.67  ;
N700 G1X945.45Y23.67  ;
N701 G1X945.45Y156.87  ;
N702 G1X966.02Y156.87  ;
N703 G1X972.55Y150.34  ;
N704 G1X972.55Y141.87  ;
N705 G1X975.55Y141.87  ;
N706 G1X975.55Y137.68  ;
N707 G65 P9104 A101 B01  ;
N708 M98 P9103  ;
(P26:ID2:W86008804)  ;
N709 M98 P9101  ;
N710 G0X1019Y136.98  ;
N711 G65 P9102 A101 B01  ;
N712 G1X1014.05Y136.98  ;
N713 G1X1014.05Y131.77  ;
N714 G1X1011.05Y131.77  ;
N715 G1X1011.05Y63.77  ;
N716 G1X1014.05Y63.77  ;
N717 G1X1014.05Y53.67  ;
N718 G1X1011.05Y53.67  ;
N719 G1X1011.05Y23.67  ;
N720 G1X1007.95Y23.67  ;
N721 G1X1007.95Y24.67  ;
N722 G1X987.05Y24.67  ;
N723 G1X987.05Y23.67  ;
N724 G1X983.95Y23.67  ;
N725 G1X983.95Y156.87  ;
N726 G1X1004.52Y156.87  ;
N727 G1X1011.05Y150.34  ;
N728 G1X1011.05Y141.87  ;
N729 G1X1014.05Y141.87  ;
N730 G1X1014.05Y137.68  ;
N731 G65 P9104 A101 B01  ;
N732 M98 P9103  ;
(P27:ID2:W86008804)  ;
N733 M98 P9101  ;
N734 G0X1057.5Y136.98  ;
N735 G65 P9102 A101 B01  ;
N736 G1X1052.55Y136.98  ;
N737 G1X1052.55Y131.77  ;
N738 G1X1049.55Y131.77  ;
N739 G1X1049.55Y63.77  ;
N740 G1X1052.55Y63.77  ;
N741 G1X1052.55Y53.67  ;
N742 G1X1049.55Y53.67  ;
N743 G1X1049.55Y23.67  ;
N744 G1X1046.45Y23.67  ;
N745 G1X1046.45Y24.67  ;
N746 G1X1025.55Y24.67  ;
N747 G1X1025.55Y23.67  ;
N748 G1X1022.45Y23.67  ;
N749 G1X1022.45Y156.87  ;
N750 G1X1043.02Y156.87  ;
N751 G1X1049.55Y150.34  ;
N752 G1X1049.55Y141.87  ;
N753 G1X1052.55Y141.87  ;
N754 G1X1052.55Y137.68  ;
N755 G65 P9104 A101 B01  ;
N756 M98 P9103  ;
(P28:ID1:W86008801)  ;
N757 M98 P9101  ;
N758 G0X1076.78Y133.6  ;
N759 G65 P9102 A101 B01  ;
N760 G1X1076.78Y128.65  ;
N761 G1X1078.05Y128.65  ;
N762 G1X1078.05Y125.65  ;
N763 G1X1085.02Y125.65  ;
N764 G1X1090.05Y120.62  ;
N765 G1X1090.05Y110.65  ;
N766 G1X1093.05Y110.65  ;
N767 G1X1093.05Y100.55  ;
N768 G1X1090.05Y100.55  ;
N769 G1X1090.05Y38.05  ;
N770 G1X1093.05Y38.05  ;
N771 G1X1093.05Y27.95  ;
N772 G1X1090.05Y27.95  ;
N773 G1X1090.05Y19.48  ;
N774 G1X1083.52Y12.95  ;
N775 G1X1067.98Y12.95  ;
N776 G1X1062.95Y17.98  ;
N777 G1X1062.95Y120.62  ;
N778 G1X1067.98Y125.65  ;
N779 G1X1074.95Y125.65  ;
N780 G1X1074.95Y128.65  ;
N781 G1X1076.08Y128.65  ;
N782 G65 P9104 A101 B01  ;
N783 M98 P9103  ;
(P29:ID1:W86008801)  ;
N784 M98 P9101  ;
N785 G0X1115.18Y134.6  ;
N786 G65 P9102 A101 B01  ;
N787 G1X1115.18Y129.65  ;
N788 G1X1116.45Y129.65  ;
N789 G1X1116.45Y126.65  ;
N790 G1X1123.42Y126.65  ;
N791 G1X1128.45Y121.62  ;
N792 G1X1128.45Y111.65  ;
N793 G1X1131.45Y111.65  ;
N794 G1X1131.45Y101.55  ;
N795 G1X1128.45Y101.55  ;
N796 G1X1128.45Y39.05  ;
N797 G1X1131.45Y39.05  ;
N798 G1X1131.45Y28.95  ;
N799 G1X1128.45Y28.95  ;
N800 G1X1128.45Y20.48  ;
N801 G1X1121.92Y13.95  ;
N802 G1X1106.38Y13.95  ;
N803 G1X1101.35Y18.98  ;
N804 G1X1101.35Y121.62  ;
N805 G1X1106.38Y126.65  ;
N806 G1X1113.35Y126.65  ;
N807 G1X1113.35Y129.65  ;
N808 G1X1114.48Y129.65  ;
N809 G65 P9104 A101 B01  ;
N810 M98 P9103  ;
(P30:ID1:W86008801)  ;
N811 M98 P9101  ;
N812 G0X1152.18Y134.6  ;
N813 G65 P9102 A101 B01  ;
N814 G1X1152.18Y129.65  ;
N815 G1X1153.45Y129.65  ;
N816 G1X1153.45Y126.65  ;
N817 G1X1160.42Y126.65  ;
N818 G1X1165.45Y121.62  ;
N819 G1X1165.45Y111.65  ;
N820 G1X1168.45Y111.65  ;
N821 G1X1168.45Y101.55  ;
N822 G1X1165.45Y101.55  ;
N823 G1X1165.45Y39.05  ;
N824 G1X1168.45Y39.05  ;
N825 G1X1168.45Y28.95  ;
N826 G1X1165.45Y28.95  ;
N827 G1X1165.45Y20.48  ;
N828 G1X1158.92Y13.95  ;
N829 G1X1143.38Y13.95  ;
N830 G1X1138.35Y18.98  ;
N831 G1X1138.35Y121.62  ;
N832 G1X1143.38Y126.65  ;
N833 G1X1150.35Y126.65  ;
N834 G1X1150.35Y129.65  ;
N835 G1X1151.48Y129.65  ;
N836 G65 P9104 A101 B01  ;
N837 M98 P9103  ;
(P31:ID1:W86008801)  ;
N838 M98 P9101  ;
N839 G0X1193.1Y23.99  ;
N840 G65 P9102 A101 B01  ;
N841 G1X1193.1Y28.94  ;
N842 G1X1191.83Y28.94  ;
N843 G1X1191.83Y31.94  ;
N844 G1X1184.86Y31.94  ;
N845 G1X1179.83Y36.97  ;
N846 G1X1179.83Y46.94  ;
N847 G1X1176.83Y46.94  ;
N848 G1X1176.83Y57.04  ;
N849 G1X1179.83Y57.04  ;
N850 G1X1179.83Y119.54  ;
N851 G1X1176.83Y119.54  ;
N852 G1X1176.83Y129.64  ;
N853 G1X1179.83Y129.64  ;
N854 G1X1179.83Y138.12  ;
N855 G1X1186.36Y144.64  ;
N856 G1X1201.9Y144.64  ;
N857 G1X1206.93Y139.62  ;
N858 G1X1206.93Y36.97  ;
N859 G1X1201.9Y31.94  ;
N860 G1X1194.93Y31.94  ;
N861 G1X1194.93Y28.94  ;
N862 G1X1193.8Y28.94  ;
N863 G65 P9104 A101 B01  ;
N864 M98 P9103  ;
(P32:ID2:W86008804)  ;
N865 M98 P9101  ;
N866 G0X1253.4Y126.26  ;
N867 G65 P9102 A101 B01  ;
N868 G1X1248.45Y126.26  ;
N869 G1X1248.45Y121.05  ;
N870 G1X1245.45Y121.05  ;
N871 G1X1245.45Y53.05  ;
N872 G1X1248.45Y53.05  ;
N873 G1X1248.45Y42.95  ;
N874 G1X1245.45Y42.95  ;
N875 G1X1245.45Y12.95  ;
N876 G1X1242.35Y12.95  ;
N877 G1X1242.35Y13.95  ;
N878 G1X1221.45Y13.95  ;
N879 G1X1221.45Y12.95  ;
N880 G1X1218.35Y12.95  ;
N881 G1X1218.35Y146.15  ;
N882 G1X1238.92Y146.15  ;
N883 G1X1245.45Y139.62  ;
N884 G1X1245.45Y131.15  ;
N885 G1X1248.45Y131.15  ;
N886 G1X1248.45Y126.96  ;
N887 G65 P9104 A101 B01  ;
N888 M98 P9103  ;
(P33:ID2:W86008804)  ;
N889 M98 P9101  ;
N890 G0X1292.7Y126.26  ;
N891 G65 P9102 A101 B01  ;
N892 G1X1287.75Y126.26  ;
N893 G1X1287.75Y121.05  ;
N894 G1X1284.75Y121.05  ;
N895 G1X1284.75Y53.05  ;
N896 G1X1287.75Y53.05  ;
N897 G1X1287.75Y42.95  ;
N898 G1X1284.75Y42.95  ;
N899 G1X1284.75Y12.95  ;
N900 G1X1281.65Y12.95  ;
N901 G1X1281.65Y13.95  ;
N902 G1X1260.75Y13.95  ;
N903 G1X1260.75Y12.95  ;
N904 G1X1257.65Y12.95  ;
N905 G1X1257.65Y146.15  ;
N906 G1X1278.22Y146.15  ;
N907 G1X1284.75Y139.62  ;
N908 G1X1284.75Y131.15  ;
N909 G1X1287.75Y131.15  ;
N910 G1X1287.75Y126.96  ;
N911 G65 P9104 A101 B01  ;
N912 M98 P9103  ;
(P34:ID2:W86008804)  ;
N913 M98 P9101  ;
N914 G0X1332Y126.26  ;
N915 G65 P9102 A101 B01  ;
N916 G1X1327.05Y126.26  ;
N917 G1X1327.05Y121.05  ;
N918 G1X1324.05Y121.05  ;
N919 G1X1324.05Y53.05  ;
N920 G1X1327.05Y53.05  ;
N921 G1X1327.05Y42.95  ;
N922 G1X1324.05Y42.95  ;
N923 G1X1324.05Y12.95  ;
N924 G1X1320.95Y12.95  ;
N925 G1X1320.95Y13.95  ;
N926 G1X1300.05Y13.95  ;
N927 G1X1300.05Y12.95  ;
N928 G1X1296.95Y12.95  ;
N929 G1X1296.95Y146.15  ;
N930 G1X1317.52Y146.15  ;
N931 G1X1324.05Y139.62  ;
N932 G1X1324.05Y131.15  ;
N933 G1X1327.05Y131.15  ;
N934 G1X1327.05Y126.96  ;
N935 G65 P9104 A101 B01  ;
N936 M98 P9103  ;
(P35:ID2:W86008804)  ;
N937 M98 P9101  ;
N938 G0X1372Y126.26  ;
N939 G65 P9102 A101 B01  ;
N940 G1X1367.05Y126.26  ;
N941 G1X1367.05Y121.05  ;
N942 G1X1364.05Y121.05  ;
N943 G1X1364.05Y53.05  ;
N944 G1X1367.05Y53.05  ;
N945 G1X1367.05Y42.95  ;
N946 G1X1364.05Y42.95  ;
N947 G1X1364.05Y12.95  ;
N948 G1X1360.95Y12.95  ;
N949 G1X1360.95Y13.95  ;
N950 G1X1340.05Y13.95  ;
N951 G1X1340.05Y12.95  ;
N952 G1X1336.95Y12.95  ;
N953 G1X1336.95Y146.15  ;
N954 G1X1357.52Y146.15  ;
N955 G1X1364.05Y139.62  ;
N956 G1X1364.05Y131.15  ;
N957 G1X1367.05Y131.15  ;
N958 G1X1367.05Y126.96  ;
N959 G65 P9104 A101 B01  ;
N960 M98 P9103  ;
(P36:ID2:W86008804)  ;
N961 M98 P9101  ;
N962 G0X1411.4Y126.26  ;
N963 G65 P9102 A101 B01  ;
N964 G1X1406.45Y126.26  ;
N965 G1X1406.45Y121.05  ;
N966 G1X1403.45Y121.05  ;
N967 G1X1403.45Y53.05  ;
N968 G1X1406.45Y53.05  ;
N969 G1X1406.45Y42.95  ;
N970 G1X1403.45Y42.95  ;
N971 G1X1403.45Y12.95  ;
N972 G1X1400.35Y12.95  ;
N973 G1X1400.35Y13.95  ;
N974 G1X1379.45Y13.95  ;
N975 G1X1379.45Y12.95  ;
N976 G1X1376.35Y12.95  ;
N977 G1X1376.35Y146.15  ;
N978 G1X1396.92Y146.15  ;
N979 G1X1403.45Y139.62  ;
N980 G1X1403.45Y131.15  ;
N981 G1X1406.45Y131.15  ;
N982 G1X1406.45Y126.96  ;
N983 G65 P9104 A101 B01  ;
N984 M98 P9103  ;
(P37:ID2:W86008804)  ;
N985 M98 P9101  ;
N986 G0X1450.7Y126.26  ;
N987 G65 P9102 A101 B01  ;
N988 G1X1445.75Y126.26  ;
N989 G1X1445.75Y121.05  ;
N990 G1X1442.75Y121.05  ;
N991 G1X1442.75Y53.05  ;
N992 G1X1445.75Y53.05  ;
N993 G1X1445.75Y42.95  ;
N994 G1X1442.75Y42.95  ;
N995 G1X1442.75Y12.95  ;
N996 G1X1439.65Y12.95  ;
N997 G1X1439.65Y13.95  ;
N998 G1X1418.75Y13.95  ;
N999 G1X1418.75Y12.95  ;
N1000 G1X1415.65Y12.95  ;
N1001 G1X1415.65Y146.15  ;
N1002 G1X1436.22Y146.15  ;
N1003 G1X1442.75Y139.62  ;
N1004 G1X1442.75Y131.15  ;
N1005 G1X1445.75Y131.15  ;
N1006 G1X1445.75Y126.96  ;
N1007 G65 P9104 A101 B01  ;
N1008 M98 P9103  ;
(P38:ID2:W86008804)  ;
N1009 M98 P9101  ;
N1010 G0X1490Y126.26  ;
N1011 G65 P9102 A101 B01  ;
N1012 G1X1485.05Y126.26  ;
N1013 G1X1485.05Y121.05  ;
N1014 G1X1482.05Y121.05  ;
N1015 G1X1482.05Y53.05  ;
N1016 G1X1485.05Y53.05  ;
N1017 G1X1485.05Y42.95  ;
N1018 G1X1482.05Y42.95  ;
N1019 G1X1482.05Y12.95  ;
N1020 G1X1478.95Y12.95  ;
N1021 G1X1478.95Y13.95  ;
N1022 G1X1458.05Y13.95  ;
N1023 G1X1458.05Y12.95  ;
N1024 G1X1454.95Y12.95  ;
N1025 G1X1454.95Y146.15  ;
N1026 G1X1475.52Y146.15  ;
N1027 G1X1482.05Y139.62  ;
N1028 G1X1482.05Y131.15  ;
N1029 G1X1485.05Y131.15  ;
N1030 G1X1485.05Y126.96  ;
N1031 G65 P9104 A101 B01  ;
N1032 M98 P9103  ;
(P39:ID2:W86008804)  ;
N1033 M98 P9101  ;
N1034 G0X1490Y267.36  ;
N1035 G65 P9102 A101 B01  ;
N1036 G1X1485.05Y267.36  ;
N1037 G1X1485.05Y262.15  ;
N1038 G1X1482.05Y262.15  ;
N1039 G1X1482.05Y194.15  ;
N1040 G1X1485.05Y194.15  ;
N1041 G1X1485.05Y184.05  ;
N1042 G1X1482.05Y184.05  ;
N1043 G1X1482.05Y154.05  ;
N1044 G1X1478.95Y154.05  ;
N1045 G1X1478.95Y155.05  ;
N1046 G1X1458.05Y155.05  ;
N1047 G1X1458.05Y154.05  ;
N1048 G1X1454.95Y154.05  ;
N1049 G1X1454.95Y287.25  ;
N1050 G1X1475.52Y287.25  ;
N1051 G1X1482.05Y280.72  ;
N1052 G1X1482.05Y272.25  ;
N1053 G1X1485.05Y272.25  ;
N1054 G1X1485.05Y268.06  ;
N1055 G65 P9104 A101 B01  ;
N1056 M98 P9103  ;
(P40:ID2:W86008804)  ;
N1057 M98 P9101  ;
N1058 G0X1450.7Y267.36  ;
N1059 G65 P9102 A101 B01  ;
N1060 G1X1445.75Y267.36  ;
N1061 G1X1445.75Y262.15  ;
N1062 G1X1442.75Y262.15  ;
N1063 G1X1442.75Y194.15  ;
N1064 G1X1445.75Y194.15  ;
N1065 G1X1445.75Y184.05  ;
N1066 G1X1442.75Y184.05  ;
N1067 G1X1442.75Y154.05  ;
N1068 G1X1439.65Y154.05  ;
N1069 G1X1439.65Y155.05  ;
N1070 G1X1418.75Y155.05  ;
N1071 G1X1418.75Y154.05  ;
N1072 G1X1415.65Y154.05  ;
N1073 G1X1415.65Y287.25  ;
N1074 G1X1436.22Y287.25  ;
N1075 G1X1442.75Y280.72  ;
N1076 G1X1442.75Y272.25  ;
N1077 G1X1445.75Y272.25  ;
N1078 G1X1445.75Y268.06  ;
N1079 G65 P9104 A101 B01  ;
N1080 M98 P9103  ;
(P41:ID2:W86008804)  ;
N1081 M98 P9101  ;
N1082 G0X1411.4Y267.36  ;
N1083 G65 P9102 A101 B01  ;
N1084 G1X1406.45Y267.36  ;
N1085 G1X1406.45Y262.15  ;
N1086 G1X1403.45Y262.15  ;
N1087 G1X1403.45Y194.15  ;
N1088 G1X1406.45Y194.15  ;
N1089 G1X1406.45Y184.05  ;
N1090 G1X1403.45Y184.05  ;
N1091 G1X1403.45Y154.05  ;
N1092 G1X1400.35Y154.05  ;
N1093 G1X1400.35Y155.05  ;
N1094 G1X1379.45Y155.05  ;
N1095 G1X1379.45Y154.05  ;
N1096 G1X1376.35Y154.05  ;
N1097 G1X1376.35Y287.25  ;
N1098 G1X1396.92Y287.25  ;
N1099 G1X1403.45Y280.72  ;
N1100 G1X1403.45Y272.25  ;
N1101 G1X1406.45Y272.25  ;
N1102 G1X1406.45Y268.06  ;
N1103 G65 P9104 A101 B01  ;
N1104 M98 P9103  ;
(P42:ID2:W86008804)  ;
N1105 M98 P9101  ;
N1106 G0X1372Y267.36  ;
N1107 G65 P9102 A101 B01  ;
N1108 G1X1367.05Y267.36  ;
N1109 G1X1367.05Y262.15  ;
N1110 G1X1364.05Y262.15  ;
N1111 G1X1364.05Y194.15  ;
N1112 G1X1367.05Y194.15  ;
N1113 G1X1367.05Y184.05  ;
N1114 G1X1364.05Y184.05  ;
N1115 G1X1364.05Y154.05  ;
N1116 G1X1360.95Y154.05  ;
N1117 G1X1360.95Y155.05  ;
N1118 G1X1340.05Y155.05  ;
N1119 G1X1340.05Y154.05  ;
N1120 G1X1336.95Y154.05  ;
N1121 G1X1336.95Y287.25  ;
N1122 G1X1357.52Y287.25  ;
N1123 G1X1364.05Y280.72  ;
N1124 G1X1364.05Y272.25  ;
N1125 G1X1367.05Y272.25  ;
N1126 G1X1367.05Y268.06  ;
N1127 G65 P9104 A101 B01  ;
N1128 M98 P9103  ;
(P43:ID2:W86008804)  ;
N1129 M98 P9101  ;
N1130 G0X1332Y267.36  ;
N1131 G65 P9102 A101 B01  ;
N1132 G1X1327.05Y267.36  ;
N1133 G1X1327.05Y262.15  ;
N1134 G1X1324.05Y262.15  ;
N1135 G1X1324.05Y194.15  ;
N1136 G1X1327.05Y194.15  ;
N1137 G1X1327.05Y184.05  ;
N1138 G1X1324.05Y184.05  ;
N1139 G1X1324.05Y154.05  ;
N1140 G1X1320.95Y154.05  ;
N1141 G1X1320.95Y155.05  ;
N1142 G1X1300.05Y155.05  ;
N1143 G1X1300.05Y154.05  ;
N1144 G1X1296.95Y154.05  ;
N1145 G1X1296.95Y287.25  ;
N1146 G1X1317.52Y287.25  ;
N1147 G1X1324.05Y280.72  ;
N1148 G1X1324.05Y272.25  ;
N1149 G1X1327.05Y272.25  ;
N1150 G1X1327.05Y268.06  ;
N1151 G65 P9104 A101 B01  ;
N1152 M98 P9103  ;
(P44:ID2:W86008804)  ;
N1153 M98 P9101  ;
N1154 G0X1292.7Y267.36  ;
N1155 G65 P9102 A101 B01  ;
N1156 G1X1287.75Y267.36  ;
N1157 G1X1287.75Y262.15  ;
N1158 G1X1284.75Y262.15  ;
N1159 G1X1284.75Y194.15  ;
N1160 G1X1287.75Y194.15  ;
N1161 G1X1287.75Y184.05  ;
N1162 G1X1284.75Y184.05  ;
N1163 G1X1284.75Y154.05  ;
N1164 G1X1281.65Y154.05  ;
N1165 G1X1281.65Y155.05  ;
N1166 G1X1260.75Y155.05  ;
N1167 G1X1260.75Y154.05  ;
N1168 G1X1257.65Y154.05  ;
N1169 G1X1257.65Y287.25  ;
N1170 G1X1278.22Y287.25  ;
N1171 G1X1284.75Y280.72  ;
N1172 G1X1284.75Y272.25  ;
N1173 G1X1287.75Y272.25  ;
N1174 G1X1287.75Y268.06  ;
N1175 G65 P9104 A101 B01  ;
N1176 M98 P9103  ;
(P45:ID2:W86008804)  ;
N1177 M98 P9101  ;
N1178 G0X1253.4Y267.36  ;
N1179 G65 P9102 A101 B01  ;
N1180 G1X1248.45Y267.36  ;
N1181 G1X1248.45Y262.15  ;
N1182 G1X1245.45Y262.15  ;
N1183 G1X1245.45Y194.15  ;
N1184 G1X1248.45Y194.15  ;
N1185 G1X1248.45Y184.05  ;
N1186 G1X1245.45Y184.05  ;
N1187 G1X1245.45Y154.05  ;
N1188 G1X1242.35Y154.05  ;
N1189 G1X1242.35Y155.05  ;
N1190 G1X1221.45Y155.05  ;
N1191 G1X1221.45Y154.05  ;
N1192 G1X1218.35Y154.05  ;
N1193 G1X1218.35Y287.25  ;
N1194 G1X1238.92Y287.25  ;
N1195 G1X1245.45Y280.72  ;
N1196 G1X1245.45Y272.25  ;
N1197 G1X1248.45Y272.25  ;
N1198 G1X1248.45Y268.06  ;
N1199 G65 P9104 A101 B02  ;
N1200 M98 P9103  ;
(P46:ID3:W860088)  ;
N1201 M98 P9101  ;
N1202 G0X1199.58Y304.26  ;
N1203 G65 P9102 A101 B02  ;
N1204 G1X1201.66Y306.34  ;
N1205 G3X1201.7Y306.31I-3.57J-3.64  ;
N1206 G65 P9104 A101 B02  ;
N1207 G0X1162.95Y284.62  ;
N1208 G65 P9102 A101 B02  ;
N1209 G1X1165.9Y284.62  ;
N1210 G1X1165.9Y282.85  ;
N1211 G1X1154Y282.85  ;
N1212 G1X1154Y286.5  ;
N1213 G1X1165.9Y286.5  ;
N1214 G1X1165.9Y284.68  ;
N1215 G65 P9104 A101 B02  ;
N1216 G0X1174.2Y239.24  ;
N1217 G65 P9102 A101 B02  ;
N1218 G1X1175.58Y240.61  ;
N1219 G3X1175.62Y240.58I-1.34J-1.41  ;
N1220 G65 P9104 A101 B02  ;
N1221 G0X1162.95Y200.75  ;
N1222 G65 P9102 A101 B02  ;
N1223 G1X1165.9Y200.75  ;
N1224 G1X1165.9Y199  ;
N1225 G1X1154Y199  ;
N1226 G1X1154Y202.6  ;
N1227 G1X1165.9Y202.6  ;
N1228 G1X1165.9Y200.8  ;
N1229 G65 P9104 A101 B02  ;
N1230 G0X1197.89Y186.06  ;
N1231 G65 P9102 A101 B02  ;
N1232 G1X1197.17Y188.97  ;
N1233 G2X1198.09Y190.15I0.92J0.23  ;
N1234 G2X1203.19Y185.05I0J-5.1  ;
N1235 G1X1203.19Y180.35  ;
N1236 G2X1192.99Y180.35I-5.1J0  ;
N1237 G1X1192.99Y185.05  ;
N1238 G2X1198.09Y190.15I5.1J0  ;
N1239 G65 P9104 A101 B02  ;
N1240 G0X1130.12Y246.55  ;
N1241 G65 P9102 A101 B02  ;
N1242 G1X1132.21Y248.63  ;
N1243 G3X1132.24Y248.6I-3.16J-3.23  ;
N1244 G65 P9104 A101 B02  ;
N1245 G0X996Y238.12  ;
N1246 G65 P9102 A101 B02  ;
N1247 G1X998.09Y240.21  ;
N1248 G3X998.12Y240.17I-3.64J-3.71  ;
N1249 G65 P9104 A101 B02  ;
N1250 G0X954.5Y228  ;
N1251 G65 P9102 A101 B02  ;
N1252 G1X954.5Y230.95  ;
N1253 G1X956.1Y230.95  ;
N1254 G1X956.1Y220.05  ;
N1255 G1X952.8Y220.05  ;
N1256 G1X952.8Y230.95  ;
N1257 G1X954.45Y230.95  ;
N1258 G65 P9104 A101 B02  ;
N1259 G0X996Y188.58  ;
N1260 G65 P9102 A101 B02  ;
N1261 G1X998.09Y190.66  ;
N1262 G3X998.12Y190.63I-3.64J-3.71  ;
N1263 G65 P9104 A101 B02  ;
N1264 G0X954.4Y287.1  ;
N1265 G65 P9102 A101 B02  ;
N1266 G1X954.4Y290.05  ;
N1267 G1X952.8Y290.05  ;
N1268 G1X952.8Y279.15  ;
N1269 G1X956.1Y279.15  ;
N1270 G1X956.1Y290.05  ;
N1271 G1X954.45Y290.05  ;
N1272 G65 P9104 A101 B02  ;
N1273 G0X842.8Y287.1  ;
N1274 G65 P9102 A101 B02  ;
N1275 G1X842.8Y290.05  ;
N1276 G1X841.2Y290.05  ;
N1277 G1X841.2Y279.15  ;
N1278 G1X844.5Y279.15  ;
N1279 G1X844.5Y290.05  ;
N1280 G1X842.85Y290.05  ;
N1281 G65 P9104 A101 B02  ;
N1282 G0X842.9Y228  ;
N1283 G65 P9102 A101 B02  ;
N1284 G1X842.9Y230.95  ;
N1285 G1X844.5Y230.95  ;
N1286 G1X844.5Y220.05  ;
N1287 G1X841.2Y220.05  ;
N1288 G1X841.2Y230.95  ;
N1289 G1X842.85Y230.95  ;
N1290 G65 P9104 A101 B02  ;
N1291 G0X804.4Y238.12  ;
N1292 G65 P9102 A101 B02  ;
N1293 G1X806.49Y240.21  ;
N1294 G3X806.52Y240.17I-3.64J-3.71  ;
N1295 G65 P9104 A101 B02  ;
N1296 G0X762.9Y228  ;
N1297 G65 P9102 A101 B02  ;
N1298 G1X762.9Y230.95  ;
N1299 G1X764.5Y230.95  ;
N1300 G1X764.5Y220.05  ;
N1301 G1X761.2Y220.05  ;
N1302 G1X761.2Y230.95  ;
N1303 G1X762.85Y230.95  ;
N1304 G65 P9104 A101 B02  ;
N1305 G0X804.4Y188.58  ;
N1306 G65 P9102 A101 B02  ;
N1307 G1X806.49Y190.66  ;
N1308 G3X806.52Y190.63I-3.64J-3.71  ;
N1309 G65 P9104 A101 B02  ;
N1310 G0X762.8Y287.1  ;
N1311 G65 P9102 A101 B02  ;
N1312 G1X762.8Y290.05  ;
N1313 G1X761.2Y290.05  ;
N1314 G1X761.2Y279.15  ;
N1315 G1X764.5Y279.15  ;
N1316 G1X764.5Y290.05  ;
N1317 G1X762.85Y290.05  ;
N1318 G65 P9104 A101 B02  ;
N1319 G0X651.2Y287.1  ;
N1320 G65 P9102 A101 B02  ;
N1321 G1X651.2Y290.05  ;
N1322 G1X649.6Y290.05  ;
N1323 G1X649.6Y279.15  ;
N1324 G1X652.9Y279.15  ;
N1325 G1X652.9Y290.05  ;
N1326 G1X651.25Y290.05  ;
N1327 G65 P9104 A101 B02  ;
N1328 G0X651.3Y228  ;
N1329 G65 P9102 A101 B02  ;
N1330 G1X651.3Y230.95  ;
N1331 G1X652.9Y230.95  ;
N1332 G1X652.9Y220.05  ;
N1333 G1X649.6Y220.05  ;
N1334 G1X649.6Y230.95  ;
N1335 G1X651.25Y230.95  ;
N1336 G65 P9104 A101 B02  ;
N1337 G0X612.8Y238.12  ;
N1338 G65 P9102 A101 B02  ;
N1339 G1X614.89Y240.21  ;
N1340 G3X614.92Y240.17I-3.64J-3.71  ;
N1341 G65 P9104 A101 B02  ;
N1342 G0X612.8Y188.58  ;
N1343 G65 P9102 A101 B02  ;
N1344 G1X614.89Y190.66  ;
N1345 G3X614.92Y190.63I-3.64J-3.71  ;
N1346 G65 P9104 A101 B02  ;
N1347 G0X571.3Y228  ;
N1348 G65 P9102 A101 B02  ;
N1349 G1X571.3Y230.95  ;
N1350 G1X572.9Y230.95  ;
N1351 G1X572.9Y220.05  ;
N1352 G1X569.6Y220.05  ;
N1353 G1X569.6Y230.95  ;
N1354 G1X571.25Y230.95  ;
N1355 G65 P9104 A101 B02  ;
N1356 G0X571.2Y287.1  ;
N1357 G65 P9102 A101 B02  ;
N1358 G1X571.2Y290.05  ;
N1359 G1X569.6Y290.05  ;
N1360 G1X569.6Y279.15  ;
N1361 G1X572.9Y279.15  ;
N1362 G1X572.9Y290.05  ;
N1363 G1X571.25Y290.05  ;
N1364 G65 P9104 A101 B02  ;
N1365 G0X459.6Y287.1  ;
N1366 G65 P9102 A101 B02  ;
N1367 G1X459.6Y290.05  ;
N1368 G1X458Y290.05  ;
N1369 G1X458Y279.15  ;
N1370 G1X461.3Y279.15  ;
N1371 G1X461.3Y290.05  ;
N1372 G1X459.65Y290.05  ;
N1373 G65 P9104 A101 B02  ;
N1374 G0X459.7Y228  ;
N1375 G65 P9102 A101 B02  ;
N1376 G1X459.7Y230.95  ;
N1377 G1X461.3Y230.95  ;
N1378 G1X461.3Y220.05  ;
N1379 G1X458Y220.05  ;
N1380 G1X458Y230.95  ;
N1381 G1X459.65Y230.95  ;
N1382 G65 P9104 A101 B02  ;
N1383 G0X421.2Y238.12  ;
N1384 G65 P9102 A101 B02  ;
N1385 G1X423.29Y240.21  ;
N1386 G3X423.32Y240.17I-3.64J-3.71  ;
N1387 G65 P9104 A101 B02  ;
N1388 G0X421.2Y188.58  ;
N1389 G65 P9102 A101 B02  ;
N1390 G1X423.29Y190.66  ;
N1391 G3X423.32Y190.63I-3.64J-3.71  ;
N1392 G65 P9104 A101 B02  ;
N1393 G0X379.6Y228  ;
N1394 G65 P9102 A101 B02  ;
N1395 G1X379.6Y230.95  ;
N1396 G1X378Y230.95  ;
N1397 G1X378Y220.05  ;
N1398 G1X381.3Y220.05  ;
N1399 G1X381.3Y230.95  ;
N1400 G1X379.65Y230.95  ;
N1401 G65 P9104 A101 B02  ;
N1402 G0X379.7Y287.1  ;
N1403 G65 P9102 A101 B02  ;
N1404 G1X379.7Y290.05  ;
N1405 G1X381.3Y290.05  ;
N1406 G1X381.3Y279.15  ;
N1407 G1X378Y279.15  ;
N1408 G1X378Y290.05  ;
N1409 G1X379.65Y290.05  ;
N1410 G65 P9104 A101 B02  ;
N1411 G0X268.1Y287.1  ;
N1412 G65 P9102 A101 B02  ;
N1413 G1X268.1Y290.05  ;
N1414 G1X269.7Y290.05  ;
N1415 G1X269.7Y279.15  ;
N1416 G1X266.4Y279.15  ;
N1417 G1X266.4Y290.05  ;
N1418 G1X268.05Y290.05  ;
N1419 G65 P9104 A101 B02  ;
N1420 G0X268Y228  ;
N1421 G65 P9102 A101 B02  ;
N1422 G1X268Y230.95  ;
N1423 G1X266.4Y230.95  ;
N1424 G1X266.4Y220.05  ;
N1425 G1X269.7Y220.05  ;
N1426 G1X269.7Y230.95  ;
N1427 G1X268.05Y230.95  ;
N1428 G65 P9104 A101 B02  ;
N1429 G0X229.6Y238.12  ;
N1430 G65 P9102 A101 B02  ;
N1431 G1X231.69Y240.21  ;
N1432 G3X231.72Y240.17I-3.64J-3.71  ;
N1433 G65 P9104 A101 B02  ;
N1434 G0X229.6Y188.58  ;
N1435 G65 P9102 A101 B02  ;
N1436 G1X231.69Y190.66  ;
N1437 G3X231.72Y190.63I-3.64J-3.71  ;
N1438 G65 P9104 A101 B02  ;
N1439 G0X24.2Y186.06  ;
N1440 G65 P9102 A101 B02  ;
N1441 G1X23.48Y188.97  ;
N1442 G2X24.4Y190.15I0.92J0.23  ;
N1443 G2X29.5Y185.05I0J-5.1  ;
N1444 G1X29.5Y180.35  ;
N1445 G2X19.3Y180.35I-5.1J0  ;
N1446 G1X19.3Y185.05  ;
N1447 G2X24.4Y190.15I5.1J0  ;
N1448 G65 P9104 A101 B02  ;
N1449 G0X65.55Y200.85  ;
N1450 G65 P9102 A101 B02  ;
N1451 G1X68.5Y200.85  ;
N1452 G1X68.5Y202.6  ;
N1453 G1X56.6Y202.6  ;
N1454 G1X56.6Y199  ;
N1455 G1X68.5Y199  ;
N1456 G1X68.5Y200.8  ;
N1457 G65 P9104 A101 B02  ;
N1458 G0X94.52Y246.55  ;
N1459 G65 P9102 A101 B02  ;
N1460 G1X96.61Y248.63  ;
N1461 G3X96.64Y248.6I-3.16J-3.23  ;
N1462 G65 P9104 A101 B02  ;
N1463 G0X48.21Y239.24  ;
N1464 G65 P9102 A101 B02  ;
N1465 G1X49.59Y240.61  ;
N1466 G3X49.63Y240.58I-1.34J-1.41  ;
N1467 G65 P9104 A101 B02  ;
N1468 G0X65.55Y284.72  ;
N1469 G65 P9102 A101 B02  ;
N1470 G1X68.5Y284.72  ;
N1471 G1X68.5Y286.5  ;
N1472 G1X56.6Y286.5  ;
N1473 G1X56.6Y282.85  ;
N1474 G1X68.5Y282.85  ;
N1475 G1X68.5Y284.68  ;
N1476 G65 P9104 A101 B02  ;
N1477 G0X25.88Y304.26  ;
N1478 G65 P9102 A101 B02  ;
N1479 G1X27.97Y306.34  ;
N1480 G3X28.01Y306.31I-3.57J-3.64  ;
N1481 G65 P9104 A101 B01  ;
N1482 G0X137.65Y199.15  ;
N1483 G65 P9102 A101 B01  ;
N1484 G1X134.65Y199.15  ;
N1485 G1X98.62Y199.15  ;
N1486 G3X95.12Y197.7I0J-4.95  ;
N1487 G1X68.04Y170.63  ;
N1488 G2X64.47Y169.15I-3.57J3.57  ;
N1489 G1X19Y169.15  ;
N1490 G2X13.95Y174.2I0J5.05  ;
N1491 G1X13.95Y311.2  ;
N1492 G2X19Y316.25I5.05J0  ;
N1493 G1X64.47Y316.25  ;
N1494 G2X68.04Y314.77I0J-5.05  ;
N1495 G1X95.12Y287.7  ;
N1496 G3X98.62Y286.25I3.5J3.5  ;
N1497 G1X129.2Y286.25  ;
N1498 G1X129.2Y282.85  ;
N1499 G1X141.1Y282.85  ;
N1500 G1X141.1Y286.25  ;
N1501 G1X158.2Y286.25  ;
N1502 G1X158.2Y270.37  ;
N1503 G3X159.57Y268.5I1.95J0  ;
N1504 G1X207.35Y253.9  ;
N1505 G2X208.1Y252.89I-0.3J-1.01  ;
N1506 G1X208.1Y249.36  ;
N1507 G3X212.34Y252.01I2.95J0  ;
N1508 G2X211.19Y253.82I0.9J1.84  ;
N1509 G1X211Y265.05  ;
N1510 G1X211Y323.58  ;
N1511 G1X223.05Y323.58  ;
N1512 G1X223.05Y320.43  ;
N1513 G1X226.05Y320.43  ;
N1514 G1X226.05Y323.58  ;
N1515 G1X996.45Y323.58  ;
N1516 G1X996.45Y320.43  ;
N1517 G1X999.45Y320.43  ;
N1518 G1X999.45Y323.58  ;
N1519 G1X1011Y323.58  ;
N1520 G1X1011Y265.05  ;
N1521 G1X1010.8Y253.53  ;
N1522 G2X1009.85Y251.84I-2.05J0.04  ;
N1523 G3X1014.4Y249.36I1.6J-2.48  ;
N1524 G1X1014.4Y252.89  ;
N1525 G2X1015.14Y253.9I1.05J0  ;
N1526 G1X1062.92Y268.5  ;
N1527 G3X1064.3Y270.37I-0.57J1.87  ;
N1528 G1X1064.3Y286.25  ;
N1529 G1X1081.4Y286.25  ;
N1530 G1X1081.4Y282.85  ;
N1531 G1X1093.3Y282.85  ;
N1532 G1X1093.3Y286.25  ;
N1533 G1X1123.87Y286.25  ;
N1534 G3X1127.37Y287.7I0J4.95  ;
N1535 G1X1154.45Y314.77  ;
N1536 G2X1158.02Y316.25I3.57J-3.57  ;
N1537 G1X1203.49Y316.25  ;
N1538 G2X1208.54Y311.2I0J-5.05  ;
N1539 G1X1208.54Y174.2  ;
N1540 G2X1203.49Y169.15I-5.05J0  ;
N1541 G1X1158.02Y169.15  ;
N1542 G2X1154.45Y170.63I0J5.05  ;
N1543 G1X1127.37Y197.7  ;
N1544 G3X1123.87Y199.15I-3.5J-3.5  ;
N1545 G1X1087.8Y199.15  ;
N1546 G1X1087.8Y202.6  ;
N1547 G1X1075.9Y202.6  ;
N1548 G1X1075.9Y199.15  ;
N1549 G1X1015.45Y199.15  ;
N1550 G2X1014.4Y200.2I0J1.05  ;
N1551 G1X1014.4Y202.45  ;
N1552 G3X1009.86Y199.96I-2.95J0  ;
N1553 G2X1010.8Y198.27I-1.11J-1.72  ;
N1554 G1X1011Y187.2  ;
N1555 G1X1011Y166.75  ;
N1556 G1X211Y166.75  ;
N1557 G1X211Y187.2  ;
N1558 G1X211.18Y197.99  ;
N1559 G2X212.34Y199.8I2.05J-0.04  ;
N1560 G3X208.1Y202.45I-1.29J2.65  ;
N1561 G1X208.1Y200.2  ;
N1562 G2X207.05Y199.15I-1.05J0  ;
N1563 G1X146.6Y199.15  ;
N1564 G1X146.6Y202.6  ;
N1565 G1X134.7Y202.6  ;
N1566 G1X134.7Y199.2  ;
N1567 G65 P9104 A101 B02  ;
N1568 M98 P9103  ;
(P47:ID3:W860088)  ;
N1569 M98 P9101  ;
N1570 G0X24.2Y352.76  ;
N1571 G65 P9102 A101 B02  ;
N1572 G1X23.48Y355.67  ;
N1573 G2X24.4Y356.85I0.92J0.23  ;
N1574 G2X29.5Y351.75I0J-5.1  ;
N1575 G1X29.5Y347.05  ;
N1576 G2X19.3Y347.05I-5.1J0  ;
N1577 G1X19.3Y351.75  ;
N1578 G2X24.4Y356.85I5.1J0  ;
N1579 G65 P9104 A101 B02  ;
N1580 G0X65.55Y367.55  ;
N1581 G65 P9102 A101 B02  ;
N1582 G1X68.5Y367.55  ;
N1583 G1X68.5Y369.3  ;
N1584 G1X56.6Y369.3  ;
N1585 G1X56.6Y365.7  ;
N1586 G1X68.5Y365.7  ;
N1587 G1X68.5Y367.5  ;
N1588 G65 P9104 A101 B02  ;
N1589 G0X48.21Y405.94  ;
N1590 G65 P9102 A101 B02  ;
N1591 G1X49.59Y407.31  ;
N1592 G3X49.63Y407.28I-1.34J-1.41  ;
N1593 G65 P9104 A101 B02  ;
N1594 G0X65.55Y451.42  ;
N1595 G65 P9102 A101 B02  ;
N1596 G1X68.5Y451.42  ;
N1597 G1X68.5Y453.2  ;
N1598 G1X56.6Y453.2  ;
N1599 G1X56.6Y449.55  ;
N1600 G1X68.5Y449.55  ;
N1601 G1X68.5Y451.38  ;
N1602 G65 P9104 A101 B02  ;
N1603 G0X25.88Y470.96  ;
N1604 G65 P9102 A101 B02  ;
N1605 G1X27.97Y473.04  ;
N1606 G3X28.01Y473.01I-3.57J-3.64  ;
N1607 G65 P9104 A101 B02  ;
N1608 G0X94.52Y413.25  ;
N1609 G65 P9102 A101 B02  ;
N1610 G1X96.61Y415.33  ;
N1611 G3X96.64Y415.3I-3.16J-3.23  ;
N1612 G65 P9104 A101 B02  ;
N1613 G0X229.6Y404.82  ;
N1614 G65 P9102 A101 B02  ;
N1615 G1X231.69Y406.91  ;
N1616 G3X231.72Y406.87I-3.64J-3.71  ;
N1617 G65 P9104 A101 B02  ;
N1618 G0X268Y394.7  ;
N1619 G65 P9102 A101 B02  ;
N1620 G1X268Y397.65  ;
N1621 G1X266.4Y397.65  ;
N1622 G1X266.4Y386.75  ;
N1623 G1X269.7Y386.75  ;
N1624 G1X269.7Y397.65  ;
N1625 G1X268.05Y397.65  ;
N1626 G65 P9104 A101 B02  ;
N1627 G0X229.6Y355.28  ;
N1628 G65 P9102 A101 B02  ;
N1629 G1X231.69Y357.36  ;
N1630 G3X231.72Y357.33I-3.64J-3.71  ;
N1631 G65 P9104 A101 B02  ;
N1632 G0X268.1Y453.8  ;
N1633 G65 P9102 A101 B02  ;
N1634 G1X268.1Y456.75  ;
N1635 G1X269.7Y456.75  ;
N1636 G1X269.7Y445.85  ;
N1637 G1X266.4Y445.85  ;
N1638 G1X266.4Y456.75  ;
N1639 G1X268.05Y456.75  ;
N1640 G65 P9104 A101 B02  ;
N1641 G0X379.7Y453.8  ;
N1642 G65 P9102 A101 B02  ;
N1643 G1X379.7Y456.75  ;
N1644 G1X381.3Y456.75  ;
N1645 G1X381.3Y445.85  ;
N1646 G1X378Y445.85  ;
N1647 G1X378Y456.75  ;
N1648 G1X379.65Y456.75  ;
N1649 G65 P9104 A101 B02  ;
N1650 G0X379.6Y394.7  ;
N1651 G65 P9102 A101 B02  ;
N1652 G1X379.6Y397.65  ;
N1653 G1X378Y397.65  ;
N1654 G1X378Y386.75  ;
N1655 G1X381.3Y386.75  ;
N1656 G1X381.3Y397.65  ;
N1657 G1X379.65Y397.65  ;
N1658 G65 P9104 A101 B02  ;
N1659 G0X421.2Y404.82  ;
N1660 G65 P9102 A101 B02  ;
N1661 G1X423.29Y406.91  ;
N1662 G3X423.32Y406.87I-3.64J-3.71  ;
N1663 G65 P9104 A101 B02  ;
N1664 G0X459.7Y394.7  ;
N1665 G65 P9102 A101 B02  ;
N1666 G1X459.7Y397.65  ;
N1667 G1X461.3Y397.65  ;
N1668 G1X461.3Y386.75  ;
N1669 G1X458Y386.75  ;
N1670 G1X458Y397.65  ;
N1671 G1X459.65Y397.65  ;
N1672 G65 P9104 A101 B02  ;
N1673 G0X421.2Y355.28  ;
N1674 G65 P9102 A101 B02  ;
N1675 G1X423.29Y357.36  ;
N1676 G3X423.32Y357.33I-3.64J-3.71  ;
N1677 G65 P9104 A101 B02  ;
N1678 G0X459.6Y453.8  ;
N1679 G65 P9102 A101 B02  ;
N1680 G1X459.6Y456.75  ;
N1681 G1X458Y456.75  ;
N1682 G1X458Y445.85  ;
N1683 G1X461.3Y445.85  ;
N1684 G1X461.3Y456.75  ;
N1685 G1X459.65Y456.75  ;
N1686 G65 P9104 A101 B02  ;
N1687 G0X571.2Y453.8  ;
N1688 G65 P9102 A101 B02  ;
N1689 G1X571.2Y456.75  ;
N1690 G1X569.6Y456.75  ;
N1691 G1X569.6Y445.85  ;
N1692 G1X572.9Y445.85  ;
N1693 G1X572.9Y456.75  ;
N1694 G1X571.25Y456.75  ;
N1695 G65 P9104 A101 B02  ;
N1696 G0X571.3Y394.7  ;
N1697 G65 P9102 A101 B02  ;
N1698 G1X571.3Y397.65  ;
N1699 G1X572.9Y397.65  ;
N1700 G1X572.9Y386.75  ;
N1701 G1X569.6Y386.75  ;
N1702 G1X569.6Y397.65  ;
N1703 G1X571.25Y397.65  ;
N1704 G65 P9104 A101 B02  ;
N1705 G0X612.8Y404.82  ;
N1706 G65 P9102 A101 B02  ;
N1707 G1X614.89Y406.91  ;
N1708 G3X614.92Y406.87I-3.64J-3.71  ;
N1709 G65 P9104 A101 B02  ;
N1710 G0X651.3Y394.7  ;
N1711 G65 P9102 A101 B02  ;
N1712 G1X651.3Y397.65  ;
N1713 G1X652.9Y397.65  ;
N1714 G1X652.9Y386.75  ;
N1715 G1X649.6Y386.75  ;
N1716 G1X649.6Y397.65  ;
N1717 G1X651.25Y397.65  ;
N1718 G65 P9104 A101 B02  ;
N1719 G0X612.8Y355.28  ;
N1720 G65 P9102 A101 B02  ;
N1721 G1X614.89Y357.36  ;
N1722 G3X614.92Y357.33I-3.64J-3.71  ;
N1723 G65 P9104 A101 B02  ;
N1724 G0X651.2Y453.8  ;
N1725 G65 P9102 A101 B02  ;
N1726 G1X651.2Y456.75  ;
N1727 G1X649.6Y456.75  ;
N1728 G1X649.6Y445.85  ;
N1729 G1X652.9Y445.85  ;
N1730 G1X652.9Y456.75  ;
N1731 G1X651.25Y456.75  ;
N1732 G65 P9104 A101 B02  ;
N1733 G0X762.8Y453.8  ;
N1734 G65 P9102 A101 B02  ;
N1735 G1X762.8Y456.75  ;
N1736 G1X761.2Y456.75  ;
N1737 G1X761.2Y445.85  ;
N1738 G1X764.5Y445.85  ;
N1739 G1X764.5Y456.75  ;
N1740 G1X762.85Y456.75  ;
N1741 G65 P9104 A101 B02  ;
N1742 G0X762.9Y394.7  ;
N1743 G65 P9102 A101 B02  ;
N1744 G1X762.9Y397.65  ;
N1745 G1X764.5Y397.65  ;
N1746 G1X764.5Y386.75  ;
N1747 G1X761.2Y386.75  ;
N1748 G1X761.2Y397.65  ;
N1749 G1X762.85Y397.65  ;
N1750 G65 P9104 A101 B02  ;
N1751 G0X804.4Y404.82  ;
N1752 G65 P9102 A101 B02  ;
N1753 G1X806.49Y406.91  ;
N1754 G3X806.52Y406.87I-3.64J-3.71  ;
N1755 G65 P9104 A101 B02  ;
N1756 G0X842.9Y394.7  ;
N1757 G65 P9102 A101 B02  ;
N1758 G1X842.9Y397.65  ;
N1759 G1X844.5Y397.65  ;
N1760 G1X844.5Y386.75  ;
N1761 G1X841.2Y386.75  ;
N1762 G1X841.2Y397.65  ;
N1763 G1X842.85Y397.65  ;
N1764 G65 P9104 A101 B02  ;
N1765 G0X804.4Y355.28  ;
N1766 G65 P9102 A101 B02  ;
N1767 G1X806.49Y357.36  ;
N1768 G3X806.52Y357.33I-3.64J-3.71  ;
N1769 G65 P9104 A101 B02  ;
N1770 G0X842.8Y453.8  ;
N1771 G65 P9102 A101 B02  ;
N1772 G1X842.8Y456.75  ;
N1773 G1X841.2Y456.75  ;
N1774 G1X841.2Y445.85  ;
N1775 G1X844.5Y445.85  ;
N1776 G1X844.5Y456.75  ;
N1777 G1X842.85Y456.75  ;
N1778 G65 P9104 A101 B02  ;
N1779 G0X954.4Y453.8  ;
N1780 G65 P9102 A101 B02  ;
N1781 G1X954.4Y456.75  ;
N1782 G1X952.8Y456.75  ;
N1783 G1X952.8Y445.85  ;
N1784 G1X956.1Y445.85  ;
N1785 G1X956.1Y456.75  ;
N1786 G1X954.45Y456.75  ;
N1787 G65 P9104 A101 B02  ;
N1788 G0X954.5Y394.7  ;
N1789 G65 P9102 A101 B02  ;
N1790 G1X954.5Y397.65  ;
N1791 G1X956.1Y397.65  ;
N1792 G1X956.1Y386.75  ;
N1793 G1X952.8Y386.75  ;
N1794 G1X952.8Y397.65  ;
N1795 G1X954.45Y397.65  ;
N1796 G65 P9104 A101 B02  ;
N1797 G0X996Y404.82  ;
N1798 G65 P9102 A101 B02  ;
N1799 G1X998.09Y406.91  ;
N1800 G3X998.12Y406.87I-3.64J-3.71  ;
N1801 G65 P9104 A101 B02  ;
N1802 G0X996Y355.28  ;
N1803 G65 P9102 A101 B02  ;
N1804 G1X998.09Y357.36  ;
N1805 G3X998.12Y357.33I-3.64J-3.71  ;
N1806 G65 P9104 A101 B02  ;
N1807 G0X1197.89Y352.76  ;
N1808 G65 P9102 A101 B02  ;
N1809 G1X1197.17Y355.67  ;
N1810 G2X1198.09Y356.85I0.92J0.23  ;
N1811 G2X1203.19Y351.75I0J-5.1  ;
N1812 G1X1203.19Y347.05  ;
N1813 G2X1192.99Y347.05I-5.1J0  ;
N1814 G1X1192.99Y351.75  ;
N1815 G2X1198.09Y356.85I5.1J0  ;
N1816 G65 P9104 A101 B02  ;
N1817 G0X1162.95Y367.45  ;
N1818 G65 P9102 A101 B02  ;
N1819 G1X1165.9Y367.45  ;
N1820 G1X1165.9Y365.7  ;
N1821 G1X1154Y365.7  ;
N1822 G1X1154Y369.3  ;
N1823 G1X1165.9Y369.3  ;
N1824 G1X1165.9Y367.5  ;
N1825 G65 P9104 A101 B02  ;
N1826 G0X1174.2Y405.94  ;
N1827 G65 P9102 A101 B02  ;
N1828 G1X1175.58Y407.31  ;
N1829 G3X1175.62Y407.28I-1.34J-1.41  ;
N1830 G65 P9104 A101 B02  ;
N1831 G0X1130.12Y413.25  ;
N1832 G65 P9102 A101 B02  ;
N1833 G1X1132.21Y415.33  ;
N1834 G3X1132.24Y415.3I-3.16J-3.23  ;
N1835 G65 P9104 A101 B02  ;
N1836 G0X1162.95Y451.32  ;
N1837 G65 P9102 A101 B02  ;
N1838 G1X1165.9Y451.32  ;
N1839 G1X1165.9Y449.55  ;
N1840 G1X1154Y449.55  ;
N1841 G1X1154Y453.2  ;
N1842 G1X1165.9Y453.2  ;
N1843 G1X1165.9Y451.38  ;
N1844 G65 P9104 A101 B02  ;
N1845 G0X1199.58Y470.96  ;
N1846 G65 P9102 A101 B02  ;
N1847 G1X1201.66Y473.04  ;
N1848 G3X1201.7Y473.01I-3.57J-3.64  ;
N1849 G65 P9104 A101 B01  ;
N1850 G0X137.65Y365.85  ;
N1851 G65 P9102 A101 B01  ;
N1852 G1X134.65Y365.85  ;
N1853 G1X98.62Y365.85  ;
N1854 G3X95.12Y364.4I0J-4.95  ;
N1855 G1X68.04Y337.33  ;
N1856 G2X64.47Y335.85I-3.57J3.57  ;
N1857 G1X19Y335.85  ;
N1858 G2X13.95Y340.9I0J5.05  ;
N1859 G1X13.95Y477.9  ;
N1860 G2X19Y482.95I5.05J0  ;
N1861 G1X64.47Y482.95  ;
N1862 G2X68.04Y481.47I0J-5.05  ;
N1863 G1X95.12Y454.4  ;
N1864 G3X98.62Y452.95I3.5J3.5  ;
N1865 G1X129.2Y452.95  ;
N1866 G1X129.2Y449.55  ;
N1867 G1X141.1Y449.55  ;
N1868 G1X141.1Y452.95  ;
N1869 G1X158.2Y452.95  ;
N1870 G1X158.2Y437.07  ;
N1871 G3X159.57Y435.2I1.95J0  ;
N1872 G1X207.35Y420.6  ;
N1873 G2X208.1Y419.59I-0.3J-1.01  ;
N1874 G1X208.1Y416.06  ;
N1875 G3X212.34Y418.71I2.95J0  ;
N1876 G2X211.19Y420.52I0.9J1.84  ;
N1877 G1X211Y431.75  ;
N1878 G1X211Y490.28  ;
N1879 G1X223.05Y490.28  ;
N1880 G1X223.05Y487.13  ;
N1881 G1X226.05Y487.13  ;
N1882 G1X226.05Y490.28  ;
N1883 G1X996.45Y490.28  ;
N1884 G1X996.45Y487.13  ;
N1885 G1X999.45Y487.13  ;
N1886 G1X999.45Y490.28  ;
N1887 G1X1011Y490.28  ;
N1888 G1X1011Y431.75  ;
N1889 G1X1010.8Y420.23  ;
N1890 G2X1009.85Y418.54I-2.05J0.04  ;
N1891 G3X1014.4Y416.06I1.6J-2.48  ;
N1892 G1X1014.4Y419.59  ;
N1893 G2X1015.14Y420.6I1.05J0  ;
N1894 G1X1062.92Y435.2  ;
N1895 G3X1064.3Y437.07I-0.57J1.87  ;
N1896 G1X1064.3Y452.95  ;
N1897 G1X1081.4Y452.95  ;
N1898 G1X1081.4Y449.55  ;
N1899 G1X1093.3Y449.55  ;
N1900 G1X1093.3Y452.95  ;
N1901 G1X1123.87Y452.95  ;
N1902 G3X1127.37Y454.4I0J4.95  ;
N1903 G1X1154.45Y481.47  ;
N1904 G2X1158.02Y482.95I3.57J-3.57  ;
N1905 G1X1203.49Y482.95  ;
N1906 G2X1208.54Y477.9I0J-5.05  ;
N1907 G1X1208.54Y340.9  ;
N1908 G2X1203.49Y335.85I-5.05J0  ;
N1909 G1X1158.02Y335.85  ;
N1910 G2X1154.45Y337.33I0J5.05  ;
N1911 G1X1127.37Y364.4  ;
N1912 G3X1123.87Y365.85I-3.5J-3.5  ;
N1913 G1X1087.8Y365.85  ;
N1914 G1X1087.8Y369.3  ;
N1915 G1X1075.9Y369.3  ;
N1916 G1X1075.9Y365.85  ;
N1917 G1X1015.45Y365.85  ;
N1918 G2X1014.4Y366.9I0J1.05  ;
N1919 G1X1014.4Y369.15  ;
N1920 G3X1009.86Y366.66I-2.95J0  ;
N1921 G2X1010.8Y364.97I-1.11J-1.72  ;
N1922 G1X1011Y353.9  ;
N1923 G1X1011Y333.45  ;
N1924 G1X211Y333.45  ;
N1925 G1X211Y353.9  ;
N1926 G1X211.18Y364.69  ;
N1927 G2X212.34Y366.5I2.05J-0.04  ;
N1928 G3X208.1Y369.15I-1.29J2.65  ;
N1929 G1X208.1Y366.9  ;
N1930 G2X207.05Y365.85I-1.05J0  ;
N1931 G1X146.6Y365.85  ;
N1932 G1X146.6Y369.3  ;
N1933 G1X134.7Y369.3  ;
N1934 G1X134.7Y365.9  ;
N1935 G65 P9104 A101 B01  ;
N1936 M98 P9103  ;
(P48:ID1:W86008801)  ;
N1937 M98 P9101  ;
N1938 G0X1280.78Y415.8  ;
N1939 G65 P9102 A101 B01  ;
N1940 G1X1280.78Y410.85  ;
N1941 G1X1282.05Y410.85  ;
N1942 G1X1282.05Y407.85  ;
N1943 G1X1289.02Y407.85  ;
N1944 G1X1294.05Y402.82  ;
N1945 G1X1294.05Y392.85  ;
N1946 G1X1297.05Y392.85  ;
N1947 G1X1297.05Y382.75  ;
N1948 G1X1294.05Y382.75  ;
N1949 G1X1294.05Y320.25  ;
N1950 G1X1297.05Y320.25  ;
N1951 G1X1297.05Y310.15  ;
N1952 G1X1294.05Y310.15  ;
N1953 G1X1294.05Y301.68  ;
N1954 G1X1287.52Y295.15  ;
N1955 G1X1271.98Y295.15  ;
N1956 G1X1266.95Y300.18  ;
N1957 G1X1266.95Y402.82  ;
N1958 G1X1271.98Y407.85  ;
N1959 G1X1278.95Y407.85  ;
N1960 G1X1278.95Y410.85  ;
N1961 G1X1280.08Y410.85  ;
N1962 G65 P9104 A101 B01  ;
N1963 M98 P9103  ;
(P49:ID1:W86008801)  ;
N1964 M98 P9101  ;
N1965 G0X1318.78Y415.8  ;
N1966 G65 P9102 A101 B01  ;
N1967 G1X1318.78Y410.85  ;
N1968 G1X1320.05Y410.85  ;
N1969 G1X1320.05Y407.85  ;
N1970 G1X1327.02Y407.85  ;
N1971 G1X1332.05Y402.82  ;
N1972 G1X1332.05Y392.85  ;
N1973 G1X1335.05Y392.85  ;
N1974 G1X1335.05Y382.75  ;
N1975 G1X1332.05Y382.75  ;
N1976 G1X1332.05Y320.25  ;
N1977 G1X1335.05Y320.25  ;
N1978 G1X1335.05Y310.15  ;
N1979 G1X1332.05Y310.15  ;
N1980 G1X1332.05Y301.68  ;
N1981 G1X1325.52Y295.15  ;
N1982 G1X1309.98Y295.15  ;
N1983 G1X1304.95Y300.18  ;
N1984 G1X1304.95Y402.82  ;
N1985 G1X1309.98Y407.85  ;
N1986 G1X1316.95Y407.85  ;
N1987 G1X1316.95Y410.85  ;
N1988 G1X1318.08Y410.85  ;
N1989 G65 P9104 A101 B01  ;
N1990 M98 P9103  ;
(P50:ID1:W86008801)  ;
N1991 M98 P9101  ;
N1992 G0X1356.78Y415.8  ;
N1993 G65 P9102 A101 B01  ;
N1994 G1X1356.78Y410.85  ;
N1995 G1X1358.05Y410.85  ;
N1996 G1X1358.05Y407.85  ;
N1997 G1X1365.02Y407.85  ;
N1998 G1X1370.05Y402.82  ;
N1999 G1X1370.05Y392.85  ;
N2000 G1X1373.05Y392.85  ;
N2001 G1X1373.05Y382.75  ;
N2002 G1X1370.05Y382.75  ;
N2003 G1X1370.05Y320.25  ;
N2004 G1X1373.05Y320.25  ;
N2005 G1X1373.05Y310.15  ;
N2006 G1X1370.05Y310.15  ;
N2007 G1X1370.05Y301.68  ;
N2008 G1X1363.52Y295.15  ;
N2009 G1X1347.98Y295.15  ;
N2010 G1X1342.95Y300.18  ;
N2011 G1X1342.95Y402.82  ;
N2012 G1X1347.98Y407.85  ;
N2013 G1X1354.95Y407.85  ;
N2014 G1X1354.95Y410.85  ;
N2015 G1X1356.08Y410.85  ;
N2016 G65 P9104 A101 B01  ;
N2017 M98 P9103  ;
(P51:ID1:W86008801)  ;
N2018 M98 P9101  ;
N2019 G0X1394.78Y415.8  ;
N2020 G65 P9102 A101 B01  ;
N2021 G1X1394.78Y410.85  ;
N2022 G1X1396.05Y410.85  ;
N2023 G1X1396.05Y407.85  ;
N2024 G1X1403.02Y407.85  ;
N2025 G1X1408.05Y402.82  ;
N2026 G1X1408.05Y392.85  ;
N2027 G1X1411.05Y392.85  ;
N2028 G1X1411.05Y382.75  ;
N2029 G1X1408.05Y382.75  ;
N2030 G1X1408.05Y320.25  ;
N2031 G1X1411.05Y320.25  ;
N2032 G1X1411.05Y310.15  ;
N2033 G1X1408.05Y310.15  ;
N2034 G1X1408.05Y301.68  ;
N2035 G1X1401.52Y295.15  ;
N2036 G1X1385.98Y295.15  ;
N2037 G1X1380.95Y300.18  ;
N2038 G1X1380.95Y402.82  ;
N2039 G1X1385.98Y407.85  ;
N2040 G1X1392.95Y407.85  ;
N2041 G1X1392.95Y410.85  ;
N2042 G1X1394.08Y410.85  ;
N2043 G65 P9104 A101 B01  ;
N2044 M98 P9103  ;
(P52:ID1:W86008801)  ;
N2045 M98 P9101  ;
N2046 G0X1435.22Y291.22  ;
N2047 G65 P9102 A101 B01  ;
N2048 G1X1435.22Y296.17  ;
N2049 G1X1433.95Y296.17  ;
N2050 G1X1433.95Y299.17  ;
N2051 G1X1426.98Y299.17  ;
N2052 G1X1421.95Y304.2  ;
N2053 G1X1421.95Y314.17  ;
N2054 G1X1418.95Y314.17  ;
N2055 G1X1418.95Y324.27  ;
N2056 G1X1421.95Y324.27  ;
N2057 G1X1421.95Y386.77  ;
N2058 G1X1418.95Y386.77  ;
N2059 G1X1418.95Y396.87  ;
N2060 G1X1421.95Y396.87  ;
N2061 G1X1421.95Y405.34  ;
N2062 G1X1428.48Y411.87  ;
N2063 G1X1444.02Y411.87  ;
N2064 G1X1449.05Y406.84  ;
N2065 G1X1449.05Y304.2  ;
N2066 G1X1444.02Y299.17  ;
N2067 G1X1437.05Y299.17  ;
N2068 G1X1437.05Y296.17  ;
N2069 G1X1435.92Y296.17  ;
N2070 G65 P9104 A101 B01  ;
N2071 M98 P9103  ;
(P53:ID1:W86008801)  ;
N2072 M98 P9101  ;
N2073 G0X1473.22Y291.22  ;
N2074 G65 P9102 A101 B01  ;
N2075 G1X1473.22Y296.17  ;
N2076 G1X1471.95Y296.17  ;
N2077 G1X1471.95Y299.17  ;
N2078 G1X1464.98Y299.17  ;
N2079 G1X1459.95Y304.2  ;
N2080 G1X1459.95Y314.17  ;
N2081 G1X1456.95Y314.17  ;
N2082 G1X1456.95Y324.27  ;
N2083 G1X1459.95Y324.27  ;
N2084 G1X1459.95Y386.77  ;
N2085 G1X1456.95Y386.77  ;
N2086 G1X1456.95Y396.87  ;
N2087 G1X1459.95Y396.87  ;
N2088 G1X1459.95Y405.34  ;
N2089 G1X1466.48Y411.87  ;
N2090 G1X1482.02Y411.87  ;
N2091 G1X1487.05Y406.84  ;
N2092 G1X1487.05Y304.2  ;
N2093 G1X1482.02Y299.17  ;
N2094 G1X1475.05Y299.17  ;
N2095 G1X1475.05Y296.17  ;
N2096 G1X1473.92Y296.17  ;
N2097 G65 P9104 A101 B01  ;
N2098 M98 P9103  ;
(P54:ID1:W86008801)  ;
N2099 M98 P9101  ;
N2100 G0X1330.92Y590.42  ;
N2101 G65 P9102 A101 B01  ;
N2102 G1X1330.92Y595.37  ;
N2103 G1X1329.65Y595.37  ;
N2104 G1X1329.65Y598.37  ;
N2105 G1X1322.68Y598.37  ;
N2106 G1X1317.65Y603.4  ;
N2107 G1X1317.65Y613.37  ;
N2108 G1X1314.65Y613.37  ;
N2109 G1X1314.65Y623.47  ;
N2110 G1X1317.65Y623.47  ;
N2111 G1X1317.65Y685.97  ;
N2112 G1X1314.65Y685.97  ;
N2113 G1X1314.65Y696.07  ;
N2114 G1X1317.65Y696.07  ;
N2115 G1X1317.65Y704.54  ;
N2116 G1X1324.18Y711.07  ;
N2117 G1X1339.72Y711.07  ;
N2118 G1X1344.75Y706.04  ;
N2119 G1X1344.75Y603.4  ;
N2120 G1X1339.72Y598.37  ;
N2121 G1X1332.75Y598.37  ;
N2122 G1X1332.75Y595.37  ;
N2123 G1X1331.62Y595.37  ;
N2124 G65 P9104 A101 B01  ;
N2125 M98 P9103  ;
(P55:ID1:W86008801)  ;
N2126 M98 P9101  ;
N2127 G0X996.22Y591.42  ;
N2128 G65 P9102 A101 B01  ;
N2129 G1X996.22Y596.37  ;
N2130 G1X994.95Y596.37  ;
N2131 G1X994.95Y599.37  ;
N2132 G1X987.98Y599.37  ;
N2133 G1X982.95Y604.4  ;
N2134 G1X982.95Y614.37  ;
N2135 G1X979.95Y614.37  ;
N2136 G1X979.95Y624.47  ;
N2137 G1X982.95Y624.47  ;
N2138 G1X982.95Y686.97  ;
N2139 G1X979.95Y686.97  ;
N2140 G1X979.95Y697.07  ;
N2141 G1X982.95Y697.07  ;
N2142 G1X982.95Y705.54  ;
N2143 G1X989.48Y712.07  ;
N2144 G1X1005.02Y712.07  ;
N2145 G1X1010.05Y707.04  ;
N2146 G1X1010.05Y604.4  ;
N2147 G1X1005.02Y599.37  ;
N2148 G1X998.05Y599.37  ;
N2149 G1X998.05Y596.37  ;
N2150 G1X996.92Y596.37  ;
N2151 G65 P9104 A101 B01  ;
N2152 M98 P9103  ;
(P56:ID1:W86008801)  ;
N2153 M98 P9101  ;
N2154 G0X508.72Y593.52  ;
N2155 G65 P9102 A101 B01  ;
N2156 G1X508.72Y598.47  ;
N2157 G1X507.45Y598.47  ;
N2158 G1X507.45Y601.47  ;
N2159 G1X500.48Y601.47  ;
N2160 G1X495.45Y606.5  ;
N2161 G1X495.45Y616.47  ;
N2162 G1X492.45Y616.47  ;
N2163 G1X492.45Y626.57  ;
N2164 G1X495.45Y626.57  ;
N2165 G1X495.45Y689.07  ;
N2166 G1X492.45Y689.07  ;
N2167 G1X492.45Y699.17  ;
N2168 G1X495.45Y699.17  ;
N2169 G1X495.45Y707.64  ;
N2170 G1X501.98Y714.17  ;
N2171 G1X517.52Y714.17  ;
N2172 G1X522.55Y709.14  ;
N2173 G1X522.55Y606.5  ;
N2174 G1X517.52Y601.47  ;
N2175 G1X510.55Y601.47  ;
N2176 G1X510.55Y598.47  ;
N2177 G1X509.42Y598.47  ;
N2178 G65 P9104 A101 B01  ;
N2179 M98 P9103  ;
(P57:ID1:W86008801)  ;
N2180 M98 P9101  ;
N2181 G0X346.72Y592.52  ;
N2182 G65 P9102 A101 B01  ;
N2183 G1X346.72Y597.47  ;
N2184 G1X345.45Y597.47  ;
N2185 G1X345.45Y600.47  ;
N2186 G1X338.48Y600.47  ;
N2187 G1X333.45Y605.5  ;
N2188 G1X333.45Y615.47  ;
N2189 G1X330.45Y615.47  ;
N2190 G1X330.45Y625.57  ;
N2191 G1X333.45Y625.57  ;
N2192 G1X333.45Y688.07  ;
N2193 G1X330.45Y688.07  ;
N2194 G1X330.45Y698.17  ;
N2195 G1X333.45Y698.17  ;
N2196 G1X333.45Y706.64  ;
N2197 G1X339.98Y713.17  ;
N2198 G1X355.52Y713.17  ;
N2199 G1X360.55Y708.14  ;
N2200 G1X360.55Y605.5  ;
N2201 G1X355.52Y600.47  ;
N2202 G1X348.55Y600.47  ;
N2203 G1X348.55Y597.47  ;
N2204 G1X347.42Y597.47  ;
N2205 G65 P9104 A101 B01  ;
N2206 M98 P9103  ;
(P58:ID1:W86008801)  ;
N2207 M98 P9101  ;
N2208 G0X188.62Y591.82  ;
N2209 G65 P9102 A101 B01  ;
N2210 G1X188.62Y596.77  ;
N2211 G1X187.35Y596.77  ;
N2212 G1X187.35Y599.77  ;
N2213 G1X180.38Y599.77  ;
N2214 G1X175.35Y604.8  ;
N2215 G1X175.35Y614.77  ;
N2216 G1X172.35Y614.77  ;
N2217 G1X172.35Y624.87  ;
N2218 G1X175.35Y624.87  ;
N2219 G1X175.35Y687.37  ;
N2220 G1X172.35Y687.37  ;
N2221 G1X172.35Y697.47  ;
N2222 G1X175.35Y697.47  ;
N2223 G1X175.35Y705.94  ;
N2224 G1X181.88Y712.47  ;
N2225 G1X197.42Y712.47  ;
N2226 G1X202.45Y707.44  ;
N2227 G1X202.45Y604.8  ;
N2228 G1X197.42Y599.77  ;
N2229 G1X190.45Y599.77  ;
N2230 G1X190.45Y596.77  ;
N2231 G1X189.32Y596.77  ;
N2232 G65 P9104 A101 B02  ;
N2233 M98 P9103  ;
(P59:ID3:W860088)  ;
N2234 M98 P9101  ;
N2235 G0X137.18Y579.15  ;
N2236 G65 P9102 A101 B02  ;
N2237 G1X137.18Y582.1  ;
N2238 G1X135.43Y582.1  ;
N2239 G1X135.43Y570.2  ;
N2240 G1X139.03Y570.2  ;
N2241 G1X139.03Y582.1  ;
N2242 G1X137.23Y582.1  ;
N2243 G65 P9104 A101 B02  ;
N2244 G0X98.8Y561.81  ;
N2245 G65 P9102 A101 B02  ;
N2246 G1X97.42Y563.19  ;
N2247 G3X97.45Y563.23I1.41J-1.34  ;
N2248 G65 P9104 A101 B02  ;
N2249 G0X53.31Y579.15  ;
N2250 G65 P9102 A101 B02  ;
N2251 G1X53.31Y582.1  ;
N2252 G1X51.53Y582.1  ;
N2253 G1X51.53Y570.2  ;
N2254 G1X55.18Y570.2  ;
N2255 G1X55.18Y582.1  ;
N2256 G1X53.36Y582.1  ;
N2257 G65 P9104 A101 B02  ;
N2258 G0X33.78Y539.48  ;
N2259 G65 P9102 A101 B02  ;
N2260 G1X31.69Y541.57  ;
N2261 G3X31.73Y541.61I3.64J-3.57  ;
N2262 G65 P9104 A101 B02  ;
N2263 G0X91.48Y608.12  ;
N2264 G65 P9102 A101 B02  ;
N2265 G1X89.4Y610.21  ;
N2266 G3X89.43Y610.24I3.23J-3.16  ;
N2267 G65 P9104 A101 B02  ;
N2268 G0X151.97Y537.8  ;
N2269 G65 P9102 A101 B02  ;
N2270 G1X149.06Y537.08  ;
N2271 G2X147.88Y538I-0.23J0.92  ;
N2272 G2X152.98Y543.1I5.1J0  ;
N2273 G1X157.68Y543.1  ;
N2274 G2X157.68Y532.9I0J-5.1  ;
N2275 G1X152.98Y532.9  ;
N2276 G2X147.88Y538I0J5.1  ;
N2277 G65 P9104 A101 B02  ;
N2278 G0X149.46Y743.2  ;
N2279 G65 P9102 A101 B02  ;
N2280 G1X147.37Y745.29  ;
N2281 G3X147.41Y745.32I3.71J-3.64  ;
N2282 G65 P9104 A101 B02  ;
N2283 G0X99.91Y743.2  ;
N2284 G65 P9102 A101 B02  ;
N2285 G1X97.83Y745.29  ;
N2286 G3X97.86Y745.32I3.71J-3.64  ;
N2287 G65 P9104 A101 B02  ;
N2288 G0X110.04Y781.6  ;
N2289 G65 P9102 A101 B02  ;
N2290 G1X107.09Y781.6  ;
N2291 G1X107.09Y780  ;
N2292 G1X117.99Y780  ;
N2293 G1X117.99Y783.3  ;
N2294 G1X107.09Y783.3  ;
N2295 G1X107.09Y781.65  ;
N2296 G65 P9104 A101 B02  ;
N2297 G0X50.93Y781.7  ;
N2298 G65 P9102 A101 B02  ;
N2299 G1X47.98Y781.7  ;
N2300 G1X47.98Y783.3  ;
N2301 G1X58.88Y783.3  ;
N2302 G1X58.88Y780  ;
N2303 G1X47.98Y780  ;
N2304 G1X47.98Y781.65  ;
N2305 G65 P9104 A101 B02  ;
N2306 G0X50.93Y893.3  ;
N2307 G65 P9102 A101 B02  ;
N2308 G1X47.98Y893.3  ;
N2309 G1X47.98Y894.9  ;
N2310 G1X58.88Y894.9  ;
N2311 G1X58.88Y891.6  ;
N2312 G1X47.98Y891.6  ;
N2313 G1X47.98Y893.25  ;
N2314 G65 P9104 A101 B02  ;
N2315 G0X110.04Y893.2  ;
N2316 G65 P9102 A101 B02  ;
N2317 G1X107.09Y893.2  ;
N2318 G1X107.09Y891.6  ;
N2319 G1X117.99Y891.6  ;
N2320 G1X117.99Y894.9  ;
N2321 G1X107.09Y894.9  ;
N2322 G1X107.09Y893.25  ;
N2323 G65 P9104 A101 B02  ;
N2324 G0X99.91Y934.8  ;
N2325 G65 P9102 A101 B02  ;
N2326 G1X97.83Y936.89  ;
N2327 G3X97.86Y936.92I3.71J-3.64  ;
N2328 G65 P9104 A101 B02  ;
N2329 G0X110.04Y973.3  ;
N2330 G65 P9102 A101 B02  ;
N2331 G1X107.09Y973.3  ;
N2332 G1X107.09Y974.9  ;
N2333 G1X117.99Y974.9  ;
N2334 G1X117.99Y971.6  ;
N2335 G1X107.09Y971.6  ;
N2336 G1X107.09Y973.25  ;
N2337 G65 P9104 A101 B02  ;
N2338 G0X149.46Y934.8  ;
N2339 G65 P9102 A101 B02  ;
N2340 G1X147.37Y936.89  ;
N2341 G3X147.41Y936.92I3.71J-3.64  ;
N2342 G65 P9104 A101 B02  ;
N2343 G0X50.93Y973.2  ;
N2344 G65 P9102 A101 B02  ;
N2345 G1X47.98Y973.2  ;
N2346 G1X47.98Y971.6  ;
N2347 G1X58.88Y971.6  ;
N2348 G1X58.88Y974.9  ;
N2349 G1X47.98Y974.9  ;
N2350 G1X47.98Y973.25  ;
N2351 G65 P9104 A101 B02  ;
N2352 G0X50.93Y1084.8  ;
N2353 G65 P9102 A101 B02  ;
N2354 G1X47.98Y1084.8  ;
N2355 G1X47.98Y1083.2  ;
N2356 G1X58.88Y1083.2  ;
N2357 G1X58.88Y1086.5  ;
N2358 G1X47.98Y1086.5  ;
N2359 G1X47.98Y1084.85  ;
N2360 G65 P9104 A101 B02  ;
N2361 G0X110.04Y1084.9  ;
N2362 G65 P9102 A101 B02  ;
N2363 G1X107.09Y1084.9  ;
N2364 G1X107.09Y1086.5  ;
N2365 G1X117.99Y1086.5  ;
N2366 G1X117.99Y1083.2  ;
N2367 G1X107.09Y1083.2  ;
N2368 G1X107.09Y1084.85  ;
N2369 G65 P9104 A101 B02  ;
N2370 G0X99.91Y1126.4  ;
N2371 G65 P9102 A101 B02  ;
N2372 G1X97.83Y1128.49  ;
N2373 G3X97.86Y1128.52I3.71J-3.64  ;
N2374 G65 P9104 A101 B02  ;
N2375 G0X110.04Y1164.9  ;
N2376 G65 P9102 A101 B02  ;
N2377 G1X107.09Y1164.9  ;
N2378 G1X107.09Y1166.5  ;
N2379 G1X117.99Y1166.5  ;
N2380 G1X117.99Y1163.2  ;
N2381 G1X107.09Y1163.2  ;
N2382 G1X107.09Y1164.85  ;
N2383 G65 P9104 A101 B02  ;
N2384 G0X149.46Y1126.4  ;
N2385 G65 P9102 A101 B02  ;
N2386 G1X147.37Y1128.49  ;
N2387 G3X147.41Y1128.52I3.71J-3.64  ;
N2388 G65 P9104 A101 B02  ;
N2389 G0X50.93Y1164.8  ;
N2390 G65 P9102 A101 B02  ;
N2391 G1X47.98Y1164.8  ;
N2392 G1X47.98Y1163.2  ;
N2393 G1X58.88Y1163.2  ;
N2394 G1X58.88Y1166.5  ;
N2395 G1X47.98Y1166.5  ;
N2396 G1X47.98Y1164.85  ;
N2397 G65 P9104 A101 B02  ;
N2398 G0X50.93Y1276.4  ;
N2399 G65 P9102 A101 B02  ;
N2400 G1X47.98Y1276.4  ;
N2401 G1X47.98Y1274.8  ;
N2402 G1X58.88Y1274.8  ;
N2403 G1X58.88Y1278.1  ;
N2404 G1X47.98Y1278.1  ;
N2405 G1X47.98Y1276.45  ;
N2406 G65 P9104 A101 B02  ;
N2407 G0X110.04Y1276.5  ;
N2408 G65 P9102 A101 B02  ;
N2409 G1X107.09Y1276.5  ;
N2410 G1X107.09Y1278.1  ;
N2411 G1X117.99Y1278.1  ;
N2412 G1X117.99Y1274.8  ;
N2413 G1X107.09Y1274.8  ;
N2414 G1X107.09Y1276.45  ;
N2415 G65 P9104 A101 B02  ;
N2416 G0X99.91Y1318  ;
N2417 G65 P9102 A101 B02  ;
N2418 G1X97.83Y1320.09  ;
N2419 G3X97.86Y1320.12I3.71J-3.64  ;
N2420 G65 P9104 A101 B02  ;
N2421 G0X110.04Y1356.5  ;
N2422 G65 P9102 A101 B02  ;
N2423 G1X107.09Y1356.5  ;
N2424 G1X107.09Y1358.1  ;
N2425 G1X117.99Y1358.1  ;
N2426 G1X117.99Y1354.8  ;
N2427 G1X107.09Y1354.8  ;
N2428 G1X107.09Y1356.45  ;
N2429 G65 P9104 A101 B02  ;
N2430 G0X149.46Y1318  ;
N2431 G65 P9102 A101 B02  ;
N2432 G1X147.37Y1320.09  ;
N2433 G3X147.41Y1320.12I3.71J-3.64  ;
N2434 G65 P9104 A101 B02  ;
N2435 G0X50.93Y1356.4  ;
N2436 G65 P9102 A101 B02  ;
N2437 G1X47.98Y1356.4  ;
N2438 G1X47.98Y1354.8  ;
N2439 G1X58.88Y1354.8  ;
N2440 G1X58.88Y1358.1  ;
N2441 G1X47.98Y1358.1  ;
N2442 G1X47.98Y1356.45  ;
N2443 G65 P9104 A101 B02  ;
N2444 G0X50.93Y1468  ;
N2445 G65 P9102 A101 B02  ;
N2446 G1X47.98Y1468  ;
N2447 G1X47.98Y1466.4  ;
N2448 G1X58.88Y1466.4  ;
N2449 G1X58.88Y1469.7  ;
N2450 G1X47.98Y1469.7  ;
N2451 G1X47.98Y1468.05  ;
N2452 G65 P9104 A101 B02  ;
N2453 G0X110.04Y1468.1  ;
N2454 G65 P9102 A101 B02  ;
N2455 G1X107.09Y1468.1  ;
N2456 G1X107.09Y1469.7  ;
N2457 G1X117.99Y1469.7  ;
N2458 G1X117.99Y1466.4  ;
N2459 G1X107.09Y1466.4  ;
N2460 G1X107.09Y1468.05  ;
N2461 G65 P9104 A101 B02  ;
N2462 G0X99.91Y1509.6  ;
N2463 G65 P9102 A101 B02  ;
N2464 G1X97.83Y1511.69  ;
N2465 G3X97.86Y1511.72I3.71J-3.64  ;
N2466 G65 P9104 A101 B02  ;
N2467 G0X149.46Y1509.6  ;
N2468 G65 P9102 A101 B02  ;
N2469 G1X147.37Y1511.69  ;
N2470 G3X147.41Y1511.72I3.71J-3.64  ;
N2471 G65 P9104 A101 B02  ;
N2472 G0X151.97Y1711.49  ;
N2473 G65 P9102 A101 B02  ;
N2474 G1X149.06Y1710.77  ;
N2475 G2X147.88Y1711.69I-0.23J0.92  ;
N2476 G2X152.98Y1716.79I5.1J0  ;
N2477 G1X157.68Y1716.79  ;
N2478 G2X157.68Y1706.59I0J-5.1  ;
N2479 G1X152.98Y1706.59  ;
N2480 G2X147.88Y1711.69I0J5.1  ;
N2481 G65 P9104 A101 B02  ;
N2482 G0X137.28Y1676.55  ;
N2483 G65 P9102 A101 B02  ;
N2484 G1X137.28Y1679.5  ;
N2485 G1X139.03Y1679.5  ;
N2486 G1X139.03Y1667.6  ;
N2487 G1X135.43Y1667.6  ;
N2488 G1X135.43Y1679.5  ;
N2489 G1X137.23Y1679.5  ;
N2490 G65 P9104 A101 B02  ;
N2491 G0X98.8Y1687.8  ;
N2492 G65 P9102 A101 B02  ;
N2493 G1X97.42Y1689.18  ;
N2494 G3X97.45Y1689.22I1.41J-1.34  ;
N2495 G65 P9104 A101 B02  ;
N2496 G0X91.48Y1643.72  ;
N2497 G65 P9102 A101 B02  ;
N2498 G1X89.4Y1645.81  ;
N2499 G3X89.43Y1645.84I3.23J-3.16  ;
N2500 G65 P9104 A101 B02  ;
N2501 G0X53.41Y1676.55  ;
N2502 G65 P9102 A101 B02  ;
N2503 G1X53.41Y1679.5  ;
N2504 G1X55.18Y1679.5  ;
N2505 G1X55.18Y1667.6  ;
N2506 G1X51.53Y1667.6  ;
N2507 G1X51.53Y1679.5  ;
N2508 G1X53.36Y1679.5  ;
N2509 G65 P9104 A101 B02  ;
N2510 G0X33.78Y1713.18  ;
N2511 G65 P9102 A101 B02  ;
N2512 G1X31.69Y1715.26  ;
N2513 G3X31.73Y1715.3I3.64J-3.57  ;
N2514 G65 P9104 A101 B01  ;
N2515 G0X138.88Y651.25  ;
N2516 G65 P9102 A101 B01  ;
N2517 G1X138.88Y648.25  ;
N2518 G1X138.88Y612.22  ;
N2519 G3X140.33Y608.72I4.95J0  ;
N2520 G1X167.4Y581.64  ;
N2521 G2X168.88Y578.07I-3.57J-3.57  ;
N2522 G1X168.88Y532.6  ;
N2523 G2X163.83Y527.55I-5.05J0  ;
N2524 G1X26.83Y527.55  ;
N2525 G2X21.78Y532.6I0J5.05  ;
N2526 G1X21.78Y578.07  ;
N2527 G2X23.26Y581.64I5.05J0  ;
N2528 G1X50.33Y608.72  ;
N2529 G3X51.78Y612.22I-3.5J3.5  ;
N2530 G1X51.78Y642.8  ;
N2531 G1X55.18Y642.8  ;
N2532 G1X55.18Y654.7  ;
N2533 G1X51.78Y654.7  ;
N2534 G1X51.78Y671.8  ;
N2535 G1X67.66Y671.8  ;
N2536 G3X69.53Y673.17I0J1.95  ;
N2537 G1X84.14Y720.95  ;
N2538 G2X85.14Y721.7I1J-0.3  ;
N2539 G1X88.68Y721.7  ;
N2540 G3X86.02Y725.94I0J2.95  ;
N2541 G2X84.22Y724.79I-1.84J0.9  ;
N2542 G1X72.98Y724.6  ;
N2543 G1X14.45Y724.6  ;
N2544 G1X14.45Y736.65  ;
N2545 G1X17.6Y736.65  ;
N2546 G1X17.6Y739.65  ;
N2547 G1X14.45Y739.65  ;
N2548 G1X14.45Y1510.05  ;
N2549 G1X17.6Y1510.05  ;
N2550 G1X17.6Y1513.05  ;
N2551 G1X14.45Y1513.05  ;
N2552 G1X14.45Y1524.6  ;
N2553 G1X72.98Y1524.6  ;
N2554 G1X84.5Y1524.4  ;
N2555 G2X86.19Y1523.45I-0.04J-2.05  ;
N2556 G3X88.68Y1528I2.49J1.6  ;
N2557 G1X85.14Y1528  ;
N2558 G2X84.14Y1528.74I0J1.05  ;
N2559 G1X69.53Y1576.52  ;
N2560 G3X67.66Y1577.9I-1.87J-0.57  ;
N2561 G1X51.78Y1577.9  ;
N2562 G1X51.78Y1595  ;
N2563 G1X55.18Y1595  ;
N2564 G1X55.18Y1606.9  ;
N2565 G1X51.78Y1606.9  ;
N2566 G1X51.78Y1637.47  ;
N2567 G3X50.33Y1640.97I-4.95J0  ;
N2568 G1X23.26Y1668.05  ;
N2569 G2X21.78Y1671.62I3.57J3.57  ;
N2570 G1X21.78Y1717.09  ;
N2571 G2X26.83Y1722.14I5.05J0  ;
N2572 G1X163.83Y1722.14  ;
N2573 G2X168.88Y1717.09I0J-5.05  ;
N2574 G1X168.88Y1671.62  ;
N2575 G2X167.4Y1668.05I-5.05J0  ;
N2576 G1X140.33Y1640.97  ;
N2577 G3X138.88Y1637.47I3.5J-3.5  ;
N2578 G1X138.88Y1601.4  ;
N2579 G1X135.43Y1601.4  ;
N2580 G1X135.43Y1589.5  ;
N2581 G1X138.88Y1589.5  ;
N2582 G1X138.88Y1529.05  ;
N2583 G2X137.83Y1528I-1.05J0  ;
N2584 G1X135.58Y1528  ;
N2585 G3X138.07Y1523.46I0J-2.95  ;
N2586 G2X139.76Y1524.4I1.73J-1.11  ;
N2587 G1X150.83Y1524.6  ;
N2588 G1X171.28Y1524.6  ;
N2589 G1X171.28Y724.6  ;
N2590 G1X150.83Y724.6  ;
N2591 G1X140.04Y724.78  ;
N2592 G2X138.24Y725.94I0.04J2.05  ;
N2593 G3X135.58Y721.7I-2.66J-1.29  ;
N2594 G1X137.83Y721.7  ;
N2595 G2X138.88Y720.65I0J-1.05  ;
N2596 G1X138.88Y660.2  ;
N2597 G1X135.43Y660.2  ;
N2598 G1X135.43Y648.3  ;
N2599 G1X138.83Y648.3  ;
N2600 G65 P9104 A101 B01  ;
N2601 M98 P9103  ;
(P60:ID1:W86008801)  ;
N2602 M98 P9101  ;
N2603 G0X190.18Y1646.9  ;
N2604 G65 P9102 A101 B01  ;
N2605 G1X190.18Y1641.95  ;
N2606 G1X191.45Y1641.95  ;
N2607 G1X191.45Y1638.95  ;
N2608 G1X198.42Y1638.95  ;
N2609 G1X203.45Y1633.92  ;
N2610 G1X203.45Y1623.95  ;
N2611 G1X206.45Y1623.95  ;
N2612 G1X206.45Y1613.85  ;
N2613 G1X203.45Y1613.85  ;
N2614 G1X203.45Y1551.35  ;
N2615 G1X206.45Y1551.35  ;
N2616 G1X206.45Y1541.25  ;
N2617 G1X203.45Y1541.25  ;
N2618 G1X203.45Y1532.78  ;
N2619 G1X196.92Y1526.25  ;
N2620 G1X181.38Y1526.25  ;
N2621 G1X176.35Y1531.28  ;
N2622 G1X176.35Y1633.92  ;
N2623 G1X181.38Y1638.95  ;
N2624 G1X188.35Y1638.95  ;
N2625 G1X188.35Y1641.95  ;
N2626 G1X189.48Y1641.95  ;
N2627 G65 P9104 A101 B02  ;
N2628 M98 P9103  ;
(P61:ID3:W860088)  ;
N2629 M98 P9101  ;
N2630 G0X217.41Y1671.35  ;
N2631 G65 P9102 A101 B02  ;
N2632 G1X217.41Y1674.3  ;
N2633 G1X219.18Y1674.3  ;
N2634 G1X219.18Y1662.4  ;
N2635 G1X215.53Y1662.4  ;
N2636 G1X215.53Y1674.3  ;
N2637 G1X217.36Y1674.3  ;
N2638 G65 P9104 A101 B02  ;
N2639 G0X197.78Y1707.98  ;
N2640 G65 P9102 A101 B02  ;
N2641 G1X195.69Y1710.06  ;
N2642 G3X195.73Y1710.1I3.64J-3.57  ;
N2643 G65 P9104 A101 B02  ;
N2644 G0X262.8Y1682.6  ;
N2645 G65 P9102 A101 B02  ;
N2646 G1X261.42Y1683.98  ;
N2647 G3X261.45Y1684.02I1.41J-1.34  ;
N2648 G65 P9104 A101 B02  ;
N2649 G0X301.28Y1671.35  ;
N2650 G65 P9102 A101 B02  ;
N2651 G1X301.28Y1674.3  ;
N2652 G1X303.03Y1674.3  ;
N2653 G1X303.03Y1662.4  ;
N2654 G1X299.43Y1662.4  ;
N2655 G1X299.43Y1674.3  ;
N2656 G1X301.23Y1674.3  ;
N2657 G65 P9104 A101 B02  ;
N2658 G0X315.97Y1706.29  ;
N2659 G65 P9102 A101 B02  ;
N2660 G1X313.06Y1705.57  ;
N2661 G2X311.88Y1706.49I-0.23J0.92  ;
N2662 G2X316.98Y1711.59I5.1J0  ;
N2663 G1X321.68Y1711.59  ;
N2664 G2X321.68Y1701.39I0J-5.1  ;
N2665 G1X316.98Y1701.39  ;
N2666 G2X311.88Y1706.49I0J5.1  ;
N2667 G65 P9104 A101 B02  ;
N2668 G0X255.48Y1638.52  ;
N2669 G65 P9102 A101 B02  ;
N2670 G1X253.4Y1640.61  ;
N2671 G3X253.43Y1640.64I3.23J-3.16  ;
N2672 G65 P9104 A101 B02  ;
N2673 G0X263.91Y1504.4  ;
N2674 G65 P9102 A101 B02  ;
N2675 G1X261.83Y1506.49  ;
N2676 G3X261.86Y1506.52I3.71J-3.64  ;
N2677 G65 P9104 A101 B02  ;
N2678 G0X274.04Y1462.9  ;
N2679 G65 P9102 A101 B02  ;
N2680 G1X271.09Y1462.9  ;
N2681 G1X271.09Y1464.5  ;
N2682 G1X281.99Y1464.5  ;
N2683 G1X281.99Y1461.2  ;
N2684 G1X271.09Y1461.2  ;
N2685 G1X271.09Y1462.85  ;
N2686 G65 P9104 A101 B02  ;
N2687 G0X313.46Y1504.4  ;
N2688 G65 P9102 A101 B02  ;
N2689 G1X311.37Y1506.49  ;
N2690 G3X311.41Y1506.52I3.71J-3.64  ;
N2691 G65 P9104 A101 B02  ;
N2692 G0X214.93Y1462.8  ;
N2693 G65 P9102 A101 B02  ;
N2694 G1X211.98Y1462.8  ;
N2695 G1X211.98Y1461.2  ;
N2696 G1X222.88Y1461.2  ;
N2697 G1X222.88Y1464.5  ;
N2698 G1X211.98Y1464.5  ;
N2699 G1X211.98Y1462.85  ;
N2700 G65 P9104 A101 B02  ;
N2701 G0X214.93Y1351.2  ;
N2702 G65 P9102 A101 B02  ;
N2703 G1X211.98Y1351.2  ;
N2704 G1X211.98Y1349.6  ;
N2705 G1X222.88Y1349.6  ;
N2706 G1X222.88Y1352.9  ;
N2707 G1X211.98Y1352.9  ;
N2708 G1X211.98Y1351.25  ;
N2709 G65 P9104 A101 B02  ;
N2710 G0X274.04Y1351.3  ;
N2711 G65 P9102 A101 B02  ;
N2712 G1X271.09Y1351.3  ;
N2713 G1X271.09Y1352.9  ;
N2714 G1X281.99Y1352.9  ;
N2715 G1X281.99Y1349.6  ;
N2716 G1X271.09Y1349.6  ;
N2717 G1X271.09Y1351.25  ;
N2718 G65 P9104 A101 B02  ;
N2719 G0X263.91Y1312.8  ;
N2720 G65 P9102 A101 B02  ;
N2721 G1X261.83Y1314.89  ;
N2722 G3X261.86Y1314.92I3.71J-3.64  ;
N2723 G65 P9104 A101 B02  ;
N2724 G0X274.04Y1271.3  ;
N2725 G65 P9102 A101 B02  ;
N2726 G1X271.09Y1271.3  ;
N2727 G1X271.09Y1272.9  ;
N2728 G1X281.99Y1272.9  ;
N2729 G1X281.99Y1269.6  ;
N2730 G1X271.09Y1269.6  ;
N2731 G1X271.09Y1271.25  ;
N2732 G65 P9104 A101 B02  ;
N2733 G0X313.46Y1312.8  ;
N2734 G65 P9102 A101 B02  ;
N2735 G1X311.37Y1314.89  ;
N2736 G3X311.41Y1314.92I3.71J-3.64  ;
N2737 G65 P9104 A101 B02  ;
N2738 G0X214.93Y1271.2  ;
N2739 G65 P9102 A101 B02  ;
N2740 G1X211.98Y1271.2  ;
N2741 G1X211.98Y1269.6  ;
N2742 G1X222.88Y1269.6  ;
N2743 G1X222.88Y1272.9  ;
N2744 G1X211.98Y1272.9  ;
N2745 G1X211.98Y1271.25  ;
N2746 G65 P9104 A101 B02  ;
N2747 G0X214.93Y1159.6  ;
N2748 G65 P9102 A101 B02  ;
N2749 G1X211.98Y1159.6  ;
N2750 G1X211.98Y1158  ;
N2751 G1X222.88Y1158  ;
N2752 G1X222.88Y1161.3  ;
N2753 G1X211.98Y1161.3  ;
N2754 G1X211.98Y1159.65  ;
N2755 G65 P9104 A101 B02  ;
N2756 G0X274.04Y1159.7  ;
N2757 G65 P9102 A101 B02  ;
N2758 G1X271.09Y1159.7  ;
N2759 G1X271.09Y1161.3  ;
N2760 G1X281.99Y1161.3  ;
N2761 G1X281.99Y1158  ;
N2762 G1X271.09Y1158  ;
N2763 G1X271.09Y1159.65  ;
N2764 G65 P9104 A101 B02  ;
N2765 G0X263.91Y1121.2  ;
N2766 G65 P9102 A101 B02  ;
N2767 G1X261.83Y1123.29  ;
N2768 G3X261.86Y1123.32I3.71J-3.64  ;
N2769 G65 P9104 A101 B02  ;
N2770 G0X313.46Y1121.2  ;
N2771 G65 P9102 A101 B02  ;
N2772 G1X311.37Y1123.29  ;
N2773 G3X311.41Y1123.32I3.71J-3.64  ;
N2774 G65 P9104 A101 B02  ;
N2775 G0X274.04Y1079.7  ;
N2776 G65 P9102 A101 B02  ;
N2777 G1X271.09Y1079.7  ;
N2778 G1X271.09Y1081.3  ;
N2779 G1X281.99Y1081.3  ;
N2780 G1X281.99Y1078  ;
N2781 G1X271.09Y1078  ;
N2782 G1X271.09Y1079.65  ;
N2783 G65 P9104 A101 B02  ;
N2784 G0X214.93Y1079.6  ;
N2785 G65 P9102 A101 B02  ;
N2786 G1X211.98Y1079.6  ;
N2787 G1X211.98Y1078  ;
N2788 G1X222.88Y1078  ;
N2789 G1X222.88Y1081.3  ;
N2790 G1X211.98Y1081.3  ;
N2791 G1X211.98Y1079.65  ;
N2792 G65 P9104 A101 B02  ;
N2793 G0X214.93Y968  ;
N2794 G65 P9102 A101 B02  ;
N2795 G1X211.98Y968  ;
N2796 G1X211.98Y966.4  ;
N2797 G1X222.88Y966.4  ;
N2798 G1X222.88Y969.7  ;
N2799 G1X211.98Y969.7  ;
N2800 G1X211.98Y968.05  ;
N2801 G65 P9104 A101 B02  ;
N2802 G0X274.04Y968.1  ;
N2803 G65 P9102 A101 B02  ;
N2804 G1X271.09Y968.1  ;
N2805 G1X271.09Y969.7  ;
N2806 G1X281.99Y969.7  ;
N2807 G1X281.99Y966.4  ;
N2808 G1X271.09Y966.4  ;
N2809 G1X271.09Y968.05  ;
N2810 G65 P9104 A101 B02  ;
N2811 G0X263.91Y929.6  ;
N2812 G65 P9102 A101 B02  ;
N2813 G1X261.83Y931.69  ;
N2814 G3X261.86Y931.72I3.71J-3.64  ;
N2815 G65 P9104 A101 B02  ;
N2816 G0X313.46Y929.6  ;
N2817 G65 P9102 A101 B02  ;
N2818 G1X311.37Y931.69  ;
N2819 G3X311.41Y931.72I3.71J-3.64  ;
N2820 G65 P9104 A101 B02  ;
N2821 G0X274.04Y888  ;
N2822 G65 P9102 A101 B02  ;
N2823 G1X271.09Y888  ;
N2824 G1X271.09Y886.4  ;
N2825 G1X281.99Y886.4  ;
N2826 G1X281.99Y889.7  ;
N2827 G1X271.09Y889.7  ;
N2828 G1X271.09Y888.05  ;
N2829 G65 P9104 A101 B02  ;
N2830 G0X214.93Y888.1  ;
N2831 G65 P9102 A101 B02  ;
N2832 G1X211.98Y888.1  ;
N2833 G1X211.98Y889.7  ;
N2834 G1X222.88Y889.7  ;
N2835 G1X222.88Y886.4  ;
N2836 G1X211.98Y886.4  ;
N2837 G1X211.98Y888.05  ;
N2838 G65 P9104 A101 B02  ;
N2839 G0X214.93Y776.5  ;
N2840 G65 P9102 A101 B02  ;
N2841 G1X211.98Y776.5  ;
N2842 G1X211.98Y778.1  ;
N2843 G1X222.88Y778.1  ;
N2844 G1X222.88Y774.8  ;
N2845 G1X211.98Y774.8  ;
N2846 G1X211.98Y776.45  ;
N2847 G65 P9104 A101 B02  ;
N2848 G0X274.04Y776.4  ;
N2849 G65 P9102 A101 B02  ;
N2850 G1X271.09Y776.4  ;
N2851 G1X271.09Y774.8  ;
N2852 G1X281.99Y774.8  ;
N2853 G1X281.99Y778.1  ;
N2854 G1X271.09Y778.1  ;
N2855 G1X271.09Y776.45  ;
N2856 G65 P9104 A101 B02  ;
N2857 G0X263.91Y738  ;
N2858 G65 P9102 A101 B02  ;
N2859 G1X261.83Y740.09  ;
N2860 G3X261.86Y740.12I3.71J-3.64  ;
N2861 G65 P9104 A101 B02  ;
N2862 G0X313.46Y738  ;
N2863 G65 P9102 A101 B02  ;
N2864 G1X311.37Y740.09  ;
N2865 G3X311.41Y740.12I3.71J-3.64  ;
N2866 G65 P9104 A101 B02  ;
N2867 G0X315.97Y532.6  ;
N2868 G65 P9102 A101 B02  ;
N2869 G1X313.06Y531.88  ;
N2870 G2X311.88Y532.8I-0.23J0.92  ;
N2871 G2X316.98Y537.9I5.1J0  ;
N2872 G1X321.68Y537.9  ;
N2873 G2X321.68Y527.7I0J-5.1  ;
N2874 G1X316.98Y527.7  ;
N2875 G2X311.88Y532.8I0J5.1  ;
N2876 G65 P9104 A101 B02  ;
N2877 G0X301.18Y573.95  ;
N2878 G65 P9102 A101 B02  ;
N2879 G1X301.18Y576.9  ;
N2880 G1X299.43Y576.9  ;
N2881 G1X299.43Y565  ;
N2882 G1X303.03Y565  ;
N2883 G1X303.03Y576.9  ;
N2884 G1X301.23Y576.9  ;
N2885 G65 P9104 A101 B02  ;
N2886 G0X255.48Y602.92  ;
N2887 G65 P9102 A101 B02  ;
N2888 G1X253.4Y605.01  ;
N2889 G3X253.43Y605.04I3.23J-3.16  ;
N2890 G65 P9104 A101 B02  ;
N2891 G0X262.8Y556.61  ;
N2892 G65 P9102 A101 B02  ;
N2893 G1X261.42Y557.99  ;
N2894 G3X261.45Y558.03I1.41J-1.34  ;
N2895 G65 P9104 A101 B02  ;
N2896 G0X217.31Y573.95  ;
N2897 G65 P9102 A101 B02  ;
N2898 G1X217.31Y576.9  ;
N2899 G1X215.53Y576.9  ;
N2900 G1X215.53Y565  ;
N2901 G1X219.18Y565  ;
N2902 G1X219.18Y576.9  ;
N2903 G1X217.36Y576.9  ;
N2904 G65 P9104 A101 B02  ;
N2905 G0X197.78Y534.28  ;
N2906 G65 P9102 A101 B02  ;
N2907 G1X195.69Y536.37  ;
N2908 G3X195.73Y536.41I3.64J-3.57  ;
N2909 G65 P9104 A101 B01  ;
N2910 G0X302.88Y646.05  ;
N2911 G65 P9102 A101 B01  ;
N2912 G1X302.88Y643.05  ;
N2913 G1X302.88Y607.02  ;
N2914 G3X304.33Y603.52I4.95J0  ;
N2915 G1X331.4Y576.44  ;
N2916 G2X332.88Y572.87I-3.57J-3.57  ;
N2917 G1X332.88Y527.4  ;
N2918 G2X327.83Y522.35I-5.05J0  ;
N2919 G1X190.83Y522.35  ;
N2920 G2X185.78Y527.4I0J5.05  ;
N2921 G1X185.78Y572.87  ;
N2922 G2X187.26Y576.44I5.05J0  ;
N2923 G1X214.33Y603.52  ;
N2924 G3X215.78Y607.02I-3.5J3.5  ;
N2925 G1X215.78Y637.6  ;
N2926 G1X219.18Y637.6  ;
N2927 G1X219.18Y649.5  ;
N2928 G1X215.78Y649.5  ;
N2929 G1X215.78Y666.6  ;
N2930 G1X231.66Y666.6  ;
N2931 G3X233.53Y667.97I0J1.95  ;
N2932 G1X248.14Y715.75  ;
N2933 G2X249.14Y716.5I1J-0.3  ;
N2934 G1X252.68Y716.5  ;
N2935 G3X250.02Y720.74I0J2.95  ;
N2936 G2X248.22Y719.59I-1.84J0.9  ;
N2937 G1X236.98Y719.4  ;
N2938 G1X178.45Y719.4  ;
N2939 G1X178.45Y731.45  ;
N2940 G1X181.6Y731.45  ;
N2941 G1X181.6Y734.45  ;
N2942 G1X178.45Y734.45  ;
N2943 G1X178.45Y1504.85  ;
N2944 G1X181.6Y1504.85  ;
N2945 G1X181.6Y1507.85  ;
N2946 G1X178.45Y1507.85  ;
N2947 G1X178.45Y1519.4  ;
N2948 G1X236.98Y1519.4  ;
N2949 G1X248.5Y1519.2  ;
N2950 G2X250.19Y1518.25I-0.04J-2.05  ;
N2951 G3X252.68Y1522.8I2.49J1.6  ;
N2952 G1X249.14Y1522.8  ;
N2953 G2X248.14Y1523.54I0J1.05  ;
N2954 G1X233.53Y1571.32  ;
N2955 G3X231.66Y1572.7I-1.87J-0.57  ;
N2956 G1X215.78Y1572.7  ;
N2957 G1X215.78Y1589.8  ;
N2958 G1X219.18Y1589.8  ;
N2959 G1X219.18Y1601.7  ;
N2960 G1X215.78Y1601.7  ;
N2961 G1X215.78Y1632.27  ;
N2962 G3X214.33Y1635.77I-4.95J0  ;
N2963 G1X187.26Y1662.85  ;
N2964 G2X185.78Y1666.42I3.57J3.57  ;
N2965 G1X185.78Y1711.89  ;
N2966 G2X190.83Y1716.94I5.05J0  ;
N2967 G1X327.83Y1716.94  ;
N2968 G2X332.88Y1711.89I0J-5.05  ;
N2969 G1X332.88Y1666.42  ;
N2970 G2X331.4Y1662.85I-5.05J0  ;
N2971 G1X304.33Y1635.77  ;
N2972 G3X302.88Y1632.27I3.5J-3.5  ;
N2973 G1X302.88Y1596.2  ;
N2974 G1X299.43Y1596.2  ;
N2975 G1X299.43Y1584.3  ;
N2976 G1X302.88Y1584.3  ;
N2977 G1X302.88Y1523.85  ;
N2978 G2X301.83Y1522.8I-1.05J0  ;
N2979 G1X299.58Y1522.8  ;
N2980 G3X302.07Y1518.26I0J-2.95  ;
N2981 G2X303.76Y1519.2I1.73J-1.11  ;
N2982 G1X314.83Y1519.4  ;
N2983 G1X335.28Y1519.4  ;
N2984 G1X335.28Y719.4  ;
N2985 G1X314.83Y719.4  ;
N2986 G1X304.04Y719.58  ;
N2987 G2X302.24Y720.74I0.04J2.05  ;
N2988 G3X299.58Y716.5I-2.66J-1.29  ;
N2989 G1X301.83Y716.5  ;
N2990 G2X302.88Y715.45I0J-1.05  ;
N2991 G1X302.88Y655  ;
N2992 G1X299.43Y655  ;
N2993 G1X299.43Y643.1  ;
N2994 G1X302.83Y643.1  ;
N2995 G65 P9104 A101 B01  ;
N2996 M98 P9103  ;
(P62:ID1:W86008801)  ;
N2997 M98 P9101  ;
N2998 G0X348.28Y1652.1  ;
N2999 G65 P9102 A101 B01  ;
N3000 G1X348.28Y1647.15  ;
N3001 G1X349.55Y1647.15  ;
N3002 G1X349.55Y1644.15  ;
N3003 G1X356.52Y1644.15  ;
N3004 G1X361.55Y1639.12  ;
N3005 G1X361.55Y1629.15  ;
N3006 G1X364.55Y1629.15  ;
N3007 G1X364.55Y1619.05  ;
N3008 G1X361.55Y1619.05  ;
N3009 G1X361.55Y1556.55  ;
N3010 G1X364.55Y1556.55  ;
N3011 G1X364.55Y1546.45  ;
N3012 G1X361.55Y1546.45  ;
N3013 G1X361.55Y1537.98  ;
N3014 G1X355.02Y1531.45  ;
N3015 G1X339.48Y1531.45  ;
N3016 G1X334.45Y1536.48  ;
N3017 G1X334.45Y1639.12  ;
N3018 G1X339.48Y1644.15  ;
N3019 G1X346.45Y1644.15  ;
N3020 G1X346.45Y1647.15  ;
N3021 G1X347.58Y1647.15  ;
N3022 G65 P9104 A101 B02  ;
N3023 M98 P9103  ;
(P63:ID3:W860088)  ;
N3024 M98 P9101  ;
N3025 G0X384.41Y1673.05  ;
N3026 G65 P9102 A101 B02  ;
N3027 G1X384.41Y1676  ;
N3028 G1X386.18Y1676  ;
N3029 G1X386.18Y1664.1  ;
N3030 G1X382.53Y1664.1  ;
N3031 G1X382.53Y1676  ;
N3032 G1X384.36Y1676  ;
N3033 G65 P9104 A101 B02  ;
N3034 G0X364.78Y1709.68  ;
N3035 G65 P9102 A101 B02  ;
N3036 G1X362.69Y1711.76  ;
N3037 G3X362.73Y1711.8I3.64J-3.57  ;
N3038 G65 P9104 A101 B02  ;
N3039 G0X429.8Y1684.3  ;
N3040 G65 P9102 A101 B02  ;
N3041 G1X428.42Y1685.68  ;
N3042 G3X428.45Y1685.72I1.41J-1.34  ;
N3043 G65 P9104 A101 B02  ;
N3044 G0X468.28Y1673.05  ;
N3045 G65 P9102 A101 B02  ;
N3046 G1X468.28Y1676  ;
N3047 G1X470.03Y1676  ;
N3048 G1X470.03Y1664.1  ;
N3049 G1X466.43Y1664.1  ;
N3050 G1X466.43Y1676  ;
N3051 G1X468.23Y1676  ;
N3052 G65 P9104 A101 B02  ;
N3053 G0X482.97Y1707.99  ;
N3054 G65 P9102 A101 B02  ;
N3055 G1X480.06Y1707.27  ;
N3056 G2X478.88Y1708.19I-0.23J0.92  ;
N3057 G2X483.98Y1713.29I5.1J0  ;
N3058 G1X488.68Y1713.29  ;
N3059 G2X488.68Y1703.09I0J-5.1  ;
N3060 G1X483.98Y1703.09  ;
N3061 G2X478.88Y1708.19I0J5.1  ;
N3062 G65 P9104 A101 B02  ;
N3063 G0X422.48Y1640.22  ;
N3064 G65 P9102 A101 B02  ;
N3065 G1X420.4Y1642.31  ;
N3066 G3X420.43Y1642.34I3.23J-3.16  ;
N3067 G65 P9104 A101 B02  ;
N3068 G0X430.91Y1506.1  ;
N3069 G65 P9102 A101 B02  ;
N3070 G1X428.83Y1508.19  ;
N3071 G3X428.86Y1508.22I3.71J-3.64  ;
N3072 G65 P9104 A101 B02  ;
N3073 G0X441.04Y1464.6  ;
N3074 G65 P9102 A101 B02  ;
N3075 G1X438.09Y1464.6  ;
N3076 G1X438.09Y1466.2  ;
N3077 G1X448.99Y1466.2  ;
N3078 G1X448.99Y1462.9  ;
N3079 G1X438.09Y1462.9  ;
N3080 G1X438.09Y1464.55  ;
N3081 G65 P9104 A101 B02  ;
N3082 G0X480.46Y1506.1  ;
N3083 G65 P9102 A101 B02  ;
N3084 G1X478.37Y1508.19  ;
N3085 G3X478.41Y1508.22I3.71J-3.64  ;
N3086 G65 P9104 A101 B02  ;
N3087 G0X381.93Y1464.5  ;
N3088 G65 P9102 A101 B02  ;
N3089 G1X378.98Y1464.5  ;
N3090 G1X378.98Y1462.9  ;
N3091 G1X389.88Y1462.9  ;
N3092 G1X389.88Y1466.2  ;
N3093 G1X378.98Y1466.2  ;
N3094 G1X378.98Y1464.55  ;
N3095 G65 P9104 A101 B02  ;
N3096 G0X381.93Y1352.9  ;
N3097 G65 P9102 A101 B02  ;
N3098 G1X378.98Y1352.9  ;
N3099 G1X378.98Y1351.3  ;
N3100 G1X389.88Y1351.3  ;
N3101 G1X389.88Y1354.6  ;
N3102 G1X378.98Y1354.6  ;
N3103 G1X378.98Y1352.95  ;
N3104 G65 P9104 A101 B02  ;
N3105 G0X441.04Y1353  ;
N3106 G65 P9102 A101 B02  ;
N3107 G1X438.09Y1353  ;
N3108 G1X438.09Y1354.6  ;
N3109 G1X448.99Y1354.6  ;
N3110 G1X448.99Y1351.3  ;
N3111 G1X438.09Y1351.3  ;
N3112 G1X438.09Y1352.95  ;
N3113 G65 P9104 A101 B02  ;
N3114 G0X430.91Y1314.5  ;
N3115 G65 P9102 A101 B02  ;
N3116 G1X428.83Y1316.59  ;
N3117 G3X428.86Y1316.62I3.71J-3.64  ;
N3118 G65 P9104 A101 B02  ;
N3119 G0X441.04Y1273  ;
N3120 G65 P9102 A101 B02  ;
N3121 G1X438.09Y1273  ;
N3122 G1X438.09Y1274.6  ;
N3123 G1X448.99Y1274.6  ;
N3124 G1X448.99Y1271.3  ;
N3125 G1X438.09Y1271.3  ;
N3126 G1X438.09Y1272.95  ;
N3127 G65 P9104 A101 B02  ;
N3128 G0X480.46Y1314.5  ;
N3129 G65 P9102 A101 B02  ;
N3130 G1X478.37Y1316.59  ;
N3131 G3X478.41Y1316.62I3.71J-3.64  ;
N3132 G65 P9104 A101 B02  ;
N3133 G0X381.93Y1272.9  ;
N3134 G65 P9102 A101 B02  ;
N3135 G1X378.98Y1272.9  ;
N3136 G1X378.98Y1271.3  ;
N3137 G1X389.88Y1271.3  ;
N3138 G1X389.88Y1274.6  ;
N3139 G1X378.98Y1274.6  ;
N3140 G1X378.98Y1272.95  ;
N3141 G65 P9104 A101 B02  ;
N3142 G0X381.93Y1161.3  ;
N3143 G65 P9102 A101 B02  ;
N3144 G1X378.98Y1161.3  ;
N3145 G1X378.98Y1159.7  ;
N3146 G1X389.88Y1159.7  ;
N3147 G1X389.88Y1163  ;
N3148 G1X378.98Y1163  ;
N3149 G1X378.98Y1161.35  ;
N3150 G65 P9104 A101 B02  ;
N3151 G0X441.04Y1161.4  ;
N3152 G65 P9102 A101 B02  ;
N3153 G1X438.09Y1161.4  ;
N3154 G1X438.09Y1163  ;
N3155 G1X448.99Y1163  ;
N3156 G1X448.99Y1159.7  ;
N3157 G1X438.09Y1159.7  ;
N3158 G1X438.09Y1161.35  ;
N3159 G65 P9104 A101 B02  ;
N3160 G0X430.91Y1122.9  ;
N3161 G65 P9102 A101 B02  ;
N3162 G1X428.83Y1124.99  ;
N3163 G3X428.86Y1125.02I3.71J-3.64  ;
N3164 G65 P9104 A101 B02  ;
N3165 G0X480.46Y1122.9  ;
N3166 G65 P9102 A101 B02  ;
N3167 G1X478.37Y1124.99  ;
N3168 G3X478.41Y1125.02I3.71J-3.64  ;
N3169 G65 P9104 A101 B02  ;
N3170 G0X441.04Y1081.4  ;
N3171 G65 P9102 A101 B02  ;
N3172 G1X438.09Y1081.4  ;
N3173 G1X438.09Y1083  ;
N3174 G1X448.99Y1083  ;
N3175 G1X448.99Y1079.7  ;
N3176 G1X438.09Y1079.7  ;
N3177 G1X438.09Y1081.35  ;
N3178 G65 P9104 A101 B02  ;
N3179 G0X381.93Y1081.3  ;
N3180 G65 P9102 A101 B02  ;
N3181 G1X378.98Y1081.3  ;
N3182 G1X378.98Y1079.7  ;
N3183 G1X389.88Y1079.7  ;
N3184 G1X389.88Y1083  ;
N3185 G1X378.98Y1083  ;
N3186 G1X378.98Y1081.35  ;
N3187 G65 P9104 A101 B02  ;
N3188 G0X381.93Y969.7  ;
N3189 G65 P9102 A101 B02  ;
N3190 G1X378.98Y969.7  ;
N3191 G1X378.98Y968.1  ;
N3192 G1X389.88Y968.1  ;
N3193 G1X389.88Y971.4  ;
N3194 G1X378.98Y971.4  ;
N3195 G1X378.98Y969.75  ;
N3196 G65 P9104 A101 B02  ;
N3197 G0X441.04Y969.8  ;
N3198 G65 P9102 A101 B02  ;
N3199 G1X438.09Y969.8  ;
N3200 G1X438.09Y971.4  ;
N3201 G1X448.99Y971.4  ;
N3202 G1X448.99Y968.1  ;
N3203 G1X438.09Y968.1  ;
N3204 G1X438.09Y969.75  ;
N3205 G65 P9104 A101 B02  ;
N3206 G0X430.91Y931.3  ;
N3207 G65 P9102 A101 B02  ;
N3208 G1X428.83Y933.39  ;
N3209 G3X428.86Y933.42I3.71J-3.64  ;
N3210 G65 P9104 A101 B02  ;
N3211 G0X480.46Y931.3  ;
N3212 G65 P9102 A101 B02  ;
N3213 G1X478.37Y933.39  ;
N3214 G3X478.41Y933.42I3.71J-3.64  ;
N3215 G65 P9104 A101 B02  ;
N3216 G0X441.04Y889.7  ;
N3217 G65 P9102 A101 B02  ;
N3218 G1X438.09Y889.7  ;
N3219 G1X438.09Y888.1  ;
N3220 G1X448.99Y888.1  ;
N3221 G1X448.99Y891.4  ;
N3222 G1X438.09Y891.4  ;
N3223 G1X438.09Y889.75  ;
N3224 G65 P9104 A101 B02  ;
N3225 G0X381.93Y889.8  ;
N3226 G65 P9102 A101 B02  ;
N3227 G1X378.98Y889.8  ;
N3228 G1X378.98Y891.4  ;
N3229 G1X389.88Y891.4  ;
N3230 G1X389.88Y888.1  ;
N3231 G1X378.98Y888.1  ;
N3232 G1X378.98Y889.75  ;
N3233 G65 P9104 A101 B02  ;
N3234 G0X381.93Y778.2  ;
N3235 G65 P9102 A101 B02  ;
N3236 G1X378.98Y778.2  ;
N3237 G1X378.98Y779.8  ;
N3238 G1X389.88Y779.8  ;
N3239 G1X389.88Y776.5  ;
N3240 G1X378.98Y776.5  ;
N3241 G1X378.98Y778.15  ;
N3242 G65 P9104 A101 B02  ;
N3243 G0X441.04Y778.1  ;
N3244 G65 P9102 A101 B02  ;
N3245 G1X438.09Y778.1  ;
N3246 G1X438.09Y776.5  ;
N3247 G1X448.99Y776.5  ;
N3248 G1X448.99Y779.8  ;
N3249 G1X438.09Y779.8  ;
N3250 G1X438.09Y778.15  ;
N3251 G65 P9104 A101 B02  ;
N3252 G0X430.91Y739.7  ;
N3253 G65 P9102 A101 B02  ;
N3254 G1X428.83Y741.79  ;
N3255 G3X428.86Y741.82I3.71J-3.64  ;
N3256 G65 P9104 A101 B02  ;
N3257 G0X480.46Y739.7  ;
N3258 G65 P9102 A101 B02  ;
N3259 G1X478.37Y741.79  ;
N3260 G3X478.41Y741.82I3.71J-3.64  ;
N3261 G65 P9104 A101 B02  ;
N3262 G0X482.97Y534.3  ;
N3263 G65 P9102 A101 B02  ;
N3264 G1X480.06Y533.58  ;
N3265 G2X478.88Y534.5I-0.23J0.92  ;
N3266 G2X483.98Y539.6I5.1J0  ;
N3267 G1X488.68Y539.6  ;
N3268 G2X488.68Y529.4I0J-5.1  ;
N3269 G1X483.98Y529.4  ;
N3270 G2X478.88Y534.5I0J5.1  ;
N3271 G65 P9104 A101 B02  ;
N3272 G0X468.18Y575.65  ;
N3273 G65 P9102 A101 B02  ;
N3274 G1X468.18Y578.6  ;
N3275 G1X466.43Y578.6  ;
N3276 G1X466.43Y566.7  ;
N3277 G1X470.03Y566.7  ;
N3278 G1X470.03Y578.6  ;
N3279 G1X468.23Y578.6  ;
N3280 G65 P9104 A101 B02  ;
N3281 G0X422.48Y604.62  ;
N3282 G65 P9102 A101 B02  ;
N3283 G1X420.4Y606.71  ;
N3284 G3X420.43Y606.74I3.23J-3.16  ;
N3285 G65 P9104 A101 B02  ;
N3286 G0X429.8Y558.31  ;
N3287 G65 P9102 A101 B02  ;
N3288 G1X428.42Y559.69  ;
N3289 G3X428.45Y559.73I1.41J-1.34  ;
N3290 G65 P9104 A101 B02  ;
N3291 G0X384.31Y575.65  ;
N3292 G65 P9102 A101 B02  ;
N3293 G1X384.31Y578.6  ;
N3294 G1X382.53Y578.6  ;
N3295 G1X382.53Y566.7  ;
N3296 G1X386.18Y566.7  ;
N3297 G1X386.18Y578.6  ;
N3298 G1X384.36Y578.6  ;
N3299 G65 P9104 A101 B02  ;
N3300 G0X364.78Y535.98  ;
N3301 G65 P9102 A101 B02  ;
N3302 G1X362.69Y538.07  ;
N3303 G3X362.73Y538.11I3.64J-3.57  ;
N3304 G65 P9104 A101 B01  ;
N3305 G0X469.88Y647.75  ;
N3306 G65 P9102 A101 B01  ;
N3307 G1X469.88Y644.75  ;
N3308 G1X469.88Y608.72  ;
N3309 G3X471.33Y605.22I4.95J0  ;
N3310 G1X498.4Y578.14  ;
N3311 G2X499.88Y574.57I-3.57J-3.57  ;
N3312 G1X499.88Y529.1  ;
N3313 G2X494.83Y524.05I-5.05J0  ;
N3314 G1X357.83Y524.05  ;
N3315 G2X352.78Y529.1I0J5.05  ;
N3316 G1X352.78Y574.57  ;
N3317 G2X354.26Y578.14I5.05J0  ;
N3318 G1X381.33Y605.22  ;
N3319 G3X382.78Y608.72I-3.5J3.5  ;
N3320 G1X382.78Y639.3  ;
N3321 G1X386.18Y639.3  ;
N3322 G1X386.18Y651.2  ;
N3323 G1X382.78Y651.2  ;
N3324 G1X382.78Y668.3  ;
N3325 G1X398.66Y668.3  ;
N3326 G3X400.53Y669.67I0J1.95  ;
N3327 G1X415.14Y717.45  ;
N3328 G2X416.14Y718.2I1J-0.3  ;
N3329 G1X419.68Y718.2  ;
N3330 G3X417.02Y722.44I0J2.95  ;
N3331 G2X415.22Y721.29I-1.84J0.9  ;
N3332 G1X403.98Y721.1  ;
N3333 G1X345.45Y721.1  ;
N3334 G1X345.45Y733.15  ;
N3335 G1X348.6Y733.15  ;
N3336 G1X348.6Y736.15  ;
N3337 G1X345.45Y736.15  ;
N3338 G1X345.45Y1506.55  ;
N3339 G1X348.6Y1506.55  ;
N3340 G1X348.6Y1509.55  ;
N3341 G1X345.45Y1509.55  ;
N3342 G1X345.45Y1521.1  ;
N3343 G1X403.98Y1521.1  ;
N3344 G1X415.5Y1520.9  ;
N3345 G2X417.19Y1519.95I-0.04J-2.05  ;
N3346 G3X419.68Y1524.5I2.49J1.6  ;
N3347 G1X416.14Y1524.5  ;
N3348 G2X415.14Y1525.24I0J1.05  ;
N3349 G1X400.53Y1573.02  ;
N3350 G3X398.66Y1574.4I-1.87J-0.57  ;
N3351 G1X382.78Y1574.4  ;
N3352 G1X382.78Y1591.5  ;
N3353 G1X386.18Y1591.5  ;
N3354 G1X386.18Y1603.4  ;
N3355 G1X382.78Y1603.4  ;
N3356 G1X382.78Y1633.97  ;
N3357 G3X381.33Y1637.47I-4.95J0  ;
N3358 G1X354.26Y1664.55  ;
N3359 G2X352.78Y1668.12I3.57J3.57  ;
N3360 G1X352.78Y1713.59  ;
N3361 G2X357.83Y1718.64I5.05J0  ;
N3362 G1X494.83Y1718.64  ;
N3363 G2X499.88Y1713.59I0J-5.05  ;
N3364 G1X499.88Y1668.12  ;
N3365 G2X498.4Y1664.55I-5.05J0  ;
N3366 G1X471.33Y1637.47  ;
N3367 G3X469.88Y1633.97I3.5J-3.5  ;
N3368 G1X469.88Y1597.9  ;
N3369 G1X466.43Y1597.9  ;
N3370 G1X466.43Y1586  ;
N3371 G1X469.88Y1586  ;
N3372 G1X469.88Y1525.55  ;
N3373 G2X468.83Y1524.5I-1.05J0  ;
N3374 G1X466.58Y1524.5  ;
N3375 G3X469.07Y1519.96I0J-2.95  ;
N3376 G2X470.76Y1520.9I1.73J-1.11  ;
N3377 G1X481.83Y1521.1  ;
N3378 G1X502.28Y1521.1  ;
N3379 G1X502.28Y721.1  ;
N3380 G1X481.83Y721.1  ;
N3381 G1X471.04Y721.28  ;
N3382 G2X469.24Y722.44I0.04J2.05  ;
N3383 G3X466.58Y718.2I-2.66J-1.29  ;
N3384 G1X468.83Y718.2  ;
N3385 G2X469.88Y717.15I0J-1.05  ;
N3386 G1X469.88Y656.7  ;
N3387 G1X466.43Y656.7  ;
N3388 G1X466.43Y644.8  ;
N3389 G1X469.83Y644.8  ;
N3390 G65 P9104 A101 B01  ;
N3391 M98 P9103  ;
(P64:ID1:W86008801)  ;
N3392 M98 P9101  ;
N3393 G0X514.28Y1656.2  ;
N3394 G65 P9102 A101 B01  ;
N3395 G1X514.28Y1651.25  ;
N3396 G1X515.55Y1651.25  ;
N3397 G1X515.55Y1648.25  ;
N3398 G1X522.52Y1648.25  ;
N3399 G1X527.55Y1643.22  ;
N3400 G1X527.55Y1633.25  ;
N3401 G1X530.55Y1633.25  ;
N3402 G1X530.55Y1623.15  ;
N3403 G1X527.55Y1623.15  ;
N3404 G1X527.55Y1560.65  ;
N3405 G1X530.55Y1560.65  ;
N3406 G1X530.55Y1550.55  ;
N3407 G1X527.55Y1550.55  ;
N3408 G1X527.55Y1542.08  ;
N3409 G1X521.02Y1535.55  ;
N3410 G1X505.48Y1535.55  ;
N3411 G1X500.45Y1540.58  ;
N3412 G1X500.45Y1643.22  ;
N3413 G1X505.48Y1648.25  ;
N3414 G1X512.45Y1648.25  ;
N3415 G1X512.45Y1651.25  ;
N3416 G1X513.58Y1651.25  ;
N3417 G65 P9104 A101 B02  ;
N3418 M98 P9103  ;
(P65:ID3:W860088)  ;
N3419 M98 P9101  ;
N3420 G0X548.41Y1673.75  ;
N3421 G65 P9102 A101 B02  ;
N3422 G1X548.41Y1676.7  ;
N3423 G1X550.18Y1676.7  ;
N3424 G1X550.18Y1664.8  ;
N3425 G1X546.53Y1664.8  ;
N3426 G1X546.53Y1676.7  ;
N3427 G1X548.36Y1676.7  ;
N3428 G65 P9104 A101 B02  ;
N3429 G0X528.78Y1710.38  ;
N3430 G65 P9102 A101 B02  ;
N3431 G1X526.69Y1712.46  ;
N3432 G3X526.73Y1712.5I3.64J-3.57  ;
N3433 G65 P9104 A101 B02  ;
N3434 G0X593.8Y1685  ;
N3435 G65 P9102 A101 B02  ;
N3436 G1X592.42Y1686.38  ;
N3437 G3X592.45Y1686.42I1.41J-1.34  ;
N3438 G65 P9104 A101 B02  ;
N3439 G0X632.28Y1673.75  ;
N3440 G65 P9102 A101 B02  ;
N3441 G1X632.28Y1676.7  ;
N3442 G1X634.03Y1676.7  ;
N3443 G1X634.03Y1664.8  ;
N3444 G1X630.43Y1664.8  ;
N3445 G1X630.43Y1676.7  ;
N3446 G1X632.23Y1676.7  ;
N3447 G65 P9104 A101 B02  ;
N3448 G0X646.97Y1708.69  ;
N3449 G65 P9102 A101 B02  ;
N3450 G1X644.06Y1707.97  ;
N3451 G2X642.88Y1708.89I-0.23J0.92  ;
N3452 G2X647.98Y1713.99I5.1J0  ;
N3453 G1X652.68Y1713.99  ;
N3454 G2X652.68Y1703.79I0J-5.1  ;
N3455 G1X647.98Y1703.79  ;
N3456 G2X642.88Y1708.89I0J5.1  ;
N3457 G65 P9104 A101 B02  ;
N3458 G0X586.48Y1640.92  ;
N3459 G65 P9102 A101 B02  ;
N3460 G1X584.4Y1643.01  ;
N3461 G3X584.43Y1643.04I3.23J-3.16  ;
N3462 G65 P9104 A101 B02  ;
N3463 G0X594.91Y1506.8  ;
N3464 G65 P9102 A101 B02  ;
N3465 G1X592.83Y1508.89  ;
N3466 G3X592.86Y1508.92I3.71J-3.64  ;
N3467 G65 P9104 A101 B02  ;
N3468 G0X605.04Y1465.3  ;
N3469 G65 P9102 A101 B02  ;
N3470 G1X602.09Y1465.3  ;
N3471 G1X602.09Y1466.9  ;
N3472 G1X612.99Y1466.9  ;
N3473 G1X612.99Y1463.6  ;
N3474 G1X602.09Y1463.6  ;
N3475 G1X602.09Y1465.25  ;
N3476 G65 P9104 A101 B02  ;
N3477 G0X644.46Y1506.8  ;
N3478 G65 P9102 A101 B02  ;
N3479 G1X642.37Y1508.89  ;
N3480 G3X642.41Y1508.92I3.71J-3.64  ;
N3481 G65 P9104 A101 B02  ;
N3482 G0X545.93Y1465.2  ;
N3483 G65 P9102 A101 B02  ;
N3484 G1X542.98Y1465.2  ;
N3485 G1X542.98Y1463.6  ;
N3486 G1X553.88Y1463.6  ;
N3487 G1X553.88Y1466.9  ;
N3488 G1X542.98Y1466.9  ;
N3489 G1X542.98Y1465.25  ;
N3490 G65 P9104 A101 B02  ;
N3491 G0X545.93Y1353.6  ;
N3492 G65 P9102 A101 B02  ;
N3493 G1X542.98Y1353.6  ;
N3494 G1X542.98Y1352  ;
N3495 G1X553.88Y1352  ;
N3496 G1X553.88Y1355.3  ;
N3497 G1X542.98Y1355.3  ;
N3498 G1X542.98Y1353.65  ;
N3499 G65 P9104 A101 B02  ;
N3500 G0X605.04Y1353.7  ;
N3501 G65 P9102 A101 B02  ;
N3502 G1X602.09Y1353.7  ;
N3503 G1X602.09Y1355.3  ;
N3504 G1X612.99Y1355.3  ;
N3505 G1X612.99Y1352  ;
N3506 G1X602.09Y1352  ;
N3507 G1X602.09Y1353.65  ;
N3508 G65 P9104 A101 B02  ;
N3509 G0X594.91Y1315.2  ;
N3510 G65 P9102 A101 B02  ;
N3511 G1X592.83Y1317.29  ;
N3512 G3X592.86Y1317.32I3.71J-3.64  ;
N3513 G65 P9104 A101 B02  ;
N3514 G0X605.04Y1273.7  ;
N3515 G65 P9102 A101 B02  ;
N3516 G1X602.09Y1273.7  ;
N3517 G1X602.09Y1275.3  ;
N3518 G1X612.99Y1275.3  ;
N3519 G1X612.99Y1272  ;
N3520 G1X602.09Y1272  ;
N3521 G1X602.09Y1273.65  ;
N3522 G65 P9104 A101 B02  ;
N3523 G0X644.46Y1315.2  ;
N3524 G65 P9102 A101 B02  ;
N3525 G1X642.37Y1317.29  ;
N3526 G3X642.41Y1317.32I3.71J-3.64  ;
N3527 G65 P9104 A101 B02  ;
N3528 G0X545.93Y1273.6  ;
N3529 G65 P9102 A101 B02  ;
N3530 G1X542.98Y1273.6  ;
N3531 G1X542.98Y1272  ;
N3532 G1X553.88Y1272  ;
N3533 G1X553.88Y1275.3  ;
N3534 G1X542.98Y1275.3  ;
N3535 G1X542.98Y1273.65  ;
N3536 G65 P9104 A101 B02  ;
N3537 G0X545.93Y1162  ;
N3538 G65 P9102 A101 B02  ;
N3539 G1X542.98Y1162  ;
N3540 G1X542.98Y1160.4  ;
N3541 G1X553.88Y1160.4  ;
N3542 G1X553.88Y1163.7  ;
N3543 G1X542.98Y1163.7  ;
N3544 G1X542.98Y1162.05  ;
N3545 G65 P9104 A101 B02  ;
N3546 G0X605.04Y1162.1  ;
N3547 G65 P9102 A101 B02  ;
N3548 G1X602.09Y1162.1  ;
N3549 G1X602.09Y1163.7  ;
N3550 G1X612.99Y1163.7  ;
N3551 G1X612.99Y1160.4  ;
N3552 G1X602.09Y1160.4  ;
N3553 G1X602.09Y1162.05  ;
N3554 G65 P9104 A101 B02  ;
N3555 G0X594.91Y1123.6  ;
N3556 G65 P9102 A101 B02  ;
N3557 G1X592.83Y1125.69  ;
N3558 G3X592.86Y1125.72I3.71J-3.64  ;
N3559 G65 P9104 A101 B02  ;
N3560 G0X644.46Y1123.6  ;
N3561 G65 P9102 A101 B02  ;
N3562 G1X642.37Y1125.69  ;
N3563 G3X642.41Y1125.72I3.71J-3.64  ;
N3564 G65 P9104 A101 B02  ;
N3565 G0X605.04Y1082.1  ;
N3566 G65 P9102 A101 B02  ;
N3567 G1X602.09Y1082.1  ;
N3568 G1X602.09Y1083.7  ;
N3569 G1X612.99Y1083.7  ;
N3570 G1X612.99Y1080.4  ;
N3571 G1X602.09Y1080.4  ;
N3572 G1X602.09Y1082.05  ;
N3573 G65 P9104 A101 B02  ;
N3574 G0X545.93Y1082  ;
N3575 G65 P9102 A101 B02  ;
N3576 G1X542.98Y1082  ;
N3577 G1X542.98Y1080.4  ;
N3578 G1X553.88Y1080.4  ;
N3579 G1X553.88Y1083.7  ;
N3580 G1X542.98Y1083.7  ;
N3581 G1X542.98Y1082.05  ;
N3582 G65 P9104 A101 B02  ;
N3583 G0X545.93Y970.4  ;
N3584 G65 P9102 A101 B02  ;
N3585 G1X542.98Y970.4  ;
N3586 G1X542.98Y968.8  ;
N3587 G1X553.88Y968.8  ;
N3588 G1X553.88Y972.1  ;
N3589 G1X542.98Y972.1  ;
N3590 G1X542.98Y970.45  ;
N3591 G65 P9104 A101 B02  ;
N3592 G0X605.04Y970.5  ;
N3593 G65 P9102 A101 B02  ;
N3594 G1X602.09Y970.5  ;
N3595 G1X602.09Y972.1  ;
N3596 G1X612.99Y972.1  ;
N3597 G1X612.99Y968.8  ;
N3598 G1X602.09Y968.8  ;
N3599 G1X602.09Y970.45  ;
N3600 G65 P9104 A101 B02  ;
N3601 G0X594.91Y932  ;
N3602 G65 P9102 A101 B02  ;
N3603 G1X592.83Y934.09  ;
N3604 G3X592.86Y934.12I3.71J-3.64  ;
N3605 G65 P9104 A101 B02  ;
N3606 G0X644.46Y932  ;
N3607 G65 P9102 A101 B02  ;
N3608 G1X642.37Y934.09  ;
N3609 G3X642.41Y934.12I3.71J-3.64  ;
N3610 G65 P9104 A101 B02  ;
N3611 G0X605.04Y890.4  ;
N3612 G65 P9102 A101 B02  ;
N3613 G1X602.09Y890.4  ;
N3614 G1X602.09Y888.8  ;
N3615 G1X612.99Y888.8  ;
N3616 G1X612.99Y892.1  ;
N3617 G1X602.09Y892.1  ;
N3618 G1X602.09Y890.45  ;
N3619 G65 P9104 A101 B02  ;
N3620 G0X545.93Y890.5  ;
N3621 G65 P9102 A101 B02  ;
N3622 G1X542.98Y890.5  ;
N3623 G1X542.98Y892.1  ;
N3624 G1X553.88Y892.1  ;
N3625 G1X553.88Y888.8  ;
N3626 G1X542.98Y888.8  ;
N3627 G1X542.98Y890.45  ;
N3628 G65 P9104 A101 B02  ;
N3629 G0X545.93Y778.9  ;
N3630 G65 P9102 A101 B02  ;
N3631 G1X542.98Y778.9  ;
N3632 G1X542.98Y780.5  ;
N3633 G1X553.88Y780.5  ;
N3634 G1X553.88Y777.2  ;
N3635 G1X542.98Y777.2  ;
N3636 G1X542.98Y778.85  ;
N3637 G65 P9104 A101 B02  ;
N3638 G0X605.04Y778.8  ;
N3639 G65 P9102 A101 B02  ;
N3640 G1X602.09Y778.8  ;
N3641 G1X602.09Y777.2  ;
N3642 G1X612.99Y777.2  ;
N3643 G1X612.99Y780.5  ;
N3644 G1X602.09Y780.5  ;
N3645 G1X602.09Y778.85  ;
N3646 G65 P9104 A101 B02  ;
N3647 G0X594.91Y740.4  ;
N3648 G65 P9102 A101 B02  ;
N3649 G1X592.83Y742.49  ;
N3650 G3X592.86Y742.52I3.71J-3.64  ;
N3651 G65 P9104 A101 B02  ;
N3652 G0X644.46Y740.4  ;
N3653 G65 P9102 A101 B02  ;
N3654 G1X642.37Y742.49  ;
N3655 G3X642.41Y742.52I3.71J-3.64  ;
N3656 G65 P9104 A101 B02  ;
N3657 G0X646.97Y535  ;
N3658 G65 P9102 A101 B02  ;
N3659 G1X644.06Y534.28  ;
N3660 G2X642.88Y535.2I-0.23J0.92  ;
N3661 G2X647.98Y540.3I5.1J0  ;
N3662 G1X652.68Y540.3  ;
N3663 G2X652.68Y530.1I0J-5.1  ;
N3664 G1X647.98Y530.1  ;
N3665 G2X642.88Y535.2I0J5.1  ;
N3666 G65 P9104 A101 B02  ;
N3667 G0X632.18Y576.35  ;
N3668 G65 P9102 A101 B02  ;
N3669 G1X632.18Y579.3  ;
N3670 G1X630.43Y579.3  ;
N3671 G1X630.43Y567.4  ;
N3672 G1X634.03Y567.4  ;
N3673 G1X634.03Y579.3  ;
N3674 G1X632.23Y579.3  ;
N3675 G65 P9104 A101 B02  ;
N3676 G0X586.48Y605.32  ;
N3677 G65 P9102 A101 B02  ;
N3678 G1X584.4Y607.41  ;
N3679 G3X584.43Y607.44I3.23J-3.16  ;
N3680 G65 P9104 A101 B02  ;
N3681 G0X593.8Y559.01  ;
N3682 G65 P9102 A101 B02  ;
N3683 G1X592.42Y560.39  ;
N3684 G3X592.45Y560.43I1.41J-1.34  ;
N3685 G65 P9104 A101 B02  ;
N3686 G0X548.31Y576.35  ;
N3687 G65 P9102 A101 B02  ;
N3688 G1X548.31Y579.3  ;
N3689 G1X546.53Y579.3  ;
N3690 G1X546.53Y567.4  ;
N3691 G1X550.18Y567.4  ;
N3692 G1X550.18Y579.3  ;
N3693 G1X548.36Y579.3  ;
N3694 G65 P9104 A101 B02  ;
N3695 G0X528.78Y536.68  ;
N3696 G65 P9102 A101 B02  ;
N3697 G1X526.69Y538.77  ;
N3698 G3X526.73Y538.81I3.64J-3.57  ;
N3699 G65 P9104 A101 B01  ;
N3700 G0X633.88Y648.45  ;
N3701 G65 P9102 A101 B01  ;
N3702 G1X633.88Y645.45  ;
N3703 G1X633.88Y609.42  ;
N3704 G3X635.33Y605.92I4.95J0  ;
N3705 G1X662.4Y578.84  ;
N3706 G2X663.88Y575.27I-3.57J-3.57  ;
N3707 G1X663.88Y529.8  ;
N3708 G2X658.83Y524.75I-5.05J0  ;
N3709 G1X521.83Y524.75  ;
N3710 G2X516.78Y529.8I0J5.05  ;
N3711 G1X516.78Y575.27  ;
N3712 G2X518.26Y578.84I5.05J0  ;
N3713 G1X545.33Y605.92  ;
N3714 G3X546.78Y609.42I-3.5J3.5  ;
N3715 G1X546.78Y640  ;
N3716 G1X550.18Y640  ;
N3717 G1X550.18Y651.9  ;
N3718 G1X546.78Y651.9  ;
N3719 G1X546.78Y669  ;
N3720 G1X562.66Y669  ;
N3721 G3X564.53Y670.37I0J1.95  ;
N3722 G1X579.14Y718.15  ;
N3723 G2X580.14Y718.9I1J-0.3  ;
N3724 G1X583.68Y718.9  ;
N3725 G3X581.02Y723.14I0J2.95  ;
N3726 G2X579.22Y721.99I-1.84J0.9  ;
N3727 G1X567.98Y721.8  ;
N3728 G1X509.45Y721.8  ;
N3729 G1X509.45Y733.85  ;
N3730 G1X512.6Y733.85  ;
N3731 G1X512.6Y736.85  ;
N3732 G1X509.45Y736.85  ;
N3733 G1X509.45Y1507.25  ;
N3734 G1X512.6Y1507.25  ;
N3735 G1X512.6Y1510.25  ;
N3736 G1X509.45Y1510.25  ;
N3737 G1X509.45Y1521.8  ;
N3738 G1X567.98Y1521.8  ;
N3739 G1X579.5Y1521.6  ;
N3740 G2X581.19Y1520.65I-0.04J-2.05  ;
N3741 G3X583.68Y1525.2I2.49J1.6  ;
N3742 G1X580.14Y1525.2  ;
N3743 G2X579.14Y1525.94I0J1.05  ;
N3744 G1X564.53Y1573.72  ;
N3745 G3X562.66Y1575.1I-1.87J-0.57  ;
N3746 G1X546.78Y1575.1  ;
N3747 G1X546.78Y1592.2  ;
N3748 G1X550.18Y1592.2  ;
N3749 G1X550.18Y1604.1  ;
N3750 G1X546.78Y1604.1  ;
N3751 G1X546.78Y1634.67  ;
N3752 G3X545.33Y1638.17I-4.95J0  ;
N3753 G1X518.26Y1665.25  ;
N3754 G2X516.78Y1668.82I3.57J3.57  ;
N3755 G1X516.78Y1714.29  ;
N3756 G2X521.83Y1719.34I5.05J0  ;
N3757 G1X658.83Y1719.34  ;
N3758 G2X663.88Y1714.29I0J-5.05  ;
N3759 G1X663.88Y1668.82  ;
N3760 G2X662.4Y1665.25I-5.05J0  ;
N3761 G1X635.33Y1638.17  ;
N3762 G3X633.88Y1634.67I3.5J-3.5  ;
N3763 G1X633.88Y1598.6  ;
N3764 G1X630.43Y1598.6  ;
N3765 G1X630.43Y1586.7  ;
N3766 G1X633.88Y1586.7  ;
N3767 G1X633.88Y1526.25  ;
N3768 G2X632.83Y1525.2I-1.05J0  ;
N3769 G1X630.58Y1525.2  ;
N3770 G3X633.07Y1520.66I0J-2.95  ;
N3771 G2X634.76Y1521.6I1.73J-1.11  ;
N3772 G1X645.83Y1521.8  ;
N3773 G1X666.28Y1521.8  ;
N3774 G1X666.28Y721.8  ;
N3775 G1X645.83Y721.8  ;
N3776 G1X635.04Y721.98  ;
N3777 G2X633.24Y723.14I0.04J2.05  ;
N3778 G3X630.58Y718.9I-2.66J-1.29  ;
N3779 G1X632.83Y718.9  ;
N3780 G2X633.88Y717.85I0J-1.05  ;
N3781 G1X633.88Y657.4  ;
N3782 G1X630.43Y657.4  ;
N3783 G1X630.43Y645.5  ;
N3784 G1X633.83Y645.5  ;
N3785 G65 P9104 A101 B01  ;
N3786 M98 P9103  ;
(P66:ID1:W86008801)  ;
N3787 M98 P9101  ;
N3788 G0X671.28Y1659.2  ;
N3789 G65 P9102 A101 B01  ;
N3790 G1X671.28Y1654.25  ;
N3791 G1X672.55Y1654.25  ;
N3792 G1X672.55Y1651.25  ;
N3793 G1X679.52Y1651.25  ;
N3794 G1X684.55Y1646.22  ;
N3795 G1X684.55Y1636.25  ;
N3796 G1X687.55Y1636.25  ;
N3797 G1X687.55Y1626.15  ;
N3798 G1X684.55Y1626.15  ;
N3799 G1X684.55Y1563.65  ;
N3800 G1X687.55Y1563.65  ;
N3801 G1X687.55Y1553.55  ;
N3802 G1X684.55Y1553.55  ;
N3803 G1X684.55Y1545.08  ;
N3804 G1X678.02Y1538.55  ;
N3805 G1X662.48Y1538.55  ;
N3806 G1X657.45Y1543.58  ;
N3807 G1X657.45Y1646.22  ;
N3808 G1X662.48Y1651.25  ;
N3809 G1X669.45Y1651.25  ;
N3810 G1X669.45Y1654.25  ;
N3811 G1X670.58Y1654.25  ;
N3812 G65 P9104 A101 B02  ;
N3813 M98 P9103  ;
(P67:ID3:W860088)  ;
N3814 M98 P9101  ;
N3815 G0X712.41Y1669.75  ;
N3816 G65 P9102 A101 B02  ;
N3817 G1X712.41Y1672.7  ;
N3818 G1X714.18Y1672.7  ;
N3819 G1X714.18Y1660.8  ;
N3820 G1X710.53Y1660.8  ;
N3821 G1X710.53Y1672.7  ;
N3822 G1X712.36Y1672.7  ;
N3823 G65 P9104 A101 B02  ;
N3824 G0X692.78Y1706.38  ;
N3825 G65 P9102 A101 B02  ;
N3826 G1X690.69Y1708.46  ;
