O0099  ;
( MACHINE : TCI Laser )  ;
( MATERIAL : Acero al Carbono )  ;
( THICKNESS : 5 )  ;
( REPETITIONS : 1 )  ;
( SIMULATION TIME : 00:45:40 )  ;
( FORMAT : 1500x3000 )  ;
( JOB NUMBER : VARS8600\K860115 )  ;
( PROGRAM NUMBER : 12093 )  ;
( TYPE : 0 )  ;
( NUMBER OF SHEETS : 1 )  ;
( CUTTING HEADS : 1 )  ;
#516= 1  ;
#517= 1  ;
N105 G65 P9100 A103 B01  ;
(P1:ID1:W86011517)  ;
N106 M98 P9101  ;
N107 G0X78.99Y93.98  ;
N108 G65 P9102 A101 B01  ;
N109 G1X83.93Y93.7  ;
N110 G3X69Y109.45I-14.93J0.8  ;
N111 G1X65.98Y109.45  ;
N112 G1X64.95Y110.48  ;
N113 G1X64.95Y113.52  ;
N114 G1X65.98Y114.55  ;
N115 G1X68.95Y114.55  ;
N116 G1X68.95Y136.45  ;
N117 G1X68.45Y136.45  ;
N118 G1X68.45Y139.55  ;
N119 G1X68.98Y139.55  ;
N120 G1X96.98Y168.55  ;
N121 G1X139.95Y168.55  ;
N122 G1X139.95Y169.05  ;
N123 G1X142.95Y169.05  ;
N124 G1X142.95Y174.05  ;
N125 G1X148.05Y174.05  ;
N126 G1X148.05Y14.95  ;
N127 G1X142.95Y14.95  ;
N128 G1X142.95Y19.95  ;
N129 G1X139.95Y19.95  ;
N130 G1X139.95Y20.45  ;
N131 G1X96.98Y20.45  ;
N132 G1X68.98Y49.45  ;
N133 G1X68.45Y49.45  ;
N134 G1X68.45Y52.55  ;
N135 G1X68.95Y52.55  ;
N136 G1X68.95Y79.55  ;
N137 G3X83.87Y93I0.05J14.95  ;
N138 G65 P9104 A101 B01  ;
N139 M98 P9103  ;
(P2:ID1:W86011517)  ;
N140 M98 P9101  ;
N141 G0X64.99Y257.48  ;
N142 G65 P9102 A101 B01  ;
N143 G1X69.93Y257.2  ;
N144 G3X55Y272.95I-14.93J0.8  ;
N145 G1X51.98Y272.95  ;
N146 G1X50.95Y273.98  ;
N147 G1X50.95Y277.02  ;
N148 G1X51.98Y278.05  ;
N149 G1X54.95Y278.05  ;
N150 G1X54.95Y299.95  ;
N151 G1X54.45Y299.95  ;
N152 G1X54.45Y303.05  ;
N153 G1X54.98Y303.05  ;
N154 G1X82.98Y332.05  ;
N155 G1X125.95Y332.05  ;
N156 G1X125.95Y332.55  ;
N157 G1X128.95Y332.55  ;
N158 G1X128.95Y337.55  ;
N159 G1X134.05Y337.55  ;
N160 G1X134.05Y178.45  ;
N161 G1X128.95Y178.45  ;
N162 G1X128.95Y183.45  ;
N163 G1X125.95Y183.45  ;
N164 G1X125.95Y183.95  ;
N165 G1X82.98Y183.95  ;
N166 G1X54.98Y212.95  ;
N167 G1X54.45Y212.95  ;
N168 G1X54.45Y216.05  ;
N169 G1X54.95Y216.05  ;
N170 G1X54.95Y243.05  ;
N171 G3X69.87Y256.5I0.05J14.95  ;
N172 G65 P9104 A101 B01  ;
N173 M98 P9103  ;
(P3:ID1:W86011517)  ;
N174 M98 P9101  ;
N175 G0X78.99Y423.48  ;
N176 G65 P9102 A101 B01  ;
N177 G1X83.93Y423.2  ;
N178 G3X69Y438.95I-14.93J0.8  ;
N179 G1X65.98Y438.95  ;
N180 G1X64.95Y439.98  ;
N181 G1X64.95Y443.02  ;
N182 G1X65.98Y444.05  ;
N183 G1X68.95Y444.05  ;
N184 G1X68.95Y465.95  ;
N185 G1X68.45Y465.95  ;
N186 G1X68.45Y469.05  ;
N187 G1X68.98Y469.05  ;
N188 G1X96.98Y498.05  ;
N189 G1X139.95Y498.05  ;
N190 G1X139.95Y498.55  ;
N191 G1X142.95Y498.55  ;
N192 G1X142.95Y503.55  ;
N193 G1X148.05Y503.55  ;
N194 G1X148.05Y344.45  ;
N195 G1X142.95Y344.45  ;
N196 G1X142.95Y349.45  ;
N197 G1X139.95Y349.45  ;
N198 G1X139.95Y349.95  ;
N199 G1X96.98Y349.95  ;
N200 G1X68.98Y378.95  ;
N201 G1X68.45Y378.95  ;
N202 G1X68.45Y382.05  ;
N203 G1X68.95Y382.05  ;
N204 G1X68.95Y409.05  ;
N205 G3X83.87Y422.5I0.05J14.95  ;
N206 G65 P9104 A101 B01  ;
N207 M98 P9103  ;
(P4:ID1:W86011517)  ;
N208 M98 P9101  ;
N209 G0X64.99Y586.98  ;
N210 G65 P9102 A101 B01  ;
N211 G1X69.93Y586.7  ;
N212 G3X55Y602.45I-14.93J0.8  ;
N213 G1X51.98Y602.45  ;
N214 G1X50.95Y603.48  ;
N215 G1X50.95Y606.52  ;
N216 G1X51.98Y607.55  ;
N217 G1X54.95Y607.55  ;
N218 G1X54.95Y629.45  ;
N219 G1X54.45Y629.45  ;
N220 G1X54.45Y632.55  ;
N221 G1X54.98Y632.55  ;
N222 G1X82.98Y661.55  ;
N223 G1X125.95Y661.55  ;
N224 G1X125.95Y662.05  ;
N225 G1X128.95Y662.05  ;
N226 G1X128.95Y667.05  ;
N227 G1X134.05Y667.05  ;
N228 G1X134.05Y507.95  ;
N229 G1X128.95Y507.95  ;
N230 G1X128.95Y512.95  ;
N231 G1X125.95Y512.95  ;
N232 G1X125.95Y513.45  ;
N233 G1X82.98Y513.45  ;
N234 G1X54.98Y542.45  ;
N235 G1X54.45Y542.45  ;
N236 G1X54.45Y545.55  ;
N237 G1X54.95Y545.55  ;
N238 G1X54.95Y572.55  ;
N239 G3X69.87Y586I0.05J14.95  ;
N240 G65 P9104 A101 B01  ;
N241 M98 P9103  ;
(P5:ID1:W86011517)  ;
N242 M98 P9101  ;
N243 G0X78.99Y752.98  ;
N244 G65 P9102 A101 B01  ;
N245 G1X83.93Y752.7  ;
N246 G3X69Y768.45I-14.93J0.8  ;
N247 G1X65.98Y768.45  ;
N248 G1X64.95Y769.48  ;
N249 G1X64.95Y772.52  ;
N250 G1X65.98Y773.55  ;
N251 G1X68.95Y773.55  ;
N252 G1X68.95Y795.45  ;
N253 G1X68.45Y795.45  ;
N254 G1X68.45Y798.55  ;
N255 G1X68.98Y798.55  ;
N256 G1X96.98Y827.55  ;
N257 G1X139.95Y827.55  ;
N258 G1X139.95Y828.05  ;
N259 G1X142.95Y828.05  ;
N260 G1X142.95Y833.05  ;
N261 G1X148.05Y833.05  ;
N262 G1X148.05Y673.95  ;
N263 G1X142.95Y673.95  ;
N264 G1X142.95Y678.95  ;
N265 G1X139.95Y678.95  ;
N266 G1X139.95Y679.45  ;
N267 G1X96.98Y679.45  ;
N268 G1X68.98Y708.45  ;
N269 G1X68.45Y708.45  ;
N270 G1X68.45Y711.55  ;
N271 G1X68.95Y711.55  ;
N272 G1X68.95Y738.55  ;
N273 G3X83.87Y752I0.05J14.95  ;
N274 G65 P9104 A101 B01  ;
N275 M98 P9103  ;
(P6:ID1:W86011517)  ;
N276 M98 P9101  ;
N277 G0X64.99Y916.48  ;
N278 G65 P9102 A101 B01  ;
N279 G1X69.93Y916.2  ;
N280 G3X55Y931.95I-14.93J0.8  ;
N281 G1X51.98Y931.95  ;
N282 G1X50.95Y932.98  ;
N283 G1X50.95Y936.02  ;
N284 G1X51.98Y937.05  ;
N285 G1X54.95Y937.05  ;
N286 G1X54.95Y958.95  ;
N287 G1X54.45Y958.95  ;
N288 G1X54.45Y962.05  ;
N289 G1X54.98Y962.05  ;
N290 G1X82.98Y991.05  ;
N291 G1X125.95Y991.05  ;
N292 G1X125.95Y991.55  ;
N293 G1X128.95Y991.55  ;
N294 G1X128.95Y996.55  ;
N295 G1X134.05Y996.55  ;
N296 G1X134.05Y837.45  ;
N297 G1X128.95Y837.45  ;
N298 G1X128.95Y842.45  ;
N299 G1X125.95Y842.45  ;
N300 G1X125.95Y842.95  ;
N301 G1X82.98Y842.95  ;
N302 G1X54.98Y871.95  ;
N303 G1X54.45Y871.95  ;
N304 G1X54.45Y875.05  ;
N305 G1X54.95Y875.05  ;
N306 G1X54.95Y902.05  ;
N307 G3X69.87Y915.5I0.05J14.95  ;
N308 G65 P9104 A101 B01  ;
N309 M98 P9103  ;
(P7:ID1:W86011517)  ;
N310 M98 P9101  ;
N311 G0X50.99Y1079.98  ;
N312 G65 P9102 A101 B01  ;
N313 G1X55.93Y1079.7  ;
N314 G3X41Y1095.45I-14.93J0.8  ;
N315 G1X37.98Y1095.45  ;
N316 G1X36.95Y1096.48  ;
N317 G1X36.95Y1099.52  ;
N318 G1X37.98Y1100.55  ;
N319 G1X40.95Y1100.55  ;
N320 G1X40.95Y1122.45  ;
N321 G1X40.45Y1122.45  ;
N322 G1X40.45Y1125.55  ;
N323 G1X40.98Y1125.55  ;
N324 G1X68.98Y1154.55  ;
N325 G1X111.95Y1154.55  ;
N326 G1X111.95Y1155.05  ;
N327 G1X114.95Y1155.05  ;
N328 G1X114.95Y1160.05  ;
N329 G1X120.05Y1160.05  ;
N330 G1X120.05Y1000.95  ;
N331 G1X114.95Y1000.95  ;
N332 G1X114.95Y1005.95  ;
N333 G1X111.95Y1005.95  ;
N334 G1X111.95Y1006.45  ;
N335 G1X68.98Y1006.45  ;
N336 G1X40.98Y1035.45  ;
N337 G1X40.45Y1035.45  ;
N338 G1X40.45Y1038.55  ;
N339 G1X40.95Y1038.55  ;
N340 G1X40.95Y1065.55  ;
N341 G3X55.87Y1079I0.05J14.95  ;
N342 G65 P9104 A101 B01  ;
N343 M98 P9103  ;
(P8:ID1:W86011517)  ;
N344 M98 P9101  ;
N345 G0X78.99Y1243.48  ;
N346 G65 P9102 A101 B01  ;
N347 G1X83.93Y1243.2  ;
N348 G3X69Y1258.95I-14.93J0.8  ;
N349 G1X65.98Y1258.95  ;
N350 G1X64.95Y1259.98  ;
N351 G1X64.95Y1263.02  ;
N352 G1X65.98Y1264.05  ;
N353 G1X68.95Y1264.05  ;
N354 G1X68.95Y1285.95  ;
N355 G1X68.45Y1285.95  ;
N356 G1X68.45Y1289.05  ;
N357 G1X68.98Y1289.05  ;
N358 G1X96.98Y1318.05  ;
N359 G1X139.95Y1318.05  ;
N360 G1X139.95Y1318.55  ;
N361 G1X142.95Y1318.55  ;
N362 G1X142.95Y1323.55  ;
N363 G1X148.05Y1323.55  ;
N364 G1X148.05Y1164.45  ;
N365 G1X142.95Y1164.45  ;
N366 G1X142.95Y1169.45  ;
N367 G1X139.95Y1169.45  ;
N368 G1X139.95Y1169.95  ;
N369 G1X96.98Y1169.95  ;
N370 G1X68.98Y1198.95  ;
N371 G1X68.45Y1198.95  ;
N372 G1X68.45Y1202.05  ;
N373 G1X68.95Y1202.05  ;
N374 G1X68.95Y1229.05  ;
N375 G3X83.87Y1242.5I0.05J14.95  ;
N376 G65 P9104 A101 B01  ;
N377 M98 P9103  ;
(P9:ID1:W86011517)  ;
N378 M98 P9101  ;
N379 G0X64.99Y1406.98  ;
N380 G65 P9102 A101 B01  ;
N381 G1X69.93Y1406.7  ;
N382 G3X55Y1422.45I-14.93J0.8  ;
N383 G1X51.98Y1422.45  ;
N384 G1X50.95Y1423.48  ;
N385 G1X50.95Y1426.52  ;
N386 G1X51.98Y1427.55  ;
N387 G1X54.95Y1427.55  ;
N388 G1X54.95Y1449.45  ;
N389 G1X54.45Y1449.45  ;
N390 G1X54.45Y1452.55  ;
N391 G1X54.98Y1452.55  ;
N392 G1X82.98Y1481.55  ;
N393 G1X125.95Y1481.55  ;
N394 G1X125.95Y1482.05  ;
N395 G1X128.95Y1482.05  ;
N396 G1X128.95Y1487.05  ;
N397 G1X134.05Y1487.05  ;
N398 G1X134.05Y1327.95  ;
N399 G1X128.95Y1327.95  ;
N400 G1X128.95Y1332.95  ;
N401 G1X125.95Y1332.95  ;
N402 G1X125.95Y1333.45  ;
N403 G1X82.98Y1333.45  ;
N404 G1X54.98Y1362.45  ;
N405 G1X54.45Y1362.45  ;
N406 G1X54.45Y1365.55  ;
N407 G1X54.95Y1365.55  ;
N408 G1X54.95Y1392.55  ;
N409 G3X69.87Y1406I0.05J14.95  ;
N410 G65 P9104 A101 B01  ;
N411 M98 P9103  ;
(P10:ID1:W86011517)  ;
N412 M98 P9101  ;
N413 G0X50.99Y1570.48  ;
N414 G65 P9102 A101 B01  ;
N415 G1X55.93Y1570.2  ;
N416 G3X41Y1585.95I-14.93J0.8  ;
N417 G1X37.98Y1585.95  ;
N418 G1X36.95Y1586.98  ;
N419 G1X36.95Y1590.02  ;
N420 G1X37.98Y1591.05  ;
N421 G1X40.95Y1591.05  ;
N422 G1X40.95Y1612.95  ;
N423 G1X40.45Y1612.95  ;
N424 G1X40.45Y1616.05  ;
N425 G1X40.98Y1616.05  ;
N426 G1X68.98Y1645.05  ;
N427 G1X111.95Y1645.05  ;
N428 G1X111.95Y1645.55  ;
N429 G1X114.95Y1645.55  ;
N430 G1X114.95Y1650.55  ;
N431 G1X120.05Y1650.55  ;
N432 G1X120.05Y1491.45  ;
N433 G1X114.95Y1491.45  ;
N434 G1X114.95Y1496.45  ;
N435 G1X111.95Y1496.45  ;
N436 G1X111.95Y1496.95  ;
N437 G1X68.98Y1496.95  ;
N438 G1X40.98Y1525.95  ;
N439 G1X40.45Y1525.95  ;
N440 G1X40.45Y1529.05  ;
N441 G1X40.95Y1529.05  ;
N442 G1X40.95Y1556.05  ;
N443 G3X55.87Y1569.5I0.05J14.95  ;
N444 G65 P9104 A101 B01  ;
N445 M98 P9103  ;
(P11:ID1:W86011517)  ;
N446 M98 P9101  ;
N447 G0X78.99Y1733.98  ;
N448 G65 P9102 A101 B01  ;
N449 G1X83.93Y1733.7  ;
N450 G3X69Y1749.45I-14.93J0.8  ;
N451 G1X65.98Y1749.45  ;
N452 G1X64.95Y1750.48  ;
N453 G1X64.95Y1753.52  ;
N454 G1X65.98Y1754.55  ;
N455 G1X68.95Y1754.55  ;
N456 G1X68.95Y1776.45  ;
N457 G1X68.45Y1776.45  ;
N458 G1X68.45Y1779.55  ;
N459 G1X68.98Y1779.55  ;
N460 G1X96.98Y1808.55  ;
N461 G1X139.95Y1808.55  ;
N462 G1X139.95Y1809.05  ;
N463 G1X142.95Y1809.05  ;
N464 G1X142.95Y1814.05  ;
N465 G1X148.05Y1814.05  ;
N466 G1X148.05Y1654.95  ;
N467 G1X142.95Y1654.95  ;
N468 G1X142.95Y1659.95  ;
N469 G1X139.95Y1659.95  ;
N470 G1X139.95Y1660.45  ;
N471 G1X96.98Y1660.45  ;
N472 G1X68.98Y1689.45  ;
N473 G1X68.45Y1689.45  ;
N474 G1X68.45Y1692.55  ;
N475 G1X68.95Y1692.55  ;
N476 G1X68.95Y1719.55  ;
N477 G3X83.87Y1733I0.05J14.95  ;
N478 G65 P9104 A102 B04  ;
N479 M98 P9103  ;
(P12:ID2:W86011501)  ;
N480 M98 P9101  ;
N481 G0X1376.62Y183.57  ;
N482 G65 P9102 A102 B04  ;
N483 G1X1376.62Y197.43  ;
N484 G1X1364.62Y204.36  ;
N485 G1X1352.62Y197.43  ;
N486 G1X1352.62Y183.57  ;
N487 G1X1364.62Y176.64  ;
N488 G1X1376.62Y183.57  ;
N489 G65 P9104 A102 B04  ;
N490 G0X1316.62Y183.57  ;
N491 G65 P9102 A102 B04  ;
N492 G1X1316.62Y197.43  ;
N493 G1X1304.62Y204.36  ;
N494 G1X1292.62Y197.43  ;
N495 G1X1292.62Y183.57  ;
N496 G1X1304.62Y176.64  ;
N497 G1X1316.62Y183.57  ;
N498 G65 P9104 A102 B04  ;
N499 G0X1186.5Y155.41  ;
N500 G65 P9102 A102 B04  ;
N501 G1X1178Y160.31  ;
N502 G1X1169.5Y155.41  ;
N503 G1X1169.5Y145.59  ;
N504 G1X1178Y140.69  ;
N505 G1X1186.5Y145.59  ;
N506 G1X1186.5Y155.41  ;
N507 G65 P9104 A102 B04  ;
N508 G0X1304.62Y351.64  ;
N509 G65 P9102 A102 B04  ;
N510 G1X1316.62Y358.57  ;
N511 G1X1316.62Y372.43  ;
N512 G1X1304.62Y379.36  ;
N513 G1X1292.62Y372.43  ;
N514 G1X1292.62Y358.57  ;
N515 G1X1304.62Y351.64  ;
N516 G65 P9104 A102 B04  ;
N517 G0X1352.62Y358.57  ;
N518 G65 P9102 A102 B04  ;
N519 G1X1364.62Y351.64  ;
N520 G1X1376.62Y358.57  ;
N521 G1X1376.62Y372.43  ;
N522 G1X1364.62Y379.36  ;
N523 G1X1352.62Y372.43  ;
N524 G1X1352.62Y358.57  ;
N525 G65 P9104 A102 B04  ;
N526 G0X1322.12Y604.14  ;
N527 G65 P9102 A102 B04  ;
N528 G1X1334.12Y611.07  ;
N529 G1X1334.12Y624.93  ;
N530 G1X1322.12Y631.86  ;
N531 G1X1310.12Y624.93  ;
N532 G1X1310.12Y611.07  ;
N533 G1X1322.12Y604.14  ;
N534 G65 P9104 A102 B04  ;
N535 G0X1178Y923.69  ;
N536 G65 P9102 A102 B04  ;
N537 G1X1186.5Y928.59  ;
N538 G1X1186.5Y938.41  ;
N539 G1X1178Y943.31  ;
N540 G1X1169.5Y938.41  ;
N541 G1X1169.5Y928.59  ;
N542 G1X1178Y923.69  ;
N543 G65 P9104 A102 B04  ;
N544 G0X1178Y1107.69  ;
N545 G65 P9102 A102 B04  ;
N546 G1X1186.5Y1112.59  ;
N547 G1X1186.5Y1122.41  ;
N548 G1X1178Y1127.31  ;
N549 G1X1169.5Y1122.41  ;
N550 G1X1169.5Y1112.59  ;
N551 G1X1178Y1107.69  ;
N552 G65 P9104 A102 B04  ;
N553 G0X1322.12Y1419.14  ;
N554 G65 P9102 A102 B04  ;
N555 G1X1334.12Y1426.07  ;
N556 G1X1334.12Y1439.93  ;
N557 G1X1322.12Y1446.86  ;
N558 G1X1310.12Y1439.93  ;
N559 G1X1310.12Y1426.07  ;
N560 G1X1322.12Y1419.14  ;
N561 G65 P9104 A102 B04  ;
N562 G0X1364.62Y1671.64  ;
N563 G65 P9102 A102 B04  ;
N564 G1X1376.62Y1678.57  ;
N565 G1X1376.62Y1692.43  ;
N566 G1X1364.62Y1699.36  ;
N567 G1X1352.62Y1692.43  ;
N568 G1X1352.62Y1678.57  ;
N569 G1X1364.62Y1671.64  ;
N570 G65 P9104 A102 B04  ;
N571 G0X1316.62Y1678.57  ;
N572 G65 P9102 A102 B04  ;
N573 G1X1316.62Y1692.43  ;
N574 G1X1304.62Y1699.36  ;
N575 G1X1292.62Y1692.43  ;
N576 G1X1292.62Y1678.57  ;
N577 G1X1304.62Y1671.64  ;
N578 G1X1316.62Y1678.57  ;
N579 G65 P9104 A102 B04  ;
N580 G0X1304.62Y1846.64  ;
N581 G65 P9102 A102 B04  ;
N582 G1X1316.62Y1853.57  ;
N583 G1X1316.62Y1867.43  ;
N584 G1X1304.62Y1874.36  ;
N585 G1X1292.62Y1867.43  ;
N586 G1X1292.62Y1853.57  ;
N587 G1X1304.62Y1846.64  ;
N588 G65 P9104 A102 B04  ;
N589 G0X1352.62Y1853.57  ;
N590 G65 P9102 A102 B04  ;
N591 G1X1364.62Y1846.64  ;
N592 G1X1376.62Y1853.57  ;
N593 G1X1376.62Y1867.43  ;
N594 G1X1364.62Y1874.36  ;
N595 G1X1352.62Y1867.43  ;
N596 G1X1352.62Y1853.57  ;
N597 G65 P9104 A102 B04  ;
N598 G0X1186.5Y1895.59  ;
N599 G65 P9102 A102 B04  ;
N600 G1X1186.5Y1905.41  ;
N601 G1X1178Y1910.31  ;
N602 G1X1169.5Y1905.41  ;
N603 G1X1169.5Y1895.59  ;
N604 G1X1178Y1890.69  ;
N605 G1X1186.5Y1895.59  ;
N606 G65 P9104 A101 B02  ;
N607 G0X1175.67Y1902.76  ;
N608 G65 P9102 A101 B02  ;
N609 G1X1173.58Y1904.85  ;
N610 G3X1173.62Y1904.88I4.42J-4.35  ;
N611 G65 P9104 A101 B02  ;
N612 G0X1223.14Y1928.29  ;
N613 G65 P9102 A101 B02  ;
N614 G1X1221.05Y1930.38  ;
N615 G3X1221.09Y1930.41I4.95J-4.88  ;
N616 G65 P9104 A101 B02  ;
N617 G0X1305.12Y1953.55  ;
N618 G65 P9102 A101 B02  ;
N619 G1X1302.12Y1953.55  ;
N620 G2X1301.17Y1954.5I0J0.95  ;
N621 G1X1301.17Y1957.45  ;
N622 G1X1343.07Y1957.45  ;
N623 G1X1343.07Y1951.55  ;
N624 G1X1301.17Y1951.55  ;
N625 G1X1301.17Y1954.5  ;
N626 G65 P9104 A101 B02  ;
N627 G0X1300.03Y1865.03  ;
N628 G65 P9102 A101 B02  ;
N629 G1X1297.94Y1867.11  ;
N630 G3X1297.98Y1867.15I6.68J-6.61  ;
N631 G65 P9104 A101 B02  ;
N632 G0X1360.03Y1865.03  ;
N633 G65 P9102 A101 B02  ;
N634 G1X1357.94Y1867.11  ;
N635 G3X1357.98Y1867.15I6.68J-6.61  ;
N636 G65 P9104 A101 B02  ;
N637 G0X1438.97Y2011.21  ;
N638 G65 P9102 A101 B02  ;
N639 G1X1436.88Y2013.29  ;
N640 G3X1436.92Y2013.33I6.37J-6.29  ;
N641 G65 P9104 A101 B02  ;
N642 G0X1178.48Y1801.95  ;
N643 G65 P9102 A101 B02  ;
N644 G1X1176.39Y1804.04  ;
N645 G3X1176.43Y1804.07I3.61J-3.54  ;
N646 G65 P9104 A101 B02  ;
N647 G0X1300.03Y1690.03  ;
N648 G65 P9102 A101 B02  ;
N649 G1X1297.94Y1692.11  ;
N650 G3X1297.98Y1692.15I6.68J-6.61  ;
N651 G65 P9104 A101 B02  ;
N652 G0X1360.03Y1690.03  ;
N653 G65 P9102 A101 B02  ;
N654 G1X1357.94Y1692.11  ;
N655 G3X1357.98Y1692.15I6.68J-6.61  ;
N656 G65 P9104 A101 B02  ;
N657 G0X1305.12Y1579.05  ;
N658 G65 P9102 A101 B02  ;
N659 G1X1302.12Y1579.05  ;
N660 G2X1301.17Y1580I0J0.95  ;
N661 G1X1301.17Y1582.95  ;
N662 G1X1343.07Y1582.95  ;
N663 G1X1343.07Y1577.05  ;
N664 G1X1301.17Y1577.05  ;
N665 G1X1301.17Y1580  ;
N666 G65 P9104 A101 B02  ;
N667 G0X1223.14Y1478.29  ;
N668 G65 P9102 A101 B02  ;
N669 G1X1221.05Y1480.38  ;
N670 G3X1221.09Y1480.41I4.95J-4.88  ;
N671 G65 P9104 A101 B02  ;
N672 G0X1317.53Y1437.53  ;
N673 G65 P9102 A101 B02  ;
N674 G1X1315.44Y1439.61  ;
N675 G3X1315.48Y1439.65I6.68J-6.61  ;
N676 G65 P9104 A101 B02  ;
N677 G0X1175.67Y1119.76  ;
N678 G65 P9102 A101 B02  ;
N679 G1X1173.58Y1121.85  ;
N680 G3X1173.62Y1121.88I4.42J-4.35  ;
N681 G65 P9104 A101 B02  ;
N682 G0X1223.14Y1028.29  ;
N683 G65 P9102 A101 B02  ;
N684 G1X1221.05Y1030.38  ;
N685 G3X1221.09Y1030.41I4.95J-4.88  ;
N686 G65 P9104 A101 B02  ;
N687 G0X1305.12Y990.05  ;
N688 G65 P9102 A101 B02  ;
N689 G1X1302.12Y990.05  ;
N690 G2X1301.17Y991I0J0.95  ;
N691 G1X1301.17Y993.95  ;
N692 G1X1343.07Y993.95  ;
N693 G1X1343.07Y988.05  ;
N694 G1X1301.17Y988.05  ;
N695 G1X1301.17Y991  ;
N696 G65 P9104 A101 B02  ;
N697 G0X1175.67Y935.76  ;
N698 G65 P9102 A101 B02  ;
N699 G1X1173.58Y937.85  ;
N700 G3X1173.62Y937.88I4.42J-4.35  ;
N701 G65 P9104 A101 B02  ;
N702 G0X1317.53Y622.53  ;
N703 G65 P9102 A101 B02  ;
N704 G1X1315.44Y624.61  ;
N705 G3X1315.48Y624.65I6.68J-6.61  ;
N706 G65 P9104 A101 B02  ;
N707 G0X1223.14Y578.29  ;
N708 G65 P9102 A101 B02  ;
N709 G1X1221.05Y580.38  ;
N710 G3X1221.09Y580.41I4.95J-4.88  ;
N711 G65 P9104 A101 B02  ;
N712 G0X1305.12Y427.05  ;
N713 G65 P9102 A101 B02  ;
N714 G1X1302.12Y427.05  ;
N715 G2X1301.17Y428I0J0.95  ;
N716 G1X1301.17Y430.95  ;
N717 G1X1343.07Y430.95  ;
N718 G1X1343.07Y425.05  ;
N719 G1X1301.17Y425.05  ;
N720 G1X1301.17Y428  ;
N721 G65 P9104 A101 B02  ;
N722 G0X1300.03Y370.03  ;
N723 G65 P9102 A101 B02  ;
N724 G1X1297.94Y372.11  ;
N725 G3X1297.98Y372.15I6.68J-6.61  ;
N726 G65 P9104 A101 B02  ;
N727 G0X1360.03Y370.03  ;
N728 G65 P9102 A101 B02  ;
N729 G1X1357.94Y372.11  ;
N730 G3X1357.98Y372.15I6.68J-6.61  ;
N731 G65 P9104 A101 B02  ;
N732 G0X1178.48Y251.95  ;
N733 G65 P9102 A101 B02  ;
N734 G1X1176.39Y254.04  ;
N735 G3X1176.43Y254.07I3.61J-3.54  ;
N736 G65 P9104 A101 B02  ;
N737 G0X1175.67Y152.76  ;
N738 G65 P9102 A101 B02  ;
N739 G1X1173.58Y154.85  ;
N740 G3X1173.62Y154.88I4.42J-4.35  ;
N741 G65 P9104 A101 B02  ;
N742 G0X1223.14Y128.29  ;
N743 G65 P9102 A101 B02  ;
N744 G1X1221.05Y130.38  ;
N745 G3X1221.09Y130.41I4.95J-4.88  ;
N746 G65 P9104 A101 B02  ;
N747 G0X1300.03Y195.03  ;
N748 G65 P9102 A101 B02  ;
N749 G1X1297.94Y197.11  ;
N750 G3X1297.98Y197.15I6.68J-6.61  ;
N751 G65 P9104 A101 B02  ;
N752 G0X1360.03Y195.03  ;
N753 G65 P9102 A101 B02  ;
N754 G1X1357.94Y197.11  ;
N755 G3X1357.98Y197.15I6.68J-6.61  ;
N756 G65 P9104 A101 B02  ;
N757 G0X1305.12Y96.55  ;
N758 G65 P9102 A101 B02  ;
N759 G1X1302.12Y96.55  ;
N760 G2X1301.17Y97.5I0J0.95  ;
N761 G1X1301.17Y100.45  ;
N762 G1X1343.07Y100.45  ;
N763 G1X1343.07Y94.55  ;
N764 G1X1301.17Y94.55  ;
N765 G1X1301.17Y97.5  ;
N766 G65 P9104 A101 B02  ;
N767 G0X1438.97Y48.21  ;
N768 G65 P9102 A101 B02  ;
N769 G1X1436.88Y50.29  ;
N770 G3X1436.92Y50.33I6.37J-6.29  ;
N771 G65 P9104 A101 B01  ;
N772 G0X1486.25Y14.95  ;
N773 G65 P9102 A101 B01  ;
N774 G1X1483.25Y14.95  ;
N775 G1X1160.95Y14.95  ;
N776 G1X1160.95Y138.5  ;
N777 G1X1166.15Y138.5  ;
N778 G1X1166.15Y143.6  ;
N779 G1X1160.95Y143.6  ;
N780 G1X1160.95Y2037.05  ;
N781 G1X1483.3Y2037.05  ;
N782 G1X1483.3Y143.6  ;
N783 G1X1478.1Y143.6  ;
N784 G1X1478.1Y138.5  ;
N785 G1X1483.3Y138.5  ;
N786 G1X1483.3Y15  ;
N787 G65 P9104 A102 B04  ;
N788 M98 P9103  ;
(P13:ID2:W86011501)  ;
N789 M98 P9101  ;
N790 G0X1042.62Y183.57  ;
N791 G65 P9102 A102 B04  ;
N792 G1X1042.62Y197.43  ;
N793 G1X1030.62Y204.36  ;
N794 G1X1018.62Y197.43  ;
N795 G1X1018.62Y183.57  ;
N796 G1X1030.62Y176.64  ;
N797 G1X1042.62Y183.57  ;
N798 G65 P9104 A102 B04  ;
N799 G0X982.62Y183.57  ;
N800 G65 P9102 A102 B04  ;
N801 G1X982.62Y197.43  ;
N802 G1X970.62Y204.36  ;
N803 G1X958.62Y197.43  ;
N804 G1X958.62Y183.57  ;
N805 G1X970.62Y176.64  ;
N806 G1X982.62Y183.57  ;
N807 G65 P9104 A102 B04  ;
N808 G0X852.5Y155.41  ;
N809 G65 P9102 A102 B04  ;
N810 G1X844Y160.31  ;
N811 G1X835.5Y155.41  ;
N812 G1X835.5Y145.59  ;
N813 G1X844Y140.69  ;
N814 G1X852.5Y145.59  ;
N815 G1X852.5Y155.41  ;
N816 G65 P9104 A102 B04  ;
N817 G0X970.62Y351.64  ;
N818 G65 P9102 A102 B04  ;
N819 G1X982.62Y358.57  ;
N820 G1X982.62Y372.43  ;
N821 G1X970.62Y379.36  ;
N822 G1X958.62Y372.43  ;
N823 G1X958.62Y358.57  ;
N824 G1X970.62Y351.64  ;
N825 G65 P9104 A102 B04  ;
N826 G0X1018.62Y358.57  ;
N827 G65 P9102 A102 B04  ;
N828 G1X1030.62Y351.64  ;
N829 G1X1042.62Y358.57  ;
N830 G1X1042.62Y372.43  ;
N831 G1X1030.62Y379.36  ;
N832 G1X1018.62Y372.43  ;
N833 G1X1018.62Y358.57  ;
N834 G65 P9104 A102 B04  ;
N835 G0X988.12Y604.14  ;
N836 G65 P9102 A102 B04  ;
N837 G1X1000.12Y611.07  ;
N838 G1X1000.12Y624.93  ;
N839 G1X988.12Y631.86  ;
N840 G1X976.12Y624.93  ;
N841 G1X976.12Y611.07  ;
N842 G1X988.12Y604.14  ;
N843 G65 P9104 A102 B04  ;
N844 G0X844Y923.69  ;
N845 G65 P9102 A102 B04  ;
N846 G1X852.5Y928.59  ;
N847 G1X852.5Y938.41  ;
N848 G1X844Y943.31  ;
N849 G1X835.5Y938.41  ;
N850 G1X835.5Y928.59  ;
N851 G1X844Y923.69  ;
N852 G65 P9104 A102 B04  ;
N853 G0X844Y1107.69  ;
N854 G65 P9102 A102 B04  ;
N855 G1X852.5Y1112.59  ;
N856 G1X852.5Y1122.41  ;
N857 G1X844Y1127.31  ;
N858 G1X835.5Y1122.41  ;
N859 G1X835.5Y1112.59  ;
N860 G1X844Y1107.69  ;
N861 G65 P9104 A102 B04  ;
N862 G0X988.12Y1419.14  ;
N863 G65 P9102 A102 B04  ;
N864 G1X1000.12Y1426.07  ;
N865 G1X1000.12Y1439.93  ;
N866 G1X988.12Y1446.86  ;
N867 G1X976.12Y1439.93  ;
N868 G1X976.12Y1426.07  ;
N869 G1X988.12Y1419.14  ;
N870 G65 P9104 A102 B04  ;
N871 G0X1030.62Y1671.64  ;
N872 G65 P9102 A102 B04  ;
N873 G1X1042.62Y1678.57  ;
N874 G1X1042.62Y1692.43  ;
N875 G1X1030.62Y1699.36  ;
N876 G1X1018.62Y1692.43  ;
N877 G1X1018.62Y1678.57  ;
N878 G1X1030.62Y1671.64  ;
N879 G65 P9104 A102 B04  ;
N880 G0X982.62Y1678.57  ;
N881 G65 P9102 A102 B04  ;
N882 G1X982.62Y1692.43  ;
N883 G1X970.62Y1699.36  ;
N884 G1X958.62Y1692.43  ;
N885 G1X958.62Y1678.57  ;
N886 G1X970.62Y1671.64  ;
N887 G1X982.62Y1678.57  ;
N888 G65 P9104 A102 B04  ;
N889 G0X970.62Y1846.64  ;
N890 G65 P9102 A102 B04  ;
N891 G1X982.62Y1853.57  ;
N892 G1X982.62Y1867.43  ;
N893 G1X970.62Y1874.36  ;
N894 G1X958.62Y1867.43  ;
N895 G1X958.62Y1853.57  ;
N896 G1X970.62Y1846.64  ;
N897 G65 P9104 A102 B04  ;
N898 G0X1018.62Y1853.57  ;
N899 G65 P9102 A102 B04  ;
N900 G1X1030.62Y1846.64  ;
N901 G1X1042.62Y1853.57  ;
N902 G1X1042.62Y1867.43  ;
N903 G1X1030.62Y1874.36  ;
N904 G1X1018.62Y1867.43  ;
N905 G1X1018.62Y1853.57  ;
N906 G65 P9104 A102 B04  ;
N907 G0X852.5Y1895.59  ;
N908 G65 P9102 A102 B04  ;
N909 G1X852.5Y1905.41  ;
N910 G1X844Y1910.31  ;
N911 G1X835.5Y1905.41  ;
N912 G1X835.5Y1895.59  ;
N913 G1X844Y1890.69  ;
N914 G1X852.5Y1895.59  ;
N915 G65 P9104 A101 B02  ;
N916 G0X841.67Y1902.76  ;
N917 G65 P9102 A101 B02  ;
N918 G1X839.58Y1904.85  ;
N919 G3X839.62Y1904.88I4.42J-4.35  ;
N920 G65 P9104 A101 B02  ;
N921 G0X889.14Y1928.29  ;
N922 G65 P9102 A101 B02  ;
N923 G1X887.05Y1930.38  ;
N924 G3X887.09Y1930.41I4.95J-4.88  ;
N925 G65 P9104 A101 B02  ;
N926 G0X971.12Y1953.55  ;
N927 G65 P9102 A101 B02  ;
N928 G1X968.12Y1953.55  ;
N929 G2X967.17Y1954.5I0J0.95  ;
N930 G1X967.17Y1957.45  ;
N931 G1X1009.07Y1957.45  ;
N932 G1X1009.07Y1951.55  ;
N933 G1X967.17Y1951.55  ;
N934 G1X967.17Y1954.5  ;
N935 G65 P9104 A101 B02  ;
N936 G0X966.03Y1865.03  ;
N937 G65 P9102 A101 B02  ;
N938 G1X963.94Y1867.11  ;
N939 G3X963.98Y1867.15I6.68J-6.61  ;
N940 G65 P9104 A101 B02  ;
N941 G0X1026.03Y1865.03  ;
N942 G65 P9102 A101 B02  ;
N943 G1X1023.94Y1867.11  ;
N944 G3X1023.98Y1867.15I6.68J-6.61  ;
N945 G65 P9104 A101 B02  ;
N946 G0X1104.97Y2011.21  ;
N947 G65 P9102 A101 B02  ;
N948 G1X1102.88Y2013.29  ;
N949 G3X1102.92Y2013.33I6.37J-6.29  ;
N950 G65 P9104 A101 B02  ;
N951 G0X844.48Y1801.95  ;
N952 G65 P9102 A101 B02  ;
N953 G1X842.39Y1804.04  ;
N954 G3X842.43Y1804.07I3.61J-3.54  ;
N955 G65 P9104 A101 B02  ;
N956 G0X966.03Y1690.03  ;
N957 G65 P9102 A101 B02  ;
N958 G1X963.94Y1692.11  ;
N959 G3X963.98Y1692.15I6.68J-6.61  ;
N960 G65 P9104 A101 B02  ;
N961 G0X1026.03Y1690.03  ;
N962 G65 P9102 A101 B02  ;
N963 G1X1023.94Y1692.11  ;
N964 G3X1023.98Y1692.15I6.68J-6.61  ;
N965 G65 P9104 A101 B02  ;
N966 G0X971.12Y1579.05  ;
N967 G65 P9102 A101 B02  ;
N968 G1X968.12Y1579.05  ;
N969 G2X967.17Y1580I0J0.95  ;
N970 G1X967.17Y1582.95  ;
N971 G1X1009.07Y1582.95  ;
N972 G1X1009.07Y1577.05  ;
N973 G1X967.17Y1577.05  ;
N974 G1X967.17Y1580  ;
N975 G65 P9104 A101 B02  ;
N976 G0X889.14Y1478.29  ;
N977 G65 P9102 A101 B02  ;
N978 G1X887.05Y1480.38  ;
N979 G3X887.09Y1480.41I4.95J-4.88  ;
N980 G65 P9104 A101 B02  ;
N981 G0X983.53Y1437.53  ;
N982 G65 P9102 A101 B02  ;
N983 G1X981.44Y1439.61  ;
N984 G3X981.48Y1439.65I6.68J-6.61  ;
N985 G65 P9104 A101 B02  ;
N986 G0X841.67Y1119.76  ;
N987 G65 P9102 A101 B02  ;
N988 G1X839.58Y1121.85  ;
N989 G3X839.62Y1121.88I4.42J-4.35  ;
N990 G65 P9104 A101 B02  ;
N991 G0X889.14Y1028.29  ;
N992 G65 P9102 A101 B02  ;
N993 G1X887.05Y1030.38  ;
N994 G3X887.09Y1030.41I4.95J-4.88  ;
N995 G65 P9104 A101 B02  ;
N996 G0X971.12Y990.05  ;
N997 G65 P9102 A101 B02  ;
N998 G1X968.12Y990.05  ;
N999 G2X967.17Y991I0J0.95  ;
N1000 G1X967.17Y993.95  ;
N1001 G1X1009.07Y993.95  ;
N1002 G1X1009.07Y988.05  ;
N1003 G1X967.17Y988.05  ;
N1004 G1X967.17Y991  ;
N1005 G65 P9104 A101 B02  ;
N1006 G0X841.67Y935.76  ;
N1007 G65 P9102 A101 B02  ;
N1008 G1X839.58Y937.85  ;
N1009 G3X839.62Y937.88I4.42J-4.35  ;
N1010 G65 P9104 A101 B02  ;
N1011 G0X983.53Y622.53  ;
N1012 G65 P9102 A101 B02  ;
N1013 G1X981.44Y624.61  ;
N1014 G3X981.48Y624.65I6.68J-6.61  ;
N1015 G65 P9104 A101 B02  ;
N1016 G0X889.14Y578.29  ;
N1017 G65 P9102 A101 B02  ;
N1018 G1X887.05Y580.38  ;
N1019 G3X887.09Y580.41I4.95J-4.88  ;
N1020 G65 P9104 A101 B02  ;
N1021 G0X971.12Y427.05  ;
N1022 G65 P9102 A101 B02  ;
N1023 G1X968.12Y427.05  ;
N1024 G2X967.17Y428I0J0.95  ;
N1025 G1X967.17Y430.95  ;
N1026 G1X1009.07Y430.95  ;
N1027 G1X1009.07Y425.05  ;
N1028 G1X967.17Y425.05  ;
N1029 G1X967.17Y428  ;
N1030 G65 P9104 A101 B02  ;
N1031 G0X966.03Y370.03  ;
N1032 G65 P9102 A101 B02  ;
N1033 G1X963.94Y372.11  ;
N1034 G3X963.98Y372.15I6.68J-6.61  ;
N1035 G65 P9104 A101 B02  ;
N1036 G0X1026.03Y370.03  ;
N1037 G65 P9102 A101 B02  ;
N1038 G1X1023.94Y372.11  ;
N1039 G3X1023.98Y372.15I6.68J-6.61  ;
N1040 G65 P9104 A101 B02  ;
N1041 G0X844.48Y251.95  ;
N1042 G65 P9102 A101 B02  ;
N1043 G1X842.39Y254.04  ;
N1044 G3X842.43Y254.07I3.61J-3.54  ;
N1045 G65 P9104 A101 B02  ;
N1046 G0X841.67Y152.76  ;
N1047 G65 P9102 A101 B02  ;
N1048 G1X839.58Y154.85  ;
N1049 G3X839.62Y154.88I4.42J-4.35  ;
N1050 G65 P9104 A101 B02  ;
N1051 G0X889.14Y128.29  ;
N1052 G65 P9102 A101 B02  ;
N1053 G1X887.05Y130.38  ;
N1054 G3X887.09Y130.41I4.95J-4.88  ;
N1055 G65 P9104 A101 B02  ;
N1056 G0X966.03Y195.03  ;
N1057 G65 P9102 A101 B02  ;
N1058 G1X963.94Y197.11  ;
N1059 G3X963.98Y197.15I6.68J-6.61  ;
N1060 G65 P9104 A101 B02  ;
N1061 G0X1026.03Y195.03  ;
N1062 G65 P9102 A101 B02  ;
N1063 G1X1023.94Y197.11  ;
N1064 G3X1023.98Y197.15I6.68J-6.61  ;
N1065 G65 P9104 A101 B02  ;
N1066 G0X971.12Y96.55  ;
N1067 G65 P9102 A101 B02  ;
N1068 G1X968.12Y96.55  ;
N1069 G2X967.17Y97.5I0J0.95  ;
N1070 G1X967.17Y100.45  ;
N1071 G1X1009.07Y100.45  ;
N1072 G1X1009.07Y94.55  ;
N1073 G1X967.17Y94.55  ;
N1074 G1X967.17Y97.5  ;
N1075 G65 P9104 A101 B02  ;
N1076 G0X1104.97Y48.21  ;
N1077 G65 P9102 A101 B02  ;
N1078 G1X1102.88Y50.29  ;
N1079 G3X1102.92Y50.33I6.37J-6.29  ;
N1080 G65 P9104 A101 B01  ;
N1081 G0X1152.25Y14.95  ;
N1082 G65 P9102 A101 B01  ;
N1083 G1X1149.25Y14.95  ;
N1084 G1X826.95Y14.95  ;
N1085 G1X826.95Y138.5  ;
N1086 G1X832.15Y138.5  ;
N1087 G1X832.15Y143.6  ;
N1088 G1X826.95Y143.6  ;
N1089 G1X826.95Y2037.05  ;
N1090 G1X1149.3Y2037.05  ;
N1091 G1X1149.3Y143.6  ;
N1092 G1X1144.1Y143.6  ;
N1093 G1X1144.1Y138.5  ;
N1094 G1X1149.3Y138.5  ;
N1095 G1X1149.3Y15  ;
N1096 G65 P9104 A102 B04  ;
N1097 M98 P9103  ;
(P14:ID2:W86011501)  ;
N1098 M98 P9101  ;
N1099 G0X708.62Y183.57  ;
N1100 G65 P9102 A102 B04  ;
N1101 G1X708.62Y197.43  ;
N1102 G1X696.62Y204.36  ;
N1103 G1X684.62Y197.43  ;
N1104 G1X684.62Y183.57  ;
N1105 G1X696.62Y176.64  ;
N1106 G1X708.62Y183.57  ;
N1107 G65 P9104 A102 B04  ;
N1108 G0X648.62Y183.57  ;
N1109 G65 P9102 A102 B04  ;
N1110 G1X648.62Y197.43  ;
N1111 G1X636.62Y204.36  ;
N1112 G1X624.62Y197.43  ;
N1113 G1X624.62Y183.57  ;
N1114 G1X636.62Y176.64  ;
N1115 G1X648.62Y183.57  ;
N1116 G65 P9104 A102 B04  ;
N1117 G0X518.5Y155.41  ;
N1118 G65 P9102 A102 B04  ;
N1119 G1X510Y160.31  ;
N1120 G1X501.5Y155.41  ;
N1121 G1X501.5Y145.59  ;
N1122 G1X510Y140.69  ;
N1123 G1X518.5Y145.59  ;
N1124 G1X518.5Y155.41  ;
N1125 G65 P9104 A102 B04  ;
N1126 G0X636.62Y351.64  ;
N1127 G65 P9102 A102 B04  ;
N1128 G1X648.62Y358.57  ;
N1129 G1X648.62Y372.43  ;
N1130 G1X636.62Y379.36  ;
N1131 G1X624.62Y372.43  ;
N1132 G1X624.62Y358.57  ;
N1133 G1X636.62Y351.64  ;
N1134 G65 P9104 A102 B04  ;
N1135 G0X684.62Y358.57  ;
N1136 G65 P9102 A102 B04  ;
N1137 G1X696.62Y351.64  ;
N1138 G1X708.62Y358.57  ;
N1139 G1X708.62Y372.43  ;
N1140 G1X696.62Y379.36  ;
N1141 G1X684.62Y372.43  ;
N1142 G1X684.62Y358.57  ;
N1143 G65 P9104 A102 B04  ;
N1144 G0X654.12Y604.14  ;
N1145 G65 P9102 A102 B04  ;
N1146 G1X666.12Y611.07  ;
N1147 G1X666.12Y624.93  ;
N1148 G1X654.12Y631.86  ;
N1149 G1X642.12Y624.93  ;
N1150 G1X642.12Y611.07  ;
N1151 G1X654.12Y604.14  ;
N1152 G65 P9104 A102 B04  ;
N1153 G0X510Y923.69  ;
N1154 G65 P9102 A102 B04  ;
N1155 G1X518.5Y928.59  ;
N1156 G1X518.5Y938.41  ;
N1157 G1X510Y943.31  ;
N1158 G1X501.5Y938.41  ;
N1159 G1X501.5Y928.59  ;
N1160 G1X510Y923.69  ;
N1161 G65 P9104 A102 B04  ;
N1162 G0X510Y1107.69  ;
N1163 G65 P9102 A102 B04  ;
N1164 G1X518.5Y1112.59  ;
N1165 G1X518.5Y1122.41  ;
N1166 G1X510Y1127.31  ;
N1167 G1X501.5Y1122.41  ;
N1168 G1X501.5Y1112.59  ;
N1169 G1X510Y1107.69  ;
N1170 G65 P9104 A102 B04  ;
N1171 G0X654.12Y1419.14  ;
N1172 G65 P9102 A102 B04  ;
N1173 G1X666.12Y1426.07  ;
N1174 G1X666.12Y1439.93  ;
N1175 G1X654.12Y1446.86  ;
N1176 G1X642.12Y1439.93  ;
N1177 G1X642.12Y1426.07  ;
N1178 G1X654.12Y1419.14  ;
N1179 G65 P9104 A102 B04  ;
N1180 G0X696.62Y1671.64  ;
N1181 G65 P9102 A102 B04  ;
N1182 G1X708.62Y1678.57  ;
N1183 G1X708.62Y1692.43  ;
N1184 G1X696.62Y1699.36  ;
N1185 G1X684.62Y1692.43  ;
N1186 G1X684.62Y1678.57  ;
N1187 G1X696.62Y1671.64  ;
N1188 G65 P9104 A102 B04  ;
N1189 G0X648.62Y1678.57  ;
N1190 G65 P9102 A102 B04  ;
N1191 G1X648.62Y1692.43  ;
N1192 G1X636.62Y1699.36  ;
N1193 G1X624.62Y1692.43  ;
N1194 G1X624.62Y1678.57  ;
N1195 G1X636.62Y1671.64  ;
N1196 G1X648.62Y1678.57  ;
N1197 G65 P9104 A102 B04  ;
N1198 G0X636.62Y1846.64  ;
N1199 G65 P9102 A102 B04  ;
N1200 G1X648.62Y1853.57  ;
N1201 G1X648.62Y1867.43  ;
N1202 G1X636.62Y1874.36  ;
N1203 G1X624.62Y1867.43  ;
N1204 G1X624.62Y1853.57  ;
N1205 G1X636.62Y1846.64  ;
N1206 G65 P9104 A102 B04  ;
N1207 G0X684.62Y1853.57  ;
N1208 G65 P9102 A102 B04  ;
N1209 G1X696.62Y1846.64  ;
N1210 G1X708.62Y1853.57  ;
N1211 G1X708.62Y1867.43  ;
N1212 G1X696.62Y1874.36  ;
N1213 G1X684.62Y1867.43  ;
N1214 G1X684.62Y1853.57  ;
N1215 G65 P9104 A102 B04  ;
N1216 G0X518.5Y1895.59  ;
N1217 G65 P9102 A102 B04  ;
N1218 G1X518.5Y1905.41  ;
N1219 G1X510Y1910.31  ;
N1220 G1X501.5Y1905.41  ;
N1221 G1X501.5Y1895.59  ;
N1222 G1X510Y1890.69  ;
N1223 G1X518.5Y1895.59  ;
N1224 G65 P9104 A101 B02  ;
N1225 G0X507.67Y1902.76  ;
N1226 G65 P9102 A101 B02  ;
N1227 G1X505.58Y1904.85  ;
N1228 G3X505.62Y1904.88I4.42J-4.35  ;
N1229 G65 P9104 A101 B02  ;
N1230 G0X555.14Y1928.29  ;
N1231 G65 P9102 A101 B02  ;
N1232 G1X553.05Y1930.38  ;
N1233 G3X553.09Y1930.41I4.95J-4.88  ;
N1234 G65 P9104 A101 B02  ;
N1235 G0X637.12Y1953.55  ;
N1236 G65 P9102 A101 B02  ;
N1237 G1X634.12Y1953.55  ;
N1238 G2X633.17Y1954.5I0J0.95  ;
N1239 G1X633.17Y1957.45  ;
N1240 G1X675.07Y1957.45  ;
N1241 G1X675.07Y1951.55  ;
N1242 G1X633.17Y1951.55  ;
N1243 G1X633.17Y1954.5  ;
N1244 G65 P9104 A101 B02  ;
N1245 G0X632.03Y1865.03  ;
N1246 G65 P9102 A101 B02  ;
N1247 G1X629.94Y1867.11  ;
N1248 G3X629.98Y1867.15I6.68J-6.61  ;
N1249 G65 P9104 A101 B02  ;
N1250 G0X692.03Y1865.03  ;
N1251 G65 P9102 A101 B02  ;
N1252 G1X689.94Y1867.11  ;
N1253 G3X689.98Y1867.15I6.68J-6.61  ;
N1254 G65 P9104 A101 B02  ;
N1255 G0X770.97Y2011.21  ;
N1256 G65 P9102 A101 B02  ;
N1257 G1X768.88Y2013.29  ;
N1258 G3X768.92Y2013.33I6.37J-6.29  ;
N1259 G65 P9104 A101 B02  ;
N1260 G0X510.48Y1801.95  ;
N1261 G65 P9102 A101 B02  ;
N1262 G1X508.39Y1804.04  ;
N1263 G3X508.43Y1804.07I3.61J-3.54  ;
N1264 G65 P9104 A101 B02  ;
N1265 G0X632.03Y1690.03  ;
N1266 G65 P9102 A101 B02  ;
N1267 G1X629.94Y1692.11  ;
N1268 G3X629.98Y1692.15I6.68J-6.61  ;
N1269 G65 P9104 A101 B02  ;
N1270 G0X692.03Y1690.03  ;
N1271 G65 P9102 A101 B02  ;
N1272 G1X689.94Y1692.11  ;
N1273 G3X689.98Y1692.15I6.68J-6.61  ;
N1274 G65 P9104 A101 B02  ;
N1275 G0X637.12Y1579.05  ;
N1276 G65 P9102 A101 B02  ;
N1277 G1X634.12Y1579.05  ;
N1278 G2X633.17Y1580I0J0.95  ;
N1279 G1X633.17Y1582.95  ;
N1280 G1X675.07Y1582.95  ;
N1281 G1X675.07Y1577.05  ;
N1282 G1X633.17Y1577.05  ;
N1283 G1X633.17Y1580  ;
N1284 G65 P9104 A101 B02  ;
N1285 G0X555.14Y1478.29  ;
N1286 G65 P9102 A101 B02  ;
N1287 G1X553.05Y1480.38  ;
N1288 G3X553.09Y1480.41I4.95J-4.88  ;
N1289 G65 P9104 A101 B02  ;
N1290 G0X649.53Y1437.53  ;
N1291 G65 P9102 A101 B02  ;
N1292 G1X647.44Y1439.61  ;
N1293 G3X647.48Y1439.65I6.68J-6.61  ;
N1294 G65 P9104 A101 B02  ;
N1295 G0X507.67Y1119.76  ;
N1296 G65 P9102 A101 B02  ;
N1297 G1X505.58Y1121.85  ;
N1298 G3X505.62Y1121.88I4.42J-4.35  ;
N1299 G65 P9104 A101 B02  ;
N1300 G0X555.14Y1028.29  ;
N1301 G65 P9102 A101 B02  ;
N1302 G1X553.05Y1030.38  ;
N1303 G3X553.09Y1030.41I4.95J-4.88  ;
N1304 G65 P9104 A101 B02  ;
N1305 G0X637.12Y990.05  ;
N1306 G65 P9102 A101 B02  ;
N1307 G1X634.12Y990.05  ;
N1308 G2X633.17Y991I0J0.95  ;
N1309 G1X633.17Y993.95  ;
N1310 G1X675.07Y993.95  ;
N1311 G1X675.07Y988.05  ;
N1312 G1X633.17Y988.05  ;
N1313 G1X633.17Y991  ;
N1314 G65 P9104 A101 B02  ;
N1315 G0X507.67Y935.76  ;
N1316 G65 P9102 A101 B02  ;
N1317 G1X505.58Y937.85  ;
N1318 G3X505.62Y937.88I4.42J-4.35  ;
N1319 G65 P9104 A101 B02  ;
N1320 G0X649.53Y622.53  ;
N1321 G65 P9102 A101 B02  ;
N1322 G1X647.44Y624.61  ;
N1323 G3X647.48Y624.65I6.68J-6.61  ;
N1324 G65 P9104 A101 B02  ;
N1325 G0X555.14Y578.29  ;
N1326 G65 P9102 A101 B02  ;
N1327 G1X553.05Y580.38  ;
N1328 G3X553.09Y580.41I4.95J-4.88  ;
N1329 G65 P9104 A101 B02  ;
N1330 G0X637.12Y427.05  ;
N1331 G65 P9102 A101 B02  ;
N1332 G1X634.12Y427.05  ;
N1333 G2X633.17Y428I0J0.95  ;
N1334 G1X633.17Y430.95  ;
N1335 G1X675.07Y430.95  ;
N1336 G1X675.07Y425.05  ;
N1337 G1X633.17Y425.05  ;
N1338 G1X633.17Y428  ;
N1339 G65 P9104 A101 B02  ;
N1340 G0X632.03Y370.03  ;
N1341 G65 P9102 A101 B02  ;
N1342 G1X629.94Y372.11  ;
N1343 G3X629.98Y372.15I6.68J-6.61  ;
N1344 G65 P9104 A101 B02  ;
N1345 G0X692.03Y370.03  ;
N1346 G65 P9102 A101 B02  ;
N1347 G1X689.94Y372.11  ;
N1348 G3X689.98Y372.15I6.68J-6.61  ;
N1349 G65 P9104 A101 B02  ;
N1350 G0X510.48Y251.95  ;
N1351 G65 P9102 A101 B02  ;
N1352 G1X508.39Y254.04  ;
N1353 G3X508.43Y254.07I3.61J-3.54  ;
N1354 G65 P9104 A101 B02  ;
N1355 G0X507.67Y152.76  ;
N1356 G65 P9102 A101 B02  ;
N1357 G1X505.58Y154.85  ;
N1358 G3X505.62Y154.88I4.42J-4.35  ;
N1359 G65 P9104 A101 B02  ;
N1360 G0X555.14Y128.29  ;
N1361 G65 P9102 A101 B02  ;
N1362 G1X553.05Y130.38  ;
N1363 G3X553.09Y130.41I4.95J-4.88  ;
N1364 G65 P9104 A101 B02  ;
N1365 G0X632.03Y195.03  ;
N1366 G65 P9102 A101 B02  ;
N1367 G1X629.94Y197.11  ;
N1368 G3X629.98Y197.15I6.68J-6.61  ;
N1369 G65 P9104 A101 B02  ;
N1370 G0X692.03Y195.03  ;
N1371 G65 P9102 A101 B02  ;
N1372 G1X689.94Y197.11  ;
N1373 G3X689.98Y197.15I6.68J-6.61  ;
N1374 G65 P9104 A101 B02  ;
N1375 G0X637.12Y96.55  ;
N1376 G65 P9102 A101 B02  ;
N1377 G1X634.12Y96.55  ;
N1378 G2X633.17Y97.5I0J0.95  ;
N1379 G1X633.17Y100.45  ;
N1380 G1X675.07Y100.45  ;
N1381 G1X675.07Y94.55  ;
N1382 G1X633.17Y94.55  ;
N1383 G1X633.17Y97.5  ;
N1384 G65 P9104 A101 B02  ;
N1385 G0X770.97Y48.21  ;
N1386 G65 P9102 A101 B02  ;
N1387 G1X768.88Y50.29  ;
N1388 G3X768.92Y50.33I6.37J-6.29  ;
N1389 G65 P9104 A101 B01  ;
N1390 G0X818.25Y14.95  ;
N1391 G65 P9102 A101 B01  ;
N1392 G1X815.25Y14.95  ;
N1393 G1X492.95Y14.95  ;
N1394 G1X492.95Y138.5  ;
N1395 G1X498.15Y138.5  ;
N1396 G1X498.15Y143.6  ;
N1397 G1X492.95Y143.6  ;
N1398 G1X492.95Y2037.05  ;
N1399 G1X815.3Y2037.05  ;
N1400 G1X815.3Y143.6  ;
N1401 G1X810.1Y143.6  ;
N1402 G1X810.1Y138.5  ;
N1403 G1X815.3Y138.5  ;
N1404 G1X815.3Y15  ;
N1405 G65 P9104 A102 B04  ;
N1406 M98 P9103  ;
(P15:ID2:W86011501)  ;
N1407 M98 P9101  ;
N1408 G0X374.62Y183.57  ;
N1409 G65 P9102 A102 B04  ;
N1410 G1X374.62Y197.43  ;
N1411 G1X362.62Y204.36  ;
N1412 G1X350.62Y197.43  ;
N1413 G1X350.62Y183.57  ;
N1414 G1X362.62Y176.64  ;
N1415 G1X374.62Y183.57  ;
N1416 G65 P9104 A102 B04  ;
N1417 G0X314.62Y183.57  ;
N1418 G65 P9102 A102 B04  ;
N1419 G1X314.62Y197.43  ;
N1420 G1X302.62Y204.36  ;
N1421 G1X290.62Y197.43  ;
N1422 G1X290.62Y183.57  ;
N1423 G1X302.62Y176.64  ;
N1424 G1X314.62Y183.57  ;
N1425 G65 P9104 A102 B04  ;
N1426 G0X184.5Y155.41  ;
N1427 G65 P9102 A102 B04  ;
N1428 G1X176Y160.31  ;
N1429 G1X167.5Y155.41  ;
N1430 G1X167.5Y145.59  ;
N1431 G1X176Y140.69  ;
N1432 G1X184.5Y145.59  ;
N1433 G1X184.5Y155.41  ;
N1434 G65 P9104 A102 B04  ;
N1435 G0X302.62Y351.64  ;
N1436 G65 P9102 A102 B04  ;
N1437 G1X314.62Y358.57  ;
N1438 G1X314.62Y372.43  ;
N1439 G1X302.62Y379.36  ;
N1440 G1X290.62Y372.43  ;
N1441 G1X290.62Y358.57  ;
N1442 G1X302.62Y351.64  ;
N1443 G65 P9104 A102 B04  ;
N1444 G0X350.62Y358.57  ;
N1445 G65 P9102 A102 B04  ;
N1446 G1X362.62Y351.64  ;
N1447 G1X374.62Y358.57  ;
N1448 G1X374.62Y372.43  ;
N1449 G1X362.62Y379.36  ;
N1450 G1X350.62Y372.43  ;
N1451 G1X350.62Y358.57  ;
N1452 G65 P9104 A102 B04  ;
N1453 G0X320.12Y604.14  ;
N1454 G65 P9102 A102 B04  ;
N1455 G1X332.12Y611.07  ;
N1456 G1X332.12Y624.93  ;
N1457 G1X320.12Y631.86  ;
N1458 G1X308.12Y624.93  ;
N1459 G1X308.12Y611.07  ;
N1460 G1X320.12Y604.14  ;
N1461 G65 P9104 A102 B04  ;
N1462 G0X176Y923.69  ;
N1463 G65 P9102 A102 B04  ;
N1464 G1X184.5Y928.59  ;
N1465 G1X184.5Y938.41  ;
N1466 G1X176Y943.31  ;
N1467 G1X167.5Y938.41  ;
N1468 G1X167.5Y928.59  ;
N1469 G1X176Y923.69  ;
N1470 G65 P9104 A102 B04  ;
N1471 G0X176Y1107.69  ;
N1472 G65 P9102 A102 B04  ;
N1473 G1X184.5Y1112.59  ;
N1474 G1X184.5Y1122.41  ;
N1475 G1X176Y1127.31  ;
N1476 G1X167.5Y1122.41  ;
N1477 G1X167.5Y1112.59  ;
N1478 G1X176Y1107.69  ;
N1479 G65 P9104 A102 B04  ;
N1480 G0X320.12Y1419.14  ;
N1481 G65 P9102 A102 B04  ;
N1482 G1X332.12Y1426.07  ;
N1483 G1X332.12Y1439.93  ;
N1484 G1X320.12Y1446.86  ;
N1485 G1X308.12Y1439.93  ;
N1486 G1X308.12Y1426.07  ;
N1487 G1X320.12Y1419.14  ;
N1488 G65 P9104 A102 B04  ;
N1489 G0X362.62Y1671.64  ;
N1490 G65 P9102 A102 B04  ;
N1491 G1X374.62Y1678.57  ;
N1492 G1X374.62Y1692.43  ;
N1493 G1X362.62Y1699.36  ;
N1494 G1X350.62Y1692.43  ;
N1495 G1X350.62Y1678.57  ;
N1496 G1X362.62Y1671.64  ;
N1497 G65 P9104 A102 B04  ;
N1498 G0X314.62Y1678.57  ;
N1499 G65 P9102 A102 B04  ;
N1500 G1X314.62Y1692.43  ;
N1501 G1X302.62Y1699.36  ;
N1502 G1X290.62Y1692.43  ;
N1503 G1X290.62Y1678.57  ;
N1504 G1X302.62Y1671.64  ;
N1505 G1X314.62Y1678.57  ;
N1506 G65 P9104 A102 B04  ;
N1507 G0X302.62Y1846.64  ;
N1508 G65 P9102 A102 B04  ;
N1509 G1X314.62Y1853.57  ;
N1510 G1X314.62Y1867.43  ;
N1511 G1X302.62Y1874.36  ;
N1512 G1X290.62Y1867.43  ;
N1513 G1X290.62Y1853.57  ;
N1514 G1X302.62Y1846.64  ;
N1515 G65 P9104 A102 B04  ;
N1516 G0X350.62Y1853.57  ;
N1517 G65 P9102 A102 B04  ;
N1518 G1X362.62Y1846.64  ;
N1519 G1X374.62Y1853.57  ;
N1520 G1X374.62Y1867.43  ;
N1521 G1X362.62Y1874.36  ;
N1522 G1X350.62Y1867.43  ;
N1523 G1X350.62Y1853.57  ;
N1524 G65 P9104 A102 B04  ;
N1525 G0X184.5Y1895.59  ;
N1526 G65 P9102 A102 B04  ;
N1527 G1X184.5Y1905.41  ;
N1528 G1X176Y1910.31  ;
N1529 G1X167.5Y1905.41  ;
N1530 G1X167.5Y1895.59  ;
N1531 G1X176Y1890.69  ;
N1532 G1X184.5Y1895.59  ;
N1533 G65 P9104 A101 B02  ;
N1534 G0X173.67Y1902.76  ;
N1535 G65 P9102 A101 B02  ;
N1536 G1X171.58Y1904.85  ;
N1537 G3X171.62Y1904.88I4.42J-4.35  ;
N1538 G65 P9104 A101 B02  ;
N1539 G0X221.14Y1928.29  ;
N1540 G65 P9102 A101 B02  ;
N1541 G1X219.05Y1930.38  ;
N1542 G3X219.09Y1930.41I4.95J-4.88  ;
N1543 G65 P9104 A101 B02  ;
N1544 G0X303.12Y1953.55  ;
N1545 G65 P9102 A101 B02  ;
N1546 G1X300.12Y1953.55  ;
N1547 G2X299.17Y1954.5I0J0.95  ;
N1548 G1X299.17Y1957.45  ;
N1549 G1X341.07Y1957.45  ;
N1550 G1X341.07Y1951.55  ;
N1551 G1X299.17Y1951.55  ;
N1552 G1X299.17Y1954.5  ;
N1553 G65 P9104 A101 B02  ;
N1554 G0X298.03Y1865.03  ;
N1555 G65 P9102 A101 B02  ;
N1556 G1X295.94Y1867.11  ;
N1557 G3X295.98Y1867.15I6.68J-6.61  ;
N1558 G65 P9104 A101 B02  ;
N1559 G0X358.03Y1865.03  ;
N1560 G65 P9102 A101 B02  ;
N1561 G1X355.94Y1867.11  ;
N1562 G3X355.98Y1867.15I6.68J-6.61  ;
N1563 G65 P9104 A101 B02  ;
N1564 G0X436.97Y2011.21  ;
N1565 G65 P9102 A101 B02  ;
N1566 G1X434.88Y2013.29  ;
N1567 G3X434.92Y2013.33I6.37J-6.29  ;
N1568 G65 P9104 A101 B02  ;
N1569 G0X176.48Y1801.95  ;
N1570 G65 P9102 A101 B02  ;
N1571 G1X174.39Y1804.04  ;
N1572 G3X174.43Y1804.07I3.61J-3.54  ;
N1573 G65 P9104 A101 B02  ;
N1574 G0X298.03Y1690.03  ;
N1575 G65 P9102 A101 B02  ;
N1576 G1X295.94Y1692.11  ;
N1577 G3X295.98Y1692.15I6.68J-6.61  ;
N1578 G65 P9104 A101 B02  ;
N1579 G0X358.03Y1690.03  ;
N1580 G65 P9102 A101 B02  ;
N1581 G1X355.94Y1692.11  ;
N1582 G3X355.98Y1692.15I6.68J-6.61  ;
N1583 G65 P9104 A101 B02  ;
N1584 G0X303.12Y1579.05  ;
N1585 G65 P9102 A101 B02  ;
N1586 G1X300.12Y1579.05  ;
N1587 G2X299.17Y1580I0J0.95  ;
N1588 G1X299.17Y1582.95  ;
N1589 G1X341.07Y1582.95  ;
N1590 G1X341.07Y1577.05  ;
N1591 G1X299.17Y1577.05  ;
N1592 G1X299.17Y1580  ;
N1593 G65 P9104 A101 B02  ;
N1594 G0X221.14Y1478.29  ;
N1595 G65 P9102 A101 B02  ;
N1596 G1X219.05Y1480.38  ;
N1597 G3X219.09Y1480.41I4.95J-4.88  ;
N1598 G65 P9104 A101 B02  ;
N1599 G0X315.53Y1437.53  ;
N1600 G65 P9102 A101 B02  ;
N1601 G1X313.44Y1439.61  ;
N1602 G3X313.48Y1439.65I6.68J-6.61  ;
N1603 G65 P9104 A101 B02  ;
N1604 G0X173.67Y1119.76  ;
N1605 G65 P9102 A101 B02  ;
N1606 G1X171.58Y1121.85  ;
N1607 G3X171.62Y1121.88I4.42J-4.35  ;
N1608 G65 P9104 A101 B02  ;
N1609 G0X221.14Y1028.29  ;
N1610 G65 P9102 A101 B02  ;
N1611 G1X219.05Y1030.38  ;
N1612 G3X219.09Y1030.41I4.95J-4.88  ;
N1613 G65 P9104 A101 B02  ;
N1614 G0X303.12Y990.05  ;
N1615 G65 P9102 A101 B02  ;
N1616 G1X300.12Y990.05  ;
N1617 G2X299.17Y991I0J0.95  ;
N1618 G1X299.17Y993.95  ;
N1619 G1X341.07Y993.95  ;
N1620 G1X341.07Y988.05  ;
N1621 G1X299.17Y988.05  ;
N1622 G1X299.17Y991  ;
N1623 G65 P9104 A101 B02  ;
N1624 G0X173.67Y935.76  ;
N1625 G65 P9102 A101 B02  ;
N1626 G1X171.58Y937.85  ;
N1627 G3X171.62Y937.88I4.42J-4.35  ;
N1628 G65 P9104 A101 B02  ;
N1629 G0X315.53Y622.53  ;
N1630 G65 P9102 A101 B02  ;
N1631 G1X313.44Y624.61  ;
N1632 G3X313.48Y624.65I6.68J-6.61  ;
N1633 G65 P9104 A101 B02  ;
N1634 G0X221.14Y578.29  ;
N1635 G65 P9102 A101 B02  ;
N1636 G1X219.05Y580.38  ;
N1637 G3X219.09Y580.41I4.95J-4.88  ;
N1638 G65 P9104 A101 B02  ;
N1639 G0X303.12Y427.05  ;
N1640 G65 P9102 A101 B02  ;
N1641 G1X300.12Y427.05  ;
N1642 G2X299.17Y428I0J0.95  ;
N1643 G1X299.17Y430.95  ;
N1644 G1X341.07Y430.95  ;
N1645 G1X341.07Y425.05  ;
N1646 G1X299.17Y425.05  ;
N1647 G1X299.17Y428  ;
N1648 G65 P9104 A101 B02  ;
N1649 G0X298.03Y370.03  ;
N1650 G65 P9102 A101 B02  ;
N1651 G1X295.94Y372.11  ;
N1652 G3X295.98Y372.15I6.68J-6.61  ;
N1653 G65 P9104 A101 B02  ;
N1654 G0X358.03Y370.03  ;
N1655 G65 P9102 A101 B02  ;
N1656 G1X355.94Y372.11  ;
N1657 G3X355.98Y372.15I6.68J-6.61  ;
N1658 G65 P9104 A101 B02  ;
N1659 G0X176.48Y251.95  ;
N1660 G65 P9102 A101 B02  ;
N1661 G1X174.39Y254.04  ;
N1662 G3X174.43Y254.07I3.61J-3.54  ;
N1663 G65 P9104 A101 B02  ;
N1664 G0X173.67Y152.76  ;
N1665 G65 P9102 A101 B02  ;
N1666 G1X171.58Y154.85  ;
N1667 G3X171.62Y154.88I4.42J-4.35  ;
N1668 G65 P9104 A101 B02  ;
N1669 G0X221.14Y128.29  ;
N1670 G65 P9102 A101 B02  ;
N1671 G1X219.05Y130.38  ;
N1672 G3X219.09Y130.41I4.95J-4.88  ;
N1673 G65 P9104 A101 B02  ;
N1674 G0X298.03Y195.03  ;
N1675 G65 P9102 A101 B02  ;
N1676 G1X295.94Y197.11  ;
N1677 G3X295.98Y197.15I6.68J-6.61  ;
N1678 G65 P9104 A101 B02  ;
N1679 G0X358.03Y195.03  ;
N1680 G65 P9102 A101 B02  ;
N1681 G1X355.94Y197.11  ;
N1682 G3X355.98Y197.15I6.68J-6.61  ;
N1683 G65 P9104 A101 B02  ;
N1684 G0X303.12Y96.55  ;
N1685 G65 P9102 A101 B02  ;
N1686 G1X300.12Y96.55  ;
N1687 G2X299.17Y97.5I0J0.95  ;
N1688 G1X299.17Y100.45  ;
N1689 G1X341.07Y100.45  ;
N1690 G1X341.07Y94.55  ;
N1691 G1X299.17Y94.55  ;
N1692 G1X299.17Y97.5  ;
N1693 G65 P9104 A101 B02  ;
N1694 G0X436.97Y48.21  ;
N1695 G65 P9102 A101 B02  ;
N1696 G1X434.88Y50.29  ;
N1697 G3X434.92Y50.33I6.37J-6.29  ;
N1698 G65 P9104 A101 B01  ;
N1699 G0X484.25Y14.95  ;
N1700 G65 P9102 A101 B01  ;
N1701 G1X481.25Y14.95  ;
N1702 G1X158.95Y14.95  ;
N1703 G1X158.95Y138.5  ;
N1704 G1X164.15Y138.5  ;
N1705 G1X164.15Y143.6  ;
N1706 G1X158.95Y143.6  ;
N1707 G1X158.95Y2037.05  ;
N1708 G1X481.3Y2037.05  ;
N1709 G1X481.3Y143.6  ;
N1710 G1X476.1Y143.6  ;
N1711 G1X476.1Y138.5  ;
N1712 G1X481.3Y138.5  ;
N1713 G1X481.3Y15  ;
N1714 G65 P9104 A101 B01  ;
N1715 M98 P9103  ;
(P16:ID1:W86011517)  ;
N1716 M98 P9101  ;
N1717 G0X64.99Y1897.48  ;
N1718 G65 P9102 A101 B01  ;
N1719 G1X69.93Y1897.2  ;
N1720 G3X55Y1912.95I-14.93J0.8  ;
N1721 G1X51.98Y1912.95  ;
N1722 G1X50.95Y1913.98  ;
N1723 G1X50.95Y1917.02  ;
N1724 G1X51.98Y1918.05  ;
N1725 G1X54.95Y1918.05  ;
N1726 G1X54.95Y1939.95  ;
N1727 G1X54.45Y1939.95  ;
N1728 G1X54.45Y1943.05  ;
N1729 G1X54.98Y1943.05  ;
N1730 G1X82.98Y1972.05  ;
N1731 G1X125.95Y1972.05  ;
N1732 G1X125.95Y1972.55  ;
N1733 G1X128.95Y1972.55  ;
N1734 G1X128.95Y1977.55  ;
N1735 G1X134.05Y1977.55  ;
N1736 G1X134.05Y1818.45  ;
N1737 G1X128.95Y1818.45  ;
N1738 G1X128.95Y1823.45  ;
N1739 G1X125.95Y1823.45  ;
N1740 G1X125.95Y1823.95  ;
N1741 G1X82.98Y1823.95  ;
N1742 G1X54.98Y1852.95  ;
N1743 G1X54.45Y1852.95  ;
N1744 G1X54.45Y1856.05  ;
N1745 G1X54.95Y1856.05  ;
N1746 G1X54.95Y1883.05  ;
N1747 G3X69.87Y1896.5I0.05J14.95  ;
N1748 G65 P9104 A102 B04  ;
N1749 M98 P9103  ;
(P17:ID3:W86011506)  ;
N1750 M98 P9101  ;
N1751 G0X606.82Y2202.49  ;
N1752 G65 P9102 A102 B04  ;
N1753 G1X604.77Y2202.49  ;
N1754 G65 P9104 A102 B04  ;
N1755 G0X603.87Y2202.49  ;
N1756 G65 P9102 A102 B04  ;
N1757 G1X598.16Y2202.49  ;
N1758 G1X596.73Y2201.07  ;
N1759 G1X596.73Y2199.64  ;
N1760 G1X598.16Y2198.21  ;
N1761 G1X603.87Y2198.21  ;
N1762 G1X603.87Y2192.49  ;
N1763 G1X596.73Y2192.49  ;
N1764 G65 P9104 A102 B04  ;
N1765 G0X595.84Y2193.92  ;
N1766 G65 P9102 A102 B04  ;
N1767 G1X595.84Y2201.07  ;
N1768 G1X594.41Y2202.49  ;
N1769 G1X590.12Y2192.49  ;
N1770 G1X594.41Y2192.49  ;
N1771 G1X595.84Y2193.92  ;
N1772 G65 P9104 A102 B04  ;
N1773 G0X590.12Y2192.49  ;
N1774 G65 P9102 A102 B04  ;
N1775 G1X588.7Y2193.92  ;
N1776 G1X588.7Y2201.07  ;
N1777 G1X590.12Y2202.49  ;
N1778 G1X594.41Y2202.49  ;
N1779 G65 P9104 A102 B04  ;
N1780 G0X587.8Y2198.21  ;
N1781 G65 P9102 A102 B04  ;
N1782 G1X582.09Y2198.21  ;
N1783 G1X580.66Y2199.64  ;
N1784 G1X580.66Y2201.07  ;
N1785 G1X582.09Y2202.49  ;
N1786 G1X586.37Y2202.49  ;
N1787 G1X587.8Y2201.07  ;
N1788 G1X587.8Y2193.92  ;
N1789 G1X586.37Y2192.49  ;
N1790 G1X582.09Y2192.49  ;
N1791 G65 P9104 A102 B04  ;
N1792 G0X606.82Y2193.52  ;
N1793 G65 P9102 A102 B04  ;
N1794 G1X605.79Y2192.49  ;
N1795 G1X605.79Y2202.49  ;
N1796 G65 P9104 A101 B01  ;
N1797 G0X700.5Y2193.08  ;
N1798 G65 P9102 A101 B01  ;
N1799 G1X697.55Y2193.08  ;
N1800 G3X697.55Y2193.13I29.95J0.05  ;
N1801 G65 P9104 A101 B01  ;
N1802 G0X450.5Y2193.08  ;
N1803 G65 P9102 A101 B01  ;
N1804 G1X447.55Y2193.08  ;
N1805 G3X447.55Y2193.13I29.95J0.05  ;
N1806 G65 P9104 A101 B01  ;
N1807 G0X924.66Y2231.04  ;
N1808 G65 P9102 A101 B01  ;
N1809 G1X922.54Y2233.16  ;
N1810 G1X888.52Y2267.18  ;
N1811 G1X792.45Y2267.18  ;
N1812 G1X792.45Y2263.18  ;
N1813 G1X789.05Y2263.18  ;
N1814 G1X789.05Y2274.21  ;
N1815 G1X791.55Y2274.21  ;
N1816 G1X791.55Y2333.21  ;
N1817 G1X792.55Y2333.21  ;
N1818 G1X792.55Y2339.31  ;
N1819 G1X376.95Y2339.31  ;
N1820 G1X376.95Y2274.21  ;
N1821 G1X397.95Y2274.21  ;
N1822 G1X397.95Y2263.13  ;
N1823 G2X377.95Y2243.18I-19.95J0  ;
N1824 G1X377.95Y2208.08  ;
N1825 G2X377.95Y2178.18I0.05J-14.95  ;
N1826 G1X377.95Y2143.08  ;
N1827 G2X397.95Y2123.13I0.05J-19.95  ;
N1828 G1X397.95Y2112.05  ;
N1829 G1X376.95Y2112.05  ;
N1830 G1X376.95Y2046.95  ;
N1831 G1X792.55Y2046.95  ;
N1832 G1X792.55Y2053.05  ;
N1833 G1X791.55Y2053.05  ;
N1834 G1X791.55Y2112.05  ;
N1835 G1X789.05Y2112.05  ;
N1836 G1X789.05Y2123.08  ;
N1837 G1X792.45Y2123.08  ;
N1838 G1X792.45Y2119.08  ;
N1839 G1X888.52Y2119.08  ;
N1840 G1X922.55Y2153.11  ;
N1841 G1X922.55Y2173.58  ;
N1842 G1X925Y2173.58  ;
N1843 G3X925.55Y2174.13I0J0.55  ;
N1844 G1X925.55Y2212.13  ;
N1845 G3X925Y2212.68I-0.55J0  ;
N1846 G1X922.55Y2212.68  ;
N1847 G1X922.55Y2233.13  ;
N1848 G65 P9104 A102 B04  ;
N1849 M98 P9103  ;
(P18:ID3:W86011506)  ;
N1850 M98 P9101  ;
N1851 G0X1164.82Y2202.49  ;
N1852 G65 P9102 A102 B04  ;
N1853 G1X1162.77Y2202.49  ;
N1854 G65 P9104 A102 B04  ;
N1855 G0X1161.87Y2202.49  ;
N1856 G65 P9102 A102 B04  ;
N1857 G1X1156.16Y2202.49  ;
N1858 G1X1154.73Y2201.07  ;
N1859 G1X1154.73Y2199.64  ;
N1860 G1X1156.16Y2198.21  ;
N1861 G1X1161.87Y2198.21  ;
N1862 G1X1161.87Y2192.49  ;
N1863 G1X1154.73Y2192.49  ;
N1864 G65 P9104 A102 B04  ;
N1865 G0X1153.84Y2193.92  ;
N1866 G65 P9102 A102 B04  ;
N1867 G1X1153.84Y2201.07  ;
N1868 G1X1152.41Y2202.49  ;
N1869 G1X1148.12Y2192.49  ;
N1870 G1X1152.41Y2192.49  ;
N1871 G1X1153.84Y2193.92  ;
N1872 G65 P9104 A102 B04  ;
N1873 G0X1148.12Y2192.49  ;
N1874 G65 P9102 A102 B04  ;
N1875 G1X1146.7Y2193.92  ;
N1876 G1X1146.7Y2201.07  ;
N1877 G1X1148.12Y2202.49  ;
N1878 G1X1152.41Y2202.49  ;
N1879 G65 P9104 A102 B04  ;
N1880 G0X1145.8Y2198.21  ;
N1881 G65 P9102 A102 B04  ;
N1882 G1X1140.09Y2198.21  ;
N1883 G1X1138.66Y2199.64  ;
N1884 G1X1138.66Y2201.07  ;
N1885 G1X1140.09Y2202.49  ;
N1886 G1X1144.37Y2202.49  ;
N1887 G1X1145.8Y2201.07  ;
N1888 G1X1145.8Y2193.92  ;
N1889 G1X1144.37Y2192.49  ;
N1890 G1X1140.09Y2192.49  ;
N1891 G65 P9104 A102 B04  ;
N1892 G0X1164.82Y2193.52  ;
N1893 G65 P9102 A102 B04  ;
N1894 G1X1163.79Y2192.49  ;
N1895 G1X1163.79Y2202.49  ;
N1896 G65 P9104 A101 B01  ;
N1897 G0X1258.5Y2193.08  ;
N1898 G65 P9102 A101 B01  ;
N1899 G1X1255.55Y2193.08  ;
N1900 G3X1255.55Y2193.13I29.95J0.05  ;
N1901 G65 P9104 A101 B01  ;
N1902 G0X1008.5Y2193.08  ;
N1903 G65 P9102 A101 B01  ;
N1904 G1X1005.55Y2193.08  ;
N1905 G3X1005.55Y2193.13I29.95J0.05  ;
N1906 G65 P9104 A101 B01  ;
N1907 G0X1482.66Y2231.04  ;
N1908 G65 P9102 A101 B01  ;
N1909 G1X1480.54Y2233.16  ;
N1910 G1X1446.52Y2267.18  ;
N1911 G1X1350.45Y2267.18  ;
N1912 G1X1350.45Y2263.18  ;
N1913 G1X1347.05Y2263.18  ;
N1914 G1X1347.05Y2274.21  ;
N1915 G1X1349.55Y2274.21  ;
N1916 G1X1349.55Y2333.21  ;
N1917 G1X1350.55Y2333.21  ;
N1918 G1X1350.55Y2339.31  ;
N1919 G1X934.95Y2339.31  ;
N1920 G1X934.95Y2274.21  ;
N1921 G1X955.95Y2274.21  ;
N1922 G1X955.95Y2263.13  ;
N1923 G2X935.95Y2243.18I-19.95J0  ;
N1924 G1X935.95Y2208.08  ;
N1925 G2X935.95Y2178.18I0.05J-14.95  ;
N1926 G1X935.95Y2143.08  ;
N1927 G2X955.95Y2123.13I0.05J-19.95  ;
N1928 G1X955.95Y2112.05  ;
N1929 G1X934.95Y2112.05  ;
N1930 G1X934.95Y2046.95  ;
N1931 G1X1350.55Y2046.95  ;
N1932 G1X1350.55Y2053.05  ;
N1933 G1X1349.55Y2053.05  ;
N1934 G1X1349.55Y2112.05  ;
N1935 G1X1347.05Y2112.05  ;
N1936 G1X1347.05Y2123.08  ;
N1937 G1X1350.45Y2123.08  ;
N1938 G1X1350.45Y2119.08  ;
N1939 G1X1446.52Y2119.08  ;
N1940 G1X1480.55Y2153.11  ;
N1941 G1X1480.55Y2173.58  ;
N1942 G1X1483Y2173.58  ;
N1943 G3X1483.55Y2174.13I0J0.55  ;
N1944 G1X1483.55Y2212.13  ;
N1945 G3X1483Y2212.68I-0.55J0  ;
N1946 G1X1480.55Y2212.68  ;
N1947 G1X1480.55Y2233.13  ;
N1948 G65 P9104 A102 B04  ;
N1949 M98 P9103  ;
(P19:ID3:W86011506)  ;
N1950 M98 P9101  ;
N1951 G0X189.76Y2276.82  ;
N1952 G65 P9102 A102 B04  ;
N1953 G1X189.76Y2274.77  ;
N1954 G65 P9104 A102 B04  ;
N1955 G0X189.76Y2273.87  ;
N1956 G65 P9102 A102 B04  ;
N1957 G1X189.76Y2268.16  ;
N1958 G1X191.19Y2266.73  ;
N1959 G1X192.62Y2266.73  ;
N1960 G1X194.05Y2268.16  ;
N1961 G1X194.05Y2273.87  ;
N1962 G1X199.76Y2273.87  ;
N1963 G1X199.76Y2266.73  ;
N1964 G65 P9104 A102 B04  ;
N1965 G0X198.33Y2265.84  ;
N1966 G65 P9102 A102 B04  ;
N1967 G1X191.19Y2265.84  ;
N1968 G1X189.76Y2264.41  ;
N1969 G1X199.76Y2260.12  ;
N1970 G1X199.76Y2264.41  ;
N1971 G1X198.33Y2265.84  ;
N1972 G65 P9104 A102 B04  ;
N1973 G0X199.76Y2260.12  ;
N1974 G65 P9102 A102 B04  ;
N1975 G1X198.33Y2258.7  ;
N1976 G1X191.19Y2258.7  ;
N1977 G1X189.76Y2260.12  ;
N1978 G1X189.76Y2264.41  ;
N1979 G65 P9104 A102 B04  ;
N1980 G0X194.05Y2257.8  ;
N1981 G65 P9102 A102 B04  ;
N1982 G1X194.05Y2252.09  ;
N1983 G1X192.62Y2250.66  ;
N1984 G1X191.19Y2250.66  ;
N1985 G1X189.76Y2252.09  ;
N1986 G1X189.76Y2256.37  ;
N1987 G1X191.19Y2257.8  ;
N1988 G1X198.33Y2257.8  ;
N1989 G1X199.76Y2256.37  ;
N1990 G1X199.76Y2252.09  ;
N1991 G65 P9104 A102 B04  ;
N1992 G0X198.74Y2276.82  ;
N1993 G65 P9102 A102 B04  ;
N1994 G1X199.76Y2275.79  ;
N1995 G1X189.76Y2275.79  ;
N1996 G65 P9104 A101 B01  ;
N1997 G0X199.18Y2370.5  ;
N1998 G65 P9102 A101 B01  ;
N1999 G1X199.18Y2367.55  ;
N2000 G3X199.13Y2367.55I-0.05J29.95  ;
N2001 G65 P9104 A101 B01  ;
N2002 G0X199.18Y2120.5  ;
N2003 G65 P9102 A101 B01  ;
N2004 G1X199.18Y2117.55  ;
N2005 G3X199.13Y2117.55I-0.05J29.95  ;
N2006 G65 P9104 A101 B01  ;
N2007 G0X161.21Y2594.66  ;
N2008 G65 P9102 A101 B01  ;
N2009 G1X159.09Y2592.54  ;
N2010 G1X125.08Y2558.52  ;
N2011 G1X125.08Y2462.45  ;
N2012 G1X129.08Y2462.45  ;
N2013 G1X129.08Y2459.05  ;
N2014 G1X118.05Y2459.05  ;
N2015 G1X118.05Y2461.55  ;
N2016 G1X59.05Y2461.55  ;
N2017 G1X59.05Y2462.55  ;
N2018 G1X52.95Y2462.55  ;
N2019 G1X52.95Y2046.95  ;
N2020 G1X118.05Y2046.95  ;
N2021 G1X118.05Y2067.95  ;
N2022 G1X129.13Y2067.95  ;
N2023 G2X149.08Y2047.95I0J-19.95  ;
N2024 G1X184.18Y2047.95  ;
N2025 G2X214.08Y2047.95I14.95J0.05  ;
N2026 G1X249.18Y2047.95  ;
N2027 G2X269.13Y2067.95I19.95J0.05  ;
N2028 G1X280.21Y2067.95  ;
N2029 G1X280.21Y2046.95  ;
N2030 G1X345.31Y2046.95  ;
N2031 G1X345.31Y2462.55  ;
N2032 G1X339.21Y2462.55  ;
N2033 G1X339.21Y2461.55  ;
N2034 G1X280.21Y2461.55  ;
N2035 G1X280.21Y2459.05  ;
N2036 G1X269.18Y2459.05  ;
N2037 G1X269.18Y2462.45  ;
N2038 G1X273.18Y2462.45  ;
N2039 G1X273.18Y2558.52  ;
N2040 G1X239.15Y2592.55  ;
N2041 G1X218.68Y2592.55  ;
N2042 G1X218.68Y2595  ;
N2043 G3X218.13Y2595.55I-0.55J0  ;
N2044 G1X180.13Y2595.55  ;
N2045 G3X179.58Y2595I0J-0.55  ;
N2046 G1X179.58Y2592.55  ;
N2047 G1X159.13Y2592.55  ;
N2048 G65 P9104 A101 B01  ;
N2049 M98 P9103  ;
(P20:ID1:W86011517)  ;
N2050 M98 P9101  ;
N2051 G0X104.99Y2735.98  ;
N2052 G65 P9102 A101 B01  ;
N2053 G1X109.93Y2735.7  ;
N2054 G3X95Y2751.45I-14.93J0.8  ;
N2055 G1X91.98Y2751.45  ;
N2056 G1X90.95Y2752.48  ;
N2057 G1X90.95Y2755.52  ;
N2058 G1X91.98Y2756.55  ;
N2059 G1X94.95Y2756.55  ;
N2060 G1X94.95Y2778.45  ;
N2061 G1X94.45Y2778.45  ;
N2062 G1X94.45Y2781.55  ;
N2063 G1X94.98Y2781.55  ;
N2064 G1X122.98Y2810.55  ;
N2065 G1X165.95Y2810.55  ;
N2066 G1X165.95Y2811.05  ;
N2067 G1X168.95Y2811.05  ;
N2068 G1X168.95Y2816.05  ;
N2069 G1X174.05Y2816.05  ;
N2070 G1X174.05Y2656.95  ;
N2071 G1X168.95Y2656.95  ;
N2072 G1X168.95Y2661.95  ;
N2073 G1X165.95Y2661.95  ;
N2074 G1X165.95Y2662.45  ;
N2075 G1X122.98Y2662.45  ;
N2076 G1X94.98Y2691.45  ;
N2077 G1X94.45Y2691.45  ;
N2078 G1X94.45Y2694.55  ;
N2079 G1X94.95Y2694.55  ;
N2080 G1X94.95Y2721.55  ;
N2081 G3X109.87Y2735I0.05J14.95  ;
N2082 G65 P9104 A101 B01  ;
N2083 M98 P9103  ;
(P21:ID1:W86011517)  ;
N2084 M98 P9101  ;
N2085 G0X198.99Y2735.98  ;
N2086 G65 P9102 A101 B01  ;
N2087 G1X203.93Y2735.7  ;
N2088 G3X189Y2751.45I-14.93J0.8  ;
N2089 G1X185.98Y2751.45  ;
N2090 G1X184.95Y2752.48  ;
N2091 G1X184.95Y2755.52  ;
N2092 G1X185.98Y2756.55  ;
N2093 G1X188.95Y2756.55  ;
N2094 G1X188.95Y2778.45  ;
N2095 G1X188.45Y2778.45  ;
N2096 G1X188.45Y2781.55  ;
N2097 G1X188.98Y2781.55  ;
N2098 G1X216.98Y2810.55  ;
N2099 G1X259.95Y2810.55  ;
N2100 G1X259.95Y2811.05  ;
N2101 G1X262.95Y2811.05  ;
N2102 G1X262.95Y2816.05  ;
N2103 G1X268.05Y2816.05  ;
N2104 G1X268.05Y2656.95  ;
N2105 G1X262.95Y2656.95  ;
N2106 G1X262.95Y2661.95  ;
N2107 G1X259.95Y2661.95  ;
N2108 G1X259.95Y2662.45  ;
N2109 G1X216.98Y2662.45  ;
N2110 G1X188.98Y2691.45  ;
N2111 G1X188.45Y2691.45  ;
N2112 G1X188.45Y2694.55  ;
N2113 G1X188.95Y2694.55  ;
N2114 G1X188.95Y2721.55  ;
N2115 G3X203.87Y2735I0.05J14.95  ;
N2116 G65 P9104 A102 B04  ;
N2117 M98 P9103  ;
(P22:ID3:W86011506)  ;
N2118 M98 P9101  ;
N2119 G0X1346.49Y2755.18  ;
N2120 G65 P9102 A102 B04  ;
N2121 G1X1346.49Y2757.23  ;
N2122 G65 P9104 A102 B04  ;
N2123 G0X1346.49Y2758.13  ;
N2124 G65 P9102 A102 B04  ;
N2125 G1X1346.49Y2763.84  ;
N2126 G1X1345.07Y2765.27  ;
N2127 G1X1343.64Y2765.27  ;
N2128 G1X1342.21Y2763.84  ;
N2129 G1X1342.21Y2758.13  ;
N2130 G1X1336.49Y2758.13  ;
N2131 G1X1336.49Y2765.27  ;
N2132 G65 P9104 A102 B04  ;
N2133 G0X1337.92Y2766.16  ;
N2134 G65 P9102 A102 B04  ;
N2135 G1X1345.07Y2766.16  ;
N2136 G1X1346.49Y2767.59  ;
N2137 G1X1336.49Y2771.88  ;
N2138 G1X1336.49Y2767.59  ;
N2139 G1X1337.92Y2766.16  ;
N2140 G65 P9104 A102 B04  ;
N2141 G0X1336.49Y2771.88  ;
N2142 G65 P9102 A102 B04  ;
N2143 G1X1337.92Y2773.3  ;
N2144 G1X1345.07Y2773.3  ;
N2145 G1X1346.49Y2771.88  ;
N2146 G1X1346.49Y2767.59  ;
N2147 G65 P9104 A102 B04  ;
N2148 G0X1342.21Y2774.2  ;
N2149 G65 P9102 A102 B04  ;
N2150 G1X1342.21Y2779.91  ;
N2151 G1X1343.64Y2781.34  ;
N2152 G1X1345.07Y2781.34  ;
N2153 G1X1346.49Y2779.91  ;
N2154 G1X1346.49Y2775.63  ;
N2155 G1X1345.07Y2774.2  ;
N2156 G1X1337.92Y2774.2  ;
N2157 G1X1336.49Y2775.63  ;
N2158 G1X1336.49Y2779.91  ;
N2159 G65 P9104 A102 B04  ;
N2160 G0X1337.52Y2755.18  ;
N2161 G65 P9102 A102 B04  ;
N2162 G1X1336.49Y2756.21  ;
N2163 G1X1346.49Y2756.21  ;
N2164 G65 P9104 A101 B01  ;
N2165 G0X1337.08Y2661.5  ;
N2166 G65 P9102 A101 B01  ;
N2167 G1X1337.08Y2664.45  ;
N2168 G3X1337.13Y2664.45I0.05J-29.95  ;
N2169 G65 P9104 A101 B01  ;
N2170 G0X1337.08Y2911.5  ;
N2171 G65 P9102 A101 B01  ;
N2172 G1X1337.08Y2914.45  ;
N2173 G3X1337.13Y2914.45I0.05J-29.95  ;
N2174 G65 P9104 A101 B01  ;
N2175 G0X1375.04Y2437.34  ;
N2176 G65 P9102 A101 B01  ;
N2177 G1X1377.16Y2439.46  ;
N2178 G1X1411.18Y2473.48  ;
N2179 G1X1411.18Y2569.55  ;
N2180 G1X1407.18Y2569.55  ;
N2181 G1X1407.18Y2572.95  ;
N2182 G1X1418.21Y2572.95  ;
N2183 G1X1418.21Y2570.45  ;
N2184 G1X1477.21Y2570.45  ;
N2185 G1X1477.21Y2569.45  ;
N2186 G1X1483.31Y2569.45  ;
N2187 G1X1483.31Y2985.05  ;
N2188 G1X1418.21Y2985.05  ;
N2189 G1X1418.21Y2964.05  ;
N2190 G1X1407.13Y2964.05  ;
N2191 G2X1387.18Y2984.05I0J19.95  ;
N2192 G1X1352.08Y2984.05  ;
N2193 G2X1322.18Y2984.05I-14.95J-0.05  ;
N2194 G1X1287.08Y2984.05  ;
N2195 G2X1267.13Y2964.05I-19.95J-0.05  ;
N2196 G1X1256.05Y2964.05  ;
N2197 G1X1256.05Y2985.05  ;
N2198 G1X1190.95Y2985.05  ;
N2199 G1X1190.95Y2569.45  ;
N2200 G1X1197.05Y2569.45  ;
N2201 G1X1197.05Y2570.45  ;
N2202 G1X1256.05Y2570.45  ;
N2203 G1X1256.05Y2572.95  ;
N2204 G1X1267.08Y2572.95  ;
N2205 G1X1267.08Y2569.55  ;
N2206 G1X1263.08Y2569.55  ;
N2207 G1X1263.08Y2473.48  ;
N2208 G1X1297.11Y2439.45  ;
N2209 G1X1317.58Y2439.45  ;
N2210 G1X1317.58Y2437  ;
N2211 G3X1318.13Y2436.45I0.55J0  ;
N2212 G1X1356.13Y2436.45  ;
N2213 G3X1356.68Y2437I0J0.55  ;
N2214 G1X1356.68Y2439.45  ;
N2215 G1X1377.13Y2439.45  ;
N2216 G65 P9104 A102 B04  ;
N2217 M98 P9103  ;
(P23:ID3:W86011506)  ;
N2218 M98 P9101  ;
N2219 G0X1042.49Y2755.18  ;
N2220 G65 P9102 A102 B04  ;
N2221 G1X1042.49Y2757.23  ;
N2222 G65 P9104 A102 B04  ;
N2223 G0X1042.49Y2758.13  ;
N2224 G65 P9102 A102 B04  ;
N2225 G1X1042.49Y2763.84  ;
N2226 G1X1041.07Y2765.27  ;
N2227 G1X1039.64Y2765.27  ;
N2228 G1X1038.21Y2763.84  ;
N2229 G1X1038.21Y2758.13  ;
N2230 G1X1032.49Y2758.13  ;
N2231 G1X1032.49Y2765.27  ;
N2232 G65 P9104 A102 B04  ;
N2233 G0X1033.92Y2766.16  ;
N2234 G65 P9102 A102 B04  ;
N2235 G1X1041.07Y2766.16  ;
N2236 G1X1042.49Y2767.59  ;
N2237 G1X1032.49Y2771.88  ;
N2238 G1X1032.49Y2767.59  ;
N2239 G1X1033.92Y2766.16  ;
N2240 G65 P9104 A102 B04  ;
N2241 G0X1032.49Y2771.88  ;
N2242 G65 P9102 A102 B04  ;
N2243 G1X1033.92Y2773.3  ;
N2244 G1X1041.07Y2773.3  ;
N2245 G1X1042.49Y2771.88  ;
N2246 G1X1042.49Y2767.59  ;
N2247 G65 P9104 A102 B04  ;
N2248 G0X1038.21Y2774.2  ;
N2249 G65 P9102 A102 B04  ;
N2250 G1X1038.21Y2779.91  ;
N2251 G1X1039.64Y2781.34  ;
N2252 G1X1041.07Y2781.34  ;
N2253 G1X1042.49Y2779.91  ;
N2254 G1X1042.49Y2775.63  ;
N2255 G1X1041.07Y2774.2  ;
N2256 G1X1033.92Y2774.2  ;
N2257 G1X1032.49Y2775.63  ;
N2258 G1X1032.49Y2779.91  ;
N2259 G65 P9104 A102 B04  ;
N2260 G0X1033.52Y2755.18  ;
N2261 G65 P9102 A102 B04  ;
N2262 G1X1032.49Y2756.21  ;
N2263 G1X1042.49Y2756.21  ;
N2264 G65 P9104 A101 B01  ;
N2265 G0X1033.08Y2661.5  ;
N2266 G65 P9102 A101 B01  ;
N2267 G1X1033.08Y2664.45  ;
N2268 G3X1033.13Y2664.45I0.05J-29.95  ;
N2269 G65 P9104 A101 B01  ;
N2270 G0X1033.08Y2911.5  ;
N2271 G65 P9102 A101 B01  ;
N2272 G1X1033.08Y2914.45  ;
N2273 G3X1033.13Y2914.45I0.05J-29.95  ;
N2274 G65 P9104 A101 B01  ;
N2275 G0X1071.04Y2437.34  ;
N2276 G65 P9102 A101 B01  ;
N2277 G1X1073.16Y2439.46  ;
N2278 G1X1107.18Y2473.48  ;
N2279 G1X1107.18Y2569.55  ;
N2280 G1X1103.18Y2569.55  ;
N2281 G1X1103.18Y2572.95  ;
N2282 G1X1114.21Y2572.95  ;
N2283 G1X1114.21Y2570.45  ;
N2284 G1X1173.21Y2570.45  ;
N2285 G1X1173.21Y2569.45  ;
N2286 G1X1179.31Y2569.45  ;
N2287 G1X1179.31Y2985.05  ;
N2288 G1X1114.21Y2985.05  ;
N2289 G1X1114.21Y2964.05  ;
N2290 G1X1103.13Y2964.05  ;
N2291 G2X1083.18Y2984.05I0J19.95  ;
N2292 G1X1048.08Y2984.05  ;
N2293 G2X1018.18Y2984.05I-14.95J-0.05  ;
N2294 G1X983.08Y2984.05  ;
N2295 G2X963.13Y2964.05I-19.95J-0.05  ;
N2296 G1X952.05Y2964.05  ;
N2297 G1X952.05Y2985.05  ;
N2298 G1X886.95Y2985.05  ;
N2299 G1X886.95Y2569.45  ;
N2300 G1X893.05Y2569.45  ;
N2301 G1X893.05Y2570.45  ;
N2302 G1X952.05Y2570.45  ;
N2303 G1X952.05Y2572.95  ;
N2304 G1X963.08Y2572.95  ;
N2305 G1X963.08Y2569.55  ;
N2306 G1X959.08Y2569.55  ;
N2307 G1X959.08Y2473.48  ;
N2308 G1X993.11Y2439.45  ;
N2309 G1X1013.58Y2439.45  ;
N2310 G1X1013.58Y2437  ;
N2311 G3X1014.13Y2436.45I0.55J0  ;
N2312 G1X1052.13Y2436.45  ;
N2313 G3X1052.68Y2437I0J0.55  ;
N2314 G1X1052.68Y2439.45  ;
N2315 G1X1073.13Y2439.45  ;
N2316 G65 P9104 A102 B04  ;
N2317 M98 P9103  ;
(P24:ID3:W86011506)  ;
N2318 M98 P9101  ;
N2319 G0X738.49Y2755.18  ;
N2320 G65 P9102 A102 B04  ;
N2321 G1X738.49Y2757.23  ;
N2322 G65 P9104 A102 B04  ;
N2323 G0X738.49Y2758.13  ;
N2324 G65 P9102 A102 B04  ;
N2325 G1X738.49Y2763.84  ;
N2326 G1X737.07Y2765.27  ;
N2327 G1X735.64Y2765.27  ;
N2328 G1X734.21Y2763.84  ;
N2329 G1X734.21Y2758.13  ;
N2330 G1X728.49Y2758.13  ;
N2331 G1X728.49Y2765.27  ;
N2332 G65 P9104 A102 B04  ;
N2333 G0X729.92Y2766.16  ;
N2334 G65 P9102 A102 B04  ;
N2335 G1X737.07Y2766.16  ;
N2336 G1X738.49Y2767.59  ;
N2337 G1X728.49Y2771.88  ;
N2338 G1X728.49Y2767.59  ;
N2339 G1X729.92Y2766.16  ;
N2340 G65 P9104 A102 B04  ;
N2341 G0X728.49Y2771.88  ;
N2342 G65 P9102 A102 B04  ;
N2343 G1X729.92Y2773.3  ;
N2344 G1X737.07Y2773.3  ;
N2345 G1X738.49Y2771.88  ;
N2346 G1X738.49Y2767.59  ;
N2347 G65 P9104 A102 B04  ;
N2348 G0X734.21Y2774.2  ;
N2349 G65 P9102 A102 B04  ;
N2350 G1X734.21Y2779.91  ;
N2351 G1X735.64Y2781.34  ;
N2352 G1X737.07Y2781.34  ;
N2353 G1X738.49Y2779.91  ;
N2354 G1X738.49Y2775.63  ;
N2355 G1X737.07Y2774.2  ;
N2356 G1X729.92Y2774.2  ;
N2357 G1X728.49Y2775.63  ;
N2358 G1X728.49Y2779.91  ;
N2359 G65 P9104 A102 B04  ;
N2360 G0X729.52Y2755.18  ;
N2361 G65 P9102 A102 B04  ;
N2362 G1X728.49Y2756.21  ;
N2363 G1X738.49Y2756.21  ;
N2364 G65 P9104 A101 B01  ;
N2365 G0X729.08Y2661.5  ;
N2366 G65 P9102 A101 B01  ;
N2367 G1X729.08Y2664.45  ;
N2368 G3X729.13Y2664.45I0.05J-29.95  ;
N2369 G65 P9104 A101 B01  ;
N2370 G0X729.08Y2911.5  ;
N2371 G65 P9102 A101 B01  ;
N2372 G1X729.08Y2914.45  ;
N2373 G3X729.13Y2914.45I0.05J-29.95  ;
N2374 G65 P9104 A101 B01  ;
N2375 G0X767.04Y2437.34  ;
N2376 G65 P9102 A101 B01  ;
N2377 G1X769.16Y2439.46  ;
N2378 G1X803.18Y2473.48  ;
N2379 G1X803.18Y2569.55  ;
N2380 G1X799.18Y2569.55  ;
N2381 G1X799.18Y2572.95  ;
N2382 G1X810.21Y2572.95  ;
N2383 G1X810.21Y2570.45  ;
N2384 G1X869.21Y2570.45  ;
N2385 G1X869.21Y2569.45  ;
N2386 G1X875.31Y2569.45  ;
N2387 G1X875.31Y2985.05  ;
N2388 G1X810.21Y2985.05  ;
N2389 G1X810.21Y2964.05  ;
N2390 G1X799.13Y2964.05  ;
N2391 G2X779.18Y2984.05I0J19.95  ;
N2392 G1X744.08Y2984.05  ;
N2393 G2X714.18Y2984.05I-14.95J-0.05  ;
N2394 G1X679.08Y2984.05  ;
N2395 G2X659.13Y2964.05I-19.95J-0.05  ;
N2396 G1X648.05Y2964.05  ;
N2397 G1X648.05Y2985.05  ;
N2398 G1X582.95Y2985.05  ;
N2399 G1X582.95Y2569.45  ;
N2400 G1X589.05Y2569.45  ;
N2401 G1X589.05Y2570.45  ;
N2402 G1X648.05Y2570.45  ;
N2403 G1X648.05Y2572.95  ;
N2404 G1X659.08Y2572.95  ;
N2405 G1X659.08Y2569.55  ;
N2406 G1X655.08Y2569.55  ;
N2407 G1X655.08Y2473.48  ;
N2408 G1X689.11Y2439.45  ;
N2409 G1X709.58Y2439.45  ;
N2410 G1X709.58Y2437  ;
N2411 G3X710.13Y2436.45I0.55J0  ;
N2412 G1X748.13Y2436.45  ;
N2413 G3X748.68Y2437I0J0.55  ;
N2414 G1X748.68Y2439.45  ;
N2415 G1X769.13Y2439.45  ;
N2416 G65 P9104 A102 B04  ;
N2417 M98 P9103  ;
(P25:ID3:W86011506)  ;
N2418 M98 P9101  ;
N2419 G0X434.49Y2755.18  ;
N2420 G65 P9102 A102 B04  ;
N2421 G1X434.49Y2757.23  ;
N2422 G65 P9104 A102 B04  ;
N2423 G0X434.49Y2758.13  ;
N2424 G65 P9102 A102 B04  ;
N2425 G1X434.49Y2763.84  ;
N2426 G1X433.07Y2765.27  ;
N2427 G1X431.64Y2765.27  ;
N2428 G1X430.21Y2763.84  ;
N2429 G1X430.21Y2758.13  ;
N2430 G1X424.49Y2758.13  ;
N2431 G1X424.49Y2765.27  ;
N2432 G65 P9104 A102 B04  ;
N2433 G0X425.92Y2766.16  ;
N2434 G65 P9102 A102 B04  ;
N2435 G1X433.07Y2766.16  ;
N2436 G1X434.49Y2767.59  ;
N2437 G1X424.49Y2771.88  ;
N2438 G1X424.49Y2767.59  ;
N2439 G1X425.92Y2766.16  ;
N2440 G65 P9104 A102 B04  ;
N2441 G0X424.49Y2771.88  ;
N2442 G65 P9102 A102 B04  ;
N2443 G1X425.92Y2773.3  ;
N2444 G1X433.07Y2773.3  ;
N2445 G1X434.49Y2771.88  ;
N2446 G1X434.49Y2767.59  ;
N2447 G65 P9104 A102 B04  ;
N2448 G0X430.21Y2774.2  ;
N2449 G65 P9102 A102 B04  ;
N2450 G1X430.21Y2779.91  ;
N2451 G1X431.64Y2781.34  ;
N2452 G1X433.07Y2781.34  ;
N2453 G1X434.49Y2779.91  ;
N2454 G1X434.49Y2775.63  ;
N2455 G1X433.07Y2774.2  ;
N2456 G1X425.92Y2774.2  ;
N2457 G1X424.49Y2775.63  ;
N2458 G1X424.49Y2779.91  ;
N2459 G65 P9104 A102 B04  ;
N2460 G0X425.52Y2755.18  ;
N2461 G65 P9102 A102 B04  ;
N2462 G1X424.49Y2756.21  ;
N2463 G1X434.49Y2756.21  ;
N2464 G65 P9104 A101 B01  ;
N2465 G0X425.08Y2661.5  ;
N2466 G65 P9102 A101 B01  ;
N2467 G1X425.08Y2664.45  ;
N2468 G3X425.13Y2664.45I0.05J-29.95  ;
N2469 G65 P9104 A101 B01  ;
N2470 G0X425.08Y2911.5  ;
N2471 G65 P9102 A101 B01  ;
N2472 G1X425.08Y2914.45  ;
N2473 G3X425.13Y2914.45I0.05J-29.95  ;
N2474 G65 P9104 A101 B01  ;
N2475 G0X463.04Y2437.34  ;
N2476 G65 P9102 A101 B01  ;
N2477 G1X465.16Y2439.46  ;
N2478 G1X499.18Y2473.48  ;
N2479 G1X499.18Y2569.55  ;
N2480 G1X495.18Y2569.55  ;
N2481 G1X495.18Y2572.95  ;
N2482 G1X506.21Y2572.95  ;
N2483 G1X506.21Y2570.45  ;
N2484 G1X565.21Y2570.45  ;
N2485 G1X565.21Y2569.45  ;
N2486 G1X571.31Y2569.45  ;
N2487 G1X571.31Y2985.05  ;
N2488 G1X506.21Y2985.05  ;
N2489 G1X506.21Y2964.05  ;
N2490 G1X495.13Y2964.05  ;
N2491 G2X475.18Y2984.05I0J19.95  ;
N2492 G1X440.08Y2984.05  ;
N2493 G2X410.18Y2984.05I-14.95J-0.05  ;
N2494 G1X375.08Y2984.05  ;
N2495 G2X355.13Y2964.05I-19.95J-0.05  ;
N2496 G1X344.05Y2964.05  ;
N2497 G1X344.05Y2985.05  ;
N2498 G1X278.95Y2985.05  ;
N2499 G1X278.95Y2569.45  ;
N2500 G1X285.05Y2569.45  ;
N2501 G1X285.05Y2570.45  ;
N2502 G1X344.05Y2570.45  ;
N2503 G1X344.05Y2572.95  ;
N2504 G1X355.08Y2572.95  ;
N2505 G1X355.08Y2569.55  ;
N2506 G1X351.08Y2569.55  ;
N2507 G1X351.08Y2473.48  ;
N2508 G1X385.11Y2439.45  ;
N2509 G1X405.58Y2439.45  ;
N2510 G1X405.58Y2437  ;
N2511 G3X406.13Y2436.45I0.55J0  ;
N2512 G1X444.13Y2436.45  ;
N2513 G3X444.68Y2437I0J0.55  ;
N2514 G1X444.68Y2439.45  ;
N2515 G1X465.13Y2439.45  ;
N2516 G65 P9104 A101 B01  ;
N2517 M98 P9103  ;
(P26:ID1:W86011517)  ;
N2518 M98 P9101  ;
N2519 G0X198.99Y2904.98  ;
N2520 G65 P9102 A101 B01  ;
N2521 G1X203.93Y2904.7  ;
N2522 G3X189Y2920.45I-14.93J0.8  ;
N2523 G1X185.98Y2920.45  ;
N2524 G1X184.95Y2921.48  ;
N2525 G1X184.95Y2924.52  ;
N2526 G1X185.98Y2925.55  ;
N2527 G1X188.95Y2925.55  ;
N2528 G1X188.95Y2947.45  ;
N2529 G1X188.45Y2947.45  ;
N2530 G1X188.45Y2950.55  ;
N2531 G1X188.98Y2950.55  ;
N2532 G1X216.98Y2979.55  ;
N2533 G1X259.95Y2979.55  ;
N2534 G1X259.95Y2980.05  ;
N2535 G1X262.95Y2980.05  ;
N2536 G1X262.95Y2985.05  ;
N2537 G1X268.05Y2985.05  ;
N2538 G1X268.05Y2825.95  ;
N2539 G1X262.95Y2825.95  ;
N2540 G1X262.95Y2830.95  ;
N2541 G1X259.95Y2830.95  ;
N2542 G1X259.95Y2831.45  ;
N2543 G1X216.98Y2831.45  ;
N2544 G1X188.98Y2860.45  ;
N2545 G1X188.45Y2860.45  ;
N2546 G1X188.45Y2863.55  ;
N2547 G1X188.95Y2863.55  ;
N2548 G1X188.95Y2890.55  ;
N2549 G3X203.87Y2904I0.05J14.95  ;
N2550 G65 P9104 A101 B01  ;
N2551 M98 P9103  ;
(P27:ID1:W86011517)  ;
N2552 M98 P9101  ;
N2553 G0X104.99Y2904.98  ;
N2554 G65 P9102 A101 B01  ;
N2555 G1X109.93Y2904.7  ;
N2556 G3X95Y2920.45I-14.93J0.8  ;
N2557 G1X91.98Y2920.45  ;
N2558 G1X90.95Y2921.48  ;
N2559 G1X90.95Y2924.52  ;
N2560 G1X91.98Y2925.55  ;
N2561 G1X94.95Y2925.55  ;
N2562 G1X94.95Y2947.45  ;
N2563 G1X94.45Y2947.45  ;
N2564 G1X94.45Y2950.55  ;
N2565 G1X94.98Y2950.55  ;
N2566 G1X122.98Y2979.55  ;
N2567 G1X165.95Y2979.55  ;
N2568 G1X165.95Y2980.05  ;
N2569 G1X168.95Y2980.05  ;
N2570 G1X168.95Y2985.05  ;
N2571 G1X174.05Y2985.05  ;
N2572 G1X174.05Y2825.95  ;
N2573 G1X168.95Y2825.95  ;
N2574 G1X168.95Y2830.95  ;
N2575 G1X165.95Y2830.95  ;
N2576 G1X165.95Y2831.45  ;
N2577 G1X122.98Y2831.45  ;
N2578 G1X94.98Y2860.45  ;
N2579 G1X94.45Y2860.45  ;
N2580 G1X94.45Y2863.55  ;
N2581 G1X94.95Y2863.55  ;
N2582 G1X94.95Y2890.55  ;
N2583 G3X109.87Y2904I0.05J14.95  ;
N2584 M98 P9104  ;
N2585 M98 P9103  ;
(FOOTER)
N2586 M98 P9110  ;
N2587 M30  ;
%
