()  ;
( MACHINE :  )  ;
( MATERIAL : Inoxidable )  ;
( THICKNESS : 10 )  ;
( LENS : 150 )  ;
( GAS : 1 )  ;
( POWER : 6000 )  ;
( PARAM :  )  ;
( REPETITIONS : 1 )  ;
( SIMULATION TIME : 02:20:22 )  ;
( FORMAT : 3000x1500 )  ;
( JOB NUMBER : SKRLJ )  ;
( PROGRAM NUMBER : 93741 )  ;
( TYPE : 0 )  ;
( NUMBER OF SHEETS : 1 )  ;
( CUTTING HEADS : 1 )  ;
#516= 1  ;
#517= 1  ;
N105 G65 P9100 A101 B02  ;
(P1:ID1:221785-7)  ;
(X102.588 Y380.154 R180)  ;
N106 M98 P9101  ;
N107 G0X38.26Y267.22  ;
N108 G65 P9102 A101 B02  ;
N109 G1X33.32Y263.82  ;
N110 G3X33.07Y261.14I0.99J-1.44  ;
N111 G3X33.07Y261.14I9.02J9.01  ;
N112 G65 P9104 A101 B01  ;
N113 G0X13.59Y191.54  ;
N114 G65 P9102 A101 B01  ;
N115 G1X19.59Y191.54  ;
N116 G3X21.34Y193.29I0J1.75  ;
N117 G1X21.34Y373.15  ;
N118 G2X28.59Y380.4I7.25J0  ;
N119 G1X95.59Y380.4  ;
N120 G2X102.84Y373.15I0J-7.25  ;
N121 G1X102.84Y359.15  ;
N122 G2X99.59Y355.9I-3.25J0  ;
N123 G1X68.59Y355.9  ;
N124 G3X65.84Y353.15I0J-2.75  ;
N125 G1X65.84Y167.15  ;
N126 G2X58.59Y159.9I-7.25J0  ;
N127 G1X28.59Y159.9  ;
N128 G2X21.34Y167.15I0J7.25  ;
N129 G1X21.34Y193.29  ;
N130 G65 P9104 A101 B02  ;
N131 M98 P9103  ;
(P2:ID2:217701-8)  ;
(X72.53 Y251.654 R0)  ;
N132 M98 P9101  ;
N133 G0X92.47Y299.4  ;
N134 G65 P9102 A101 B02  ;
N135 G1X95.31Y300.16  ;
N136 G3X95.96Y302.58I-0.38J1.4  ;
N137 G3X95.96Y302.58I-3.43J-3.43  ;
N138 G65 P9104 A101 B02  ;
N139 G0X92.47Y329.4  ;
N140 G65 P9102 A101 B02  ;
N141 G1X95.31Y330.16  ;
N142 G3X95.96Y332.58I-0.38J1.4  ;
N143 G3X95.96Y332.58I-3.43J-3.43  ;
N144 G65 P9104 A101 B01  ;
N145 G0X120.53Y324.79  ;
N146 G65 P9102 A101 B01  ;
N147 G1X114.53Y324.79  ;
N148 G3X112.78Y323.04I0J-1.75  ;
N149 G1X112.78Y251.05  ;
N150 G1X94.47Y269.36  ;
N151 G3X90.59Y269.36I-1.94J-1.95  ;
N152 G1X72.28Y251.05  ;
N153 G1X72.28Y339.15  ;
N154 G2X82.53Y349.4I10.25J0  ;
N155 G1X102.53Y349.4  ;
N156 G2X112.78Y339.15I0J-10.25  ;
N157 G1X112.78Y323.04  ;
N158 G65 P9104 A101 B02  ;
N159 M98 P9103  ;
(P3:ID2:217701-8)  ;
(X158.501 Y434.047 R180)  ;
N160 M98 P9101  ;
N161 G0X138.57Y386.31  ;
N162 G65 P9102 A101 B02  ;
N163 G1X135.72Y385.54  ;
N164 G3X135.07Y383.12I0.38J-1.4  ;
N165 G3X135.07Y383.12I3.43J3.43  ;
N166 G65 P9104 A101 B02  ;
N167 G0X138.57Y356.31  ;
N168 G65 P9102 A101 B02  ;
N169 G1X135.72Y355.54  ;
N170 G3X135.07Y353.12I0.38J-1.4  ;
N171 G3X135.07Y353.12I3.43J3.43  ;
N172 G65 P9104 A101 B01  ;
N173 G0X110.5Y360.91  ;
N174 G65 P9102 A101 B01  ;
N175 G1X116.5Y360.91  ;
N176 G3X118.25Y362.66I0J1.75  ;
N177 G1X118.25Y434.65  ;
N178 G1X136.56Y416.35  ;
N179 G3X140.45Y416.35I1.94J1.94  ;
N180 G1X158.75Y434.65  ;
N181 G1X158.75Y346.55  ;
N182 G2X148.5Y336.3I-10.25J0  ;
N183 G1X128.5Y336.3  ;
N184 G2X118.25Y346.55I0J10.25  ;
N185 G1X118.25Y362.66  ;
N186 G65 P9104 A101 B02  ;
N187 M98 P9103  ;
(P4:ID3:237730-1)  ;
(X249.674 Y549.885 R180)  ;
N188 M98 P9101  ;
N189 G0X244.74Y544.67  ;
N190 G65 P9102 A101 B02  ;
N191 G1X242.93Y544.18  ;
N192 G3X242.55Y542.79I0.21J-0.8  ;
N193 G3X242.55Y542.79I2.12J2.12  ;
N194 G65 P9104 A101 B02  ;
N195 G0X222.93Y534.26  ;
N196 G65 P9102 A101 B02  ;
N197 G1X221.54Y533.88  ;
N198 G3X221.28Y532.91I0.15J-0.56  ;
N199 G3X221.28Y532.91I1.59J1.59  ;
N200 G65 P9104 A101 B02  ;
N201 G0X188.98Y482.08  ;
N202 G65 P9102 A101 B02  ;
N203 G1X187.58Y481.71  ;
N204 G3X187.32Y480.73I0.15J-0.56  ;
N205 G3X187.32Y480.73I1.59J1.6  ;
N206 G65 P9104 A101 B02  ;
N207 G0X129.43Y463.94  ;
N208 G65 P9102 A101 B02  ;
N209 G1X128.04Y463.57  ;
N210 G3X127.77Y462.59I0.15J-0.56  ;
N211 G3X127.77Y462.59I1.6J1.6  ;
N212 G65 P9104 A101 B02  ;
N213 G0X72.16Y488.32  ;
N214 G65 P9102 A101 B02  ;
N215 G1X70.76Y487.95  ;
N216 G3X70.5Y486.97I0.15J-0.56  ;
N217 G3X70.5Y486.97I1.59J1.59  ;
N218 G65 P9104 A101 B02  ;
N219 G0X91.81Y512.43  ;
N220 G65 P9102 A101 B02  ;
N221 G1X90.42Y512.06  ;
N222 G3X90.16Y511.08I0.15J-0.57  ;
N223 G3X90.16Y511.08I1.59J1.59  ;
N224 G65 P9104 A101 B02  ;
N225 G0X43.9Y544.21  ;
N226 G65 P9102 A101 B02  ;
N227 G1X42.51Y543.83  ;
N228 G3X42.25Y542.86I0.15J-0.56  ;
N229 G3X42.25Y542.86I1.59J1.59  ;
N230 G65 P9104 A101 B01  ;
N231 G0X29.51Y490.55  ;
N232 G65 P9102 A101 B01  ;
N233 G1X34.61Y493.71  ;
N234 G3X35.19Y496.09I-0.92J1.49  ;
N235 G2X23.04Y524.7I99.03J58.97  ;
N236 G2X24.12Y529.5I5.06J1.38  ;
N237 G1X39.85Y547.86  ;
N238 G2X47.83Y541.03I3.99J-3.41  ;
N239 G1X35.65Y526.82  ;
N240 G3X34.74Y522.24I3.6J-3.09  ;
N241 G3X68.37Y473.59I99.48J32.82  ;
N242 G1X66.87Y487.99  ;
N243 G2X68.02Y491.88I5.22J0.57  ;
N244 G1X87.68Y515.99  ;
N245 G2X95.82Y509.35I4.07J-3.32  ;
N246 G1X78.93Y488.65  ;
N247 G3X77.89Y485.16I3.69J-3  ;
N248 G1X79.69Y467.85  ;
N249 G3X82.05Y464.22I4.73J0.49  ;
N250 G3X118.2Y451.54I52.17J90.84  ;
N251 G3X123.67Y455.98I0.73J4.69  ;
N252 G1X124.12Y464.47  ;
N253 G2X134.61Y463.91I5.25J-0.28  ;
N254 G1X134.15Y455.42  ;
N255 G3X139.12Y450.42I4.75J-0.25  ;
N256 G3X188.49Y465.46I-4.9J104.64  ;
N257 G3X189.82Y472.38I-2.46J4.06  ;
N258 G1X184.72Y479.17  ;
N259 G2X193.02Y485.59I4.19J3.16  ;
N260 G1X198.21Y478.69  ;
N261 G3X205.23Y478.05I3.8J2.85  ;
N262 G3X233.38Y521.3I-71.01J77.01  ;
N263 G3X229.96Y527.46I-4.49J1.54  ;
N264 G1X221.68Y529.38  ;
N265 G2X224.05Y539.61I1.19J5.12  ;
N266 G1X237.45Y536.5  ;
N267 G1X239.67Y546.07  ;
N268 G2X245.91Y550.01I5.11J-1.18  ;
N269 G2X249.79Y543.72I-1.24J-5.1  ;
N270 G1X247.51Y533.92  ;
N271 G2X35.19Y496.09I-113.29J21.14  ;
N272 G65 P9104 A101 B02  ;
N273 M98 P9103  ;
(P5:ID4:266822-5)  ;
(X13.51 Y518.541 R0)  ;
N274 M98 P9101  ;
N275 G0X73.45Y643.78  ;
N276 G65 P9102 A101 B02  ;
N277 G1X75.17Y644.25  ;
N278 G3X75.52Y645.56I-0.2J0.75  ;
N279 G3X75.52Y645.56I-2.01J-2.02  ;
N280 G65 P9104 A101 B02  ;
N281 G0X138.45Y708.78  ;
N282 G65 P9102 A101 B02  ;
N283 G1X140.17Y709.25  ;
N284 G3X140.52Y710.56I-0.2J0.75  ;
N285 G3X140.52Y710.56I-2.01J-2.02  ;
N286 G65 P9104 A101 B02  ;
N287 G0X203.45Y643.78  ;
N288 G65 P9102 A101 B02  ;
N289 G1X205.17Y644.25  ;
N290 G3X205.52Y645.56I-0.2J0.75  ;
N291 G3X205.52Y645.56I-2.01J-2.02  ;
N292 G65 P9104 A101 B02  ;
N293 G0X138.45Y578.78  ;
N294 G65 P9102 A101 B02  ;
N295 G1X140.17Y579.25  ;
N296 G3X140.52Y580.56I-0.2J0.75  ;
N297 G3X140.52Y580.56I-2.01J-2.02  ;
N298 G65 P9104 A101 B01  ;
N299 G0X152.36Y642.4  ;
N300 G65 P9102 A101 B01  ;
N301 G1X158.33Y641.8  ;
N302 G3X160.26Y643.54I0.18J1.74  ;
N303 G3X160.26Y643.54I-21.75J0  ;
N304 G65 P9104 A101 B01  ;
N305 G0X235.66Y552.73  ;
N306 G65 P9102 A101 B01  ;
N307 G1X231.27Y556.82  ;
N308 G3X228.81Y556.75I-1.19J-1.28  ;
N309 G2X228.81Y556.75I-90.3J86.79  ;
N310 G65 P9104 A101 B02  ;
N311 M98 P9103  ;
(P6:ID2:217701-8)  ;
(X13.51 Y744.549 R0)  ;
N312 M98 P9101  ;
N313 G0X33.45Y792.29  ;
N314 G65 P9102 A101 B02  ;
N315 G1X36.29Y793.05  ;
N316 G3X36.94Y795.48I-0.38J1.4  ;
N317 G3X36.94Y795.48I-3.43J-3.43  ;
N318 G65 P9104 A101 B02  ;
N319 G0X33.45Y822.29  ;
N320 G65 P9102 A101 B02  ;
N321 G1X36.29Y823.05  ;
N322 G3X36.94Y825.48I-0.38J1.4  ;
N323 G3X36.94Y825.48I-3.43J-3.43  ;
N324 G65 P9104 A101 B01  ;
N325 G0X61.51Y817.69  ;
N326 G65 P9102 A101 B01  ;
N327 G1X55.51Y817.69  ;
N328 G3X53.76Y815.94I0J-1.75  ;
N329 G1X53.76Y743.95  ;
N330 G1X35.45Y762.25  ;
N331 G3X31.57Y762.25I-1.94J-1.94  ;
N332 G1X13.26Y743.95  ;
N333 G1X13.26Y832.05  ;
N334 G2X23.51Y842.3I10.25J0  ;
N335 G1X43.51Y842.3  ;
N336 G2X53.76Y832.05I0J-10.25  ;
N337 G1X53.76Y815.94  ;
N338 G65 P9104 A101 B02  ;
N339 M98 P9103  ;
(P7:ID5:247521-9)  ;
(X340.943 Y766.597 R180)  ;
N340 M98 P9101  ;
N341 G0X296.56Y721.91  ;
N342 G65 P9102 A101 B02  ;
N343 G1X293.77Y721.16  ;
N344 G3X293.13Y718.79I0.37J-1.37  ;
N345 G3X293.13Y718.79I3.36J3.36  ;
N346 G65 P9104 A101 B01  ;
N347 G0X254.47Y753.46  ;
N348 G65 P9102 A101 B01  ;
N349 G1X259.3Y749.9  ;
N350 G3X261.7Y750.21I1.04J1.41  ;
N351 G2X261.7Y750.21I34.79J-28.06  ;
N352 G65 P9104 A101 B02  ;
N353 M98 P9103  ;
(P8:ID6:245107-8)  ;
(X167.982 Y894.389 R0)  ;
N354 M98 P9101  ;
N355 G0X227.7Y928.69  ;
N356 G65 P9102 A101 B02  ;
N357 G1X229.37Y929.14  ;
N358 G3X229.71Y930.39I-0.19J0.72  ;
N359 G3X229.71Y930.39I-1.95J-1.94  ;
N360 G65 P9104 A101 B01  ;
N361 G0X266.61Y915.01  ;
N362 G65 P9102 A101 B01  ;
N363 G1X262.75Y919.61  ;
N364 G3X260.29Y919.83I-1.34J-1.12  ;
N365 G1X231.14Y895.37  ;
N366 G2X224.39Y895.37I-3.38J4.02  ;
N367 G1X171.39Y939.84  ;
N368 G2X168.2Y950.74I6.59J7.85  ;
N369 G2X204.53Y976.12I34.56J-10.79  ;
N370 G2X206.62Y973.42I-0.11J-2.25  ;
N371 G3X265.38Y970.28I29.14J-5.97  ;
N372 G2X268.6Y972.51I2.24J0.21  ;
N373 G2X287.33Y950.74I-15.84J-32.56  ;
N374 G2X284.14Y939.84I-9.78J-3.05  ;
N375 G1X260.29Y919.83  ;
N376 G65 P9104 A101 B02  ;
N377 M98 P9103  ;
(P9:ID6:245107-8)  ;
(X259.68 Y1030.113 R180)  ;
N378 M98 P9101  ;
N379 G0X199.96Y995.81  ;
N380 G65 P9102 A101 B02  ;
N381 G1X198.29Y995.36  ;
N382 G3X197.95Y994.11I0.19J-0.72  ;
N383 G3X197.95Y994.11I1.95J1.94  ;
N384 G65 P9104 A101 B01  ;
N385 G0X161.05Y1009.49  ;
N386 G65 P9102 A101 B01  ;
N387 G1X164.91Y1004.89  ;
N388 G3X167.37Y1004.68I1.34J1.13  ;
N389 G1X196.52Y1029.13  ;
N390 G2X203.27Y1029.13I3.38J-4.02  ;
N391 G1X256.27Y984.67  ;
N392 G2X259.46Y973.76I-6.59J-7.86  ;
N393 G2X223.14Y948.38I-34.56J10.79  ;
N394 G2X221.04Y951.08I0.11J2.25  ;
N395 G3X162.28Y954.23I-29.14J5.97  ;
N396 G2X159.06Y951.99I-2.24J-0.22  ;
N397 G2X140.33Y973.76I15.84J32.56  ;
N398 G2X143.53Y984.67I9.78J3.05  ;
N399 G1X167.37Y1004.68  ;
N400 G65 P9104 A101 B01  ;
N401 M98 P9103  ;
(P10:ID7:207499-2)  ;
(X217.628 Y1014.59 R0)  ;
N402 M98 P9101  ;
N403 G0X264.19Y1021.49  ;
N404 G65 P9102 A101 B01  ;
N405 G1X258.94Y1024.39  ;
N406 G3X256.64Y1023.84I-0.85J-1.53  ;
N407 G2X256.64Y1023.84I-17.81J11.95  ;
N408 G65 P9104 A101 B01  ;
N409 M98 P9103  ;
(P11:ID8:253707-3)  ;
(X104.845 Y858.941 R0)  ;
N410 M98 P9101  ;
N411 G0X304.06Y975.08  ;
N412 G65 P9102 A101 B01  ;
N413 G1X310.06Y974.94  ;
N414 G3X311.85Y976.69I0.04J1.75  ;
N415 G3X311.85Y976.69I-89.25J0  ;
N416 G65 P9104 A101 B01  ;
N417 G0X312.3Y888.59  ;
N418 G65 P9102 A101 B01  ;
N419 G1X308.01Y892.79  ;
N420 G3X305.56Y892.78I-1.22J-1.25  ;
N421 G2X305.56Y892.78I-82.96J83.91  ;
N422 G65 P9104 A101 B04  ;
(P12:ID9:202135-4)  ;
(X13.51 Y764.817 R0)  ;
N423 G0X65.95Y883.07  ;
N424 G65 P9102 A101 B04  ;
N425 G1X48.76Y873.15  ;
N426 G1X46.26Y877.48  ;
N427 G1X63.45Y887.4  ;
N428 G65 P9104 A101 B04  ;
N429 G0X95.64Y905.99  ;
N430 G65 P9102 A101 B04  ;
N431 G1X112.96Y915.99  ;
N432 G65 P9104 A101 B04  ;
N433 G0X115.46Y911.66  ;
N434 G65 P9102 A101 B04  ;
N435 G1X98.14Y901.66  ;
N436 G65 P9104 A101 B04  ;
N437 G0X226.01Y847.83  ;
N438 G65 P9102 A101 B04  ;
N439 G1X226.01Y827.83  ;
N440 G65 P9104 A101 B04  ;
N441 G0X231.01Y827.83  ;
N442 G65 P9102 A101 B04  ;
N443 G1X231.01Y847.83  ;
N444 G65 P9104 A101 B04  ;
N445 G0X231.01Y790.66  ;
N446 G65 P9102 A101 B04  ;
N447 G1X231.01Y770.82  ;
N448 G1X226.01Y770.82  ;
N449 G1X226.01Y790.66  ;
N450 G65 P9104 A101 B04  ;
N451 G0X341.56Y911.66  ;
N452 G65 P9102 A101 B04  ;
N453 G1X358.88Y901.66  ;
N454 G65 P9104 A101 B04  ;
N455 G0X361.38Y905.99  ;
N456 G65 P9102 A101 B04  ;
N457 G1X344.06Y915.99  ;
N458 G65 P9104 A101 B04  ;
N459 G0X393.57Y887.4  ;
N460 G65 P9102 A101 B04  ;
N461 G1X410.76Y877.48  ;
N462 G1X408.26Y873.15  ;
N463 G1X391.07Y883.07  ;
N464 G65 P9104 A101 B04  ;
N465 G0X344.06Y1043.65  ;
N466 G65 P9102 A101 B04  ;
N467 G1X361.38Y1053.65  ;
N468 G65 P9104 A101 B04  ;
N469 G0X358.88Y1057.98  ;
N470 G65 P9102 A101 B04  ;
N471 G1X341.56Y1047.98  ;
N472 G65 P9104 A101 B04  ;
N473 G0X391.07Y1076.56  ;
N474 G65 P9102 A101 B04  ;
N475 G1X408.26Y1086.48  ;
N476 G1X410.76Y1082.15  ;
N477 G1X393.57Y1072.23  ;
N478 G65 P9104 A101 B04  ;
N479 G0X231.01Y1111.8  ;
N480 G65 P9102 A101 B04  ;
N481 G1X231.01Y1131.8  ;
N482 G65 P9104 A101 B04  ;
N483 G0X226.01Y1131.8  ;
N484 G65 P9102 A101 B04  ;
N485 G1X226.01Y1111.8  ;
N486 G65 P9104 A101 B04  ;
N487 G0X226.01Y1168.97  ;
N488 G65 P9102 A101 B04  ;
N489 G1X226.01Y1188.82  ;
N490 G1X231.01Y1188.82  ;
N491 G1X231.01Y1168.97  ;
N492 G65 P9104 A101 B04  ;
N493 G0X115.46Y1047.98  ;
N494 G65 P9102 A101 B04  ;
N495 G1X98.14Y1057.98  ;
N496 G65 P9104 A101 B04  ;
N497 G0X95.64Y1053.65  ;
N498 G65 P9102 A101 B04  ;
N499 G1X112.96Y1043.65  ;
N500 G65 P9104 A101 B04  ;
N501 G0X63.45Y1072.23  ;
N502 G65 P9102 A101 B04  ;
N503 G1X46.26Y1082.15  ;
N504 G1X48.76Y1086.48  ;
N505 G1X65.95Y1076.56  ;
N506 G65 P9104 A101 B02  ;
N507 G0X106.98Y1105.25  ;
N508 G65 P9102 A101 B02  ;
N509 G1X112.06Y1108.44  ;
N510 G3X112.37Y1111.16I-0.93J1.49  ;
N511 G3X112.37Y1111.16I-7.6J-7.6  ;
N512 G65 P9104 A101 B02  ;
N513 G0X185.43Y1150.54  ;
N514 G65 P9102 A101 B02  ;
N515 G1X190.51Y1153.74  ;
N516 G3X190.82Y1156.46I-0.93J1.48  ;
N517 G3X190.82Y1156.46I-7.6J-7.61  ;
N518 G65 P9104 A101 B02  ;
N519 G0X276.02Y1150.54  ;
N520 G65 P9102 A101 B02  ;
N521 G1X281.1Y1153.74  ;
N522 G3X281.4Y1156.46I-0.93J1.48  ;
N523 G3X281.4Y1156.46I-7.6J-7.61  ;
N524 G65 P9104 A101 B02  ;
N525 G0X354.47Y1105.25  ;
N526 G65 P9102 A101 B02  ;
N527 G1X359.55Y1108.44  ;
N528 G3X359.85Y1111.16I-0.93J1.49  ;
N529 G3X359.85Y1111.16I-7.6J-7.6  ;
N530 G65 P9104 A101 B02  ;
N531 G0X399.76Y1026.8  ;
N532 G65 P9102 A101 B02  ;
N533 G1X404.84Y1029.99  ;
N534 G3X405.15Y1032.71I-0.93J1.48  ;
N535 G3X405.15Y1032.71I-7.6J-7.6  ;
N536 G65 P9104 A101 B02  ;
N537 G0X399.76Y936.21  ;
N538 G65 P9102 A101 B02  ;
N539 G1X404.84Y939.41  ;
N540 G3X405.15Y942.13I-0.93J1.48  ;
N541 G3X405.15Y942.13I-7.6J-7.61  ;
N542 G65 P9104 A101 B02  ;
N543 G0X354.47Y857.76  ;
N544 G65 P9102 A101 B02  ;
N545 G1X359.55Y860.96  ;
N546 G3X359.85Y863.68I-0.93J1.48  ;
N547 G3X359.85Y863.68I-7.6J-7.61  ;
N548 G65 P9104 A101 B02  ;
N549 G0X276.02Y812.47  ;
N550 G65 P9102 A101 B02  ;
N551 G1X281.1Y815.66  ;
N552 G3X281.4Y818.38I-0.93J1.48  ;
N553 G3X281.4Y818.38I-7.6J-7.6  ;
N554 G65 P9104 A101 B02  ;
N555 G0X185.43Y812.47  ;
N556 G65 P9102 A101 B02  ;
N557 G1X190.51Y815.66  ;
N558 G3X190.82Y818.38I-0.93J1.48  ;
N559 G3X190.82Y818.38I-7.6J-7.6  ;
N560 G65 P9104 A101 B02  ;
N561 G0X106.98Y857.76  ;
N562 G65 P9102 A101 B02  ;
N563 G1X112.06Y860.96  ;
N564 G3X112.37Y863.68I-0.93J1.48  ;
N565 G3X112.37Y863.68I-7.6J-7.61  ;
N566 G65 P9104 A101 B02  ;
N567 G0X61.69Y936.21  ;
N568 G65 P9102 A101 B02  ;
N569 G1X66.77Y939.41  ;
N570 G3X67.07Y942.13I-0.93J1.48  ;
N571 G3X67.07Y942.13I-7.6J-7.61  ;
N572 G65 P9104 A101 B02  ;
N573 G0X61.69Y1026.8  ;
N574 G65 P9102 A101 B02  ;
N575 G1X66.77Y1029.99  ;
N576 G3X67.07Y1032.71I-0.93J1.48  ;
N577 G3X67.07Y1032.71I-7.6J-7.6  ;
N578 G65 P9104 A101 B01  ;
N579 G0X303.95Y882.06  ;
N580 G65 P9102 A101 B01  ;
N581 G1X307.61Y877.3  ;
N582 G3X310.08Y876.99I1.38J1.07  ;
N583 G3X310.08Y876.99I-81.57J102.83  ;
N584 G65 P9104 A101 B01  ;
N585 G0X378.13Y814.48  ;
N586 G65 P9102 A101 B01  ;
N587 G1X374.1Y818.92  ;
N588 G3X371.64Y819.05I-1.29J-1.18  ;
N589 G2X371.64Y819.05I-143.13J160.77  ;
N590 G65 P9104 A101 B02  ;
N591 M98 P9103  ;
(P13:ID2:217701-8)  ;
(X61.53 Y1217.334 R180)  ;
N592 M98 P9101  ;
N593 G0X41.59Y1169.59  ;
N594 G65 P9102 A101 B02  ;
N595 G1X38.75Y1168.83  ;
N596 G3X38.1Y1166.4I0.38J-1.4  ;
N597 G3X38.1Y1166.4I3.43J3.43  ;
N598 G65 P9104 A101 B02  ;
N599 G0X41.59Y1139.59  ;
N600 G65 P9102 A101 B02  ;
N601 G1X38.75Y1138.83  ;
N602 G3X38.1Y1136.4I0.38J-1.4  ;
N603 G3X38.1Y1136.4I3.43J3.43  ;
N604 G65 P9104 A101 B01  ;
N605 G0X13.53Y1144.2  ;
N606 G65 P9102 A101 B01  ;
N607 G1X19.53Y1144.2  ;
N608 G3X21.28Y1145.95I0J1.75  ;
N609 G1X21.28Y1217.94  ;
N610 G1X39.59Y1199.63  ;
N611 G3X43.47Y1199.63I1.94J1.95  ;
N612 G1X61.78Y1217.94  ;
N613 G1X61.78Y1129.83  ;
N614 G2X51.53Y1119.58I-10.25J0  ;
N615 G1X31.53Y1119.58  ;
N616 G2X21.28Y1129.83I0J10.25  ;
N617 G1X21.28Y1145.95  ;
N618 G65 P9104 A101 B02  ;
N619 M98 P9103  ;
(P14:ID10:237729-1)  ;
(X13.51 Y1400.445 R0)  ;
N620 M98 P9101  ;
N621 G0X18.45Y1408.38  ;
N622 G65 P9102 A101 B02  ;
N623 G1X20.26Y1408.87  ;
N624 G3X20.63Y1410.26I-0.22J0.8  ;
N625 G3X20.63Y1410.26I-2.12J-2.12  ;
N626 G65 P9104 A101 B02  ;
N627 G0X42.4Y1411.6  ;
N628 G65 P9102 A101 B02  ;
N629 G1X43.79Y1411.97  ;
N630 G3X44.05Y1412.95I-0.15J0.56  ;
N631 G3X44.05Y1412.95I-1.59J-1.59  ;
N632 G65 P9104 A101 B02  ;
N633 G0X76.52Y1405.69  ;
N634 G65 P9102 A101 B02  ;
N635 G1X77.92Y1406.06  ;
N636 G3X78.18Y1407.04I-0.15J0.56  ;
N637 G3X78.18Y1407.04I-1.59J-1.59  ;
N638 G65 P9104 A101 B02  ;
N639 G0X90.73Y1450.82  ;
N640 G65 P9102 A101 B02  ;
N641 G1X92.12Y1451.2  ;
N642 G3X92.38Y1452.17I-0.15J0.56  ;
N643 G3X92.38Y1452.17I-1.59J-1.59  ;
N644 G65 P9104 A101 B02  ;
N645 G0X152.97Y1449.81  ;
N646 G65 P9102 A101 B02  ;
N647 G1X154.36Y1450.18  ;
N648 G3X154.62Y1451.16I-0.15J0.56  ;
N649 G3X154.62Y1451.16I-1.59J-1.6  ;
N650 G65 P9104 A101 B02  ;
N651 G0X161.32Y1408.74  ;
N652 G65 P9102 A101 B02  ;
N653 G1X162.72Y1409.11  ;
N654 G3X162.98Y1410.09I-0.15J0.57  ;
N655 G3X162.98Y1410.09I-1.59J-1.59  ;
N656 G65 P9104 A101 B02  ;
N657 G0X199.99Y1409.02  ;
N658 G65 P9102 A101 B02  ;
N659 G1X201.39Y1409.39  ;
N660 G3X201.65Y1410.37I-0.15J0.57  ;
N661 G3X201.65Y1410.37I-1.59J-1.59  ;
N662 G65 P9104 A101 B01  ;
N663 G0X194.19Y1463.04  ;
N664 G65 P9102 A101 B01  ;
N665 G1X190.61Y1458.23  ;
N666 G3X190.94Y1455.8I1.4J-1.04  ;
N667 G2X209.54Y1437.77I-70.43J-91.23  ;
N668 G2X210.62Y1433.35I-4.06J-3.33  ;
N669 G1X205.19Y1407.69  ;
N670 G2X200.09Y1403.53I-5.13J1.09  ;
N671 G1X161.42Y1403.25  ;
N672 G2X161.35Y1413.75I-0.03J5.25  ;
N673 G1X191.97Y1413.97  ;
N674 G3X196.58Y1417.74I-0.03J4.75  ;
N675 G1X199.32Y1430.68  ;
N676 G3X198.2Y1434.85I-4.65J0.98  ;
N677 G3X167.54Y1458.17I-77.69J-70.28  ;
N678 G3X160.97Y1455.63I-2.13J-4.24  ;
N679 G1X157.94Y1447.69  ;
N680 G2X148.13Y1451.44I-4.91J1.87  ;
N681 G1X151.17Y1459.38  ;
N682 G3X147.98Y1465.66I-4.44J1.7  ;
N683 G3X96.38Y1466.5I-27.47J-101.09  ;
N684 G3X92.98Y1460.33I1.09J-4.62  ;
N685 G1X95.76Y1452.3  ;
N686 G2X95.8Y1449.01I-4.97J-1.72  ;
N687 G1X81.6Y1403.87  ;
N688 G2X71.58Y1407.02I-5.01J1.58  ;
N689 G1X84.8Y1449.01  ;
N690 G3X84.75Y1451.99I-4.54J1.43  ;
N691 G1X83.06Y1456.9  ;
N692 G3X76.57Y1459.66I-4.49J-1.55  ;
N693 G3X36.5Y1427.14I43.94J-95.09  ;
N694 G3X37.87Y1420.23I3.81J-2.84  ;
N695 G1X45.16Y1415.86  ;
N696 G2X39.76Y1406.85I-2.7J-4.5  ;
N697 G1X27.97Y1413.92  ;
N698 G1X22.92Y1405.5  ;
N699 G2X15.76Y1403.67I-4.5J2.7  ;
N700 G2X14.01Y1410.84I2.75J4.47  ;
N701 G1X19.18Y1419.47  ;
N702 G2X190.94Y1455.8I101.33J-54.9  ;
N703 G65 P9104 A101 B01  ;
N704 M98 P9103  ;
(P15:ID11:287579-2)  ;
(X751.27 Y420.141 R180)  ;
N705 M98 P9101  ;
N706 G0X688.93Y211.16  ;
N707 G65 P9102 A101 B01  ;
N708 G1X693.18Y215.41  ;
N709 G3X693.18Y217.88I-1.24J1.23  ;
N710 G1X681.02Y230.04  ;
N711 G1X681.02Y420.39  ;
N712 G1X701.46Y420.39  ;
N713 G1X751.52Y230.17  ;
N714 G1X751.52Y209.89  ;
N715 G1X701.17Y209.89  ;
N716 G1X693.18Y217.88  ;
N717 G65 P9104 A101 B02  ;
N718 M98 P9103  ;
(P16:ID12:200598-4)  ;
(X758.27 Y193.352 R0)  ;
N719 M98 P9101  ;
N720 G0X852.49Y256.61  ;
N721 G65 P9102 A101 B02  ;
N722 G1X857.41Y260.05  ;
N723 G3X857.64Y262.72I-1.01J1.43  ;
N724 G3X857.64Y262.72I-9.37J-9.37  ;
N725 G65 P9104 A101 B01  ;
N726 G0X946.27Y281.96  ;
N727 G65 P9102 A101 B01  ;
N728 G1X940.27Y281.96  ;
N729 G3X938.52Y280.21I0J-1.75  ;
N730 G1X938.52Y197.35  ;
N731 G2X934.27Y193.1I-4.25J0  ;
N732 G1X762.27Y193.1  ;
N733 G2X758.02Y197.35I0J4.25  ;
N734 G1X758.02Y309.35  ;
N735 G2X762.27Y313.6I4.25J0  ;
N736 G1X934.27Y313.6  ;
N737 G2X938.52Y309.35I0J-4.25  ;
N738 G1X938.52Y280.21  ;
N739 G65 P9104 A101 B02  ;
N740 M98 P9103  ;
(P17:ID12:200598-4)  ;
(X953.29 Y193.851 R0)  ;
N741 M98 P9101  ;
N742 G0X1047.51Y257.11  ;
N743 G65 P9102 A101 B02  ;
N744 G1X1052.43Y260.55  ;
N745 G3X1052.66Y263.22I-1.01J1.43  ;
N746 G3X1052.66Y263.22I-9.37J-9.37  ;
N747 G65 P9104 A101 B01  ;
N748 G0X1141.29Y282.46  ;
N749 G65 P9102 A101 B01  ;
N750 G1X1135.29Y282.46  ;
N751 G3X1133.54Y280.71I0J-1.75  ;
N752 G1X1133.54Y197.85  ;
N753 G2X1129.29Y193.6I-4.25J0  ;
N754 G1X957.29Y193.6  ;
N755 G2X953.04Y197.85I0J4.25  ;
N756 G1X953.04Y309.85  ;
N757 G2X957.29Y314.1I4.25J0  ;
N758 G1X1129.29Y314.1  ;
N759 G2X1133.54Y309.85I0J-4.25  ;
N760 G1X1133.54Y280.71  ;
N761 G65 P9104 A101 B02  ;
N762 M98 P9103  ;
(P18:ID13:201876-8)  ;
(X1056.853 Y320.851 R0)  ;
N763 M98 P9101  ;
N764 G0X1076.79Y351.09  ;
N765 G65 P9102 A101 B02  ;
N766 G1X1079.16Y351.73  ;
N767 G3X1079.68Y353.68I-0.3J1.12  ;
N768 G3X1079.68Y353.68I-2.83J-2.83  ;
N769 G65 P9104 A101 B02  ;
N770 G0X1136.79Y351.09  ;
N771 G65 P9102 A101 B02  ;
N772 G1X1139.16Y351.73  ;
N773 G3X1139.68Y353.68I-0.3J1.12  ;
N774 G3X1139.68Y353.68I-2.83J-2.83  ;
N775 G65 P9104 A101 B01  ;
N776 G0X1164.85Y363.9  ;
N777 G65 P9102 A101 B01  ;
N778 G1X1158.85Y363.9  ;
N779 G3X1157.1Y362.15I0J-1.75  ;
N780 G1X1157.1Y325.85  ;
N781 G2X1151.85Y320.6I-5.25J0  ;
N782 G1X1061.85Y320.6  ;
N783 G2X1056.6Y325.85I0J5.25  ;
N784 G1X1056.6Y375.85  ;
N785 G2X1061.85Y381.1I5.25J0  ;
N786 G1X1151.85Y381.1  ;
N787 G2X1157.1Y375.85I0J-5.25  ;
N788 G1X1157.1Y362.15  ;
N789 G65 P9104 A101 B02  ;
N790 M98 P9103  ;
(P19:ID2:217701-8)  ;
(X1156.623 Y485.351 R180)  ;
N791 M98 P9101  ;
N792 G0X1136.69Y437.61  ;
N793 G65 P9102 A101 B02  ;
N794 G1X1133.84Y436.85  ;
N795 G3X1133.19Y434.42I0.38J-1.4  ;
N796 G3X1133.19Y434.42I3.43J3.43  ;
N797 G65 P9104 A101 B02  ;
N798 G0X1136.69Y407.61  ;
N799 G65 P9102 A101 B02  ;
N800 G1X1133.84Y406.85  ;
N801 G3X1133.19Y404.42I0.38J-1.4  ;
N802 G3X1133.19Y404.42I3.43J3.43  ;
N803 G65 P9104 A101 B01  ;
N804 G0X1108.62Y412.21  ;
N805 G65 P9102 A101 B01  ;
N806 G1X1114.62Y412.21  ;
N807 G3X1116.37Y413.96I0J1.75  ;
N808 G1X1116.37Y485.95  ;
N809 G1X1134.68Y467.65  ;
N810 G3X1138.57Y467.65I1.94J1.94  ;
N811 G1X1156.87Y485.95  ;
N812 G1X1156.87Y397.85  ;
N813 G2X1146.62Y387.6I-10.25J0  ;
N814 G1X1126.62Y387.6  ;
N815 G2X1116.37Y397.85I0J10.25  ;
N816 G1X1116.37Y413.96  ;
N817 G65 P9104 A101 B01  ;
N818 M98 P9103  ;
(P20:ID14:287878-9)  ;
(X1091.223 Y492.351 R0)  ;
N819 M98 P9101  ;
N820 G0X1156.87Y698.01  ;
N821 G65 P9102 A101 B01  ;
N822 G1X1152.63Y693.77  ;
N823 G3X1152.63Y691.3I1.24J-1.24  ;
N824 G1X1161.47Y682.45  ;
N825 G1X1161.47Y492.1  ;
N826 G1X1141.03Y492.1  ;
N827 G1X1090.97Y682.32  ;
N828 G1X1090.97Y702.6  ;
N829 G1X1141.33Y702.6  ;
N830 G1X1152.63Y691.3  ;
N831 G65 P9104 A101 B02  ;
N832 M98 P9103  ;
(P21:ID6:245107-8)  ;
(X833.524 Y447.257 R0)  ;
N833 M98 P9101  ;
N834 G0X893.24Y481.56  ;
N835 G65 P9102 A101 B02  ;
N836 G1X894.91Y482.01  ;
N837 G3X895.25Y483.26I-0.19J0.72  ;
N838 G3X895.25Y483.26I-1.94J-1.94  ;
N839 G65 P9104 A101 B01  ;
N840 G0X932.15Y467.88  ;
N841 G65 P9102 A101 B01  ;
N842 G1X928.3Y472.48  ;
N843 G3X925.83Y472.69I-1.34J-1.13  ;
N844 G1X896.68Y448.24  ;
N845 G2X889.93Y448.24I-3.37J4.02  ;
N846 G1X836.94Y492.7  ;
N847 G2X833.74Y503.61I6.58J7.86  ;
N848 G2X870.07Y528.99I34.57J-10.79  ;
N849 G2X872.16Y526.29I-0.11J-2.25  ;
N850 G3X930.92Y523.14I29.15J-5.97  ;
N851 G2X934.15Y525.38I2.24J0.22  ;
N852 G2X952.87Y503.61I-15.84J-32.56  ;
N853 G2X949.68Y492.7I-9.78J-3.05  ;
N854 G1X925.83Y472.69  ;
N855 G65 P9104 A101 B02  ;
N856 M98 P9103  ;
(P22:ID6:245107-8)  ;
(X936.08 Y600.665 R180)  ;
N857 M98 P9101  ;
N858 G0X876.36Y566.36  ;
N859 G65 P9102 A101 B02  ;
N860 G1X874.69Y565.92  ;
N861 G3X874.35Y564.66I0.19J-0.73  ;
N862 G3X874.35Y564.66I1.95J1.95  ;
N863 G65 P9104 A101 B01  ;
N864 G0X837.45Y580.04  ;
N865 G65 P9102 A101 B01  ;
N866 G1X841.31Y575.44  ;
N867 G3X843.77Y575.23I1.34J1.13  ;
N868 G1X872.92Y599.69  ;
N869 G2X879.67Y599.69I3.38J-4.03  ;
N870 G1X932.67Y555.22  ;
N871 G2X935.86Y544.31I-6.59J-7.85  ;
N872 G2X899.54Y518.94I-34.56J10.8  ;
N873 G2X897.44Y521.63I0.11J2.24  ;
N874 G3X838.68Y524.78I-29.14J5.98  ;
N875 G2X835.46Y522.54I-2.24J-0.22  ;
N876 G2X816.73Y544.31I15.84J32.57  ;
N877 G2X819.93Y555.22I9.79J3.06  ;
N878 G1X843.77Y575.23  ;
N879 G65 P9104 A101 B01  ;
N880 M98 P9103  ;
(P23:ID8:253707-3)  ;
(X1014.543 Y647.412 R180)  ;
N881 M98 P9101  ;
N882 G0X815.33Y531.27  ;
N883 G65 P9102 A101 B01  ;
N884 G1X809.33Y531.41  ;
N885 G3X807.54Y529.66I-0.04J-1.75  ;
N886 G3X807.54Y529.66I89.25J0  ;
N887 G65 P9104 A101 B01  ;
N888 G0X807.09Y617.76  ;
N889 G65 P9102 A101 B01  ;
N890 G1X811.38Y613.57  ;
N891 G3X813.83Y613.57I1.22J1.25  ;
N892 G2X813.83Y613.57I82.96J-83.91  ;
N893 G65 P9104 A101 B04  ;
(P24:ID9:202135-4)  ;
(X1115.305 Y750.352 R180)  ;
N894 G0X1062.87Y632.1  ;
N895 G65 P9102 A101 B04  ;
N896 G1X1080.05Y642.02  ;
N897 G1X1082.55Y637.69  ;
N898 G1X1065.37Y627.77  ;
N899 G65 P9104 A101 B04  ;
N900 G0X1033.18Y609.18  ;
N901 G65 P9102 A101 B04  ;
N902 G1X1015.86Y599.18  ;
N903 G65 P9104 A101 B04  ;
N904 G0X1013.36Y603.51  ;
N905 G65 P9102 A101 B04  ;
N906 G1X1030.68Y613.51  ;
N907 G65 P9104 A101 B04  ;
N908 G0X902.81Y667.34  ;
N909 G65 P9102 A101 B04  ;
N910 G1X902.81Y687.34  ;
N911 G65 P9104 A101 B04  ;
N912 G0X897.81Y687.34  ;
N913 G65 P9102 A101 B04  ;
N914 G1X897.81Y667.34  ;
N915 G65 P9104 A101 B04  ;
N916 G0X897.81Y724.51  ;
N917 G65 P9102 A101 B04  ;
N918 G1X897.81Y744.35  ;
N919 G1X902.81Y744.35  ;
N920 G1X902.81Y724.51  ;
N921 G65 P9104 A101 B04  ;
N922 G0X787.25Y603.51  ;
N923 G65 P9102 A101 B04  ;
N924 G1X769.93Y613.51  ;
N925 G65 P9104 A101 B04  ;
N926 G0X767.43Y609.18  ;
N927 G65 P9102 A101 B04  ;
N928 G1X784.75Y599.18  ;
N929 G65 P9104 A101 B04  ;
N930 G0X735.24Y627.77  ;
N931 G65 P9102 A101 B04  ;
N932 G1X718.06Y637.69  ;
N933 G1X720.56Y642.02  ;
N934 G1X737.74Y632.1  ;
N935 G65 P9104 A101 B04  ;
N936 G0X784.75Y471.52  ;
N937 G65 P9102 A101 B04  ;
N938 G1X767.43Y461.52  ;
N939 G65 P9104 A101 B04  ;
N940 G0X769.93Y457.19  ;
N941 G65 P9102 A101 B04  ;
N942 G1X787.25Y467.19  ;
N943 G65 P9104 A101 B04  ;
N944 G0X737.74Y438.61  ;
N945 G65 P9102 A101 B04  ;
N946 G1X720.56Y428.69  ;
N947 G1X718.06Y433.02  ;
N948 G1X735.24Y442.94  ;
N949 G65 P9104 A101 B04  ;
N950 G0X897.81Y403.37  ;
N951 G65 P9102 A101 B04  ;
N952 G1X897.81Y383.37  ;
N953 G65 P9104 A101 B04  ;
N954 G0X902.81Y383.37  ;
N955 G65 P9102 A101 B04  ;
N956 G1X902.81Y403.37  ;
N957 G65 P9104 A101 B04  ;
N958 G0X902.81Y346.19  ;
N959 G65 P9102 A101 B04  ;
N960 G1X902.81Y326.35  ;
N961 G1X897.81Y326.35  ;
N962 G1X897.81Y346.19  ;
N963 G65 P9104 A101 B04  ;
N964 G0X1013.36Y467.19  ;
N965 G65 P9102 A101 B04  ;
N966 G1X1030.68Y457.19  ;
N967 G65 P9104 A101 B04  ;
N968 G0X1033.18Y461.52  ;
N969 G65 P9102 A101 B04  ;
N970 G1X1015.86Y471.52  ;
N971 G65 P9104 A101 B04  ;
N972 G0X1065.37Y442.94  ;
N973 G65 P9102 A101 B04  ;
N974 G1X1082.55Y433.02  ;
N975 G1X1080.05Y428.69  ;
N976 G1X1062.87Y438.61  ;
N977 G65 P9104 A101 B02  ;
N978 G0X1021.83Y409.92  ;
N979 G65 P9102 A101 B02  ;
N980 G1X1016.75Y406.73  ;
N981 G3X1016.45Y404.01I0.93J-1.49  ;
N982 G3X1016.45Y404.01I7.6J7.6  ;
N983 G65 P9104 A101 B02  ;
N984 G0X943.38Y364.63  ;
N985 G65 P9102 A101 B02  ;
N986 G1X938.3Y361.43  ;
N987 G3X938Y358.71I0.93J-1.48  ;
N988 G3X938Y358.71I7.6J7.6  ;
N989 G65 P9104 A101 B02  ;
N990 G0X852.8Y364.63  ;
N991 G65 P9102 A101 B02  ;
N992 G1X847.72Y361.43  ;
N993 G3X847.41Y358.71I0.93J-1.48  ;
N994 G3X847.41Y358.71I7.6J7.6  ;
N995 G65 P9104 A101 B02  ;
N996 G0X774.35Y409.92  ;
N997 G65 P9102 A101 B02  ;
N998 G1X769.27Y406.73  ;
N999 G3X768.96Y404.01I0.93J-1.49  ;
N1000 G3X768.96Y404.01I7.6J7.6  ;
N1001 G65 P9104 A101 B02  ;
N1002 G0X729.05Y488.37  ;
N1003 G65 P9102 A101 B02  ;
N1004 G1X723.97Y485.18  ;
N1005 G3X723.67Y482.46I0.93J-1.49  ;
N1006 G3X723.67Y482.46I7.6J7.6  ;
N1007 G65 P9104 A101 B02  ;
N1008 G0X729.05Y578.96  ;
N1009 G65 P9102 A101 B02  ;
N1010 G1X723.97Y575.76  ;
N1011 G3X723.67Y573.04I0.93J-1.48  ;
N1012 G3X723.67Y573.04I7.6J7.61  ;
N1013 G65 P9104 A101 B02  ;
N1014 G0X774.35Y657.41  ;
N1015 G65 P9102 A101 B02  ;
N1016 G1X769.27Y654.21  ;
N1017 G3X768.96Y651.49I0.93J-1.48  ;
N1018 G3X768.96Y651.49I7.6J7.61  ;
N1019 G65 P9104 A101 B02  ;
N1020 G0X852.8Y702.7  ;
N1021 G65 P9102 A101 B02  ;
N1022 G1X847.72Y699.51  ;
N1023 G3X847.41Y696.79I0.93J-1.49  ;
N1024 G3X847.41Y696.79I7.6J7.6  ;
N1025 G65 P9104 A101 B02  ;
N1026 G0X943.38Y702.7  ;
N1027 G65 P9102 A101 B02  ;
N1028 G1X938.3Y699.51  ;
N1029 G3X938Y696.79I0.93J-1.49  ;
N1030 G3X938Y696.79I7.6J7.6  ;
N1031 G65 P9104 A101 B02  ;
N1032 G0X1021.83Y657.41  ;
N1033 G65 P9102 A101 B02  ;
N1034 G1X1016.75Y654.21  ;
N1035 G3X1016.45Y651.49I0.93J-1.48  ;
N1036 G3X1016.45Y651.49I7.6J7.61  ;
N1037 G65 P9104 A101 B02  ;
N1038 G0X1067.13Y578.96  ;
N1039 G65 P9102 A101 B02  ;
N1040 G1X1062.05Y575.76  ;
N1041 G3X1061.74Y573.04I0.93J-1.48  ;
N1042 G3X1061.74Y573.04I7.6J7.61  ;
N1043 G65 P9104 A101 B02  ;
N1044 G0X1067.13Y488.37  ;
N1045 G65 P9102 A101 B02  ;
N1046 G1X1062.05Y485.18  ;
N1047 G3X1061.74Y482.46I0.93J-1.49  ;
N1048 G3X1061.74Y482.46I7.6J7.6  ;
N1049 G65 P9104 A101 B01  ;
N1050 G0X824.86Y633.11  ;
N1051 G65 P9102 A101 B01  ;
N1052 G1X821.21Y637.87  ;
N1053 G3X818.73Y638.18I-1.39J-1.07  ;
N1054 G3X818.73Y638.18I81.58J-102.83  ;
N1055 G65 P9104 A101 B01  ;
N1056 G0X750.68Y700.69  ;
N1057 G65 P9102 A101 B01  ;
N1058 G1X754.71Y696.25  ;
N1059 G3X757.17Y696.12I1.3J1.17  ;
N1060 G2X757.17Y696.12I143.14J-160.77  ;
N1061 G65 P9104 A101 B02  ;
N1062 M98 P9103  ;
(P25:ID15:287585-3)  ;
(X680.743 Y675.498 R0)  ;
N1063 M98 P9101  ;
N1064 G0X710.66Y695.74  ;
N1065 G65 P9102 A101 B02  ;
N1066 G1X714.48Y697.02  ;
N1067 G3X715.16Y699.92I-0.55J1.66  ;
N1068 G3X715.16Y699.92I-4.42J-4.42  ;
N1069 G65 P9104 A101 B01  ;
N1070 G0X700.08Y723.5  ;
N1071 G65 P9102 A101 B01  ;
N1072 G1X700.08Y717.5  ;
N1073 G3X701.83Y715.75I1.75J0  ;
N1074 G1X725.74Y715.75  ;
N1075 G2X730.99Y710.5I0J-5.25  ;
N1076 G1X730.99Y680.5  ;
N1077 G2X725.74Y675.25I-5.25J0  ;
N1078 G1X680.49Y675.25  ;
N1079 G1X680.49Y715.75  ;
N1080 G1X701.83Y715.75  ;
N1081 G65 P9104 A101 B02  ;
N1082 M98 P9103  ;
(P26:ID16:237728-2)  ;
(X798.785 Y756.309 R180)  ;
N1083 M98 P9101  ;
N1084 G0X792.36Y749.84  ;
N1085 G65 P9102 A101 B02  ;
N1086 G1X790.96Y749.47  ;
N1087 G3X790.7Y748.49I0.15J-0.57  ;
N1088 G3X790.7Y748.49I1.59J1.59  ;
N1089 G65 P9104 A101 B02  ;
N1090 G0X707.64Y742.93  ;
N1091 G65 P9102 A101 B02  ;
N1092 G1X706.24Y742.55  ;
N1093 G3X705.98Y741.58I0.15J-0.56  ;
N1094 G3X705.98Y741.58I1.59J1.59  ;
N1095 G65 P9104 A101 B02  ;
N1096 G0X688.36Y749.37  ;
N1097 G65 P9102 A101 B02  ;
N1098 G1X686.55Y748.89  ;
N1099 G3X686.17Y747.49I0.21J-0.81  ;
N1100 G3X686.17Y747.49I2.12J2.13  ;
N1101 G65 P9104 A101 B01  ;
N1102 G0X701.3Y730.41  ;
N1103 G65 P9102 A101 B01  ;
N1104 G1X702.97Y736.17  ;
N1105 G3X701.81Y738.33I-1.68J0.49  ;
N1106 G2X696.65Y740.03I38.56J125.46  ;
N1107 G1X687.15Y743.39  ;
N1108 G2X691.32Y755.18I2.09J5.89  ;
N1109 G1X700.81Y751.82  ;
N1110 G3X790.16Y755.98I39.56J111.97  ;
N1111 G2X795.41Y744.64I2.62J-5.67  ;
N1112 G2X701.81Y738.33I-55.04J119.15  ;
N1113 G65 P9104 A101 B02  ;
N1114 M98 P9103  ;
(P27:ID16:237728-2)  ;
(X903.034 Y777.256 R180)  ;
N1115 M98 P9101  ;
N1116 G0X896.61Y770.79  ;
N1117 G65 P9102 A101 B02  ;
N1118 G1X895.21Y770.41  ;
N1119 G3X894.95Y769.44I0.15J-0.56  ;
N1120 G3X894.95Y769.44I1.59J1.59  ;
N1121 G65 P9104 A101 B02  ;
N1122 G0X811.89Y763.87  ;
N1123 G65 P9102 A101 B02  ;
N1124 G1X810.49Y763.5  ;
N1125 G3X810.23Y762.52I0.15J-0.56  ;
N1126 G3X810.23Y762.52I1.59J1.6  ;
N1127 G65 P9104 A101 B02  ;
N1128 G0X792.61Y770.32  ;
N1129 G65 P9102 A101 B02  ;
N1130 G1X790.8Y769.84  ;
N1131 G3X790.42Y768.44I0.21J-0.81  ;
N1132 G3X790.42Y768.44I2.12J2.12  ;
N1133 G65 P9104 A101 B01  ;
N1134 G0X805.54Y751.36  ;
N1135 G65 P9102 A101 B01  ;
N1136 G1X807.22Y757.12  ;
N1137 G3X806.05Y759.28I-1.68J0.49  ;
N1138 G2X800.9Y760.98I38.57J125.46  ;
N1139 G1X791.4Y764.34  ;
N1140 G2X795.57Y776.12I2.09J5.89  ;
N1141 G1X805.06Y772.77  ;
N1142 G3X894.41Y776.93I39.56J111.97  ;
N1143 G2X899.65Y765.58I2.62J-5.67  ;
N1144 G2X806.05Y759.28I-55.03J119.16  ;
N1145 G65 P9104 A101 B02  ;
N1146 M98 P9103  ;
(P28:ID6:245107-8)  ;
(X994.127 Y697.828 R0)  ;
N1147 M98 P9101  ;
N1148 G0X1053.84Y732.13  ;
N1149 G65 P9102 A101 B02  ;
N1150 G1X1055.52Y732.58  ;
N1151 G3X1055.85Y733.83I-0.2J0.72  ;
N1152 G3X1055.85Y733.83I-1.94J-1.94  ;
N1153 G65 P9104 A101 B01  ;
N1154 G0X1092.76Y718.45  ;
N1155 G65 P9102 A101 B01  ;
N1156 G1X1088.9Y723.05  ;
N1157 G3X1086.43Y723.27I-1.34J-1.12  ;
N1158 G1X1057.28Y698.81  ;
N1159 G2X1050.53Y698.81I-3.37J4.02  ;
N1160 G1X997.54Y743.28  ;
N1161 G2X994.34Y754.18I6.59J7.85  ;
N1162 G2X1030.67Y779.56I34.57J-10.79  ;
N1163 G2X1032.76Y776.86I-0.11J-2.25  ;
N1164 G3X1091.52Y773.71I29.15J-5.97  ;
N1165 G2X1094.75Y775.95I2.24J0.22  ;
N1166 G2X1113.48Y754.18I-15.84J-32.56  ;
N1167 G2X1110.28Y743.28I-9.79J-3.05  ;
N1168 G1X1086.43Y723.27  ;
N1169 G65 P9104 A101 B02  ;
N1170 M98 P9103  ;
(P29:ID17:275117-1)  ;
(X1833.843 Y958.637 R180)  ;
N1171 M98 P9101  ;
N1172 G0X1073.81Y793.61  ;
N1173 G65 P9102 A101 B02  ;
N1174 G1X1072Y793.12  ;
N1175 G3X1071.62Y791.73I0.21J-0.8  ;
N1176 G3X1071.62Y791.73I2.12J2.12  ;
N1177 G65 P9104 A101 B02  ;
N1178 G0X773.81Y793.61  ;
N1179 G65 P9102 A101 B02  ;
N1180 G1X772Y793.12  ;
N1181 G3X771.62Y791.73I0.21J-0.8  ;
N1182 G3X771.62Y791.73I2.12J2.12  ;
N1183 G65 P9104 A101 B02  ;
N1184 G0X773.81Y178.61  ;
N1185 G65 P9102 A101 B02  ;
N1186 G1X772Y178.12  ;
N1187 G3X771.62Y176.73I0.21J-0.8  ;
N1188 G3X771.62Y176.73I2.12J2.12  ;
N1189 G65 P9104 A101 B02  ;
N1190 G0X1073.81Y178.61  ;
N1191 G65 P9102 A101 B02  ;
N1192 G1X1072Y178.12  ;
N1193 G3X1071.62Y176.73I0.21J-0.8  ;
N1194 G3X1071.62Y176.73I2.12J2.12  ;
N1195 G65 P9104 A101 B02  ;
N1196 G0X1548.91Y19.76  ;
N1197 G65 P9102 A101 B02  ;
N1198 G1X1545.98Y18.97  ;
N1199 G3X1545.31Y16.46I0.39J-1.44  ;
N1200 G3X1545.31Y16.46I3.53J3.54  ;
N1201 G65 P9104 A101 B02  ;
N1202 G0X298.91Y19.76  ;
N1203 G65 P9102 A101 B02  ;
N1204 G1X295.98Y18.97  ;
N1205 G3X295.31Y16.46I0.39J-1.44  ;
N1206 G3X295.31Y16.46I3.53J3.54  ;
N1207 G65 P9104 A101 B01  ;
N1208 G0X681.74Y495.83  ;
N1209 G65 P9102 A101 B01  ;
N1210 G1X675.74Y495.83  ;
N1211 G3X673.99Y494.08I0J-1.75  ;
N1212 G1X673.99Y236.35  ;
N1213 G3X723.74Y186.6I49.75J0  ;
N1214 G1X1123.74Y186.6  ;
N1215 G3X1173.49Y236.35I0J49.75  ;
N1216 G1X1173.49Y736.35  ;
N1217 G3X1123.74Y786.1I-49.75J0  ;
N1218 G1X723.74Y786.1  ;
N1219 G3X673.99Y736.35I0J-49.75  ;
N1220 G1X673.99Y494.08  ;
N1221 G65 P9104 A101 B01  ;
N1222 G0X424.4Y698.37  ;
N1223 G65 P9102 A101 B01  ;
N1224 G1X421.35Y693.2  ;
N1225 G3X422.08Y690.74I1.51J-0.89  ;
N1226 G3X461.96Y704.16I13.23J26.65  ;
N1227 G1X515.32Y811.65  ;
N1228 G3X462.02Y838.1I-26.65J13.23  ;
N1229 G1X408.66Y730.62  ;
N1230 G3X422.08Y690.74I26.65J-13.23  ;
N1231 G65 P9104 A101 B01  ;
N1232 G0X1350.13Y845.07  ;
N1233 G65 P9102 A101 B01  ;
N1234 G1X1347.85Y850.62  ;
N1235 G3X1345.46Y851.52I-1.62J-0.66  ;
N1236 G3X1332.04Y811.65I13.22J-26.64  ;
N1237 G1X1385.39Y704.16  ;
N1238 G3X1438.69Y730.62I26.65J13.23  ;
N1239 G1X1385.33Y838.1  ;
N1240 G3X1345.46Y851.52I-26.65J-13.22  ;
N1241 G65 P9104 A101 B01  ;
N1242 G0X78.33Y184.93  ;
N1243 G65 P9102 A101 B01  ;
N1244 G1X83.71Y182.26  ;
N1245 G3X86.05Y183.05I0.78J1.57  ;
N1246 G1X468.26Y952.99  ;
N1247 G1X473.57Y958.89  ;
N1248 G1X1373.79Y958.89  ;
N1249 G1X1379.1Y952.99  ;
N1250 G1X1824.88Y54.96  ;
N1251 G1X1834.09Y36.56  ;
N1252 G1X1834.09Y15  ;
N1253 G2X1823.84Y4.75I-10.25J0  ;
N1254 G1X924.43Y4.75  ;
N1255 G1X924.43Y45.75  ;
N1256 G1X922.93Y45.75  ;
N1257 G1X922.93Y4.75  ;
N1258 G1X23.51Y4.75  ;
N1259 G2X13.26Y15I0J10.25  ;
N1260 G1X13.26Y36.56  ;
N1261 G1X22.47Y54.96  ;
N1262 G1X86.05Y183.05  ;
N1263 G65 P9104 A101 B02  ;
N1264 M98 P9103  ;
(P30:ID18:265201-1)  ;
(X708.335 Y1095.637 R180)  ;
N1265 M98 P9101  ;
N1266 G0X579.51Y1027.7  ;
N1267 G65 P9102 A101 B02  ;
N1268 G1X574.57Y1024.3  ;
N1269 G3X574.32Y1021.62I0.99J-1.44  ;
N1270 G3X574.32Y1021.62I9.02J9.02  ;
N1271 G65 P9104 A101 B01  ;
N1272 G0X450.34Y989.68  ;
N1273 G65 P9102 A101 B01  ;
N1274 G1X456.34Y989.68  ;
N1275 G3X458.09Y991.43I0J1.75  ;
N1276 G1X458.09Y1090.64  ;
N1277 G2X463.34Y1095.89I5.25J0  ;
N1278 G1X703.34Y1095.89  ;
N1279 G2X708.59Y1090.64I0J-5.25  ;
N1280 G1X708.59Y970.64  ;
N1281 G2X703.34Y965.39I-5.25J0  ;
N1282 G1X463.34Y965.39  ;
N1283 G2X458.09Y970.64I0J5.25  ;
N1284 G1X458.09Y991.43  ;
N1285 G65 P9104 A101 B02  ;
N1286 M98 P9103  ;
(P31:ID12:200598-4)  ;
(X715.335 Y965.637 R0)  ;
N1287 M98 P9101  ;
N1288 G0X809.55Y1028.89  ;
N1289 G65 P9102 A101 B02  ;
N1290 G1X814.47Y1032.34  ;
N1291 G3X814.7Y1035.01I-1J1.43  ;
N1292 G3X814.7Y1035.01I-9.36J-9.37  ;
N1293 G65 P9104 A101 B01  ;
N1294 G0X903.34Y1054.24  ;
N1295 G65 P9102 A101 B01  ;
N1296 G1X897.34Y1054.24  ;
N1297 G3X895.59Y1052.49I0J-1.75  ;
N1298 G1X895.59Y969.64  ;
N1299 G2X891.34Y965.39I-4.25J0  ;
N1300 G1X719.34Y965.39  ;
N1301 G2X715.09Y969.64I0J4.25  ;
N1302 G1X715.09Y1081.64  ;
N1303 G2X719.34Y1085.89I4.25J0  ;
N1304 G1X891.34Y1085.89  ;
N1305 G2X895.59Y1081.64I0J-4.25  ;
N1306 G1X895.59Y1052.49  ;
N1307 G65 P9104 A101 B02  ;
N1308 M98 P9103  ;
(P32:ID5:247521-9)  ;
(X902.335 Y965.637 R0)  ;
N1309 M98 P9101  ;
N1310 G0X946.72Y1010.33  ;
N1311 G65 P9102 A101 B02  ;
N1312 G1X949.51Y1011.08  ;
N1313 G3X950.14Y1013.45I-0.37J1.36  ;
N1314 G3X950.14Y1013.45I-3.35J-3.36  ;
N1315 G65 P9104 A101 B01  ;
N1316 G0X988.81Y978.78  ;
N1317 G65 P9102 A101 B01  ;
N1318 G1X983.98Y982.34  ;
N1319 G3X981.58Y982.03I-1.04J-1.41  ;
N1320 G2X981.58Y982.03I-34.79J28.06  ;
N1321 G65 P9104 A101 B02  ;
N1322 M98 P9103  ;
(P33:ID13:201876-8)  ;
(X1131.477 Y1025.637 R180)  ;
N1323 M98 P9101  ;
N1324 G0X1111.54Y995.4  ;
N1325 G65 P9102 A101 B02  ;
N1326 G1X1109.17Y994.76  ;
N1327 G3X1108.65Y992.81I0.3J-1.13  ;
N1328 G3X1108.65Y992.81I2.83J2.83  ;
N1329 G65 P9104 A101 B02  ;
N1330 G0X1051.54Y995.4  ;
N1331 G65 P9102 A101 B02  ;
N1332 G1X1049.17Y994.76  ;
N1333 G3X1048.65Y992.81I0.3J-1.13  ;
N1334 G3X1048.65Y992.81I2.83J2.83  ;
N1335 G65 P9104 A101 B01  ;
N1336 G0X1023.48Y982.59  ;
N1337 G65 P9102 A101 B01  ;
N1338 G1X1029.48Y982.59  ;
N1339 G3X1031.23Y984.34I0J1.75  ;
N1340 G1X1031.23Y1020.64  ;
N1341 G2X1036.48Y1025.89I5.25J0  ;
N1342 G1X1126.48Y1025.89  ;
N1343 G2X1131.73Y1020.64I0J-5.25  ;
N1344 G1X1131.73Y970.64  ;
N1345 G2X1126.48Y965.39I-5.25J0  ;
N1346 G1X1036.48Y965.39  ;
N1347 G2X1031.23Y970.64I0J5.25  ;
N1348 G1X1031.23Y984.34  ;
N1349 G65 P9104 A101 B02  ;
N1350 M98 P9103  ;
(P34:ID5:247521-9)  ;
(X1141.728 Y965.637 R0)  ;
N1351 M98 P9101  ;
N1352 G0X1186.11Y1010.33  ;
N1353 G65 P9102 A101 B02  ;
N1354 G1X1188.9Y1011.08  ;
N1355 G3X1189.54Y1013.45I-0.37J1.36  ;
N1356 G3X1189.54Y1013.45I-3.36J-3.36  ;
N1357 G65 P9104 A101 B01  ;
N1358 G0X1228.2Y978.78  ;
N1359 G65 P9102 A101 B01  ;
N1360 G1X1223.37Y982.34  ;
N1361 G3X1220.97Y982.03I-1.03J-1.41  ;
N1362 G2X1220.97Y982.03I-34.79J28.06  ;
N1363 G65 P9104 A101 B02  ;
N1364 M98 P9103  ;
(P35:ID19:205018-2)  ;
(X413.3 Y1087.568 R0)  ;
N1365 M98 P9101  ;
N1366 G0X665.65Y1167.81  ;
N1367 G65 P9102 A101 B02  ;
N1368 G1X667.88Y1168.41  ;
N1369 G3X668.36Y1170.22I-0.28J1.04  ;
N1370 G3X668.36Y1170.22I-2.65J-2.65  ;
N1371 G65 P9104 A101 B01  ;
N1372 G0X891.14Y1138.58  ;
N1373 G65 P9102 A101 B01  ;
N1374 G1X888.53Y1133.18  ;
N1375 G3X889.34Y1130.85I1.58J-0.76  ;
N1376 G2X918.45Y1115.47I-223.63J-458.64  ;
N1377 G1X904.83Y1087.23  ;
N1378 G3X426.6Y1087.23I-239.12J-495.02  ;
N1379 G1X412.97Y1115.47  ;
N1380 G2X889.34Y1130.85I252.74J-443.26  ;
N1381 G65 P9104 A101 B02  ;
N1382 M98 P9103  ;
(P36:ID19:205018-2)  ;
(X392.728 Y1140.805 R0)  ;
N1383 M98 P9101  ;
N1384 G0X645.08Y1221.05  ;
N1385 G65 P9102 A101 B02  ;
N1386 G1X647.31Y1221.64  ;
N1387 G3X647.79Y1223.46I-0.28J1.05  ;
N1388 G3X647.79Y1223.46I-2.65J-2.65  ;
N1389 G65 P9104 A101 B01  ;
N1390 G0X870.57Y1191.82  ;
N1391 G65 P9102 A101 B01  ;
N1392 G1X867.96Y1186.42  ;
N1393 G3X868.77Y1184.08I1.57J-0.76  ;
N1394 G2X897.88Y1168.71I-223.63J-458.63  ;
N1395 G1X884.26Y1140.47  ;
N1396 G3X406.02Y1140.47I-239.12J-495.02  ;
N1397 G1X392.4Y1168.71  ;
N1398 G2X868.77Y1184.08I252.74J-443.26  ;
N1399 G65 P9104 A101 B02  ;
N1400 M98 P9103  ;
(P37:ID20:205017-2)  ;
(X397.03 Y1185.088 R0)  ;
N1401 M98 P9101  ;
N1402 G0X654.23Y1269.4  ;
N1403 G65 P9102 A101 B02  ;
N1404 G1X658.58Y1271.15  ;
N1405 G3X659.16Y1274.01I-0.65J1.62  ;
N1406 G3X659.16Y1274.01I-4.84J-4.85  ;
N1407 G65 P9104 A101 B01  ;
N1408 G0X878.54Y1231.87  ;
N1409 G65 P9102 A101 B01  ;
N1410 G1X875.9Y1226.48  ;
N1411 G3X876.7Y1224.14I1.57J-0.77  ;
N1412 G2X911.25Y1205.36I-222.38J-450.33  ;
N1413 G2X911.74Y1203.75I-0.64J-1.07  ;
N1414 G1X902.96Y1185.54  ;
N1415 G2X901.27Y1184.97I-1.13J0.55  ;
N1416 G3X407.37Y1184.97I-246.95J-491.16  ;
N1417 G2X405.69Y1185.54I-0.56J1.12  ;
N1418 G1X396.9Y1203.75  ;
N1419 G2X397.39Y1205.36I1.13J0.54  ;
N1420 G2X640.21Y1275.86I256.93J-431.55  ;
N1421 G2X668.44Y1275.86I14.11J-8.05  ;
N1422 G2X876.7Y1224.14I-14.12J-502.05  ;
N1423 G65 P9104 A101 B02  ;
N1424 M98 P9103  ;
(P38:ID20:205017-2)  ;
(X413.345 Y1232.417 R0)  ;
N1425 M98 P9101  ;
N1426 G0X670.54Y1316.73  ;
N1427 G65 P9102 A101 B02  ;
N1428 G1X674.89Y1318.48  ;
N1429 G3X675.48Y1321.34I-0.65J1.62  ;
N1430 G3X675.48Y1321.34I-4.84J-4.85  ;
N1431 G65 P9104 A101 B01  ;
N1432 G0X894.85Y1279.2  ;
N1433 G65 P9102 A101 B01  ;
N1434 G1X892.22Y1273.81  ;
N1435 G3X893.01Y1271.47I1.57J-0.77  ;
N1436 G2X927.57Y1252.69I-222.37J-450.33  ;
N1437 G2X928.05Y1251.08I-0.64J-1.07  ;
N1438 G1X919.27Y1232.87  ;
N1439 G2X917.58Y1232.3I-1.13J0.55  ;
N1440 G3X423.69Y1232.3I-246.94J-491.16  ;
N1441 G2X422Y1232.87I-0.56J1.12  ;
N1442 G1X413.22Y1251.08  ;
N1443 G2X413.71Y1252.69I1.12J0.54  ;
N1444 G2X656.52Y1323.19I256.93J-431.55  ;
N1445 G2X684.75Y1323.19I14.12J-8.05  ;
N1446 G2X893.01Y1271.47I-14.11J-502.05  ;
N1447 G65 P9104 A101 B02  ;
N1448 M98 P9103  ;
(P39:ID5:247521-9)  ;
(X290.144 Y1179.829 R0)  ;
N1449 M98 P9101  ;
N1450 G0X334.53Y1224.52  ;
N1451 G65 P9102 A101 B02  ;
N1452 G1X337.32Y1225.27  ;
N1453 G3X337.95Y1227.64I-0.37J1.37  ;
N1454 G3X337.95Y1227.64I-3.36J-3.36  ;
N1455 G65 P9104 A101 B01  ;
N1456 G0X376.62Y1192.97  ;
N1457 G65 P9102 A101 B01  ;
N1458 G1X371.79Y1196.53  ;
N1459 G3X369.39Y1196.22I-1.04J-1.41  ;
N1460 G2X369.39Y1196.22I-34.8J28.06  ;
N1461 G65 P9104 A101 B04  ;
(P40:ID21:271590-1)  ;
(X103.708 Y1187.475 R0)  ;
N1462 G0X132.05Y1193.57  ;
N1463 G65 P9102 A101 B04  ;
N1464 G1X132.36Y1194.74  ;
N1465 G1X135.36Y1189.56  ;
N1466 G65 P9104 A101 B04  ;
N1467 G0X1258.75Y1195.23  ;
N1468 G65 P9102 A101 B04  ;
N1469 G2X1260.46Y1195.26I0.88J-1.46  ;
N1470 G1X1260.58Y1195.2  ;
N1471 G2X1261.28Y1192.94I-0.83J-1.5  ;
N1472 G2X1260.37Y1192.22I-1.46J0.9  ;
N1473 G2X1258.47Y1191.96I-2.85J13.92  ;
N1474 G3X1256.15Y1190.81I-0.02J-2.89  ;
N1475 G1X1259.28Y1189.07  ;
N1476 G65 P9104 A101 B01  ;
N1477 M98 P9103  ;
N1478 G0X1290.06Y1224.05  ;
N1479 G65 P9102 A101 B01  ;
N1480 G1X1284.87Y1227.05  ;
N1481 G3X1282.48Y1226.41I-0.88J-1.52  ;
N1482 G1X1259.8Y1187.13  ;
N1483 G3X1200.5Y1219.06I-563.59J-975.67  ;
N1484 G1X1206.32Y1230.69  ;
N1485 G3X764.05Y1349.19I-510.11J-1019.23  ;
N1486 G1X763.28Y1336.22  ;
N1487 G3X132.62Y1187.13I-67.07J-1124.76  ;
N1488 G1X103.37Y1237.8  ;
N1489 G2X1289.05Y1237.8I592.84J-1026.34  ;
N1490 G1X1282.48Y1226.41  ;
N1491 G65 P9104 A101 B02  ;
N1492 M98 P9103  ;
(P41:ID22:271574-1)  ;
(X13.51 Y1237.846 R0)  ;
N1493 M98 P9101  ;
N1494 G0X679.95Y1432.52  ;
N1495 G65 P9102 A101 B02  ;
N1496 G1X682.73Y1433.27  ;
N1497 G3X683.37Y1435.64I-0.36J1.37  ;
N1498 G3X683.37Y1435.64I-3.36J-3.36  ;
N1499 G65 P9104 A101 B02  ;
N1500 G0X679.95Y1467.52  ;
N1501 G65 P9102 A101 B02  ;
N1502 G1X682.73Y1468.27  ;
N1503 G3X683.37Y1470.64I-0.36J1.37  ;
N1504 G3X683.37Y1470.64I-3.36J-3.36  ;
N1505 G65 P9104 A101 B01  ;
N1506 G0X1338.65Y1277.09  ;
N1507 G65 P9102 A101 B01  ;
N1508 G1X1333.46Y1280.09  ;
N1509 G3X1331.07Y1279.45I-0.88J-1.52  ;
N1510 G1X1306.85Y1237.5  ;
N1511 G3X53.17Y1237.5I-626.84J-1085.22  ;
N1512 G1X13.17Y1306.79  ;
N1513 G2X1346.85Y1306.79I666.84J-1154.51  ;
N1514 G1X1331.07Y1279.45  ;
N1515 G65 P9104 A101 B02  ;
N1516 M98 P9103  ;
(P42:ID4:266822-5)  ;
(X918.563 Y1032.637 R0)  ;
N1517 M98 P9101  ;
N1518 G0X978.5Y1157.88  ;
N1519 G65 P9102 A101 B02  ;
N1520 G1X980.23Y1158.34  ;
N1521 G3X980.58Y1159.65I-0.21J0.76  ;
N1522 G3X980.58Y1159.65I-2.02J-2.01  ;
N1523 G65 P9104 A101 B02  ;
N1524 G0X1043.5Y1222.88  ;
N1525 G65 P9102 A101 B02  ;
N1526 G1X1045.23Y1223.34  ;
N1527 G3X1045.58Y1224.65I-0.21J0.76  ;
N1528 G3X1045.58Y1224.65I-2.02J-2.01  ;
N1529 G65 P9104 A101 B02  ;
N1530 G0X1108.5Y1157.88  ;
N1531 G65 P9102 A101 B02  ;
N1532 G1X1110.23Y1158.34  ;
N1533 G3X1110.58Y1159.65I-0.21J0.76  ;
N1534 G3X1110.58Y1159.65I-2.02J-2.01  ;
N1535 G65 P9104 A101 B02  ;
N1536 G0X1043.5Y1092.88  ;
N1537 G65 P9102 A101 B02  ;
N1538 G1X1045.23Y1093.34  ;
N1539 G3X1045.58Y1094.65I-0.21J0.76  ;
N1540 G3X1045.58Y1094.65I-2.02J-2.01  ;
N1541 G65 P9104 A101 B01  ;
N1542 G0X1057.42Y1156.5  ;
N1543 G65 P9102 A101 B01  ;
N1544 G1X1063.39Y1155.9  ;
N1545 G3X1065.31Y1157.64I0.17J1.74  ;
N1546 G3X1065.31Y1157.64I-21.75J0  ;
N1547 G65 P9104 A101 B01  ;
N1548 G0X1140.71Y1066.83  ;
N1549 G65 P9102 A101 B01  ;
N1550 G1X1136.32Y1070.92  ;
N1551 G3X1133.87Y1070.85I-1.19J-1.29  ;
N1552 G2X1133.87Y1070.85I-90.31J86.79  ;
N1553 G65 P9104 A101 B02  ;
N1554 M98 P9103  ;
(P43:ID5:247521-9)  ;
(X1598.851 Y851.792 R0)  ;
N1555 M98 P9101  ;
N1556 G0X1643.24Y896.48  ;
N1557 G65 P9102 A101 B02  ;
N1558 G1X1646.02Y897.23  ;
N1559 G3X1646.66Y899.6I-0.36J1.37  ;
N1560 G3X1646.66Y899.6I-3.36J-3.36  ;
N1561 G65 P9104 A101 B01  ;
N1562 G0X1685.33Y864.93  ;
N1563 G65 P9102 A101 B01  ;
N1564 G1X1680.5Y868.49  ;
N1565 G3X1678.1Y868.18I-1.04J-1.41  ;
N1566 G2X1678.1Y868.18I-34.8J28.06  ;
N1567 G65 P9104 A101 B02  ;
N1568 M98 P9103  ;
(P44:ID15:287585-3)  ;
(X1618.732 Y947.692 R0)  ;
N1569 M98 P9101  ;
N1570 G0X1648.65Y967.93  ;
N1571 G65 P9102 A101 B02  ;
N1572 G1X1652.47Y969.22  ;
N1573 G3X1653.15Y972.11I-0.56J1.65  ;
N1574 G3X1653.15Y972.11I-4.42J-4.42  ;
N1575 G65 P9104 A101 B01  ;
N1576 G0X1638.07Y995.69  ;
N1577 G65 P9102 A101 B01  ;
N1578 G1X1638.07Y989.69  ;
N1579 G3X1639.82Y987.94I1.75J0  ;
N1580 G1X1663.73Y987.94  ;
N1581 G2X1668.98Y982.69I0J-5.25  ;
N1582 G1X1668.98Y952.69  ;
N1583 G2X1663.73Y947.44I-5.25J0  ;
N1584 G1X1618.48Y947.44  ;
N1585 G1X1618.48Y987.94  ;
N1586 G1X1639.82Y987.94  ;
N1587 G65 P9104 A101 B02  ;
N1588 M98 P9103  ;
(P45:ID2:217701-8)  ;
(X1694.751 Y871.943 R0)  ;
N1589 M98 P9101  ;
N1590 G0X1714.69Y919.68  ;
N1591 G65 P9102 A101 B02  ;
N1592 G1X1717.53Y920.45  ;
N1593 G3X1718.18Y922.87I-0.38J1.4  ;
N1594 G3X1718.18Y922.87I-3.43J-3.43  ;
N1595 G65 P9104 A101 B02  ;
N1596 G0X1714.69Y949.68  ;
N1597 G65 P9102 A101 B02  ;
N1598 G1X1717.53Y950.45  ;
N1599 G3X1718.18Y952.87I-0.38J1.4  ;
N1600 G3X1718.18Y952.87I-3.43J-3.43  ;
N1601 G65 P9104 A101 B01  ;
N1602 G0X1742.75Y945.08  ;
N1603 G65 P9102 A101 B01  ;
N1604 G1X1736.75Y945.08  ;
N1605 G3X1735Y943.33I0J-1.75  ;
N1606 G1X1735Y871.34  ;
N1607 G1X1716.7Y889.64  ;
N1608 G3X1712.81Y889.64I-1.95J-1.94  ;
N1609 G1X1694.5Y871.34  ;
N1610 G1X1694.5Y959.44  ;
N1611 G2X1704.75Y969.69I10.25J0  ;
N1612 G1X1724.75Y969.69  ;
N1613 G2X1735Y959.44I0J-10.25  ;
N1614 G1X1735Y943.33  ;
N1615 G65 P9104 A101 B01  ;
N1616 M98 P9103  ;
(P46:ID8:253707-3)  ;
(X1787.885 Y1040.936 R180)  ;
N1617 M98 P9101  ;
N1618 G0X1588.67Y924.8  ;
N1619 G65 P9102 A101 B01  ;
N1620 G1X1582.68Y924.94  ;
N1621 G3X1580.89Y923.19I-0.04J-1.75  ;
N1622 G3X1580.89Y923.19I89.25J0  ;
N1623 G65 P9104 A101 B01  ;
N1624 G0X1580.43Y1011.29  ;
N1625 G65 P9102 A101 B01  ;
N1626 G1X1584.72Y1007.09  ;
N1627 G3X1587.17Y1007.1I1.22J1.25  ;
N1628 G2X1587.17Y1007.1I82.97J-83.91  ;
N1629 G65 P9104 A101 B04  ;
(P47:ID9:202135-4)  ;
(X1888.647 Y1143.876 R180)  ;
N1630 G0X1836.21Y1025.62  ;
N1631 G65 P9102 A101 B04  ;
N1632 G1X1853.4Y1035.54  ;
N1633 G1X1855.9Y1031.21  ;
N1634 G1X1838.71Y1021.29  ;
N1635 G65 P9104 A101 B04  ;
N1636 G0X1806.52Y1002.7  ;
N1637 G65 P9102 A101 B04  ;
N1638 G1X1789.2Y992.7  ;
N1639 G65 P9104 A101 B04  ;
N1640 G0X1786.7Y997.03  ;
N1641 G65 P9102 A101 B04  ;
N1642 G1X1804.02Y1007.03  ;
N1643 G65 P9104 A101 B04  ;
N1644 G0X1676.15Y1060.86  ;
N1645 G65 P9102 A101 B04  ;
N1646 G1X1676.15Y1080.86  ;
N1647 G65 P9104 A101 B04  ;
N1648 G0X1671.15Y1080.86  ;
N1649 G65 P9102 A101 B04  ;
N1650 G1X1671.15Y1060.86  ;
N1651 G65 P9104 A101 B04  ;
N1652 G0X1671.15Y1118.03  ;
N1653 G65 P9102 A101 B04  ;
N1654 G1X1671.15Y1137.88  ;
N1655 G1X1676.15Y1137.88  ;
N1656 G1X1676.15Y1118.03  ;
N1657 G65 P9104 A101 B04  ;
N1658 G0X1560.59Y997.03  ;
N1659 G65 P9102 A101 B04  ;
N1660 G1X1543.27Y1007.03  ;
N1661 G65 P9104 A101 B04  ;
N1662 G0X1540.77Y1002.7  ;
N1663 G65 P9102 A101 B04  ;
N1664 G1X1558.09Y992.7  ;
N1665 G65 P9104 A101 B04  ;
N1666 G0X1508.58Y1021.29  ;
N1667 G65 P9102 A101 B04  ;
N1668 G1X1491.4Y1031.21  ;
N1669 G1X1493.9Y1035.54  ;
N1670 G1X1511.08Y1025.62  ;
N1671 G65 P9104 A101 B04  ;
N1672 G0X1558.09Y865.05  ;
N1673 G65 P9102 A101 B04  ;
N1674 G1X1540.77Y855.05  ;
N1675 G65 P9104 A101 B04  ;
N1676 G0X1543.27Y850.72  ;
N1677 G65 P9102 A101 B04  ;
N1678 G1X1560.59Y860.72  ;
N1679 G65 P9104 A101 B04  ;
N1680 G0X1511.08Y832.13  ;
N1681 G65 P9102 A101 B04  ;
N1682 G1X1493.9Y822.21  ;
N1683 G1X1491.4Y826.54  ;
N1684 G1X1508.58Y836.46  ;
N1685 G65 P9104 A101 B04  ;
N1686 G0X1671.15Y796.89  ;
N1687 G65 P9102 A101 B04  ;
N1688 G1X1671.15Y776.89  ;
N1689 G65 P9104 A101 B04  ;
N1690 G0X1676.15Y776.89  ;
N1691 G65 P9102 A101 B04  ;
N1692 G1X1676.15Y796.89  ;
N1693 G65 P9104 A101 B04  ;
N1694 G0X1676.15Y739.72  ;
N1695 G65 P9102 A101 B04  ;
N1696 G1X1676.15Y719.88  ;
N1697 G1X1671.15Y719.88  ;
N1698 G1X1671.15Y739.72  ;
N1699 G65 P9104 A101 B04  ;
N1700 G0X1786.7Y860.72  ;
N1701 G65 P9102 A101 B04  ;
N1702 G1X1804.02Y850.72  ;
N1703 G65 P9104 A101 B04  ;
N1704 G0X1806.52Y855.05  ;
N1705 G65 P9102 A101 B04  ;
N1706 G1X1789.2Y865.05  ;
N1707 G65 P9104 A101 B04  ;
N1708 G0X1838.71Y836.46  ;
N1709 G65 P9102 A101 B04  ;
N1710 G1X1855.9Y826.54  ;
N1711 G1X1853.4Y822.21  ;
N1712 G1X1836.21Y832.13  ;
N1713 G65 P9104 A101 B02  ;
N1714 G0X1795.17Y803.44  ;
N1715 G65 P9102 A101 B02  ;
N1716 G1X1790.1Y800.25  ;
N1717 G3X1789.79Y797.53I0.93J-1.48  ;
N1718 G3X1789.79Y797.53I7.6J7.6  ;
N1719 G65 P9104 A101 B02  ;
N1720 G0X1716.72Y758.15  ;
N1721 G65 P9102 A101 B02  ;
N1722 G1X1711.65Y754.96  ;
N1723 G3X1711.34Y752.24I0.93J-1.49  ;
N1724 G3X1711.34Y752.24I7.6J7.6  ;
N1725 G65 P9104 A101 B02  ;
N1726 G0X1626.14Y758.15  ;
N1727 G65 P9102 A101 B02  ;
N1728 G1X1621.06Y754.96  ;
N1729 G3X1620.75Y752.24I0.93J-1.49  ;
N1730 G3X1620.75Y752.24I7.6J7.6  ;
N1731 G65 P9104 A101 B02  ;
N1732 G0X1547.69Y803.44  ;
N1733 G65 P9102 A101 B02  ;
N1734 G1X1542.61Y800.25  ;
N1735 G3X1542.3Y797.53I0.93J-1.48  ;
N1736 G3X1542.3Y797.53I7.6J7.6  ;
N1737 G65 P9104 A101 B02  ;
N1738 G0X1502.39Y881.89  ;
N1739 G65 P9102 A101 B02  ;
N1740 G1X1497.31Y878.7  ;
N1741 G3X1497.01Y875.98I0.94J-1.48  ;
N1742 G3X1497.01Y875.98I7.6J7.6  ;
N1743 G65 P9104 A101 B02  ;
N1744 G0X1502.39Y972.48  ;
N1745 G65 P9102 A101 B02  ;
N1746 G1X1497.31Y969.29  ;
N1747 G3X1497.01Y966.57I0.94J-1.48  ;
N1748 G3X1497.01Y966.57I7.6J7.6  ;
N1749 G65 P9104 A101 B02  ;
N1750 G0X1547.69Y1050.93  ;
N1751 G65 P9102 A101 B02  ;
N1752 G1X1542.61Y1047.74  ;
N1753 G3X1542.3Y1045.02I0.93J-1.48  ;
N1754 G3X1542.3Y1045.02I7.6J7.6  ;
N1755 G65 P9104 A101 B02  ;
N1756 G0X1626.14Y1096.22  ;
N1757 G65 P9102 A101 B02  ;
N1758 G1X1621.06Y1093.03  ;
N1759 G3X1620.75Y1090.31I0.93J-1.48  ;
N1760 G3X1620.75Y1090.31I7.6J7.6  ;
N1761 G65 P9104 A101 B02  ;
N1762 G0X1716.72Y1096.22  ;
N1763 G65 P9102 A101 B02  ;
N1764 G1X1711.65Y1093.03  ;
N1765 G3X1711.34Y1090.31I0.93J-1.48  ;
N1766 G3X1711.34Y1090.31I7.6J7.6  ;
N1767 G65 P9104 A101 B02  ;
N1768 G0X1795.17Y1050.93  ;
N1769 G65 P9102 A101 B02  ;
N1770 G1X1790.1Y1047.74  ;
N1771 G3X1789.79Y1045.02I0.93J-1.48  ;
N1772 G3X1789.79Y1045.02I7.6J7.6  ;
N1773 G65 P9104 A101 B02  ;
N1774 G0X1840.47Y972.48  ;
N1775 G65 P9102 A101 B02  ;
N1776 G1X1835.39Y969.29  ;
N1777 G3X1835.08Y966.57I0.93J-1.48  ;
N1778 G3X1835.08Y966.57I7.6J7.6  ;
N1779 G65 P9104 A101 B02  ;
N1780 G0X1840.47Y881.89  ;
N1781 G65 P9102 A101 B02  ;
N1782 G1X1835.39Y878.7  ;
N1783 G3X1835.08Y875.98I0.93J-1.48  ;
N1784 G3X1835.08Y875.98I7.6J7.6  ;
N1785 G65 P9104 A101 B01  ;
N1786 G0X1598.21Y1026.64  ;
N1787 G65 P9102 A101 B01  ;
N1788 G1X1594.55Y1031.39  ;
N1789 G3X1592.08Y1031.7I-1.39J-1.06  ;
N1790 G3X1592.08Y1031.7I81.57J-102.82  ;
N1791 G65 P9104 A101 B01  ;
N1792 G0X1524.02Y1094.22  ;
N1793 G65 P9102 A101 B01  ;
N1794 G1X1528.05Y1089.77  ;
N1795 G3X1530.51Y1089.64I1.3J1.18  ;
N1796 G2X1530.51Y1089.64I143.14J-160.76  ;
N1797 G65 P9104 A101 B02  ;
N1798 M98 P9103  ;
(P48:ID4:266822-5)  ;
(X1612.596 Y462.798 R0)  ;
N1799 M98 P9101  ;
N1800 G0X1672.53Y588.04  ;
N1801 G65 P9102 A101 B02  ;
N1802 G1X1674.26Y588.5  ;
N1803 G3X1674.61Y589.81I-0.2J0.76  ;
N1804 G3X1674.61Y589.81I-2.01J-2.01  ;
N1805 G65 P9104 A101 B02  ;
N1806 G0X1737.53Y653.04  ;
N1807 G65 P9102 A101 B02  ;
N1808 G1X1739.26Y653.5  ;
N1809 G3X1739.61Y654.81I-0.2J0.76  ;
N1810 G3X1739.61Y654.81I-2.01J-2.01  ;
N1811 G65 P9104 A101 B02  ;
N1812 G0X1802.53Y588.04  ;
N1813 G65 P9102 A101 B02  ;
N1814 G1X1804.26Y588.5  ;
N1815 G3X1804.61Y589.81I-0.2J0.76  ;
N1816 G3X1804.61Y589.81I-2.01J-2.01  ;
N1817 G65 P9104 A101 B02  ;
N1818 G0X1737.53Y523.04  ;
N1819 G65 P9102 A101 B02  ;
N1820 G1X1739.26Y523.5  ;
N1821 G3X1739.61Y524.81I-0.2J0.76  ;
N1822 G3X1739.61Y524.81I-2.01J-2.01  ;
N1823 G65 P9104 A101 B01  ;
N1824 G0X1751.45Y586.66  ;
N1825 G65 P9102 A101 B01  ;
N1826 G1X1757.42Y586.06  ;
N1827 G3X1759.35Y587.8I0.18J1.74  ;
N1828 G3X1759.35Y587.8I-21.75J0  ;
N1829 G65 P9104 A101 B01  ;
N1830 G0X1834.75Y496.99  ;
N1831 G65 P9102 A101 B01  ;
N1832 G1X1830.36Y501.08  ;
N1833 G3X1827.9Y501.01I-1.2J-1.28  ;
N1834 G2X1827.9Y501.01I-90.3J86.79  ;
N1835 G65 P9104 A101 B02  ;
N1836 M98 P9103  ;
(P49:ID4:266822-5)  ;
(X1731.176 Y223.921 R0)  ;
N1837 M98 P9101  ;
N1838 G0X1791.11Y349.16  ;
N1839 G65 P9102 A101 B02  ;
N1840 G1X1792.84Y349.63  ;
N1841 G3X1793.19Y350.94I-0.2J0.75  ;
N1842 G3X1793.19Y350.94I-2.01J-2.02  ;
N1843 G65 P9104 A101 B02  ;
N1844 G0X1856.11Y414.16  ;
N1845 G65 P9102 A101 B02  ;
N1846 G1X1857.84Y414.63  ;
N1847 G3X1858.19Y415.94I-0.2J0.75  ;
N1848 G3X1858.19Y415.94I-2.01J-2.02  ;
N1849 G65 P9104 A101 B02  ;
N1850 G0X1921.11Y349.16  ;
N1851 G65 P9102 A101 B02  ;
N1852 G1X1922.84Y349.63  ;
N1853 G3X1923.19Y350.94I-0.2J0.75  ;
N1854 G3X1923.19Y350.94I-2.01J-2.02  ;
N1855 G65 P9104 A101 B02  ;
N1856 G0X1856.11Y284.16  ;
N1857 G65 P9102 A101 B02  ;
N1858 G1X1857.84Y284.63  ;
N1859 G3X1858.19Y285.94I-0.2J0.75  ;
N1860 G3X1858.19Y285.94I-2.01J-2.02  ;
N1861 G65 P9104 A101 B01  ;
N1862 G0X1870.03Y347.78  ;
N1863 G65 P9102 A101 B01  ;
N1864 G1X1876Y347.18  ;
N1865 G3X1877.93Y348.92I0.18J1.74  ;
N1866 G3X1877.93Y348.92I-21.75J0  ;
N1867 G65 P9104 A101 B01  ;
N1868 G0X1953.33Y258.11  ;
N1869 G65 P9102 A101 B01  ;
N1870 G1X1948.94Y262.2  ;
N1871 G3X1946.48Y262.13I-1.2J-1.28  ;
N1872 G2X1946.48Y262.13I-90.3J86.79  ;
N1873 G65 P9104 A101 B02  ;
N1874 M98 P9103  ;
(P50:ID23:266588-4)  ;
(X1867.274 Y5 R0)  ;
N1875 M98 P9101  ;
N1876 G0X1913.54Y51.59  ;
N1877 G65 P9102 A101 B02  ;
N1878 G1X1917.81Y53.27  ;
N1879 G3X1918.41Y56.13I-0.64J1.63  ;
N1880 G3X1918.41Y56.13I-4.78J-4.77  ;
N1881 G65 P9104 A101 B02  ;
N1882 G0X1887.18Y115.23  ;
N1883 G65 P9102 A101 B02  ;
N1884 G1X1891.45Y116.91  ;
N1885 G3X1892.05Y119.77I-0.64J1.63  ;
N1886 G3X1892.05Y119.77I-4.78J-4.77  ;
N1887 G65 P9104 A101 B02  ;
N1888 G0X1913.54Y178.87  ;
N1889 G65 P9102 A101 B02  ;
N1890 G1X1917.81Y180.55  ;
N1891 G3X1918.41Y183.41I-0.64J1.63  ;
N1892 G3X1918.41Y183.41I-4.78J-4.77  ;
N1893 G65 P9104 A101 B02  ;
N1894 G0X1977.18Y205.23  ;
N1895 G65 P9102 A101 B02  ;
N1896 G1X1981.45Y206.91  ;
N1897 G3X1982.05Y209.77I-0.64J1.63  ;
N1898 G3X1982.05Y209.77I-4.78J-4.77  ;
N1899 G65 P9104 A101 B02  ;
N1900 G0X2040.82Y178.87  ;
N1901 G65 P9102 A101 B02  ;
N1902 G1X2045.09Y180.55  ;
N1903 G3X2045.69Y183.41I-0.64J1.63  ;
N1904 G3X2045.69Y183.41I-4.78J-4.77  ;
N1905 G65 P9104 A101 B02  ;
N1906 G0X2067.18Y115.23  ;
N1907 G65 P9102 A101 B02  ;
N1908 G1X2071.45Y116.91  ;
N1909 G3X2072.05Y119.77I-0.64J1.63  ;
N1910 G3X2072.05Y119.77I-4.78J-4.77  ;
N1911 G65 P9104 A101 B02  ;
N1912 G0X2040.82Y51.59  ;
N1913 G65 P9102 A101 B02  ;
N1914 G1X2045.09Y53.27  ;
N1915 G3X2045.69Y56.13I-0.64J1.63  ;
N1916 G3X2045.69Y56.13I-4.78J-4.77  ;
N1917 G65 P9104 A101 B02  ;
N1918 G0X1977.18Y25.23  ;
N1919 G65 P9102 A101 B02  ;
N1920 G1X1981.45Y26.91  ;
N1921 G3X1982.05Y29.77I-0.64J1.63  ;
N1922 G3X1982.05Y29.77I-4.78J-4.77  ;
N1923 G65 P9104 A101 B01  ;
N1924 G0X2019.96Y113.5  ;
N1925 G65 P9102 A101 B01  ;
N1926 G1X2025.95Y113.25  ;
N1927 G3X2027.77Y115I0.07J1.75  ;
N1928 G3X2027.77Y115I-50.5J0  ;
N1929 G65 P9104 A101 B01  ;
N1930 G0X2066.65Y37.98  ;
N1931 G65 P9102 A101 B01  ;
N1932 G1X2062.1Y41.89  ;
N1933 G3X2059.65Y41.72I-1.14J-1.33  ;
N1934 G2X2059.65Y41.72I-82.38J73.28  ;
N1935 G65 P9104 A101 B02  ;
N1936 M98 P9103  ;
(P51:ID24:287589-3)  ;
(X2292.631 Y185 R180)  ;
N1937 M98 P9101  ;
N1938 G0X2272.72Y164.77  ;
N1939 G65 P9102 A101 B02  ;
N1940 G1X2268.46Y163.09  ;
N1941 G3X2267.86Y160.23I0.64J-1.63  ;
N1942 G3X2267.86Y160.23I4.77J4.77  ;
N1943 G65 P9104 A101 B02  ;
N1944 G0X2272.72Y24.77  ;
N1945 G65 P9102 A101 B02  ;
N1946 G1X2268.46Y23.09  ;
N1947 G3X2267.86Y20.23I0.64J-1.63  ;
N1948 G3X2267.86Y20.23I4.77J4.77  ;
N1949 G65 P9104 A101 B02  ;
N1950 G0X2120.72Y24.77  ;
N1951 G65 P9102 A101 B02  ;
N1952 G1X2116.46Y23.09  ;
N1953 G3X2115.86Y20.23I0.64J-1.63  ;
N1954 G3X2115.86Y20.23I4.77J4.77  ;
N1955 G65 P9104 A101 B02  ;
N1956 G0X2120.72Y164.77  ;
N1957 G65 P9102 A101 B02  ;
N1958 G1X2116.46Y163.09  ;
N1959 G3X2115.86Y160.23I0.64J-1.63  ;
N1960 G3X2115.86Y160.23I4.77J4.77  ;
N1961 G65 P9104 A101 B01  ;
N1962 G0X2092.63Y38.02  ;
N1963 G65 P9102 A101 B01  ;
N1964 G1X2098.63Y38.02  ;
N1965 G3X2100.38Y39.77I0J1.75  ;
N1966 G1X2100.38Y175  ;
N1967 G2X2110.63Y185.25I10.25J0  ;
N1968 G1X2282.63Y185.25  ;
N1969 G2X2292.88Y175I0J-10.25  ;
N1970 G1X2292.88Y15  ;
N1971 G2X2282.63Y4.75I-10.25J0  ;
N1972 G1X2110.63Y4.75  ;
N1973 G2X2100.38Y15I0J10.25  ;
N1974 G1X2100.38Y39.77  ;
N1975 G65 P9104 A101 B02  ;
N1976 M98 P9103  ;
(P52:ID25:264219-5)  ;
(X2493.605 Y125 R180)  ;
N1977 M98 P9101  ;
N1978 G0X2399.39Y61.74  ;
N1979 G65 P9102 A101 B02  ;
N1980 G1X2394.47Y58.3  ;
N1981 G3X2394.24Y55.63I1J-1.43  ;
N1982 G3X2394.24Y55.63I9.37J9.37  ;
N1983 G65 P9104 A101 B01  ;
N1984 G0X2305.61Y36.25  ;
N1985 G65 P9102 A101 B01  ;
N1986 G1X2311.61Y36.25  ;
N1987 G3X2313.36Y38I0J1.75  ;
N1988 G1X2313.36Y121  ;
N1989 G2X2317.61Y125.25I4.25J0  ;
N1990 G1X2489.61Y125.25  ;
N1991 G2X2493.86Y121I0J-4.25  ;
N1992 G1X2493.86Y9  ;
N1993 G2X2489.61Y4.75I-4.25J0  ;
N1994 G1X2317.61Y4.75  ;
N1995 G2X2313.36Y9I0J4.25  ;
N1996 G1X2313.36Y38  ;
N1997 G65 P9104 A101 B01  ;
N1998 M98 P9103  ;
(P53:ID14:287878-9)  ;
(X2571.047 Y215 R180)  ;
N1999 M98 P9101  ;
N2000 G0X2505.4Y9.34  ;
N2001 G65 P9102 A101 B01  ;
N2002 G1X2509.64Y13.58  ;
N2003 G3X2509.64Y16.06I-1.24J1.24  ;
N2004 G1X2500.8Y24.9  ;
N2005 G1X2500.8Y215.25  ;
N2006 G1X2521.24Y215.25  ;
N2007 G1X2571.3Y25.03  ;
N2008 G1X2571.3Y4.75  ;
N2009 G1X2520.94Y4.75  ;
N2010 G1X2509.64Y16.06  ;
N2011 G65 P9104 A101 B01  ;
N2012 M98 P9103  ;
(P54:ID7:207499-2)  ;
(X2743.353 Y217.79 R180)  ;
N2013 M98 P9101  ;
N2014 G0X2696.79Y210.89  ;
N2015 G65 P9102 A101 B01  ;
N2016 G1X2702.04Y207.99  ;
N2017 G3X2704.34Y208.54I0.85J1.53  ;
N2018 G2X2704.34Y208.54I17.81J-11.95  ;
N2019 G65 P9104 A101 B02  ;
N2020 M98 P9103  ;
(P55:ID23:266588-4)  ;
(X2628.489 Y102.114 R0)  ;
N2021 M98 P9101  ;
N2022 G0X2674.76Y148.71  ;
N2023 G65 P9102 A101 B02  ;
N2024 G1X2679.02Y150.38  ;
N2025 G3X2679.62Y153.25I-0.63J1.63  ;
N2026 G3X2679.62Y153.25I-4.77J-4.78  ;
N2027 G65 P9104 A101 B02  ;
N2028 G0X2648.4Y212.35  ;
N2029 G65 P9102 A101 B02  ;
N2030 G1X2652.66Y214.02  ;
N2031 G3X2653.26Y216.89I-0.64J1.63  ;
N2032 G3X2653.26Y216.89I-4.77J-4.78  ;
N2033 G65 P9104 A101 B02  ;
N2034 G0X2674.76Y275.99  ;
N2035 G65 P9102 A101 B02  ;
N2036 G1X2679.02Y277.66  ;
N2037 G3X2679.62Y280.53I-0.63J1.63  ;
N2038 G3X2679.62Y280.53I-4.77J-4.78  ;
N2039 G65 P9104 A101 B02  ;
N2040 G0X2738.4Y302.35  ;
N2041 G65 P9102 A101 B02  ;
N2042 G1X2742.66Y304.02  ;
N2043 G3X2743.26Y306.89I-0.64J1.63  ;
N2044 G3X2743.26Y306.89I-4.77J-4.78  ;
N2045 G65 P9104 A101 B02  ;
N2046 G0X2802.04Y275.99  ;
N2047 G65 P9102 A101 B02  ;
N2048 G1X2806.3Y277.66  ;
N2049 G3X2806.9Y280.53I-0.64J1.63  ;
N2050 G3X2806.9Y280.53I-4.77J-4.78  ;
N2051 G65 P9104 A101 B02  ;
N2052 G0X2828.4Y212.35  ;
N2053 G65 P9102 A101 B02  ;
N2054 G1X2832.66Y214.02  ;
N2055 G3X2833.26Y216.89I-0.64J1.63  ;
N2056 G3X2833.26Y216.89I-4.77J-4.78  ;
N2057 G65 P9104 A101 B02  ;
N2058 G0X2802.04Y148.71  ;
N2059 G65 P9102 A101 B02  ;
N2060 G1X2806.3Y150.38  ;
N2061 G3X2806.9Y153.25I-0.64J1.63  ;
N2062 G3X2806.9Y153.25I-4.77J-4.78  ;
N2063 G65 P9104 A101 B02  ;
N2064 G0X2738.4Y122.35  ;
N2065 G65 P9102 A101 B02  ;
N2066 G1X2742.66Y124.02  ;
N2067 G3X2743.26Y126.89I-0.64J1.63  ;
N2068 G3X2743.26Y126.89I-4.77J-4.78  ;
N2069 G65 P9104 A101 B01  ;
N2070 G0X2781.17Y210.61  ;
N2071 G65 P9102 A101 B01  ;
N2072 G1X2787.17Y210.37  ;
N2073 G3X2788.99Y212.11I0.07J1.74  ;
N2074 G3X2788.99Y212.11I-50.5J0  ;
N2075 G65 P9104 A101 B01  ;
N2076 G0X2827.87Y135.1  ;
N2077 G65 P9102 A101 B01  ;
N2078 G1X2823.31Y139  ;
N2079 G3X2820.86Y138.84I-1.14J-1.33  ;
N2080 G2X2820.86Y138.84I-82.37J73.27  ;
N2081 G65 P9104 A101 B04  ;
(P56:ID9:202135-4)  ;
(X2533.72 Y7.33 R0)  ;
N2082 G0X2586.16Y125.59  ;
N2083 G65 P9102 A101 B04  ;
N2084 G1X2568.97Y115.66  ;
N2085 G1X2566.47Y119.99  ;
N2086 G1X2583.66Y129.92  ;
N2087 G65 P9104 A101 B04  ;
N2088 G0X2615.85Y148.5  ;
N2089 G65 P9102 A101 B04  ;
N2090 G1X2633.17Y158.5  ;
N2091 G65 P9104 A101 B04  ;
N2092 G0X2635.67Y154.17  ;
N2093 G65 P9102 A101 B04  ;
N2094 G1X2618.35Y144.17  ;
N2095 G65 P9104 A101 B04  ;
N2096 G0X2746.22Y90.34  ;
N2097 G65 P9102 A101 B04  ;
N2098 G1X2746.22Y70.34  ;
N2099 G65 P9104 A101 B04  ;
N2100 G0X2751.22Y70.34  ;
N2101 G65 P9102 A101 B04  ;
N2102 G1X2751.22Y90.34  ;
N2103 G65 P9104 A101 B04  ;
N2104 G0X2751.22Y33.17  ;
N2105 G65 P9102 A101 B04  ;
N2106 G1X2751.22Y13.33  ;
N2107 G1X2746.22Y13.33  ;
N2108 G1X2746.22Y33.17  ;
N2109 G65 P9104 A101 B04  ;
N2110 G0X2861.77Y154.17  ;
N2111 G65 P9102 A101 B04  ;
N2112 G1X2879.09Y144.17  ;
N2113 G65 P9104 A101 B04  ;
N2114 G0X2881.59Y148.5  ;
N2115 G65 P9102 A101 B04  ;
N2116 G1X2864.27Y158.5  ;
N2117 G65 P9104 A101 B04  ;
N2118 G0X2913.78Y129.92  ;
N2119 G65 P9102 A101 B04  ;
N2120 G1X2930.97Y119.99  ;
N2121 G1X2928.47Y115.66  ;
N2122 G1X2911.28Y125.59  ;
N2123 G65 P9104 A101 B04  ;
N2124 G0X2864.27Y286.16  ;
N2125 G65 P9102 A101 B04  ;
N2126 G1X2881.59Y296.16  ;
N2127 G65 P9104 A101 B04  ;
N2128 G0X2879.09Y300.49  ;
N2129 G65 P9102 A101 B04  ;
N2130 G1X2861.77Y290.49  ;
N2131 G65 P9104 A101 B04  ;
N2132 G0X2911.28Y319.07  ;
N2133 G65 P9102 A101 B04  ;
N2134 G1X2928.47Y328.99  ;
N2135 G1X2930.97Y324.66  ;
N2136 G1X2913.78Y314.74  ;
N2137 G65 P9104 A101 B04  ;
N2138 G0X2751.22Y354.32  ;
N2139 G65 P9102 A101 B04  ;
N2140 G1X2751.22Y374.32  ;
N2141 G65 P9104 A101 B04  ;
N2142 G0X2746.22Y374.32  ;
N2143 G65 P9102 A101 B04  ;
N2144 G1X2746.22Y354.32  ;
N2145 G65 P9104 A101 B04  ;
N2146 G0X2746.22Y411.49  ;
N2147 G65 P9102 A101 B04  ;
N2148 G1X2746.22Y431.33  ;
N2149 G1X2751.22Y431.33  ;
N2150 G1X2751.22Y411.49  ;
N2151 G65 P9104 A101 B04  ;
N2152 G0X2635.67Y290.49  ;
N2153 G65 P9102 A101 B04  ;
N2154 G1X2618.35Y300.49  ;
N2155 G65 P9104 A101 B04  ;
N2156 G0X2615.85Y296.16  ;
N2157 G65 P9102 A101 B04  ;
N2158 G1X2633.17Y286.16  ;
N2159 G65 P9104 A101 B04  ;
N2160 G0X2583.66Y314.74  ;
N2161 G65 P9102 A101 B04  ;
N2162 G1X2566.47Y324.66  ;
N2163 G1X2568.97Y328.99  ;
N2164 G1X2586.16Y319.07  ;
N2165 G65 P9104 A101 B02  ;
N2166 G0X2627.19Y347.76  ;
N2167 G65 P9102 A101 B02  ;
N2168 G1X2632.27Y350.96  ;
N2169 G3X2632.58Y353.67I-0.93J1.48  ;
N2170 G3X2632.58Y353.67I-7.6J-7.6  ;
N2171 G65 P9104 A101 B02  ;
N2172 G0X2705.64Y393.06  ;
N2173 G65 P9102 A101 B02  ;
N2174 G1X2710.72Y396.25  ;
N2175 G3X2711.03Y398.97I-0.93J1.48  ;
N2176 G3X2711.03Y398.97I-7.6J-7.6  ;
N2177 G65 P9104 A101 B02  ;
N2178 G0X2796.23Y393.06  ;
N2179 G65 P9102 A101 B02  ;
N2180 G1X2801.31Y396.25  ;
N2181 G3X2801.61Y398.97I-0.93J1.48  ;
N2182 G3X2801.61Y398.97I-7.6J-7.6  ;
N2183 G65 P9104 A101 B02  ;
N2184 G0X2874.68Y347.76  ;
N2185 G65 P9102 A101 B02  ;
N2186 G1X2879.76Y350.96  ;
N2187 G3X2880.06Y353.67I-0.93J1.48  ;
N2188 G3X2880.06Y353.67I-7.6J-7.6  ;
N2189 G65 P9104 A101 B02  ;
N2190 G0X2919.97Y269.31  ;
N2191 G65 P9102 A101 B02  ;
N2192 G1X2925.05Y272.51  ;
N2193 G3X2925.36Y275.22I-0.93J1.48  ;
N2194 G3X2925.36Y275.22I-7.6J-7.6  ;
N2195 G65 P9104 A101 B02  ;
N2196 G0X2919.97Y178.73  ;
N2197 G65 P9102 A101 B02  ;
N2198 G1X2925.05Y181.92  ;
N2199 G3X2925.36Y184.64I-0.93J1.48  ;
N2200 G3X2925.36Y184.64I-7.6J-7.6  ;
N2201 G65 P9104 A101 B02  ;
N2202 G0X2874.68Y100.27  ;
N2203 G65 P9102 A101 B02  ;
N2204 G1X2879.76Y103.47  ;
N2205 G3X2880.06Y106.19I-0.93J1.48  ;
N2206 G3X2880.06Y106.19I-7.6J-7.6  ;
N2207 G65 P9104 A101 B02  ;
N2208 G0X2796.23Y54.98  ;
N2209 G65 P9102 A101 B02  ;
N2210 G1X2801.31Y58.18  ;
N2211 G3X2801.61Y60.89I-0.93J1.48  ;
N2212 G3X2801.61Y60.89I-7.6J-7.6  ;
N2213 G65 P9104 A101 B02  ;
N2214 G0X2705.64Y54.98  ;
N2215 G65 P9102 A101 B02  ;
N2216 G1X2710.72Y58.18  ;
N2217 G3X2711.03Y60.89I-0.93J1.48  ;
N2218 G3X2711.03Y60.89I-7.6J-7.6  ;
N2219 G65 P9104 A101 B02  ;
N2220 G0X2627.19Y100.27  ;
N2221 G65 P9102 A101 B02  ;
N2222 G1X2632.27Y103.47  ;
N2223 G3X2632.58Y106.19I-0.93J1.48  ;
N2224 G3X2632.58Y106.19I-7.6J-7.6  ;
N2225 G65 P9104 A101 B02  ;
N2226 G0X2581.9Y178.73  ;
N2227 G65 P9102 A101 B02  ;
N2228 G1X2586.98Y181.92  ;
N2229 G3X2587.28Y184.64I-0.93J1.48  ;
N2230 G3X2587.28Y184.64I-7.6J-7.6  ;
N2231 G65 P9104 A101 B02  ;
N2232 G0X2581.9Y269.31  ;
N2233 G65 P9102 A101 B02  ;
N2234 G1X2586.98Y272.51  ;
N2235 G3X2587.28Y275.22I-0.93J1.48  ;
N2236 G3X2587.28Y275.22I-7.6J-7.6  ;
N2237 G65 P9104 A101 B01  ;
N2238 G0X2824.16Y124.57  ;
N2239 G65 P9102 A101 B01  ;
N2240 G1X2827.82Y119.81  ;
N2241 G3X2830.29Y119.51I1.38J1.07  ;
N2242 G3X2830.29Y119.51I-81.57J102.82  ;
N2243 G65 P9104 A101 B01  ;
N2244 G0X2898.34Y56.99  ;
N2245 G65 P9102 A101 B01  ;
N2246 G1X2894.31Y61.43  ;
N2247 G3X2891.85Y61.56I-1.29J-1.17  ;
N2248 G2X2891.85Y61.56I-143.13J160.77  ;
N2249 G65 P9104 A101 B02  ;
N2250 M98 P9103  ;
(P57:ID25:264219-5)  ;
(X2494.047 Y252 R180)  ;
N2251 M98 P9101  ;
N2252 G0X2399.83Y188.74  ;
N2253 G65 P9102 A101 B02  ;
N2254 G1X2394.91Y185.3  ;
N2255 G3X2394.68Y182.63I1.01J-1.43  ;
N2256 G3X2394.68Y182.63I9.37J9.37  ;
N2257 G65 P9104 A101 B01  ;
N2258 G0X2306.05Y163.25  ;
N2259 G65 P9102 A101 B01  ;
N2260 G1X2312.05Y163.25  ;
N2261 G3X2313.8Y165I0J1.75  ;
N2262 G1X2313.8Y248  ;
N2263 G2X2318.05Y252.25I4.25J0  ;
N2264 G1X2490.05Y252.25  ;
N2265 G2X2494.3Y248I0J-4.25  ;
N2266 G1X2494.3Y136  ;
N2267 G2X2490.05Y131.75I-4.25J0  ;
N2268 G1X2318.05Y131.75  ;
N2269 G2X2313.8Y136I0J4.25  ;
N2270 G1X2313.8Y165  ;
N2271 G65 P9104 A101 B02  ;
N2272 M98 P9103  ;
(P58:ID25:264219-5)  ;
(X2506.442 Y379 R180)  ;
N2273 M98 P9101  ;
N2274 G0X2412.22Y315.74  ;
N2275 G65 P9102 A101 B02  ;
N2276 G1X2407.31Y312.3  ;
N2277 G3X2407.07Y309.63I1J-1.43  ;
N2278 G3X2407.07Y309.63I9.37J9.37  ;
N2279 G65 P9104 A101 B01  ;
N2280 G0X2318.44Y290.25  ;
N2281 G65 P9102 A101 B01  ;
N2282 G1X2324.44Y290.25  ;
N2283 G3X2326.19Y292I0J1.75  ;
N2284 G1X2326.19Y375  ;
N2285 G2X2330.44Y379.25I4.25J0  ;
N2286 G1X2502.44Y379.25  ;
N2287 G2X2506.69Y375I0J-4.25  ;
N2288 G1X2506.69Y263  ;
N2289 G2X2502.44Y258.75I-4.25J0  ;
N2290 G1X2330.44Y258.75  ;
N2291 G2X2326.19Y263I0J4.25  ;
N2292 G1X2326.19Y292  ;
N2293 G65 P9104 A101 B02  ;
N2294 M98 P9103  ;
(P59:ID24:287589-3)  ;
(X2115.047 Y192 R0)  ;
N2295 M98 P9101  ;
N2296 G0X2134.96Y212.23  ;
N2297 G65 P9102 A101 B02  ;
N2298 G1X2139.22Y213.91  ;
N2299 G3X2139.82Y216.77I-0.64J1.63  ;
N2300 G3X2139.82Y216.77I-4.77J-4.77  ;
N2301 G65 P9104 A101 B02  ;
N2302 G0X2134.96Y352.23  ;
N2303 G65 P9102 A101 B02  ;
N2304 G1X2139.22Y353.91  ;
N2305 G3X2139.82Y356.77I-0.64J1.63  ;
N2306 G3X2139.82Y356.77I-4.77J-4.77  ;
N2307 G65 P9104 A101 B02  ;
N2308 G0X2286.96Y352.23  ;
N2309 G65 P9102 A101 B02  ;
N2310 G1X2291.22Y353.91  ;
N2311 G3X2291.82Y356.77I-0.64J1.63  ;
N2312 G3X2291.82Y356.77I-4.77J-4.77  ;
N2313 G65 P9104 A101 B02  ;
N2314 G0X2286.96Y212.23  ;
N2315 G65 P9102 A101 B02  ;
N2316 G1X2291.22Y213.91  ;
N2317 G3X2291.82Y216.77I-0.64J1.63  ;
N2318 G3X2291.82Y216.77I-4.77J-4.77  ;
N2319 G65 P9104 A101 B01  ;
N2320 G0X2315.05Y338.98  ;
N2321 G65 P9102 A101 B01  ;
N2322 G1X2309.05Y338.98  ;
N2323 G3X2307.3Y337.23I0J-1.75  ;
N2324 G1X2307.3Y202  ;
N2325 G2X2297.05Y191.75I-10.25J0  ;
N2326 G1X2125.05Y191.75  ;
N2327 G2X2114.8Y202I0J10.25  ;
N2328 G1X2114.8Y362  ;
N2329 G2X2125.05Y372.25I10.25J0  ;
N2330 G1X2297.05Y372.25  ;
N2331 G2X2307.3Y362I0J-10.25  ;
N2332 G1X2307.3Y337.23  ;
N2333 G65 P9104 A101 B02  ;
N2334 M98 P9103  ;
(P60:ID1:221785-7)  ;
(X2023.903 Y219.843 R0)  ;
N2335 M98 P9101  ;
N2336 G0X2088.23Y332.78  ;
N2337 G65 P9102 A101 B02  ;
N2338 G1X2093.17Y336.18  ;
N2339 G3X2093.42Y338.86I-0.99J1.44  ;
N2340 G3X2093.42Y338.86I-9.02J-9.02  ;
N2341 G65 P9104 A101 B01  ;
N2342 G0X2112.9Y408.46  ;
N2343 G65 P9102 A101 B01  ;
N2344 G1X2106.9Y408.46  ;
N2345 G3X2105.15Y406.71I0J-1.75  ;
N2346 G1X2105.15Y226.84  ;
N2347 G2X2097.9Y219.59I-7.25J0  ;
N2348 G1X2030.9Y219.59  ;
N2349 G2X2023.65Y226.84I0J7.25  ;
N2350 G1X2023.65Y240.84  ;
N2351 G2X2026.9Y244.09I3.25J0  ;
N2352 G1X2057.9Y244.09  ;
N2353 G3X2060.65Y246.84I0J2.75  ;
N2354 G1X2060.65Y432.84  ;
N2355 G2X2067.9Y440.09I7.25J0  ;
N2356 G1X2097.9Y440.09  ;
N2357 G2X2105.15Y432.84I0J-7.25  ;
N2358 G1X2105.15Y406.71  ;
N2359 G65 P9104 A101 B02  ;
N2360 M98 P9103  ;
(P61:ID1:221785-7)  ;
(X2090.903 Y470.843 R180)  ;
N2361 M98 P9101  ;
N2362 G0X2026.58Y357.91  ;
N2363 G65 P9102 A101 B02  ;
N2364 G1X2021.63Y354.51  ;
N2365 G3X2021.39Y351.83I1J-1.45  ;
N2366 G3X2021.39Y351.83I9.01J9.01  ;
N2367 G65 P9104 A101 B01  ;
N2368 G0X2001.9Y282.23  ;
N2369 G65 P9102 A101 B01  ;
N2370 G1X2007.9Y282.23  ;
N2371 G3X2009.65Y283.98I0J1.75  ;
N2372 G1X2009.65Y463.84  ;
N2373 G2X2016.9Y471.09I7.25J0  ;
N2374 G1X2083.9Y471.09  ;
N2375 G2X2091.15Y463.84I0J-7.25  ;
N2376 G1X2091.15Y449.84  ;
N2377 G2X2087.9Y446.59I-3.25J0  ;
N2378 G1X2056.9Y446.59  ;
N2379 G3X2054.15Y443.84I0J-2.75  ;
N2380 G1X2054.15Y257.84  ;
N2381 G2X2046.9Y250.59I-7.25J0  ;
N2382 G1X2016.9Y250.59  ;
N2383 G2X2009.65Y257.84I0J7.25  ;
N2384 G1X2009.65Y283.98  ;
N2385 G65 P9104 A101 B02  ;
N2386 M98 P9103  ;
(P62:ID26:209183-2)  ;
(X1860.153 Y480.871 R0)  ;
N2387 M98 P9101  ;
N2388 G0X1910.66Y531.43  ;
N2389 G65 P9102 A101 B02  ;
N2390 G1X1915.93Y534.28  ;
N2391 G3X1916.34Y537.06I-0.83J1.54  ;
N2392 G3X1916.34Y537.06I-6.19J-6.19  ;
N2393 G65 P9104 A101 B02  ;
N2394 G0X1910.66Y731.43  ;
N2395 G65 P9102 A101 B02  ;
N2396 G1X1915.93Y734.28  ;
N2397 G3X1916.34Y737.06I-0.83J1.54  ;
N2398 G3X1916.34Y737.06I-6.19J-6.19  ;
N2399 G65 P9104 A101 B01  ;
N2400 G0X1936.41Y819.01  ;
N2401 G65 P9102 A101 B01  ;
N2402 G1X1930.44Y818.44  ;
N2403 G3X1928.86Y816.54I0.16J-1.74  ;
N2404 G1X1960.43Y480.62  ;
N2405 G1X1859.88Y480.62  ;
N2406 G1X1906.92Y981.17  ;
N2407 G2X1913.39Y981.17I3.23J-0.3  ;
N2408 G1X1928.86Y816.54  ;
N2409 G65 P9104 A101 B02  ;
N2410 M98 P9103  ;
(P63:ID26:209183-2)  ;
(X2027.691 Y986.843 R180)  ;
N2411 M98 P9101  ;
N2412 G0X1977.19Y936.29  ;
N2413 G65 P9102 A101 B02  ;
N2414 G1X1971.91Y933.43  ;
N2415 G3X1971.5Y930.66I0.83J-1.54  ;
N2416 G3X1971.5Y930.66I6.19J6.18  ;
N2417 G65 P9104 A101 B02  ;
N2418 G0X1977.19Y736.29  ;
N2419 G65 P9102 A101 B02  ;
N2420 G1X1971.91Y733.43  ;
N2421 G3X1971.5Y730.66I0.83J-1.54  ;
N2422 G3X1971.5Y730.66I6.19J6.18  ;
N2423 G65 P9104 A101 B01  ;
N2424 G0X1951.43Y648.71  ;
N2425 G65 P9102 A101 B01  ;
N2426 G1X1957.41Y649.27  ;
N2427 G3X1958.98Y651.18I-0.17J1.74  ;
N2428 G1X1927.42Y987.09  ;
N2429 G1X2027.97Y987.09  ;
N2430 G1X1980.93Y486.54  ;
N2431 G2X1974.46Y486.54I-3.24J0.3  ;
N2432 G1X1958.98Y651.18  ;
N2433 G65 P9104 A101 B02  ;
N2434 M98 P9103  ;
(P64:ID1:221785-7)  ;
(X2090.876 Y728.843 R180)  ;
N2435 M98 P9101  ;
N2436 G0X2026.55Y615.91  ;
N2437 G65 P9102 A101 B02  ;
N2438 G1X2021.61Y612.51  ;
N2439 G3X2021.36Y609.83I0.99J-1.45  ;
N2440 G3X2021.36Y609.83I9.02J9.01  ;
N2441 G65 P9104 A101 B01  ;
N2442 G0X2001.88Y540.23  ;
N2443 G65 P9102 A101 B01  ;
N2444 G1X2007.88Y540.23  ;
N2445 G3X2009.63Y541.98I0J1.75  ;
N2446 G1X2009.63Y721.84  ;
N2447 G2X2016.88Y729.09I7.25J0  ;
N2448 G1X2083.88Y729.09  ;
N2449 G2X2091.13Y721.84I0J-7.25  ;
N2450 G1X2091.13Y707.84  ;
N2451 G2X2087.88Y704.59I-3.25J0  ;
N2452 G1X2056.88Y704.59  ;
N2453 G3X2054.13Y701.84I0J-2.75  ;
N2454 G1X2054.13Y515.84  ;
N2455 G2X2046.88Y508.59I-7.25J0  ;
N2456 G1X2016.88Y508.59  ;
N2457 G2X2009.63Y515.84I0J7.25  ;
N2458 G1X2009.63Y541.98  ;
N2459 G65 P9104 A101 B02  ;
N2460 M98 P9103  ;
(P65:ID1:221785-7)  ;
(X2048.748 Y477.843 R0)  ;
N2461 M98 P9101  ;
N2462 G0X2113.07Y590.78  ;
N2463 G65 P9102 A101 B02  ;
N2464 G1X2118.02Y594.18  ;
N2465 G3X2118.26Y596.86I-0.99J1.44  ;
N2466 G3X2118.26Y596.86I-9.01J-9.02  ;
N2467 G65 P9104 A101 B01  ;
N2468 G0X2137.75Y666.46  ;
N2469 G65 P9102 A101 B01  ;
N2470 G1X2131.75Y666.46  ;
N2471 G3X2130Y664.71I0J-1.75  ;
N2472 G1X2130Y484.84  ;
N2473 G2X2122.75Y477.59I-7.25J0  ;
N2474 G1X2055.75Y477.59  ;
N2475 G2X2048.5Y484.84I0J7.25  ;
N2476 G1X2048.5Y498.84  ;
N2477 G2X2051.75Y502.09I3.25J0  ;
N2478 G1X2082.75Y502.09  ;
N2479 G3X2085.5Y504.84I0J2.75  ;
N2480 G1X2085.5Y690.84  ;
N2481 G2X2092.75Y698.09I7.25J0  ;
N2482 G1X2122.75Y698.09  ;
N2483 G2X2130Y690.84I0J-7.25  ;
N2484 G1X2130Y664.71  ;
N2485 G65 P9104 A101 B02  ;
N2486 M98 P9103  ;
(P66:ID1:221785-7)  ;
(X2048.121 Y735.843 R0)  ;
N2487 M98 P9101  ;
N2488 G0X2112.45Y848.78  ;
N2489 G65 P9102 A101 B02  ;
N2490 G1X2117.39Y852.18  ;
N2491 G3X2117.64Y854.86I-0.99J1.44  ;
N2492 G3X2117.64Y854.86I-9.02J-9.02  ;
N2493 G65 P9104 A101 B01  ;
N2494 G0X2137.12Y924.46  ;
N2495 G65 P9102 A101 B01  ;
N2496 G1X2131.12Y924.46  ;
N2497 G3X2129.37Y922.71I0J-1.75  ;
N2498 G1X2129.37Y742.84  ;
N2499 G2X2122.12Y735.59I-7.25J0  ;
N2500 G1X2055.12Y735.59  ;
N2501 G2X2047.87Y742.84I0J7.25  ;
N2502 G1X2047.87Y756.84  ;
N2503 G2X2051.12Y760.09I3.25J0  ;
N2504 G1X2082.12Y760.09  ;
N2505 G3X2084.87Y762.84I0J2.75  ;
N2506 G1X2084.87Y948.84  ;
N2507 G2X2092.12Y956.09I7.25J0  ;
N2508 G1X2122.12Y956.09  ;
N2509 G2X2129.37Y948.84I0J-7.25  ;
N2510 G1X2129.37Y922.71  ;
N2511 G65 P9104 A101 B02  ;
N2512 M98 P9103  ;
(P67:ID1:221785-7)  ;
(X2115.121 Y986.843 R180)  ;
N2513 M98 P9101  ;
N2514 G0X2050.79Y873.91  ;
N2515 G65 P9102 A101 B02  ;
N2516 G1X2045.85Y870.51  ;
N2517 G3X2045.61Y867.83I0.99J-1.45  ;
N2518 G3X2045.61Y867.83I9.01J9.01  ;
N2519 G65 P9104 A101 B01  ;
N2520 G0X2026.12Y798.23  ;
N2521 G65 P9102 A101 B01  ;
N2522 G1X2032.12Y798.23  ;
N2523 G3X2033.87Y799.98I0J1.75  ;
N2524 G1X2033.87Y979.84  ;
N2525 G2X2041.12Y987.09I7.25J0  ;
N2526 G1X2108.12Y987.09  ;
N2527 G2X2115.37Y979.84I0J-7.25  ;
N2528 G1X2115.37Y965.84  ;
N2529 G2X2112.12Y962.59I-3.25J0  ;
N2530 G1X2081.12Y962.59  ;
N2531 G3X2078.37Y959.84I0J-2.75  ;
N2532 G1X2078.37Y773.84  ;
N2533 G2X2071.12Y766.59I-7.25J0  ;
N2534 G1X2041.12Y766.59  ;
N2535 G2X2033.87Y773.84I0J7.25  ;
N2536 G1X2033.87Y799.98  ;
N2537 G65 P9104 A101 B02  ;
N2538 M98 P9103  ;
(P68:ID2:217701-8)  ;
(X1876.253 Y1171.45 R180)  ;
N2539 M98 P9101  ;
N2540 G0X1856.32Y1123.71  ;
N2541 G65 P9102 A101 B02  ;
N2542 G1X1853.47Y1122.95  ;
N2543 G3X1852.82Y1120.52I0.38J-1.4  ;
N2544 G3X1852.82Y1120.52I3.43J3.43  ;
N2545 G65 P9104 A101 B02  ;
N2546 G0X1856.32Y1093.71  ;
N2547 G65 P9102 A101 B02  ;
N2548 G1X1853.47Y1092.95  ;
N2549 G3X1852.82Y1090.52I0.38J-1.4  ;
N2550 G3X1852.82Y1090.52I3.43J3.43  ;
N2551 G65 P9104 A101 B01  ;
N2552 G0X1828.25Y1098.31  ;
N2553 G65 P9102 A101 B01  ;
N2554 G1X1834.25Y1098.31  ;
N2555 G3X1836Y1100.06I0J1.75  ;
N2556 G1X1836Y1172.05  ;
N2557 G1X1854.31Y1153.75  ;
N2558 G3X1858.2Y1153.75I1.94J1.94  ;
N2559 G1X1876.5Y1172.05  ;
N2560 G1X1876.5Y1083.95  ;
N2561 G2X1866.25Y1073.7I-10.25J0  ;
N2562 G1X1846.25Y1073.7  ;
N2563 G2X1836Y1083.95I0J10.25  ;
N2564 G1X1836Y1100.06  ;
N2565 G65 P9104 A101 B02  ;
N2566 M98 P9103  ;
(P69:ID24:287589-3)  ;
(X2075.253 Y1173.843 R180)  ;
N2567 M98 P9101  ;
N2568 G0X2055.34Y1153.61  ;
N2569 G65 P9102 A101 B02  ;
N2570 G1X2051.08Y1151.94  ;
N2571 G3X2050.48Y1149.07I0.64J-1.63  ;
N2572 G3X2050.48Y1149.07I4.77J4.77  ;
N2573 G65 P9104 A101 B02  ;
N2574 G0X2055.34Y1013.61  ;
N2575 G65 P9102 A101 B02  ;
N2576 G1X2051.08Y1011.94  ;
N2577 G3X2050.48Y1009.07I0.64J-1.63  ;
N2578 G3X2050.48Y1009.07I4.77J4.77  ;
N2579 G65 P9104 A101 B02  ;
N2580 G0X1903.34Y1013.61  ;
N2581 G65 P9102 A101 B02  ;
N2582 G1X1899.08Y1011.94  ;
N2583 G3X1898.48Y1009.07I0.64J-1.63  ;
N2584 G3X1898.48Y1009.07I4.77J4.77  ;
N2585 G65 P9104 A101 B02  ;
N2586 G0X1903.34Y1153.61  ;
N2587 G65 P9102 A101 B02  ;
N2588 G1X1899.08Y1151.94  ;
N2589 G3X1898.48Y1149.07I0.64J-1.63  ;
N2590 G3X1898.48Y1149.07I4.77J4.77  ;
N2591 G65 P9104 A101 B01  ;
N2592 G0X1875.25Y1026.86  ;
N2593 G65 P9102 A101 B01  ;
N2594 G1X1881.25Y1026.86  ;
N2595 G3X1883Y1028.61I0J1.75  ;
N2596 G1X1883Y1163.84  ;
N2597 G2X1893.25Y1174.09I10.25J0  ;
N2598 G1X2065.25Y1174.09  ;
N2599 G2X2075.5Y1163.84I0J-10.25  ;
N2600 G1X2075.5Y1003.84  ;
N2601 G2X2065.25Y993.59I-10.25J0  ;
N2602 G1X1893.25Y993.59  ;
N2603 G2X1883Y1003.84I0J10.25  ;
N2604 G1X1883Y1028.61  ;
N2605 G65 P9104 A101 B02  ;
N2606 M98 P9103  ;
(P70:ID2:217701-8)  ;
(X2082.253 Y993.843 R0)  ;
N2607 M98 P9101  ;
N2608 G0X2102.19Y1041.58  ;
N2609 G65 P9102 A101 B02  ;
N2610 G1X2105.03Y1042.35  ;
N2611 G3X2105.68Y1044.77I-0.37J1.4  ;
N2612 G3X2105.68Y1044.77I-3.43J-3.43  ;
N2613 G65 P9104 A101 B02  ;
N2614 G0X2102.19Y1071.58  ;
N2615 G65 P9102 A101 B02  ;
N2616 G1X2105.03Y1072.35  ;
N2617 G3X2105.68Y1074.77I-0.37J1.4  ;
N2618 G3X2105.68Y1074.77I-3.43J-3.43  ;
N2619 G65 P9104 A101 B01  ;
N2620 G0X2130.25Y1066.98  ;
N2621 G65 P9102 A101 B01  ;
N2622 G1X2124.25Y1066.98  ;
N2623 G3X2122.5Y1065.23I0J-1.75  ;
N2624 G1X2122.5Y993.24  ;
N2625 G1X2104.2Y1011.54  ;
N2626 G3X2100.31Y1011.54I-1.95J-1.94  ;
N2627 G1X2082Y993.24  ;
N2628 G1X2082Y1081.34  ;
N2629 G2X2092.25Y1091.59I10.25J0  ;
N2630 G1X2112.25Y1091.59  ;
N2631 G2X2122.5Y1081.34I0J-10.25  ;
N2632 G1X2122.5Y1065.23  ;
N2633 G65 P9104 A101 B02  ;
N2634 M98 P9103  ;
(P71:ID27:229023-4)  ;
(X2144.141 Y890.246 R0)  ;
N2635 M98 P9101  ;
N2636 G0X2194.06Y920.48  ;
N2637 G65 P9102 A101 B02  ;
N2638 G1X2197.88Y921.77  ;
N2639 G3X2198.56Y924.66I-0.56J1.66  ;
N2640 G3X2198.56Y924.66I-4.42J-4.41  ;
N2641 G65 P9104 A101 B02  ;
N2642 G0X2194.06Y1010.48  ;
N2643 G65 P9102 A101 B02  ;
N2644 G1X2197.88Y1011.77  ;
N2645 G3X2198.56Y1014.66I-0.56J1.66  ;
N2646 G3X2198.56Y1014.66I-4.42J-4.41  ;
N2647 G65 P9104 A101 B01  ;
N2648 G0X2211.01Y1089.02  ;
N2649 G65 P9102 A101 B01  ;
N2650 G1X2216.99Y1088.5  ;
N2651 G3X2218.89Y1090.25I0.15J1.75  ;
N2652 G3X2218.89Y1090.25I-24.75J0  ;
N2653 G65 P9104 A101 B01  ;
N2654 G0X2252.14Y1064.88  ;
N2655 G65 P9102 A101 B01  ;
N2656 G1X2246.14Y1064.88  ;
N2657 G3X2244.39Y1063.13I0J-1.75  ;
N2658 G1X2244.39Y893.25  ;
N2659 G2X2241.14Y890I-3.25J0  ;
N2660 G1X2147.14Y890  ;
N2661 G2X2143.89Y893.25I0J3.25  ;
N2662 G1X2143.89Y1090.25  ;
N2663 G2X2244.39Y1090.25I50.25J0  ;
N2664 G1X2244.39Y1063.13  ;
N2665 G65 P9104 A101 B02  ;
N2666 M98 P9103  ;
(P72:ID27:229023-4)  ;
(X2260.993 Y883.246 R180)  ;
N2667 M98 P9101  ;
N2668 G0X2211.07Y853.01  ;
N2669 G65 P9102 A101 B02  ;
N2670 G1X2207.25Y851.72  ;
N2671 G3X2206.57Y848.83I0.56J-1.66  ;
N2672 G3X2206.57Y848.83I4.42J4.42  ;
N2673 G65 P9104 A101 B02  ;
N2674 G0X2211.07Y763.01  ;
N2675 G65 P9102 A101 B02  ;
N2676 G1X2207.25Y761.72  ;
N2677 G3X2206.57Y758.83I0.56J-1.66  ;
N2678 G3X2206.57Y758.83I4.42J4.42  ;
N2679 G65 P9104 A101 B01  ;
N2680 G0X2194.12Y684.47  ;
N2681 G65 P9102 A101 B01  ;
N2682 G1X2188.15Y684.99  ;
N2683 G3X2186.24Y683.25I-0.16J-1.74  ;
N2684 G3X2186.24Y683.25I24.75J0  ;
N2685 G65 P9104 A101 B01  ;
N2686 G0X2152.99Y708.61  ;
N2687 G65 P9102 A101 B01  ;
N2688 G1X2158.99Y708.61  ;
N2689 G3X2160.74Y710.36I0J1.75  ;
N2690 G1X2160.74Y880.25  ;
N2691 G2X2163.99Y883.5I3.25J0  ;
N2692 G1X2257.99Y883.5  ;
N2693 G2X2261.24Y880.25I0J-3.25  ;
N2694 G1X2261.24Y683.25  ;
N2695 G2X2160.74Y683.25I-50.25J0  ;
N2696 G1X2160.74Y710.36  ;
N2697 G65 P9104 A101 B02  ;
N2698 M98 P9103  ;
(P73:ID27:229023-4)  ;
(X2136.748 Y379 R0)  ;
N2699 M98 P9101  ;
N2700 G0X2186.67Y409.24  ;
N2701 G65 P9102 A101 B02  ;
N2702 G1X2190.49Y410.52  ;
N2703 G3X2191.17Y413.42I-0.56J1.66  ;
N2704 G3X2191.17Y413.42I-4.42J-4.42  ;
N2705 G65 P9104 A101 B02  ;
N2706 G0X2186.67Y499.24  ;
N2707 G65 P9102 A101 B02  ;
N2708 G1X2190.49Y500.52  ;
N2709 G3X2191.17Y503.42I-0.56J1.66  ;
N2710 G3X2191.17Y503.42I-4.42J-4.42  ;
N2711 G65 P9104 A101 B01  ;
N2712 G0X2203.62Y577.78  ;
N2713 G65 P9102 A101 B01  ;
N2714 G1X2209.6Y577.26  ;
N2715 G3X2211.5Y579I0.15J1.74  ;
N2716 G3X2211.5Y579I-24.75J0  ;
N2717 G65 P9104 A101 B01  ;
N2718 G0X2244.75Y553.63  ;
N2719 G65 P9102 A101 B01  ;
N2720 G1X2238.75Y553.63  ;
N2721 G3X2237Y551.88I0J-1.75  ;
N2722 G1X2237Y382  ;
N2723 G2X2233.75Y378.75I-3.25J0  ;
N2724 G1X2139.75Y378.75  ;
N2725 G2X2136.5Y382I0J3.25  ;
N2726 G1X2136.5Y579  ;
N2727 G2X2237Y579I50.25J0  ;
N2728 G1X2237Y551.88  ;
N2729 G65 P9104 A101 B02  ;
N2730 M98 P9103  ;
(P74:ID27:229023-4)  ;
(X2351.768 Y628.86 R180)  ;
N2731 M98 P9101  ;
N2732 G0X2301.85Y598.62  ;
N2733 G65 P9102 A101 B02  ;
N2734 G1X2298.03Y597.34  ;
N2735 G3X2297.35Y594.44I0.56J-1.66  ;
N2736 G3X2297.35Y594.44I4.42J4.42  ;
N2737 G65 P9104 A101 B02  ;
N2738 G0X2301.85Y508.62  ;
N2739 G65 P9102 A101 B02  ;
N2740 G1X2298.03Y507.34  ;
N2741 G3X2297.35Y504.44I0.56J-1.66  ;
N2742 G3X2297.35Y504.44I4.42J4.42  ;
N2743 G65 P9104 A101 B01  ;
N2744 G0X2284.9Y430.08  ;
N2745 G65 P9102 A101 B01  ;
N2746 G1X2278.92Y430.6  ;
N2747 G3X2277.02Y428.86I-0.15J-1.74  ;
N2748 G3X2277.02Y428.86I24.75J0  ;
N2749 G65 P9104 A101 B01  ;
N2750 G0X2243.77Y454.23  ;
N2751 G65 P9102 A101 B01  ;
N2752 G1X2249.77Y454.23  ;
N2753 G3X2251.52Y455.98I0J1.75  ;
N2754 G1X2251.52Y625.86  ;
N2755 G2X2254.77Y629.11I3.25J0  ;
N2756 G1X2348.77Y629.11  ;
N2757 G2X2352.02Y625.86I0J-3.25  ;
N2758 G1X2352.02Y428.86  ;
N2759 G2X2251.52Y428.86I-50.25J0  ;
N2760 G1X2251.52Y455.98  ;
N2761 G65 P9104 A101 B02  ;
N2762 M98 P9103  ;
(P75:ID25:264219-5)  ;
(X2358.768 Y386 R0)  ;
N2763 M98 P9101  ;
N2764 G0X2452.99Y449.26  ;
N2765 G65 P9102 A101 B02  ;
N2766 G1X2457.9Y452.7  ;
N2767 G3X2458.14Y455.37I-1J1.43  ;
N2768 G3X2458.14Y455.37I-9.37J-9.37  ;
N2769 G65 P9104 A101 B01  ;
N2770 G0X2546.77Y474.75  ;
N2771 G65 P9102 A101 B01  ;
N2772 G1X2540.77Y474.75  ;
N2773 G3X2539.02Y473I0J-1.75  ;
N2774 G1X2539.02Y390  ;
N2775 G2X2534.77Y385.75I-4.25J0  ;
N2776 G1X2362.77Y385.75  ;
N2777 G2X2358.52Y390I0J4.25  ;
N2778 G1X2358.52Y502  ;
N2779 G2X2362.77Y506.25I4.25J0  ;
N2780 G1X2534.77Y506.25  ;
N2781 G2X2539.02Y502I0J-4.25  ;
N2782 G1X2539.02Y473  ;
N2783 G65 P9104 A101 B02  ;
N2784 M98 P9103  ;
(P76:ID25:264219-5)  ;
(X2358.768 Y535.277 R0)  ;
N2785 M98 P9101  ;
N2786 G0X2452.99Y598.53  ;
N2787 G65 P9102 A101 B02  ;
N2788 G1X2457.9Y601.97  ;
N2789 G3X2458.14Y604.65I-1J1.44  ;
N2790 G3X2458.14Y604.65I-9.37J-9.37  ;
N2791 G65 P9104 A101 B01  ;
N2792 G0X2546.77Y624.03  ;
N2793 G65 P9102 A101 B01  ;
N2794 G1X2540.77Y624.03  ;
N2795 G3X2539.02Y622.28I0J-1.75  ;
N2796 G1X2539.02Y539.28  ;
N2797 G2X2534.77Y535.03I-4.25J0  ;
N2798 G1X2362.77Y535.03  ;
N2799 G2X2358.52Y539.28I0J4.25  ;
N2800 G1X2358.52Y651.28  ;
N2801 G2X2362.77Y655.53I4.25J0  ;
N2802 G1X2534.77Y655.53  ;
N2803 G2X2539.02Y651.28I0J-4.25  ;
N2804 G1X2539.02Y622.28  ;
N2805 G65 P9104 A101 B02  ;
N2806 M98 P9103  ;
(P77:ID5:247521-9)  ;
(X2634.668 Y480.972 R180)  ;
N2807 M98 P9101  ;
N2808 G0X2590.28Y436.28  ;
N2809 G65 P9102 A101 B02  ;
N2810 G1X2587.49Y435.53  ;
N2811 G3X2586.86Y433.16I0.37J-1.37  ;
N2812 G3X2586.86Y433.16I3.36J3.36  ;
N2813 G65 P9104 A101 B01  ;
N2814 G0X2548.19Y467.83  ;
N2815 G65 P9102 A101 B01  ;
N2816 G1X2553.02Y464.27  ;
N2817 G3X2555.42Y464.58I1.04J1.41  ;
N2818 G2X2555.42Y464.58I34.8J-28.06  ;
N2819 G65 P9104 A101 B02  ;
N2820 M98 P9103  ;
(P78:ID13:201876-8)  ;
(X2649.843 Y553.782 R180)  ;
N2821 M98 P9101  ;
N2822 G0X2629.91Y523.54  ;
N2823 G65 P9102 A101 B02  ;
N2824 G1X2627.54Y522.91  ;
N2825 G3X2627.01Y520.95I0.3J-1.13  ;
N2826 G3X2627.01Y520.95I2.83J2.83  ;
N2827 G65 P9104 A101 B02  ;
N2828 G0X2569.91Y523.54  ;
N2829 G65 P9102 A101 B02  ;
N2830 G1X2567.54Y522.91  ;
N2831 G3X2567.01Y520.95I0.3J-1.13  ;
N2832 G3X2567.01Y520.95I2.83J2.83  ;
N2833 G65 P9104 A101 B01  ;
N2834 G0X2541.84Y510.73  ;
N2835 G65 P9102 A101 B01  ;
N2836 G1X2547.84Y510.73  ;
N2837 G3X2549.59Y512.48I0J1.75  ;
N2838 G1X2549.59Y548.78  ;
N2839 G2X2554.84Y554.03I5.25J0  ;
N2840 G1X2644.84Y554.03  ;
N2841 G2X2650.09Y548.78I0J-5.25  ;
N2842 G1X2650.09Y498.78  ;
N2843 G2X2644.84Y493.53I-5.25J0  ;
N2844 G1X2554.84Y493.53  ;
N2845 G2X2549.59Y498.78I0J5.25  ;
N2846 G1X2549.59Y512.48  ;
N2847 G65 P9104 A101 B02  ;
N2848 M98 P9103  ;
(P79:ID13:201876-8)  ;
(X2550.307 Y560.782 R0)  ;
N2849 M98 P9101  ;
N2850 G0X2570.24Y591.02  ;
N2851 G65 P9102 A101 B02  ;
N2852 G1X2572.61Y591.66  ;
N2853 G3X2573.14Y593.61I-0.3J1.13  ;
N2854 G3X2573.14Y593.61I-2.83J-2.83  ;
N2855 G65 P9104 A101 B02  ;
N2856 G0X2630.24Y591.02  ;
N2857 G65 P9102 A101 B02  ;
N2858 G1X2632.61Y591.66  ;
N2859 G3X2633.14Y593.61I-0.3J1.13  ;
N2860 G3X2633.14Y593.61I-2.83J-2.83  ;
N2861 G65 P9104 A101 B01  ;
N2862 G0X2658.31Y603.83  ;
N2863 G65 P9102 A101 B01  ;
N2864 G1X2652.31Y603.83  ;
N2865 G3X2650.56Y602.08I0J-1.75  ;
N2866 G1X2650.56Y565.78  ;
N2867 G2X2645.31Y560.53I-5.25J0  ;
N2868 G1X2555.31Y560.53  ;
N2869 G2X2550.06Y565.78I0J5.25  ;
N2870 G1X2550.06Y615.78  ;
N2871 G2X2555.31Y621.03I5.25J0  ;
N2872 G1X2645.31Y621.03  ;
N2873 G2X2650.56Y615.78I0J-5.25  ;
N2874 G1X2650.56Y602.08  ;
N2875 G65 P9104 A101 B02  ;
N2876 M98 P9103  ;
(P80:ID13:201876-8)  ;
(X2550.294 Y627.782 R0)  ;
N2877 M98 P9101  ;
N2878 G0X2570.23Y658.02  ;
N2879 G65 P9102 A101 B02  ;
N2880 G1X2572.6Y658.66  ;
N2881 G3X2573.12Y660.61I-0.3J1.13  ;
N2882 G3X2573.12Y660.61I-2.83J-2.83  ;
N2883 G65 P9104 A101 B02  ;
N2884 G0X2630.23Y658.02  ;
N2885 G65 P9102 A101 B02  ;
N2886 G1X2632.6Y658.66  ;
N2887 G3X2633.12Y660.61I-0.3J1.13  ;
N2888 G3X2633.12Y660.61I-2.83J-2.83  ;
N2889 G65 P9104 A101 B01  ;
N2890 G0X2658.29Y670.83  ;
N2891 G65 P9102 A101 B01  ;
N2892 G1X2652.29Y670.83  ;
N2893 G3X2650.54Y669.08I0J-1.75  ;
N2894 G1X2650.54Y632.78  ;
N2895 G2X2645.29Y627.53I-5.25J0  ;
N2896 G1X2555.29Y627.53  ;
N2897 G2X2550.04Y632.78I0J5.25  ;
N2898 G1X2550.04Y682.78  ;
N2899 G2X2555.29Y688.03I5.25J0  ;
N2900 G1X2645.29Y688.03  ;
N2901 G2X2650.54Y682.78I0J-5.25  ;
N2902 G1X2650.54Y669.08  ;
N2903 G65 P9104 A101 B02  ;
N2904 M98 P9103  ;
(P81:ID15:287585-3)  ;
(X2783.656 Y562.202 R180)  ;
N2905 M98 P9101  ;
N2906 G0X2753.74Y541.96  ;
N2907 G65 P9102 A101 B02  ;
N2908 G1X2749.92Y540.68  ;
N2909 G3X2749.24Y537.78I0.55J-1.66  ;
N2910 G3X2749.24Y537.78I4.42J4.42  ;
N2911 G65 P9104 A101 B01  ;
N2912 G0X2764.32Y514.2  ;
N2913 G65 P9102 A101 B01  ;
N2914 G1X2764.32Y520.2  ;
N2915 G3X2762.57Y521.95I-1.75J0  ;
N2916 G1X2738.66Y521.95  ;
N2917 G2X2733.41Y527.2I0J5.25  ;
N2918 G1X2733.41Y557.2  ;
N2919 G2X2738.66Y562.45I5.25J0  ;
N2920 G1X2783.91Y562.45  ;
N2921 G1X2783.91Y521.95  ;
N2922 G1X2762.57Y521.95  ;
N2923 G65 P9104 A101 B02  ;
N2924 M98 P9103  ;
(P82:ID23:266588-4)  ;
(X2656.751 Y443.878 R0)  ;
N2925 M98 P9101  ;
N2926 G0X2703.02Y490.47  ;
N2927 G65 P9102 A101 B02  ;
N2928 G1X2707.29Y492.14  ;
N2929 G3X2707.88Y495.01I-0.64J1.63  ;
N2930 G3X2707.88Y495.01I-4.77J-4.77  ;
N2931 G65 P9104 A101 B02  ;
N2932 G0X2676.66Y554.11  ;
N2933 G65 P9102 A101 B02  ;
N2934 G1X2680.93Y555.78  ;
N2935 G3X2681.52Y558.65I-0.64J1.63  ;
N2936 G3X2681.52Y558.65I-4.77J-4.77  ;
N2937 G65 P9104 A101 B02  ;
N2938 G0X2703.02Y617.75  ;
N2939 G65 P9102 A101 B02  ;
N2940 G1X2707.29Y619.42  ;
N2941 G3X2707.88Y622.29I-0.64J1.63  ;
N2942 G3X2707.88Y622.29I-4.77J-4.77  ;
N2943 G65 P9104 A101 B02  ;
N2944 G0X2766.66Y644.11  ;
N2945 G65 P9102 A101 B02  ;
N2946 G1X2770.93Y645.78  ;
N2947 G3X2771.52Y648.65I-0.64J1.63  ;
N2948 G3X2771.52Y648.65I-4.77J-4.77  ;
N2949 G65 P9104 A101 B02  ;
N2950 G0X2830.3Y617.75  ;
N2951 G65 P9102 A101 B02  ;
N2952 G1X2834.57Y619.42  ;
N2953 G3X2835.16Y622.29I-0.64J1.63  ;
N2954 G3X2835.16Y622.29I-4.77J-4.77  ;
N2955 G65 P9104 A101 B02  ;
N2956 G0X2856.66Y554.11  ;
N2957 G65 P9102 A101 B02  ;
N2958 G1X2860.93Y555.78  ;
N2959 G3X2861.52Y558.65I-0.64J1.63  ;
N2960 G3X2861.52Y558.65I-4.77J-4.77  ;
N2961 G65 P9104 A101 B02  ;
N2962 G0X2830.3Y490.47  ;
N2963 G65 P9102 A101 B02  ;
N2964 G1X2834.57Y492.14  ;
N2965 G3X2835.16Y495.01I-0.64J1.63  ;
N2966 G3X2835.16Y495.01I-4.77J-4.77  ;
N2967 G65 P9104 A101 B02  ;
N2968 G0X2766.66Y464.11  ;
N2969 G65 P9102 A101 B02  ;
N2970 G1X2770.93Y465.78  ;
N2971 G3X2771.52Y468.65I-0.64J1.63  ;
N2972 G3X2771.52Y468.65I-4.77J-4.77  ;
N2973 G65 P9104 A101 B01  ;
N2974 G0X2809.43Y552.38  ;
N2975 G65 P9102 A101 B01  ;
N2976 G1X2815.43Y552.13  ;
N2977 G3X2817.25Y553.88I0.07J1.75  ;
N2978 G3X2817.25Y553.88I-50.5J0  ;
N2979 G65 P9104 A101 B01  ;
N2980 G0X2856.13Y476.86  ;
N2981 G65 P9102 A101 B01  ;
N2982 G1X2851.57Y480.77  ;
N2983 G3X2849.13Y480.6I-1.14J-1.33  ;
N2984 G2X2849.13Y480.6I-82.38J73.28  ;
N2985 G65 P9104 A101 B01  ;
N2986 M98 P9103  ;
(P83:ID14:287878-9)  ;
(X2337.993 Y845.86 R180)  ;
N2987 M98 P9101  ;
N2988 G0X2272.34Y640.2  ;
N2989 G65 P9102 A101 B01  ;
N2990 G1X2276.58Y644.44  ;
N2991 G3X2276.58Y646.92I-1.23J1.24  ;
N2992 G1X2267.74Y655.76  ;
N2993 G1X2267.74Y846.11  ;
N2994 G1X2288.19Y846.11  ;
N2995 G1X2338.24Y655.89  ;
N2996 G1X2338.24Y635.61  ;
N2997 G1X2287.89Y635.61  ;
N2998 G1X2276.58Y646.92  ;
N2999 G65 P9104 A101 B01  ;
N3000 M98 P9103  ;
(P84:ID14:287878-9)  ;
(X2283.978 Y698.622 R0)  ;
N3001 M98 P9101  ;
N3002 G0X2349.63Y904.28  ;
N3003 G65 P9102 A101 B01  ;
N3004 G1X2345.39Y900.04  ;
N3005 G3X2345.39Y897.57I1.23J-1.24  ;
N3006 G1X2354.23Y888.73  ;
N3007 G1X2354.23Y698.37  ;
N3008 G1X2333.79Y698.37  ;
N3009 G1X2283.73Y888.59  ;
N3010 G1X2283.73Y908.87  ;
N3011 G1X2334.08Y908.87  ;
N3012 G1X2345.39Y897.57  ;
N3013 G65 P9104 A101 B01  ;
N3014 M98 P9103  ;
(P85:ID14:287878-9)  ;
(X2430.978 Y872.277 R180)  ;
N3015 M98 P9101  ;
N3016 G0X2365.33Y666.61  ;
N3017 G65 P9102 A101 B01  ;
N3018 G1X2369.57Y670.86  ;
N3019 G3X2369.57Y673.33I-1.24J1.23  ;
N3020 G1X2360.73Y682.17  ;
N3021 G1X2360.73Y872.53  ;
N3022 G1X2381.17Y872.53  ;
N3023 G1X2431.23Y682.31  ;
N3024 G1X2431.23Y662.03  ;
N3025 G1X2380.87Y662.03  ;
N3026 G1X2369.57Y673.33  ;
N3027 G65 P9104 A101 B01  ;
N3028 M98 P9103  ;
(P86:ID14:287878-9)  ;
(X2383.915 Y698.622 R0)  ;
N3029 M98 P9101  ;
N3030 G0X2449.57Y904.28  ;
N3031 G65 P9102 A101 B01  ;
N3032 G1X2445.32Y900.04  ;
N3033 G3X2445.32Y897.57I1.24J-1.24  ;
N3034 G1X2454.17Y888.73  ;
N3035 G1X2454.17Y698.37  ;
N3036 G1X2433.72Y698.37  ;
N3037 G1X2383.67Y888.59  ;
N3038 G1X2383.67Y908.87  ;
N3039 G1X2434.02Y908.87  ;
N3040 G1X2445.32Y897.57  ;
N3041 G65 P9104 A101 B01  ;
N3042 M98 P9103  ;
(P87:ID14:287878-9)  ;
(X2530.915 Y872.277 R180)  ;
N3043 M98 P9101  ;
N3044 G0X2465.26Y666.61  ;
N3045 G65 P9102 A101 B01  ;
N3046 G1X2469.51Y670.86  ;
N3047 G3X2469.51Y673.33I-1.24J1.23  ;
N3048 G1X2460.67Y682.17  ;
N3049 G1X2460.67Y872.53  ;
N3050 G1X2481.11Y872.53  ;
N3051 G1X2531.17Y682.31  ;
N3052 G1X2531.17Y662.03  ;
N3053 G1X2480.81Y662.03  ;
N3054 G1X2469.51Y673.33  ;
N3055 G65 P9104 A101 B01  ;
N3056 M98 P9103  ;
(P88:ID14:287878-9)  ;
(X2471.511 Y745.517 R0)  ;
N3057 M98 P9101  ;
N3058 G0X2537.16Y951.18  ;
N3059 G65 P9102 A101 B01  ;
N3060 G1X2532.92Y946.94  ;
N3061 G3X2532.92Y944.46I1.24J-1.24  ;
N3062 G1X2541.76Y935.62  ;
N3063 G1X2541.76Y745.27  ;
N3064 G1X2521.32Y745.27  ;
N3065 G1X2471.26Y935.49  ;
N3066 G1X2471.26Y955.77  ;
N3067 G1X2521.61Y955.77  ;
N3068 G1X2532.92Y944.46  ;
N3069 G65 P9104 A101 B01  ;
N3070 M98 P9103  ;
(P89:ID14:287878-9)  ;
(X2618.511 Y904.782 R180)  ;
N3071 M98 P9101  ;
N3072 G0X2552.86Y699.12  ;
N3073 G65 P9102 A101 B01  ;
N3074 G1X2557.1Y703.36  ;
N3075 G3X2557.1Y705.84I-1.23J1.24  ;
N3076 G1X2548.26Y714.68  ;
N3077 G1X2548.26Y905.03  ;
N3078 G1X2568.7Y905.03  ;
N3079 G1X2618.76Y714.81  ;
N3080 G1X2618.76Y694.53  ;
N3081 G1X2568.41Y694.53  ;
N3082 G1X2557.1Y705.84  ;
N3083 G65 P9104 A101 B02  ;
N3084 M98 P9103  ;
(P90:ID23:266588-4)  ;
(X2613.231 Y666.668 R0)  ;
N3085 M98 P9101  ;
N3086 G0X2659.5Y713.26  ;
N3087 G65 P9102 A101 B02  ;
N3088 G1X2663.77Y714.93  ;
N3089 G3X2664.36Y717.8I-0.64J1.63  ;
N3090 G3X2664.36Y717.8I-4.77J-4.77  ;
N3091 G65 P9104 A101 B02  ;
N3092 G0X2633.14Y776.9  ;
N3093 G65 P9102 A101 B02  ;
N3094 G1X2637.41Y778.57  ;
N3095 G3X2638Y781.44I-0.64J1.63  ;
N3096 G3X2638Y781.44I-4.77J-4.77  ;
N3097 G65 P9104 A101 B02  ;
N3098 G0X2659.5Y840.54  ;
N3099 G65 P9102 A101 B02  ;
N3100 G1X2663.77Y842.21  ;
N3101 G3X2664.36Y845.08I-0.64J1.63  ;
N3102 G3X2664.36Y845.08I-4.77J-4.77  ;
N3103 G65 P9104 A101 B02  ;
N3104 G0X2723.14Y866.9  ;
N3105 G65 P9102 A101 B02  ;
N3106 G1X2727.41Y868.57  ;
N3107 G3X2728Y871.44I-0.64J1.63  ;
N3108 G3X2728Y871.44I-4.77J-4.77  ;
N3109 G65 P9104 A101 B02  ;
N3110 G0X2786.78Y840.54  ;
N3111 G65 P9102 A101 B02  ;
N3112 G1X2791.05Y842.21  ;
N3113 G3X2791.64Y845.08I-0.64J1.63  ;
N3114 G3X2791.64Y845.08I-4.77J-4.77  ;
N3115 G65 P9104 A101 B02  ;
N3116 G0X2813.14Y776.9  ;
N3117 G65 P9102 A101 B02  ;
N3118 G1X2817.41Y778.57  ;
N3119 G3X2818Y781.44I-0.64J1.63  ;
N3120 G3X2818Y781.44I-4.77J-4.77  ;
N3121 G65 P9104 A101 B02  ;
N3122 G0X2786.78Y713.26  ;
N3123 G65 P9102 A101 B02  ;
N3124 G1X2791.05Y714.93  ;
N3125 G3X2791.64Y717.8I-0.64J1.63  ;
N3126 G3X2791.64Y717.8I-4.77J-4.77  ;
N3127 G65 P9104 A101 B02  ;
N3128 G0X2723.14Y686.9  ;
N3129 G65 P9102 A101 B02  ;
N3130 G1X2727.41Y688.57  ;
N3131 G3X2728Y691.44I-0.64J1.63  ;
N3132 G3X2728Y691.44I-4.77J-4.77  ;
N3133 G65 P9104 A101 B01  ;
N3134 G0X2765.91Y775.17  ;
N3135 G65 P9102 A101 B01  ;
N3136 G1X2771.91Y774.92  ;
N3137 G3X2773.73Y776.67I0.07J1.75  ;
N3138 G3X2773.73Y776.67I-50.5J0  ;
N3139 G65 P9104 A101 B01  ;
N3140 G0X2812.61Y699.65  ;
N3141 G65 P9102 A101 B01  ;
N3142 G1X2808.05Y703.56  ;
N3143 G3X2805.61Y703.39I-1.14J-1.33  ;
N3144 G2X2805.61Y703.39I-82.38J73.28  ;
N3145 G65 P9104 A101 B02  ;
N3146 M98 P9103  ;
(P91:ID13:201876-8)  ;
(X2564.872 Y911.782 R0)  ;
N3147 M98 P9101  ;
N3148 G0X2584.81Y942.02  ;
N3149 G65 P9102 A101 B02  ;
N3150 G1X2587.18Y942.66  ;
N3151 G3X2587.7Y944.61I-0.3J1.13  ;
N3152 G3X2587.7Y944.61I-2.83J-2.83  ;
N3153 G65 P9104 A101 B02  ;
N3154 G0X2644.81Y942.02  ;
N3155 G65 P9102 A101 B02  ;
N3156 G1X2647.18Y942.66  ;
N3157 G3X2647.7Y944.61I-0.3J1.13  ;
N3158 G3X2647.7Y944.61I-2.83J-2.83  ;
N3159 G65 P9104 A101 B01  ;
N3160 G0X2672.87Y954.83  ;
N3161 G65 P9102 A101 B01  ;
N3162 G1X2666.87Y954.83  ;
N3163 G3X2665.12Y953.08I0J-1.75  ;
N3164 G1X2665.12Y916.78  ;
N3165 G2X2659.87Y911.53I-5.25J0  ;
N3166 G1X2569.87Y911.53  ;
N3167 G2X2564.62Y916.78I0J5.25  ;
N3168 G1X2564.62Y966.78  ;
N3169 G2X2569.87Y972.03I5.25J0  ;
N3170 G1X2659.87Y972.03  ;
N3171 G2X2665.12Y966.78I0J-5.25  ;
N3172 G1X2665.12Y953.08  ;
N3173 G65 P9104 A101 B02  ;
N3174 M98 P9103  ;
(P92:ID12:200598-4)  ;
(X2251.141 Y915.622 R0)  ;
N3175 M98 P9101  ;
N3176 G0X2345.36Y978.88  ;
N3177 G65 P9102 A101 B02  ;
N3178 G1X2350.28Y982.32  ;
N3179 G3X2350.51Y984.99I-1.01J1.43  ;
N3180 G3X2350.51Y984.99I-9.37J-9.37  ;
N3181 G65 P9104 A101 B01  ;
N3182 G0X2439.14Y1004.23  ;
N3183 G65 P9102 A101 B01  ;
N3184 G1X2433.14Y1004.23  ;
N3185 G3X2431.39Y1002.48I0J-1.75  ;
N3186 G1X2431.39Y919.62  ;
N3187 G2X2427.14Y915.37I-4.25J0  ;
N3188 G1X2255.14Y915.37  ;
N3189 G2X2250.89Y919.62I0J4.25  ;
N3190 G1X2250.89Y1031.62  ;
N3191 G2X2255.14Y1035.87I4.25J0  ;
N3192 G1X2427.14Y1035.87  ;
N3193 G2X2431.39Y1031.62I0J-4.25  ;
N3194 G1X2431.39Y1002.48  ;
N3195 G65 P9104 A101 B02  ;
N3196 M98 P9103  ;
(P93:ID28:239042-1)  ;
(X2642.17 Y893.467 R0)  ;
N3197 M98 P9101  ;
N3198 G0X2730.72Y901.21  ;
N3199 G65 P9102 A101 B02  ;
N3200 G1X2732.11Y901.58  ;
N3201 G3X2732.37Y902.56I-0.15J0.57  ;
N3202 G3X2732.37Y902.56I-1.59J-1.59  ;
N3203 G65 P9104 A101 B02  ;
N3204 G0X2740.61Y962.68  ;
N3205 G65 P9102 A101 B02  ;
N3206 G1X2742Y963.05  ;
N3207 G3X2742.26Y964.03I-0.15J0.57  ;
N3208 G3X2742.26Y964.03I-1.59J-1.59  ;
N3209 G65 P9104 A101 B02  ;
N3210 G0X2708.64Y1016.28  ;
N3211 G65 P9102 A101 B02  ;
N3212 G1X2710.03Y1016.65  ;
N3213 G3X2710.29Y1017.63I-0.15J0.57  ;
N3214 G3X2710.29Y1017.63I-1.59J-1.59  ;
N3215 G65 P9104 A101 B02  ;
N3216 G0X2678.92Y1067.19  ;
N3217 G65 P9102 A101 B02  ;
N3218 G1X2680.74Y1067.68  ;
N3219 G3X2681.11Y1069.07I-0.22J0.8  ;
N3220 G3X2681.11Y1069.07I-2.12J-2.12  ;
N3221 G65 P9104 A101 B02  ;
N3222 G0X2649.61Y1036.63  ;
N3223 G65 P9102 A101 B02  ;
N3224 G1X2651Y1037  ;
N3225 G3X2651.26Y1037.98I-0.15J0.57  ;
N3226 G3X2651.26Y1037.98I-1.59J-1.59  ;
N3227 G65 P9104 A101 B01  ;
N3228 G0X2712.48Y908.37  ;
N3229 G65 P9102 A101 B01  ;
N3230 G1X2718.3Y909.83  ;
N3231 G3X2719.59Y911.91I-0.42J1.7  ;
N3232 G2X2724.11Y953.93I64.78J14.28  ;
N3233 G3X2723.31Y960.01I-5.22J2.4  ;
N3234 G2X2704.32Y1007.49I63.72J53.03  ;
N3235 G3X2702.89Y1010.91I-5.74J-0.39  ;
N3236 G2X2702.31Y1020.42I5.81J5.13  ;
N3237 G3X2703.02Y1025.51I-4.74J3.26  ;
N3238 G3X2660.36Y1042.06I-28.21J-9.47  ;
N3239 G3X2657.41Y1036.76I2.8J-5.03  ;
N3240 G2X2649.11Y1044.12I-7.74J-0.37  ;
N3241 G2X2671.43Y1054.08I26.49J-29.38  ;
N3242 G1X2671.82Y1068.39  ;
N3243 G2X2686.3Y1066.94I7.17J-1.44  ;
N3244 G1X2685.35Y1053.08  ;
N3245 G2X2714.45Y1022.19I-9.75J-38.34  ;
N3246 G3X2715.24Y1020.19I5.65J1.08  ;
N3247 G2X2714.43Y1010.82I-6.54J-4.15  ;
N3248 G3X2712.97Y1006.37I4.26J-3.86  ;
N3249 G3X2728.77Y969.85I65.5J6.67  ;
N3250 G3X2736.33Y968.86I4.34J3.77  ;
N3251 G2X2739.6Y954.76I4.34J-6.42  ;
N3252 G3X2733.91Y952.08I-0.79J-5.69  ;
N3253 G3X2729.71Y911.81I39.9J-24.52  ;
N3254 G3X2733.28Y908.3I5.42J1.94  ;
N3255 G2X2723.07Y900.21I-2.5J-7.33  ;
N3256 G3X2722.69Y901.76I-5.72J-0.57  ;
N3257 G2X2719.59Y911.91I61.68J24.43  ;
N3258 G65 P9104 A101 B01  ;
N3259 M98 P9103  ;
(P94:ID11:287579-2)  ;
(X2920.01 Y747.254 R0)  ;
N3260 M98 P9101  ;
N3261 G0X2982.35Y956.23  ;
N3262 G65 P9102 A101 B01  ;
N3263 G1X2978.1Y951.99  ;
N3264 G3X2978.1Y949.51I1.24J-1.24  ;
N3265 G1X2990.26Y937.36  ;
N3266 G1X2990.26Y747  ;
N3267 G1X2969.82Y747  ;
N3268 G1X2919.76Y937.22  ;
N3269 G1X2919.76Y957.5  ;
N3270 G1X2970.11Y957.5  ;
N3271 G1X2978.1Y949.51  ;
N3272 G65 P9104 A101 B02  ;
N3273 M98 P9103  ;
(P95:ID6:245107-8)  ;
(X2856.571 Y964.27 R0)  ;
N3274 M98 P9101  ;
N3275 G0X2916.29Y998.57  ;
N3276 G65 P9102 A101 B02  ;
N3277 G1X2917.96Y999.02  ;
N3278 G3X2918.3Y1000.27I-0.19J0.72  ;
N3279 G3X2918.3Y1000.27I-1.95J-1.94  ;
N3280 G65 P9104 A101 B01  ;
N3281 G0X2955.2Y984.9  ;
N3282 G65 P9102 A101 B01  ;
N3283 G1X2951.34Y989.49  ;
N3284 G3X2948.88Y989.71I-1.34J-1.12  ;
N3285 G1X2919.73Y965.25  ;
N3286 G2X2912.98Y965.25I-3.38J4.02  ;
N3287 G1X2859.98Y1009.72  ;
N3288 G2X2856.79Y1020.63I6.59J7.85  ;
N3289 G2X2893.11Y1046I34.56J-10.8  ;
N3290 G2X2895.21Y1043.3I-0.11J-2.25  ;
N3291 G3X2953.97Y1040.16I29.14J-5.97  ;
N3292 G2X2957.19Y1042.39I2.24J0.21  ;
N3293 G2X2975.92Y1020.63I-15.84J-32.56  ;
N3294 G2X2972.72Y1009.72I-9.78J-3.06  ;
N3295 G1X2948.88Y989.71  ;
N3296 G65 P9104 A101 B02  ;
N3297 M98 P9103  ;
(P96:ID6:245107-8)  ;
(X2953.105 Y1110.167 R180)  ;
N3298 M98 P9101  ;
N3299 G0X2893.39Y1075.87  ;
N3300 G65 P9102 A101 B02  ;
N3301 G1X2891.71Y1075.42  ;
N3302 G3X2891.38Y1074.16I0.2J-0.73  ;
N3303 G3X2891.38Y1074.16I1.94J1.95  ;
N3304 G65 P9104 A101 B01  ;
N3305 G0X2854.48Y1089.54  ;
N3306 G65 P9102 A101 B01  ;
N3307 G1X2858.33Y1084.94  ;
N3308 G3X2860.8Y1084.73I1.34J1.13  ;
N3309 G1X2889.95Y1109.19  ;
N3310 G2X2896.7Y1109.19I3.37J-4.02  ;
N3311 G1X2949.69Y1064.72  ;
N3312 G2X2952.89Y1053.81I-6.58J-7.85  ;
N3313 G2X2916.56Y1028.44I-34.57J10.8  ;
N3314 G2X2914.47Y1031.14I0.11J2.25  ;
N3315 G3X2855.71Y1034.28I-29.15J5.97  ;
N3316 G2X2852.48Y1032.04I-2.24J-0.21  ;
N3317 G2X2833.76Y1053.81I15.84J32.57  ;
N3318 G2X2836.95Y1064.72I9.78J3.06  ;
N3319 G1X2860.8Y1084.73  ;
N3320 G65 P9104 A101 B02  ;
N3321 M98 P9103  ;
(P97:ID4:266822-5)  ;
(X2727.378 Y1110.915 R0)  ;
N3322 M98 P9101  ;
N3323 G0X2787.31Y1236.16  ;
N3324 G65 P9102 A101 B02  ;
N3325 G1X2789.04Y1236.62  ;
N3326 G3X2789.39Y1237.93I-0.2J0.76  ;
N3327 G3X2789.39Y1237.93I-2.01J-2.01  ;
N3328 G65 P9104 A101 B02  ;
N3329 G0X2852.31Y1301.16  ;
N3330 G65 P9102 A101 B02  ;
N3331 G1X2854.04Y1301.62  ;
N3332 G3X2854.39Y1302.93I-0.2J0.76  ;
N3333 G3X2854.39Y1302.93I-2.01J-2.01  ;
N3334 G65 P9104 A101 B02  ;
N3335 G0X2917.31Y1236.16  ;
N3336 G65 P9102 A101 B02  ;
N3337 G1X2919.04Y1236.62  ;
N3338 G3X2919.39Y1237.93I-0.2J0.76  ;
N3339 G3X2919.39Y1237.93I-2.01J-2.01  ;
N3340 G65 P9104 A101 B02  ;
N3341 G0X2852.31Y1171.16  ;
N3342 G65 P9102 A101 B02  ;
N3343 G1X2854.04Y1171.62  ;
N3344 G3X2854.39Y1172.93I-0.2J0.76  ;
N3345 G3X2854.39Y1172.93I-2.01J-2.01  ;
N3346 G65 P9104 A101 B01  ;
N3347 G0X2866.23Y1234.77  ;
N3348 G65 P9102 A101 B01  ;
N3349 G1X2872.2Y1234.17  ;
N3350 G3X2874.13Y1235.92I0.18J1.75  ;
N3351 G3X2874.13Y1235.92I-21.75J0  ;
