O0099  ;
( MACHINE : TCI Smartline Fiber 6kW )  ;
( MATERIAL : INOXIDABLE )  ;
( THICKNESS : 20 )  ;
( LENS : 150 )  ;
( GAS : 1 )  ;
( POWER : 6000 )  ;
( PARAM : Prueba )  ;
( REPETITIONS : 1 )  ;
( SIMULATION TIME : 00:00:59 )  ;
( FORMAT : 102x60 )  ;
( JOB NUMBER : pruebas )  ;
( PROGRAM NUMBER : 298 )  ;
( TYPE : 0 )  ;
( NUMBER OF SHEETS : 1 )  ;
( CUTTING HEADS : 1 )  ;
#516= 1  ;
#517= 1  ;
N105 G65 P9100 A103 B02  ;
(P1:ID1:test20mmINOX)  ;
(X5 Y5 R0)  ;
(3277)  ;
N106 M98 P9101  ;
N107 G0X45.131Y30.213  ;
N108 G65 P9102 A103 B02  ;
N109 G1X52.507Y25.675  ;
N110 G3X59.744Y29.589I2.49J4.05  ;
N111 G3X30.256Y30.411I-14.74J0.41  ;
N112 G3X59.744Y29.589I14.74J-0.41  ;
N113 G65 P9104 A103 B01  ;
N114 G0X97Y4.75  ;
N115 G65 P9102 A103 B01  ;
N116 G1X85Y4.75  ;
N117 G1X10Y4.75  ;
N118 G2X4.75Y10I0J5.25  ;
N119 G1X4.75Y50  ;
N120 G2X10Y55.25I5.25J0  ;
N121 G1X80Y55.25  ;
N122 G2X85.25Y50I0J-5.25  ;
N123 G1X85.25Y5  ;
N124 M98 P9104  ;
N125 M98 P9103  ;
(FOOTER)
N126 M98 P9110  ;
N127 M30  ;
%
