O0099  ;
( MACHINE : TCI Laser )  ;
( MATERIAL : Acero al carbono N2 )  ;
( THICKNESS : 4 )  ;
( REPETITIONS : 1 )  ;
( SIMULATION TIME : 01:05:52 )  ;
( FORMAT : 2000x4000 )  ;
( JOB NUMBER : VARS5630\謭563222s40 )  ;
( PROGRAM NUMBER : 12106 )  ;
( TYPE : 0 )  ;
( NUMBER OF SHEETS : 1 )  ;
( CUTTING HEADS : 1 )  ;
#516= 1  ;
#517= 1  ;
N105 G65 P9100 A103 B04  ;
(P1:ID1:W56240420)  ;
N106 M98 P9101  ;
N107 G0X523.87Y922.54  ;
N108 G65 P9102 A102 B04  ;
N109 G1X523.87Y920.82  ;
N110 G1X519.59Y920.82  ;
N111 G1X521.73Y916.54  ;
N112 G1X523.87Y920.82  ;
N113 G65 P9104 A102 B04  ;
N114 G0X519.59Y920.82  ;
N115 G65 P9102 A102 B04  ;
N116 G1X519.59Y922.54  ;
N117 G65 P9104 A102 B04  ;
N118 G0X519.05Y922.54  ;
N119 G65 P9102 A102 B04  ;
N120 G1X519.05Y920.82  ;
N121 G1X514.77Y920.82  ;
N122 G1X516.91Y916.54  ;
N123 G1X519.05Y920.82  ;
N124 G65 P9104 A102 B04  ;
N125 G0X514.77Y920.82  ;
N126 G65 P9102 A102 B04  ;
N127 G1X514.77Y922.54  ;
N128 G65 P9104 A102 B04  ;
N129 G0X509.94Y921.68  ;
N130 G65 P9102 A102 B04  ;
N131 G1X510.8Y922.54  ;
N132 G1X514.23Y922.54  ;
N133 G1X514.23Y920.82  ;
N134 G1X513.37Y919.97  ;
N135 G1X510.8Y919.97  ;
N136 G1X509.94Y919.11  ;
N137 G1X509.94Y917.39  ;
N138 G1X510.8Y916.54  ;
N139 G1X513.37Y916.54  ;
N140 G1X514.23Y917.39  ;
N141 G65 P9104 A102 B04  ;
N142 G0X505.98Y916.54  ;
N143 G65 P9102 A102 B04  ;
N144 G1X509.41Y920.82  ;
N145 G1X505.12Y920.82  ;
N146 G65 P9104 A102 B04  ;
N147 G0X505.98Y919.97  ;
N148 G65 P9102 A102 B04  ;
N149 G1X505.98Y922.54  ;
N150 G65 P9104 A101 B02  ;
N151 G0X477.08Y893.51  ;
N152 G65 P9102 A101 B02  ;
N153 G1X473.61Y891.51  ;
N154 G2X473.27Y891.6I-0.12J0.22  ;
N155 G1X471.65Y894.4  ;
N156 G1X474.89Y900  ;
N157 G1X481.35Y900  ;
N158 G1X484.59Y894.4  ;
N159 G1X481.35Y888.8  ;
N160 G1X474.89Y888.8  ;
N161 G1X473.27Y891.6  ;
N162 G65 P9104 A101 B02  ;
N163 G0X377.08Y893.51  ;
N164 G65 P9102 A101 B02  ;
N165 G1X373.61Y891.51  ;
N166 G2X373.27Y891.6I-0.12J0.22  ;
N167 G1X371.65Y894.4  ;
N168 G1X374.89Y900  ;
N169 G1X381.35Y900  ;
N170 G1X384.59Y894.4  ;
N171 G1X381.35Y888.8  ;
N172 G1X374.89Y888.8  ;
N173 G1X373.27Y891.6  ;
N174 G65 P9104 A101 B01  ;
N175 G0X323.12Y932.45  ;
N176 G65 P9102 A101 B01  ;
N177 G1X328.12Y932.45  ;
N178 G1X353.17Y932.45  ;
N179 G1X353.17Y923.4  ;
N180 G3X356.12Y920.45I2.95J0  ;
N181 G1X500.12Y920.45  ;
N182 G3X503.07Y923.4I0J2.95  ;
N183 G1X503.07Y932.45  ;
N184 G1X528.17Y932.45  ;
N185 G1X528.17Y892.38  ;
N186 G1X518.14Y882.35  ;
N187 G1X338.1Y882.35  ;
N188 G1X328.07Y892.38  ;
N189 G1X328.07Y931.75  ;
N190 G65 P9104 A101 B01  ;
N191 M98 P9103  ;
(P2:ID2:W56240415)  ;
N192 M98 P9101  ;
N193 G0X528.5Y27.55  ;
N194 G65 P9102 A101 B01  ;
N195 G1X525.5Y27.55  ;
N196 G2X524.55Y28.5I0J0.95  ;
N197 G1X524.55Y34  ;
N198 G2X527.5Y36.95I2.95J0  ;
N199 G1X546.5Y36.95  ;
N200 G2X549.45Y34I0J-2.95  ;
N201 G1X549.45Y23  ;
N202 G2X546.5Y20.05I-2.95J0  ;
N203 G1X527.5Y20.05  ;
N204 G2X524.55Y23I0J2.95  ;
N205 G1X524.55Y28.5  ;
N206 G65 P9104 A101 B01  ;
N207 G0X640Y27.87  ;
N208 G65 P9102 A101 B01  ;
N209 G1X635.05Y27.87  ;
N210 G1X635.05Y22.45  ;
N211 G1X632.05Y22.45  ;
N212 G1X632.05Y12.98  ;
N213 G1X624.02Y4.95  ;
N214 G1X344.98Y4.95  ;
N215 G1X336.95Y12.98  ;
N216 G1X336.95Y50.04  ;
N217 G1X380.32Y57.35  ;
N218 G3X384.45Y62.23I-0.82J4.88  ;
N219 G1X384.45Y70.05  ;
N220 G1X451.95Y70.05  ;
N221 G1X451.95Y73.05  ;
N222 G1X497.05Y73.05  ;
N223 G1X497.05Y70.05  ;
N224 G1X584.55Y70.05  ;
N225 G1X584.55Y62.23  ;
N226 G3X588.68Y57.35I4.95J0  ;
N227 G1X632.05Y50.04  ;
N228 G1X632.05Y37.55  ;
N229 G1X635.05Y37.55  ;
N230 G1X635.05Y28.57  ;
N231 G65 P9104 A101 B02  ;
N232 M98 P9103  ;
(P3:ID3:W56322228)  ;
N233 M98 P9101  ;
N234 G0X724.25Y23.71  ;
N235 G65 P9102 A101 B02  ;
N236 G1X722.25Y20.24  ;
N237 G2X721.91Y20.15I-0.21J0.13  ;
N238 G1X719.12Y21.76  ;
N239 G1X719.12Y28.2  ;
N240 G1X724.7Y31.42  ;
N241 G1X730.28Y28.2  ;
N242 G1X730.28Y21.76  ;
N243 G1X724.7Y18.54  ;
N244 G1X721.91Y20.15  ;
N245 G65 P9104 A101 B02  ;
N246 G0X794.25Y23.71  ;
N247 G65 P9102 A101 B02  ;
N248 G1X792.25Y20.24  ;
N249 G2X791.91Y20.15I-0.21J0.13  ;
N250 G1X789.12Y21.76  ;
N251 G1X789.12Y28.2  ;
N252 G1X794.7Y31.42  ;
N253 G1X800.28Y28.2  ;
N254 G1X800.28Y21.76  ;
N255 G1X794.7Y18.54  ;
N256 G1X791.91Y20.15  ;
N257 G65 P9104 A101 B01  ;
N258 G0X877.45Y49.98  ;
N259 G65 P9102 A101 B01  ;
N260 G1X877.45Y44.98  ;
N261 G1X877.45Y4.93  ;
N262 G1X641.95Y4.93  ;
N263 G1X641.95Y45.03  ;
N264 G1X876.75Y45.03  ;
N265 G65 P9104 A101 B02  ;
N266 M98 P9103  ;
(P4:ID3:W56322228)  ;
N267 M98 P9101  ;
N268 G0X963.65Y23.71  ;
N269 G65 P9102 A101 B02  ;
N270 G1X961.65Y20.24  ;
N271 G2X961.31Y20.15I-0.21J0.13  ;
N272 G1X958.52Y21.76  ;
N273 G1X958.52Y28.2  ;
N274 G1X964.1Y31.42  ;
N275 G1X969.67Y28.2  ;
N276 G1X969.67Y21.76  ;
N277 G1X964.1Y18.54  ;
N278 G1X961.31Y20.15  ;
N279 G65 P9104 A101 B02  ;
N280 G0X1033.65Y23.71  ;
N281 G65 P9102 A101 B02  ;
N282 G1X1031.65Y20.24  ;
N283 G2X1031.31Y20.15I-0.21J0.13  ;
N284 G1X1028.52Y21.76  ;
N285 G1X1028.52Y28.2  ;
N286 G1X1034.1Y31.42  ;
N287 G1X1039.67Y28.2  ;
N288 G1X1039.67Y21.76  ;
N289 G1X1034.1Y18.54  ;
N290 G1X1031.31Y20.15  ;
N291 G65 P9104 A101 B01  ;
N292 G0X1116.85Y49.98  ;
N293 G65 P9102 A101 B01  ;
N294 G1X1116.85Y44.98  ;
N295 G1X1116.85Y4.93  ;
N296 G1X881.35Y4.93  ;
N297 G1X881.35Y45.03  ;
N298 G1X1116.15Y45.03  ;
N299 G65 P9104 A101 B02  ;
N300 M98 P9103  ;
(P5:ID4:W56322224)  ;
N301 M98 P9101  ;
N302 G0X1169.04Y21.25  ;
N303 G65 P9102 A101 B02  ;
N304 G1X1171.04Y24.72  ;
N305 G2X1171.38Y24.81I0.22J-0.13  ;
N306 G1X1174.17Y23.2  ;
N307 G1X1174.17Y16.76  ;
N308 G1X1168.6Y13.54  ;
N309 G1X1163.02Y16.76  ;
N310 G1X1163.02Y23.2  ;
N311 G1X1168.6Y26.42  ;
N312 G1X1171.38Y24.81  ;
N313 G65 P9104 A101 B02  ;
N314 G0X1209.04Y21.25  ;
N315 G65 P9102 A101 B02  ;
N316 G1X1211.04Y24.72  ;
N317 G2X1211.38Y24.81I0.22J-0.13  ;
N318 G1X1214.17Y23.2  ;
N319 G1X1214.17Y16.76  ;
N320 G1X1208.6Y13.54  ;
N321 G1X1203.02Y16.76  ;
N322 G1X1203.02Y23.2  ;
N323 G1X1208.6Y26.42  ;
N324 G1X1211.38Y24.81  ;
N325 G65 P9104 A101 B01  ;
N326 G0X1120.95Y39.98  ;
N327 G65 P9102 A101 B01  ;
N328 G1X1120.95Y34.98  ;
N329 G1X1120.95Y4.93  ;
N330 G1X1256.25Y4.93  ;
N331 G1X1256.25Y35.03  ;
N332 G1X1121.65Y35.03  ;
N333 G65 P9104 A102 B04  ;
N334 M98 P9103  ;
(P6:ID5:W56240403)  ;
N335 M98 P9101  ;
N336 G0X644.22Y118  ;
N337 G65 P9102 A102 B04  ;
N338 G1X654.22Y118  ;
N339 G1X654.22Y122  ;
N340 G1X644.22Y122  ;
N341 G65 P9104 A102 B04  ;
N342 G0X583.22Y183  ;
N343 G65 P9102 A102 B04  ;
N344 G1X583.22Y193  ;
N345 G1X579.22Y193  ;
N346 G1X579.22Y183  ;
N347 G65 P9104 A102 B04  ;
N348 G0X579.22Y773  ;
N349 G65 P9102 A102 B04  ;
N350 G1X579.22Y763  ;
N351 G1X583.22Y763  ;
N352 G1X583.22Y773  ;
N353 G65 P9104 A102 B04  ;
N354 G0X644.22Y834  ;
N355 G65 P9102 A102 B04  ;
N356 G1X654.22Y834  ;
N357 G1X654.22Y838  ;
N358 G1X644.22Y838  ;
N359 G65 P9104 A101 B02  ;
N360 G0X62.44Y856.95  ;
N361 G65 P9102 A101 B02  ;
N362 G1X60.94Y859.55  ;
N363 G2X61.29Y860.85I0.82J0.48  ;
N364 G1X64.09Y862.47  ;
N365 G1X69.69Y859.23  ;
N366 G1X69.69Y852.77  ;
N367 G1X64.09Y849.53  ;
N368 G1X58.49Y852.77  ;
N369 G1X58.49Y859.23  ;
N370 G1X61.29Y860.85  ;
N371 G65 P9104 A101 B02  ;
N372 G0X62.44Y661.95  ;
N373 G65 P9102 A101 B02  ;
N374 G1X60.94Y664.55  ;
N375 G2X61.29Y665.85I0.82J0.48  ;
N376 G1X64.09Y667.47  ;
N377 G1X69.69Y664.23  ;
N378 G1X69.69Y657.77  ;
N379 G1X64.09Y654.53  ;
N380 G1X58.49Y657.77  ;
N381 G1X58.49Y664.23  ;
N382 G1X61.29Y665.85  ;
N383 G65 P9104 A101 B02  ;
N384 G0X181.73Y519  ;
N385 G65 P9102 A101 B02  ;
N386 G1X181.73Y522  ;
N387 G2X182.68Y522.95I0.95J0  ;
N388 G1X197.63Y522.95  ;
N389 G1X197.63Y433.05  ;
N390 G1X167.73Y433.05  ;
N391 G1X167.73Y522.95  ;
N392 G1X182.68Y522.95  ;
N393 G65 P9104 A101 B02  ;
N394 G0X62.44Y148.95  ;
N395 G65 P9102 A101 B02  ;
N396 G1X60.94Y151.55  ;
N397 G2X61.29Y152.85I0.82J0.48  ;
N398 G1X64.09Y154.47  ;
N399 G1X69.69Y151.23  ;
N400 G1X69.69Y144.77  ;
N401 G1X64.09Y141.53  ;
N402 G1X58.49Y144.77  ;
N403 G1X58.49Y151.23  ;
N404 G1X61.29Y152.85  ;
N405 G65 P9104 A101 B02  ;
N406 G0X62.44Y265.95  ;
N407 G65 P9102 A101 B02  ;
N408 G1X60.94Y268.55  ;
N409 G2X61.29Y269.85I0.82J0.48  ;
N410 G1X64.09Y271.47  ;
N411 G1X69.69Y268.23  ;
N412 G1X69.69Y261.77  ;
N413 G1X64.09Y258.53  ;
N414 G1X58.49Y261.77  ;
N415 G1X58.49Y268.23  ;
N416 G1X61.29Y269.85  ;
N417 G65 P9104 A101 B02  ;
N418 G0X13.87Y305.56  ;
N419 G65 P9102 A101 B02  ;
N420 G1X11.79Y307.64  ;
N421 G3X11.82Y307.68I3.71J-3.64  ;
N422 G65 P9104 A101 B02  ;
N423 G0X10.87Y308.56  ;
N424 G65 P9102 A101 B02  ;
N425 G1X10.2Y309.23  ;
N426 G3X10.23Y309.27I5.3J-5.23  ;
N427 G65 P9104 A101 B01  ;
N428 G0X1229.36Y73.95  ;
N429 G65 P9102 A101 B01  ;
N430 G1X1226.36Y73.95  ;
N431 G1X969.72Y73.95  ;
N432 G1X969.72Y77.95  ;
N433 G1X327.18Y77.95  ;
N434 G3X321.23Y72I0J-5.95  ;
N435 G1X321.23Y11  ;
N436 G2X315.18Y4.95I-6.05J0  ;
N437 G1X90.68Y4.95  ;
N438 G2X84.63Y11I0J6.05  ;
N439 G1X84.63Y51.55  ;
N440 G1X85.13Y51.55  ;
N441 G1X85.13Y53.45  ;
N442 G1X80.58Y53.45  ;
N443 G1X80.58Y53.95  ;
N444 G1X45.59Y53.95  ;
N445 G1X45.59Y53.45  ;
N446 G1X4.95Y53.45  ;
N447 G1X4.95Y902.55  ;
N448 G1X45.59Y902.55  ;
N449 G1X45.59Y902.05  ;
N450 G1X80.58Y902.05  ;
N451 G1X80.58Y902.55  ;
N452 G1X85.13Y902.55  ;
N453 G1X85.13Y904.45  ;
N454 G1X84.63Y904.45  ;
N455 G1X84.63Y945  ;
N456 G2X90.68Y951.05I6.05J0  ;
N457 G1X315.18Y951.05  ;
N458 G2X321.23Y945I0J-6.05  ;
N459 G1X321.23Y884  ;
N460 G3X327.18Y878.05I5.95J0  ;
N461 G1X969.72Y878.05  ;
N462 G1X969.72Y882.05  ;
N463 G1X1226.41Y882.05  ;
N464 G1X1226.41Y74  ;
N465 G65 P9104 A102 B04  ;
N466 M98 P9103  ;
(P7:ID1:W56240420)  ;
N467 M98 P9101  ;
N468 G0X730.87Y922.54  ;
N469 G65 P9102 A102 B04  ;
N470 G1X730.87Y920.82  ;
N471 G1X726.59Y920.82  ;
N472 G1X728.73Y916.54  ;
N473 G1X730.87Y920.82  ;
N474 G65 P9104 A102 B04  ;
N475 G0X726.59Y920.82  ;
N476 G65 P9102 A102 B04  ;
N477 G1X726.59Y922.54  ;
N478 G65 P9104 A102 B04  ;
N479 G0X726.05Y922.54  ;
N480 G65 P9102 A102 B04  ;
N481 G1X726.05Y920.82  ;
N482 G1X721.77Y920.82  ;
N483 G1X723.91Y916.54  ;
N484 G1X726.05Y920.82  ;
N485 G65 P9104 A102 B04  ;
N486 G0X721.77Y920.82  ;
N487 G65 P9102 A102 B04  ;
N488 G1X721.77Y922.54  ;
N489 G65 P9104 A102 B04  ;
N490 G0X716.94Y921.68  ;
N491 G65 P9102 A102 B04  ;
N492 G1X717.8Y922.54  ;
N493 G1X721.23Y922.54  ;
N494 G1X721.23Y920.82  ;
N495 G1X720.37Y919.97  ;
N496 G1X717.8Y919.97  ;
N497 G1X716.94Y919.11  ;
N498 G1X716.94Y917.39  ;
N499 G1X717.8Y916.54  ;
N500 G1X720.37Y916.54  ;
N501 G1X721.23Y917.39  ;
N502 G65 P9104 A102 B04  ;
N503 G0X712.98Y916.54  ;
N504 G65 P9102 A102 B04  ;
N505 G1X716.41Y920.82  ;
N506 G1X712.12Y920.82  ;
N507 G65 P9104 A102 B04  ;
N508 G0X712.98Y919.97  ;
N509 G65 P9102 A102 B04  ;
N510 G1X712.98Y922.54  ;
N511 G65 P9104 A101 B02  ;
N512 G0X684.08Y893.51  ;
N513 G65 P9102 A101 B02  ;
N514 G1X680.61Y891.51  ;
N515 G2X680.27Y891.6I-0.12J0.22  ;
N516 G1X678.65Y894.4  ;
N517 G1X681.89Y900  ;
N518 G1X688.35Y900  ;
N519 G1X691.59Y894.4  ;
N520 G1X688.35Y888.8  ;
N521 G1X681.89Y888.8  ;
N522 G1X680.27Y891.6  ;
N523 G65 P9104 A101 B02  ;
N524 G0X584.08Y893.51  ;
N525 G65 P9102 A101 B02  ;
N526 G1X580.61Y891.51  ;
N527 G2X580.27Y891.6I-0.12J0.22  ;
N528 G1X578.65Y894.4  ;
N529 G1X581.89Y900  ;
N530 G1X588.35Y900  ;
N531 G1X591.59Y894.4  ;
N532 G1X588.35Y888.8  ;
N533 G1X581.89Y888.8  ;
N534 G1X580.27Y891.6  ;
N535 G65 P9104 A101 B01  ;
N536 G0X530.12Y932.45  ;
N537 G65 P9102 A101 B01  ;
N538 G1X535.12Y932.45  ;
N539 G1X560.17Y932.45  ;
N540 G1X560.17Y923.4  ;
N541 G3X563.12Y920.45I2.95J0  ;
N542 G1X707.12Y920.45  ;
N543 G3X710.07Y923.4I0J2.95  ;
N544 G1X710.07Y932.45  ;
N545 G1X735.17Y932.45  ;
N546 G1X735.17Y892.38  ;
N547 G1X725.14Y882.35  ;
N548 G1X545.1Y882.35  ;
N549 G1X535.07Y892.38  ;
N550 G1X535.07Y931.75  ;
N551 G65 P9104 A101 B01  ;
N552 M98 P9103  ;
(P8:ID6:W56240406)  ;
N553 M98 P9101  ;
N554 G0X172.93Y1007.03  ;
N555 G65 P9102 A101 B01  ;
N556 G1X173.83Y1002.16  ;
N557 G2X129.64Y1039I-6.74J36.84  ;
N558 G1X129.64Y1114  ;
N559 G2X204.54Y1114I37.45J0  ;
N560 G1X204.54Y1039  ;
N561 G2X174.52Y1002.29I-37.45J0  ;
N562 G65 P9104 A101 B01  ;
N563 G0X160.9Y1192.09  ;
N564 G65 P9102 A101 B01  ;
N565 G1X159.97Y1187.23  ;
N566 G2X129.64Y1224I7.12J36.77  ;
N567 G1X129.64Y1299  ;
N568 G2X204.54Y1299I37.45J0  ;
N569 G1X204.54Y1224  ;
N570 G2X160.66Y1187.11I-37.45J0  ;
N571 G65 P9104 A101 B01  ;
N572 G0X176.99Y1388.05  ;
N573 G65 P9102 A101 B01  ;
N574 G1X178.51Y1383.33  ;
N575 G2X129.64Y1419I-11.42J35.67  ;
N576 G1X129.64Y1494  ;
N577 G2X204.54Y1494I37.45J0  ;
N578 G1X204.54Y1419  ;
N579 G2X179.17Y1383.55I-37.45J0  ;
N580 G65 P9104 A101 B01  ;
N581 G0X159.57Y1572.38  ;
N582 G65 P9102 A101 B01  ;
N583 G1X158.44Y1567.56  ;
N584 G2X129.64Y1604I8.65J36.44  ;
N585 G1X129.64Y1679  ;
N586 G2X204.54Y1679I37.45J0  ;
N587 G1X204.54Y1604  ;
N588 G2X159.12Y1567.41I-37.45J0  ;
N589 G65 P9104 A101 B01  ;
N590 G0X1077.67Y1572.94  ;
N591 G65 P9102 A101 B01  ;
N592 G1X1079.13Y1568.21  ;
N593 G2X1030.64Y1604I-11.04J35.79  ;
N594 G1X1030.64Y1679  ;
N595 G2X1105.54Y1679I37.45J0  ;
N596 G1X1105.54Y1604  ;
N597 G2X1079.8Y1568.43I-37.45J0  ;
N598 G65 P9104 A101 B01  ;
N599 G0X1070.24Y1386.57  ;
N600 G65 P9102 A101 B01  ;
N601 G1X1070.57Y1381.63  ;
N602 G2X1030.64Y1419I-2.48J37.37  ;
N603 G1X1030.64Y1494  ;
N604 G2X1105.54Y1494I37.45J0  ;
N605 G1X1105.54Y1419  ;
N606 G2X1071.27Y1381.69I-37.45J0  ;
N607 G65 P9104 A101 B01  ;
N608 G0X1056.24Y1193.74  ;
N609 G65 P9102 A101 B01  ;
N610 G1X1054.45Y1189.12  ;
N611 G2X1030.64Y1224I13.64J34.88  ;
N612 G1X1030.64Y1299  ;
N613 G2X1105.54Y1299I37.45J0  ;
N614 G1X1105.54Y1224  ;
N615 G2X1055.1Y1188.87I-37.45J0  ;
N616 G65 P9104 A101 B01  ;
N617 G0X930.84Y1130.05  ;
N618 G65 P9102 A101 B01  ;
N619 G1X933.79Y1130.05  ;
N620 G3X933.79Y1130I-60.2J-0.05  ;
N621 G65 P9104 A101 B01  ;
N622 G0X1072.22Y1006.76  ;
N623 G65 P9102 A101 B01  ;
N624 G1X1072.86Y1001.85  ;
N625 G2X1030.64Y1039I-4.77J37.15  ;
N626 G1X1030.64Y1114  ;
N627 G2X1105.54Y1114I37.45J0  ;
N628 G1X1105.54Y1039  ;
N629 G2X1073.55Y1001.95I-37.45J0  ;
N630 G65 P9104 A101 B01  ;
N631 G0X4.95Y952  ;
N632 G65 P9102 A101 B01  ;
N633 G1X4.95Y955  ;
N634 G1X4.95Y1763.05  ;
N635 G1X261.64Y1763.05  ;
N636 G1X261.64Y1759.05  ;
N637 G1X973.54Y1759.05  ;
N638 G1X973.54Y1763.05  ;
N639 G1X1230.23Y1763.05  ;
N640 G1X1230.23Y954.95  ;
N641 G1X973.54Y954.95  ;
N642 G1X973.54Y958.95  ;
N643 G1X261.64Y958.95  ;
N644 G1X261.64Y954.95  ;
N645 G1X5Y954.95  ;
N646 G65 P9104 A102 B04  ;
N647 M98 P9103  ;
(P9:ID7:W56240408)  ;
N648 M98 P9101  ;
N649 G0X583.1Y1789.3  ;
N650 G65 P9102 A102 B04  ;
N651 G1X584.53Y1789.3  ;
N652 G65 P9104 A102 B04  ;
N653 G0X584.53Y1792.88  ;
N654 G65 P9102 A102 B04  ;
N655 G1X588.1Y1791.09  ;
N656 G1X584.53Y1789.3  ;
N657 G1X584.53Y1792.88  ;
N658 G65 P9104 A102 B04  ;
N659 G0X583.1Y1792.88  ;
N660 G65 P9102 A102 B04  ;
N661 G1X584.53Y1792.88  ;
N662 G65 P9104 A102 B04  ;
N663 G0X585.25Y1794.04  ;
N664 G65 P9102 A102 B04  ;
N665 G1X585.25Y1796.89  ;
N666 G65 P9104 A102 B04  ;
N667 G0X583.1Y1796.89  ;
N668 G65 P9102 A102 B04  ;
N669 G1X588.1Y1796.89  ;
N670 G1X588.1Y1794.04  ;
N671 G1X587.39Y1793.32  ;
N672 G1X585.96Y1793.32  ;
N673 G1X585.25Y1794.04  ;
N674 G1X584.53Y1793.32  ;
N675 G1X583.82Y1793.32  ;
N676 G1X583.1Y1794.04  ;
N677 G1X583.1Y1796.89  ;
N678 G65 P9104 A102 B04  ;
N679 G0X583.1Y1797.34  ;
N680 G65 P9102 A102 B04  ;
N681 G1X583.1Y1798.77  ;
N682 G65 P9104 A102 B04  ;
N683 G0X583.1Y1799.21  ;
N684 G65 P9102 A102 B04  ;
N685 G1X585.25Y1801.36  ;
N686 G65 P9104 A102 B04  ;
N687 G0X585.25Y1802.79  ;
N688 G65 P9102 A102 B04  ;
N689 G1X585.25Y1799.93  ;
N690 G1X585.96Y1799.21  ;
N691 G1X587.39Y1799.21  ;
N692 G1X588.1Y1799.93  ;
N693 G1X588.1Y1802.79  ;
N694 G1X583.1Y1802.79  ;
N695 G65 P9104 A102 B04  ;
N696 G0X583.1Y1803.23  ;
N697 G65 P9102 A102 B04  ;
N698 G1X585.25Y1805.38  ;
N699 G65 P9104 A102 B04  ;
N700 G0X585.25Y1806.8  ;
N701 G65 P9102 A102 B04  ;
N702 G1X585.25Y1803.95  ;
N703 G1X585.96Y1803.23  ;
N704 G1X587.39Y1803.23  ;
N705 G1X588.1Y1803.95  ;
N706 G1X588.1Y1806.8  ;
N707 G1X583.1Y1806.8  ;
N708 G65 P9104 A102 B04  ;
N709 G0X583.1Y1807.25  ;
N710 G65 P9102 A102 B04  ;
N711 G1X584.53Y1807.25  ;
N712 G65 P9104 A102 B04  ;
N713 G0X584.53Y1810.82  ;
N714 G65 P9102 A102 B04  ;
N715 G1X588.1Y1809.04  ;
N716 G1X584.53Y1807.25  ;
N717 G1X584.53Y1810.82  ;
N718 G65 P9104 A102 B04  ;
N719 G0X583.1Y1810.82  ;
N720 G65 P9102 A102 B04  ;
N721 G1X584.53Y1810.82  ;
N722 G65 P9104 A102 B04  ;
N723 G0X583.1Y1798.05  ;
N724 G65 P9102 A102 B04  ;
N725 G1X588.1Y1798.05  ;
N726 G65 P9104 A102 B04  ;
N727 G0X588.1Y1797.34  ;
N728 G65 P9102 A102 B04  ;
N729 G1X588.1Y1798.77  ;
N730 G65 P9104 A102 B04  ;
N731 G0X614.35Y1768.46  ;
N732 G65 P9102 A102 B04  ;
N733 G1X616.14Y1772.03  ;
N734 G1X617.92Y1768.46  ;
N735 G1X614.35Y1768.46  ;
N736 G1X614.35Y1767.03  ;
N737 G65 P9104 A102 B04  ;
N738 G0X617.92Y1767.03  ;
N739 G65 P9102 A102 B04  ;
N740 G1X617.92Y1768.46  ;
N741 G65 P9104 A102 B04  ;
N742 G0X618.37Y1768.46  ;
N743 G65 P9102 A102 B04  ;
N744 G1X620.16Y1772.03  ;
N745 G1X621.94Y1768.46  ;
N746 G1X618.37Y1768.46  ;
N747 G1X618.37Y1767.03  ;
N748 G65 P9104 A102 B04  ;
N749 G0X621.94Y1767.03  ;
N750 G65 P9102 A102 B04  ;
N751 G1X621.94Y1768.46  ;
N752 G65 P9104 A102 B04  ;
N753 G0X622.39Y1771.31  ;
N754 G65 P9102 A102 B04  ;
N755 G1X623.1Y1772.03  ;
N756 G1X625.24Y1772.03  ;
N757 G1X625.96Y1771.31  ;
N758 G1X625.96Y1769.89  ;
N759 G1X625.24Y1769.17  ;
N760 G1X623.1Y1769.17  ;
N761 G1X622.39Y1768.46  ;
N762 G1X622.39Y1767.03  ;
N763 G1X625.24Y1767.03  ;
N764 G1X625.96Y1767.74  ;
N765 G65 P9104 A102 B04  ;
N766 G0X629.26Y1767.03  ;
N767 G65 P9102 A102 B04  ;
N768 G1X629.26Y1769.17  ;
N769 G65 P9104 A102 B04  ;
N770 G0X629.98Y1768.46  ;
N771 G65 P9102 A102 B04  ;
N772 G1X626.41Y1768.46  ;
N773 G1X629.26Y1772.03  ;
N774 G65 P9104 A101 B01  ;
N775 G0X452.13Y1785.29  ;
N776 G65 P9102 A101 B01  ;
N777 G1X452.3Y1781.29  ;
N778 G2X452.05Y1781.03I-0.25J-0.01  ;
N779 G2X444.6Y1788.48I0J7.45  ;
N780 G1X444.6Y1813.48  ;
N781 G2X459.5Y1813.48I7.45J0  ;
N782 G1X459.5Y1788.48  ;
N783 G2X452.05Y1781.03I-7.45J0  ;
N784 G65 P9104 A101 B01  ;
N785 G0X265.55Y1843.48  ;
N786 G65 P9102 A101 B01  ;
N787 G1X265.55Y1838.48  ;
N788 G1X265.55Y1763.43  ;
N789 G1X635.25Y1763.43  ;
N790 G1X635.25Y1838.53  ;
N791 G1X266.25Y1838.53  ;
N792 G65 P9104 A102 B04  ;
N793 M98 P9103  ;
(P10:ID8:W56240412)  ;
N794 M98 P9101  ;
N795 G0X1076.5Y1856.54  ;
N796 G65 P9102 A102 B04  ;
N797 G1X1070Y1860.3  ;
N798 G1X1070Y1867.8  ;
N799 G1X1076.5Y1871.55  ;
N800 G1X1083Y1867.8  ;
N801 G1X1083Y1860.3  ;
N802 G1X1076.5Y1856.54  ;
N803 G65 P9104 A102 B04  ;
N804 G0X1194Y1860.3  ;
N805 G65 P9102 A102 B04  ;
N806 G1X1194Y1867.8  ;
N807 G1X1200.5Y1871.55  ;
N808 G1X1207Y1867.8  ;
N809 G1X1207Y1860.3  ;
N810 G1X1200.5Y1856.54  ;
N811 G1X1194Y1860.3  ;
N812 G65 P9104 A102 B04  ;
N813 G0X1209.21Y1873.68  ;
N814 G65 P9102 A102 B04  ;
N815 G1X1209.8Y1875.23  ;
N816 G1X1209.84Y1875.35  ;
N817 G1X1210.43Y1876.89  ;
N818 G1X1210.65Y1876.89  ;
N819 G1X1210.67Y1876.89  ;
N820 G1X1210.89Y1876.89  ;
N821 G1X1211.52Y1875.35  ;
N822 G1X1211.57Y1875.23  ;
N823 G1X1212.21Y1873.69  ;
N824 G1X1211.97Y1873.69  ;
N825 G1X1211.96Y1873.69  ;
N826 G1X1211.72Y1873.69  ;
N827 G1X1211.54Y1874.16  ;
N828 G1X1211.53Y1874.19  ;
N829 G1X1211.35Y1874.66  ;
N830 G1X1210.7Y1874.66  ;
N831 G1X1210.65Y1874.66  ;
N832 G1X1210.01Y1874.66  ;
N833 G1X1209.84Y1874.19  ;
N834 G1X1209.82Y1874.15  ;
N835 G1X1209.66Y1873.68  ;
N836 G1X1209.44Y1873.68  ;
N837 G1X1209.42Y1873.68  ;
N838 G1X1209.21Y1873.68  ;
N839 G65 P9104 A102 B04  ;
N840 G0X1210.13Y1875  ;
N841 G65 P9102 A102 B04  ;
N842 G1X1210.65Y1875  ;
N843 G1X1210.69Y1875  ;
N844 G1X1211.22Y1875  ;
N845 G1X1211.05Y1875.43  ;
N846 G1X1211.04Y1875.46  ;
N847 G1X1210.88Y1875.89  ;
N848 G1X1210.79Y1876.14  ;
N849 G1X1210.71Y1876.37  ;
N850 G1X1210.65Y1876.56  ;
N851 G1X1210.61Y1876.35  ;
N852 G1X1210.55Y1876.15  ;
N853 G1X1210.48Y1875.94  ;
N854 G1X1210.31Y1875.49  ;
N855 G1X1210.3Y1875.46  ;
N856 G1X1210.13Y1875  ;
N857 G65 P9104 A102 B04  ;
N858 G0X1212.19Y1873.68  ;
N859 G65 P9102 A102 B04  ;
N860 G1X1212.78Y1875.23  ;
N861 G1X1212.83Y1875.35  ;
N862 G1X1213.42Y1876.89  ;
N863 G1X1213.64Y1876.89  ;
N864 G1X1213.65Y1876.89  ;
N865 G1X1213.87Y1876.89  ;
N866 G1X1214.51Y1875.35  ;
N867 G1X1214.56Y1875.23  ;
N868 G1X1215.19Y1873.69  ;
N869 G1X1214.96Y1873.69  ;
N870 G1X1214.94Y1873.69  ;
N871 G1X1214.71Y1873.69  ;
N872 G1X1214.53Y1874.16  ;
N873 G1X1214.51Y1874.19  ;
N874 G1X1214.33Y1874.66  ;
N875 G1X1213.69Y1874.66  ;
N876 G1X1213.64Y1874.66  ;
N877 G1X1212.99Y1874.66  ;
N878 G1X1212.82Y1874.19  ;
N879 G1X1212.81Y1874.15  ;
N880 G1X1212.64Y1873.68  ;
N881 G1X1212.42Y1873.68  ;
N882 G1X1212.41Y1873.68  ;
N883 G1X1212.19Y1873.68  ;
N884 G65 P9104 A102 B04  ;
N885 G0X1213.11Y1875  ;
N886 G65 P9102 A102 B04  ;
N887 G1X1213.64Y1875  ;
N888 G1X1213.68Y1875  ;
N889 G1X1214.2Y1875  ;
N890 G1X1214.04Y1875.43  ;
N891 G1X1214.03Y1875.46  ;
N892 G1X1213.86Y1875.89  ;
N893 G1X1213.77Y1876.14  ;
N894 G1X1213.69Y1876.37  ;
N895 G1X1213.63Y1876.56  ;
N896 G1X1213.59Y1876.35  ;
N897 G1X1213.53Y1876.15  ;
N898 G1X1213.46Y1875.94  ;
N899 G1X1213.29Y1875.49  ;
N900 G1X1213.28Y1875.46  ;
N901 G1X1213.11Y1875  ;
N902 G65 P9104 A102 B04  ;
N903 G0X1215.39Y1875.98  ;
N904 G65 P9102 A102 B04  ;
N905 G1X1215.44Y1876.25  ;
N906 G1X1215.54Y1876.48  ;
N907 G1X1215.7Y1876.67  ;
N908 G1X1215.9Y1876.8  ;
N909 G1X1216.14Y1876.88  ;
N910 G1X1216.43Y1876.91  ;
N911 G1X1216.71Y1876.88  ;
N912 G1X1216.95Y1876.79  ;
N913 G1X1217.16Y1876.65  ;
N914 G1X1217.31Y1876.47  ;
N915 G1X1217.4Y1876.26  ;
N916 G1X1217.43Y1876.02  ;
N917 G1X1217.42Y1875.89  ;
N918 G1X1217.39Y1875.76  ;
N919 G1X1217.35Y1875.64  ;
N920 G1X1217.29Y1875.51  ;
N921 G1X1217.2Y1875.38  ;
N922 G1X1217.09Y1875.25  ;
N923 G1X1216.94Y1875.09  ;
N924 G1X1216.74Y1874.9  ;
N925 G1X1216.48Y1874.68  ;
N926 G1X1216.27Y1874.51  ;
N927 G1X1216.12Y1874.37  ;
N928 G1X1216.03Y1874.28  ;
N929 G1X1215.97Y1874.21  ;
N930 G1X1215.91Y1874.14  ;
N931 G1X1215.86Y1874.06  ;
N932 G1X1216.62Y1874.06  ;
N933 G1X1216.68Y1874.06  ;
N934 G1X1217.43Y1874.07  ;
N935 G1X1217.43Y1873.88  ;
N936 G1X1217.43Y1873.87  ;
N937 G1X1217.43Y1873.69  ;
N938 G1X1216.41Y1873.69  ;
N939 G1X1216.34Y1873.69  ;
N940 G1X1215.32Y1873.68  ;
N941 G1X1215.32Y1873.78  ;
N942 G1X1215.34Y1873.87  ;
N943 G1X1215.36Y1873.96  ;
N944 G1X1215.43Y1874.1  ;
N945 G1X1215.51Y1874.24  ;
N946 G1X1215.62Y1874.38  ;
N947 G1X1215.76Y1874.53  ;
N948 G1X1215.93Y1874.69  ;
N949 G1X1216.13Y1874.87  ;
N950 G1X1216.44Y1875.14  ;
N951 G1X1216.68Y1875.36  ;
N952 G1X1216.84Y1875.55  ;
N953 G1X1216.94Y1875.72  ;
N954 G1X1217Y1875.87  ;
N955 G1X1217.02Y1876.03  ;
N956 G1X1217Y1876.17  ;
N957 G1X1216.95Y1876.3  ;
N958 G1X1216.86Y1876.42  ;
N959 G1X1216.73Y1876.51  ;
N960 G1X1216.59Y1876.56  ;
N961 G1X1216.42Y1876.58  ;
N962 G1X1216.24Y1876.56  ;
N963 G1X1216.09Y1876.5  ;
N964 G1X1215.96Y1876.41  ;
N965 G1X1215.87Y1876.28  ;
N966 G1X1215.81Y1876.12  ;
N967 G1X1215.79Y1875.93  ;
N968 G1X1215.6Y1875.95  ;
N969 G1X1215.58Y1875.96  ;
N970 G1X1215.39Y1875.98  ;
N971 G65 P9104 A102 B04  ;
N972 G0X1218.11Y1874.81  ;
N973 G65 P9102 A102 B04  ;
N974 G1X1218.6Y1874.81  ;
N975 G1X1218.63Y1874.81  ;
N976 G1X1219.12Y1874.82  ;
N977 G1X1219.12Y1875.51  ;
N978 G1X1219.12Y1875.56  ;
N979 G1X1219.12Y1876.26  ;
N980 G1X1218.63Y1875.56  ;
N981 G1X1218.6Y1875.51  ;
N982 G1X1218.11Y1874.81  ;
N983 G65 P9104 A102 B04  ;
N984 G0X1217.73Y1874.81  ;
N985 G65 P9102 A102 B04  ;
N986 G1X1218.43Y1875.81  ;
N987 G1X1218.48Y1875.89  ;
N988 G1X1219.19Y1876.89  ;
N989 G1X1219.34Y1876.89  ;
N990 G1X1219.35Y1876.89  ;
N991 G1X1219.51Y1876.89  ;
N992 G1X1219.51Y1875.89  ;
N993 G1X1219.51Y1875.82  ;
N994 G1X1219.51Y1874.82  ;
N995 G1X1219.72Y1874.82  ;
N996 G1X1219.74Y1874.82  ;
N997 G1X1219.94Y1874.82  ;
N998 G1X1219.94Y1874.64  ;
N999 G1X1219.94Y1874.63  ;
N1000 G1X1219.94Y1874.46  ;
N1001 G1X1219.74Y1874.46  ;
N1002 G1X1219.72Y1874.46  ;
N1003 G1X1219.51Y1874.46  ;
N1004 G1X1219.51Y1874.09  ;
N1005 G1X1219.51Y1874.06  ;
N1006 G1X1219.51Y1873.69  ;
N1007 G1X1219.32Y1873.69  ;
N1008 G1X1219.31Y1873.69  ;
N1009 G1X1219.12Y1873.69  ;
N1010 G1X1219.12Y1874.06  ;
N1011 G1X1219.12Y1874.08  ;
N1012 G1X1219.12Y1874.45  ;
N1013 G1X1218.45Y1874.45  ;
N1014 G1X1218.4Y1874.45  ;
N1015 G1X1217.73Y1874.45  ;
N1016 G1X1217.73Y1874.63  ;
N1017 G1X1217.73Y1874.64  ;
N1018 G1X1217.73Y1874.81  ;
N1019 G65 P9104 A101 B02  ;
N1020 G0X1200.64Y1864.26  ;
N1021 G65 P9102 A101 B02  ;
N1022 G1X1204.14Y1867.76  ;
N1023 G3X1204.18Y1867.72I-3.64J-3.71  ;
N1024 G65 P9104 A101 B01  ;
N1025 G0X1154.5Y1864.1  ;
N1026 G65 P9102 A101 B01  ;
N1027 G1X1158.45Y1864.1  ;
N1028 G3X1158.45Y1864.05I-19.95J-0.05  ;
N1029 G65 P9104 A101 B02  ;
N1030 G0X1076.64Y1864.26  ;
N1031 G65 P9102 A101 B02  ;
N1032 G1X1080.14Y1867.76  ;
N1033 G3X1080.18Y1867.72I-3.64J-3.71  ;
N1034 G65 P9104 A101 B01  ;
N1035 G0X1053.45Y1768  ;
N1036 G65 P9102 A101 B01  ;
N1037 G1X1053.45Y1772  ;
N1038 G1X1053.45Y1784.2  ;
N1039 G1X1049.45Y1784.2  ;
N1040 G1X1049.45Y1793.8  ;
N1041 G1X1053.45Y1793.8  ;
N1042 G1X1053.45Y1801.05  ;
N1043 G1X1056.5Y1801.05  ;
N1044 G3X1058.45Y1803I0J1.95  ;
N1045 G1X1058.45Y1824  ;
N1046 G3X1056.5Y1825.95I-1.95J0  ;
N1047 G1X1053.45Y1825.95  ;
N1048 G1X1053.45Y1871.75  ;
N1049 G1X1049.45Y1871.75  ;
N1050 G1X1049.45Y1881.35  ;
N1051 G1X1053.45Y1881.35  ;
N1052 G1X1053.45Y1921.57  ;
N1053 G1X1063.48Y1931.6  ;
N1054 G1X1213.52Y1931.6  ;
N1055 G1X1223.55Y1921.57  ;
N1056 G1X1223.55Y1881.35  ;
N1057 G1X1227.55Y1881.35  ;
N1058 G1X1227.55Y1871.75  ;
N1059 G1X1223.55Y1871.75  ;
N1060 G1X1223.55Y1825.95  ;
N1061 G1X1220.5Y1825.95  ;
N1062 G3X1218.55Y1824I0J-1.95  ;
N1063 G1X1218.55Y1803  ;
N1064 G3X1220.5Y1801.05I1.95J0  ;
N1065 G1X1223.55Y1801.05  ;
N1066 G1X1223.55Y1793.8  ;
N1067 G1X1227.55Y1793.8  ;
N1068 G1X1227.55Y1784.2  ;
N1069 G1X1223.55Y1784.2  ;
N1070 G1X1223.55Y1771.95  ;
N1071 G1X1053.5Y1771.95  ;
N1072 G65 P9104 A101 B01  ;
N1073 M98 P9103  ;
(P11:ID9:W56240422)  ;
N1074 M98 P9101  ;
N1075 G0X745.1Y1833.86  ;
N1076 G65 P9102 A101 B01  ;
N1077 G1X740.15Y1833.86  ;
N1078 G1X740.15Y1823.5  ;
N1079 G3X745.1Y1818.55I4.95J0  ;
N1080 G1X750.15Y1818.55  ;
N1081 G1X750.15Y1763.45  ;
N1082 G1X675.05Y1763.45  ;
N1083 G1X675.05Y1828.55  ;
N1084 G1X701.66Y1828.55  ;
N1085 G1X701.66Y1841.45  ;
N1086 G1X675.05Y1841.45  ;
N1087 G1X675.05Y1906.55  ;
N1088 G1X750.15Y1906.55  ;
N1089 G1X750.15Y1851.45  ;
N1090 G1X745.1Y1851.45  ;
N1091 G3X740.15Y1846.5I0J-4.95  ;
N1092 G1X740.15Y1834.51  ;
N1093 G65 P9104 A101 B01  ;
N1094 M98 P9103  ;
(P12:ID9:W56240422)  ;
N1095 M98 P9101  ;
N1096 G0X321.64Y1915.5  ;
N1097 G65 P9102 A101 B01  ;
N1098 G1X321.64Y1910.55  ;
N1099 G1X332Y1910.55  ;
N1100 G3X336.95Y1915.5I0J4.95  ;
N1101 G1X336.95Y1920.55  ;
N1102 G1X392.05Y1920.55  ;
N1103 G1X392.05Y1845.45  ;
N1104 G1X326.95Y1845.45  ;
N1105 G1X326.95Y1872.06  ;
N1106 G1X314.05Y1872.06  ;
N1107 G1X314.05Y1845.45  ;
N1108 G1X248.95Y1845.45  ;
N1109 G1X248.95Y1920.55  ;
N1110 G1X304.05Y1920.55  ;
N1111 G1X304.05Y1915.5  ;
N1112 G3X309Y1910.55I4.95J0  ;
N1113 G1X320.99Y1910.55  ;
N1114 G65 P9104 A102 B04  ;
N1115 M98 P9103  ;
(P13:ID10:W56240407)  ;
N1116 M98 P9101  ;
N1117 G0X36.55Y1797.35  ;
N1118 G65 P9102 A102 B04  ;
N1119 G1X28.5Y1792.7  ;
N1120 G1X20.45Y1797.35  ;
N1121 G1X20.45Y1806.65  ;
N1122 G1X28.5Y1811.3  ;
N1123 G1X36.55Y1806.65  ;
N1124 G1X36.55Y1797.35  ;
N1125 G65 P9104 A102 B04  ;
N1126 G0X45Y1897.7  ;
N1127 G65 P9102 A102 B04  ;
N1128 G1X36.95Y1902.35  ;
N1129 G1X36.95Y1911.65  ;
N1130 G1X45Y1916.3  ;
N1131 G1X53.05Y1911.65  ;
N1132 G1X53.05Y1902.35  ;
N1133 G1X45Y1897.7  ;
N1134 G65 P9104 A101 B02  ;
N1135 G0X42.67Y1909.26  ;
N1136 G65 P9102 A101 B02  ;
N1137 G1X40.58Y1911.35  ;
N1138 G3X40.62Y1911.38I4.42J-4.35  ;
N1139 G65 P9104 A101 B01  ;
N1140 G0X58.5Y1847.25  ;
N1141 G65 P9102 A101 B01  ;
N1142 G1X53.55Y1847.35  ;
N1143 G3X73.5Y1827.05I19.95J-0.35  ;
N1144 G1X173.5Y1827.05  ;
N1145 G3X173.5Y1866.95I0J19.95  ;
N1146 G1X73.5Y1866.95  ;
N1147 G3X53.58Y1848.04I0J-19.95  ;
N1148 G65 P9104 A101 B02  ;
N1149 G0X26.17Y1804.26  ;
N1150 G65 P9102 A101 B02  ;
N1151 G1X24.08Y1806.35  ;
N1152 G3X24.12Y1806.38I4.42J-4.35  ;
N1153 G65 P9104 A101 B01  ;
N1154 G0X250Y1770.99  ;
N1155 G65 P9102 A101 B01  ;
N1156 G1X245.05Y1770.99  ;
N1157 G1X245.05Y1777.05  ;
N1158 G1X242.05Y1777.05  ;
N1159 G1X242.05Y1916.95  ;
N1160 G1X245.05Y1916.95  ;
N1161 G1X245.05Y1927.05  ;
N1162 G1X4.95Y1927.05  ;
N1163 G1X4.95Y1766.95  ;
N1164 G1X245.05Y1766.95  ;
N1165 G1X245.05Y1770.29  ;
N1166 G65 P9104 A101 B01  ;
N1167 M98 P9103  ;
(P14:ID2:W56240415)  ;
N1168 M98 P9101  ;
N1169 G0X794.95Y1872.52  ;
N1170 G65 P9102 A101 B01  ;
N1171 G1X794.95Y1875.52  ;
N1172 G2X795.9Y1876.47I0.95J0  ;
N1173 G1X801.4Y1876.47  ;
N1174 G2X804.35Y1873.52I0J-2.95  ;
N1175 G1X804.35Y1854.52  ;
N1176 G2X801.4Y1851.57I-2.95J0  ;
N1177 G1X790.4Y1851.57  ;
N1178 G2X787.45Y1854.52I0J2.95  ;
N1179 G1X787.45Y1873.52  ;
N1180 G2X790.4Y1876.47I2.95J0  ;
N1181 G1X795.9Y1876.47  ;
N1182 G65 P9104 A101 B01  ;
N1183 G0X795.27Y1761.02  ;
N1184 G65 P9102 A101 B01  ;
N1185 G1X795.27Y1765.97  ;
N1186 G1X789.85Y1765.97  ;
N1187 G1X789.85Y1768.97  ;
N1188 G1X780.38Y1768.97  ;
N1189 G1X772.35Y1777  ;
N1190 G1X772.35Y2056.04  ;
N1191 G1X780.38Y2064.07  ;
N1192 G1X817.44Y2064.07  ;
N1193 G1X824.75Y2020.7  ;
N1194 G3X829.63Y2016.57I4.88J0.82  ;
N1195 G1X837.45Y2016.57  ;
N1196 G1X837.45Y1949.07  ;
N1197 G1X840.45Y1949.07  ;
N1198 G1X840.45Y1903.97  ;
N1199 G1X837.45Y1903.97  ;
N1200 G1X837.45Y1816.47  ;
N1201 G1X829.63Y1816.47  ;
N1202 G3X824.75Y1812.34I0J-4.95  ;
N1203 G1X817.44Y1768.97  ;
N1204 G1X804.95Y1768.97  ;
N1205 G1X804.95Y1765.97  ;
N1206 G1X795.97Y1765.97  ;
N1207 G65 P9104 A101 B01  ;
N1208 M98 P9103  ;
(P15:ID2:W56240415)  ;
N1209 M98 P9101  ;
N1210 G0X866.95Y1872.52  ;
N1211 G65 P9102 A101 B01  ;
N1212 G1X866.95Y1875.52  ;
N1213 G2X867.9Y1876.47I0.95J0  ;
N1214 G1X873.4Y1876.47  ;
N1215 G2X876.35Y1873.52I0J-2.95  ;
N1216 G1X876.35Y1854.52  ;
N1217 G2X873.4Y1851.57I-2.95J0  ;
N1218 G1X862.4Y1851.57  ;
N1219 G2X859.45Y1854.52I0J2.95  ;
N1220 G1X859.45Y1873.52  ;
N1221 G2X862.4Y1876.47I2.95J0  ;
N1222 G1X867.9Y1876.47  ;
N1223 G65 P9104 A101 B01  ;
N1224 G0X867.27Y1761.02  ;
N1225 G65 P9102 A101 B01  ;
N1226 G1X867.27Y1765.97  ;
N1227 G1X861.85Y1765.97  ;
N1228 G1X861.85Y1768.97  ;
N1229 G1X852.38Y1768.97  ;
N1230 G1X844.35Y1777  ;
N1231 G1X844.35Y2056.04  ;
N1232 G1X852.38Y2064.07  ;
N1233 G1X889.44Y2064.07  ;
N1234 G1X896.75Y2020.7  ;
N1235 G3X901.63Y2016.57I4.88J0.82  ;
N1236 G1X909.45Y2016.57  ;
N1237 G1X909.45Y1949.07  ;
N1238 G1X912.45Y1949.07  ;
N1239 G1X912.45Y1903.97  ;
N1240 G1X909.45Y1903.97  ;
N1241 G1X909.45Y1816.47  ;
N1242 G1X901.63Y1816.47  ;
N1243 G3X896.75Y1812.34I0J-4.95  ;
N1244 G1X889.44Y1768.97  ;
N1245 G1X876.95Y1768.97  ;
N1246 G1X876.95Y1765.97  ;
N1247 G1X867.97Y1765.97  ;
N1248 G65 P9104 A102 B04  ;
N1249 M98 P9103  ;
(P16:ID7:W56240408)  ;
N1250 M98 P9101  ;
N1251 G0X970.7Y2089.51  ;
N1252 G65 P9102 A102 B04  ;
N1253 G1X970.7Y2090.94  ;
N1254 G65 P9104 A102 B04  ;
N1255 G0X967.12Y2090.94  ;
N1256 G65 P9102 A102 B04  ;
N1257 G1X968.91Y2094.51  ;
N1258 G1X970.7Y2090.94  ;
N1259 G1X967.12Y2090.94  ;
N1260 G65 P9104 A102 B04  ;
N1261 G0X967.12Y2089.51  ;
N1262 G65 P9102 A102 B04  ;
N1263 G1X967.12Y2090.94  ;
N1264 G65 P9104 A102 B04  ;
N1265 G0X965.96Y2091.65  ;
N1266 G65 P9102 A102 B04  ;
N1267 G1X963.11Y2091.65  ;
N1268 G65 P9104 A102 B04  ;
N1269 G0X963.11Y2089.51  ;
N1270 G65 P9102 A102 B04  ;
N1271 G1X963.11Y2094.51  ;
N1272 G1X965.96Y2094.51  ;
N1273 G1X966.68Y2093.79  ;
N1274 G1X966.68Y2092.36  ;
N1275 G1X965.96Y2091.65  ;
N1276 G1X966.68Y2090.94  ;
N1277 G1X966.68Y2090.22  ;
N1278 G1X965.96Y2089.51  ;
N1279 G1X963.11Y2089.51  ;
N1280 G65 P9104 A102 B04  ;
N1281 G0X962.66Y2089.51  ;
N1282 G65 P9102 A102 B04  ;
N1283 G1X961.23Y2089.51  ;
N1284 G65 P9104 A102 B04  ;
N1285 G0X960.79Y2089.51  ;
N1286 G65 P9102 A102 B04  ;
N1287 G1X958.64Y2091.65  ;
N1288 G65 P9104 A102 B04  ;
N1289 G0X957.21Y2091.65  ;
N1290 G65 P9102 A102 B04  ;
N1291 G1X960.07Y2091.65  ;
N1292 G1X960.79Y2092.36  ;
N1293 G1X960.79Y2093.79  ;
N1294 G1X960.07Y2094.51  ;
N1295 G1X957.21Y2094.51  ;
N1296 G1X957.21Y2089.51  ;
N1297 G65 P9104 A102 B04  ;
N1298 G0X956.77Y2089.51  ;
N1299 G65 P9102 A102 B04  ;
N1300 G1X954.62Y2091.65  ;
N1301 G65 P9104 A102 B04  ;
N1302 G0X953.2Y2091.65  ;
N1303 G65 P9102 A102 B04  ;
N1304 G1X956.05Y2091.65  ;
N1305 G1X956.77Y2092.36  ;
N1306 G1X956.77Y2093.79  ;
N1307 G1X956.05Y2094.51  ;
N1308 G1X953.2Y2094.51  ;
N1309 G1X953.2Y2089.51  ;
N1310 G65 P9104 A102 B04  ;
N1311 G0X952.75Y2089.51  ;
N1312 G65 P9102 A102 B04  ;
N1313 G1X952.75Y2090.94  ;
N1314 G65 P9104 A102 B04  ;
N1315 G0X949.18Y2090.94  ;
N1316 G65 P9102 A102 B04  ;
N1317 G1X950.96Y2094.51  ;
N1318 G1X952.75Y2090.94  ;
N1319 G1X949.18Y2090.94  ;
N1320 G65 P9104 A102 B04  ;
N1321 G0X949.18Y2089.51  ;
N1322 G65 P9102 A102 B04  ;
N1323 G1X949.18Y2090.94  ;
N1324 G65 P9104 A102 B04  ;
N1325 G0X961.95Y2089.51  ;
N1326 G65 P9102 A102 B04  ;
N1327 G1X961.95Y2094.51  ;
N1328 G65 P9104 A102 B04  ;
N1329 G0X962.66Y2094.51  ;
N1330 G65 P9102 A102 B04  ;
N1331 G1X961.23Y2094.51  ;
N1332 G65 P9104 A102 B04  ;
N1333 G0X991.54Y2120.76  ;
N1334 G65 P9102 A102 B04  ;
N1335 G1X987.97Y2122.54  ;
N1336 G1X991.54Y2124.33  ;
N1337 G1X991.54Y2120.76  ;
N1338 G1X992.97Y2120.76  ;
N1339 G65 P9104 A102 B04  ;
N1340 G0X992.97Y2124.33  ;
N1341 G65 P9102 A102 B04  ;
N1342 G1X991.54Y2124.33  ;
N1343 G65 P9104 A102 B04  ;
N1344 G0X991.54Y2124.77  ;
N1345 G65 P9102 A102 B04  ;
N1346 G1X987.97Y2126.56  ;
N1347 G1X991.54Y2128.35  ;
N1348 G1X991.54Y2124.77  ;
N1349 G1X992.97Y2124.77  ;
N1350 G65 P9104 A102 B04  ;
N1351 G0X992.97Y2128.35  ;
N1352 G65 P9102 A102 B04  ;
N1353 G1X991.54Y2128.35  ;
N1354 G65 P9104 A102 B04  ;
N1355 G0X988.69Y2128.79  ;
N1356 G65 P9102 A102 B04  ;
N1357 G1X987.97Y2129.51  ;
N1358 G1X987.97Y2131.65  ;
N1359 G1X988.69Y2132.36  ;
N1360 G1X990.11Y2132.36  ;
N1361 G1X990.83Y2131.65  ;
N1362 G1X990.83Y2129.51  ;
N1363 G1X991.54Y2128.79  ;
N1364 G1X992.97Y2128.79  ;
N1365 G1X992.97Y2131.65  ;
N1366 G1X992.26Y2132.36  ;
N1367 G65 P9104 A102 B04  ;
N1368 G0X992.97Y2135.67  ;
N1369 G65 P9102 A102 B04  ;
N1370 G1X990.83Y2135.67  ;
N1371 G65 P9104 A102 B04  ;
N1372 G0X991.54Y2136.38  ;
N1373 G65 P9102 A102 B04  ;
N1374 G1X991.54Y2132.81  ;
N1375 G1X987.97Y2135.67  ;
N1376 G65 P9104 A101 B01  ;
N1377 G0X974.71Y1958.53  ;
N1378 G65 P9102 A101 B01  ;
N1379 G1X978.71Y1958.7  ;
N1380 G2X978.97Y1958.45I0.01J-0.25  ;
N1381 G2X971.52Y1951I-7.45J0  ;
N1382 G1X946.52Y1951  ;
N1383 G2X946.52Y1965.9I0J7.45  ;
N1384 G1X971.52Y1965.9  ;
N1385 G2X978.97Y1958.45I0J-7.45  ;
N1386 G65 P9104 A101 B01  ;
N1387 G0X916.52Y1771.95  ;
N1388 G65 P9102 A101 B01  ;
N1389 G1X921.52Y1771.95  ;
N1390 G1X996.57Y1771.95  ;
N1391 G1X996.57Y2141.65  ;
N1392 G1X921.47Y2141.65  ;
N1393 G1X921.47Y1772.65  ;
N1394 G65 P9104 A102 B04  ;
N1395 M98 P9103  ;
(P17:ID8:W56240412)  ;
N1396 M98 P9101  ;
N1397 G0X1048.5Y2025.04  ;
N1398 G65 P9102 A102 B04  ;
N1399 G1X1042Y2028.8  ;
N1400 G1X1042Y2036.3  ;
N1401 G1X1048.5Y2040.05  ;
N1402 G1X1055Y2036.3  ;
N1403 G1X1055Y2028.8  ;
N1404 G1X1048.5Y2025.04  ;
N1405 G65 P9104 A102 B04  ;
N1406 G0X1166Y2028.8  ;
N1407 G65 P9102 A102 B04  ;
N1408 G1X1166Y2036.3  ;
N1409 G1X1172.5Y2040.05  ;
N1410 G1X1179Y2036.3  ;
N1411 G1X1179Y2028.8  ;
N1412 G1X1172.5Y2025.04  ;
N1413 G1X1166Y2028.8  ;
N1414 G65 P9104 A102 B04  ;
N1415 G0X1181.21Y2042.18  ;
N1416 G65 P9102 A102 B04  ;
N1417 G1X1181.8Y2043.73  ;
N1418 G1X1181.84Y2043.85  ;
N1419 G1X1182.43Y2045.39  ;
N1420 G1X1182.65Y2045.39  ;
N1421 G1X1182.67Y2045.39  ;
N1422 G1X1182.89Y2045.39  ;
N1423 G1X1183.52Y2043.85  ;
N1424 G1X1183.57Y2043.73  ;
N1425 G1X1184.21Y2042.19  ;
N1426 G1X1183.97Y2042.19  ;
N1427 G1X1183.96Y2042.19  ;
N1428 G1X1183.72Y2042.19  ;
N1429 G1X1183.54Y2042.66  ;
N1430 G1X1183.53Y2042.69  ;
N1431 G1X1183.35Y2043.16  ;
N1432 G1X1182.7Y2043.16  ;
N1433 G1X1182.65Y2043.16  ;
N1434 G1X1182.01Y2043.16  ;
N1435 G1X1181.84Y2042.69  ;
N1436 G1X1181.82Y2042.65  ;
N1437 G1X1181.66Y2042.18  ;
N1438 G1X1181.44Y2042.18  ;
N1439 G1X1181.42Y2042.18  ;
N1440 G1X1181.21Y2042.18  ;
N1441 G65 P9104 A102 B04  ;
N1442 G0X1182.13Y2043.5  ;
N1443 G65 P9102 A102 B04  ;
N1444 G1X1182.65Y2043.5  ;
N1445 G1X1182.69Y2043.5  ;
N1446 G1X1183.22Y2043.5  ;
N1447 G1X1183.05Y2043.93  ;
N1448 G1X1183.04Y2043.96  ;
N1449 G1X1182.88Y2044.39  ;
N1450 G1X1182.79Y2044.64  ;
N1451 G1X1182.71Y2044.87  ;
N1452 G1X1182.65Y2045.06  ;
N1453 G1X1182.61Y2044.85  ;
N1454 G1X1182.55Y2044.65  ;
N1455 G1X1182.48Y2044.44  ;
N1456 G1X1182.31Y2043.99  ;
N1457 G1X1182.3Y2043.96  ;
N1458 G1X1182.13Y2043.5  ;
N1459 G65 P9104 A102 B04  ;
N1460 G0X1184.19Y2042.18  ;
N1461 G65 P9102 A102 B04  ;
N1462 G1X1184.78Y2043.73  ;
N1463 G1X1184.83Y2043.85  ;
N1464 G1X1185.42Y2045.39  ;
N1465 G1X1185.64Y2045.39  ;
N1466 G1X1185.65Y2045.39  ;
N1467 G1X1185.87Y2045.39  ;
N1468 G1X1186.51Y2043.85  ;
N1469 G1X1186.56Y2043.73  ;
N1470 G1X1187.19Y2042.19  ;
N1471 G1X1186.96Y2042.19  ;
N1472 G1X1186.94Y2042.19  ;
N1473 G1X1186.71Y2042.19  ;
N1474 G1X1186.53Y2042.66  ;
N1475 G1X1186.51Y2042.69  ;
N1476 G1X1186.33Y2043.16  ;
N1477 G1X1185.69Y2043.16  ;
N1478 G1X1185.64Y2043.16  ;
N1479 G1X1184.99Y2043.16  ;
N1480 G1X1184.82Y2042.69  ;
N1481 G1X1184.81Y2042.65  ;
N1482 G1X1184.64Y2042.18  ;
N1483 G1X1184.42Y2042.18  ;
N1484 G1X1184.41Y2042.18  ;
N1485 G1X1184.19Y2042.18  ;
N1486 G65 P9104 A102 B04  ;
N1487 G0X1185.11Y2043.5  ;
N1488 G65 P9102 A102 B04  ;
N1489 G1X1185.64Y2043.5  ;
N1490 G1X1185.68Y2043.5  ;
N1491 G1X1186.2Y2043.5  ;
N1492 G1X1186.04Y2043.93  ;
N1493 G1X1186.03Y2043.96  ;
N1494 G1X1185.86Y2044.39  ;
N1495 G1X1185.77Y2044.64  ;
N1496 G1X1185.69Y2044.87  ;
N1497 G1X1185.63Y2045.06  ;
N1498 G1X1185.59Y2044.85  ;
N1499 G1X1185.53Y2044.65  ;
N1500 G1X1185.46Y2044.44  ;
N1501 G1X1185.29Y2043.99  ;
N1502 G1X1185.28Y2043.96  ;
N1503 G1X1185.11Y2043.5  ;
N1504 G65 P9104 A102 B04  ;
N1505 G0X1187.39Y2044.48  ;
N1506 G65 P9102 A102 B04  ;
N1507 G1X1187.44Y2044.75  ;
N1508 G1X1187.54Y2044.98  ;
N1509 G1X1187.7Y2045.17  ;
N1510 G1X1187.9Y2045.3  ;
N1511 G1X1188.14Y2045.38  ;
N1512 G1X1188.43Y2045.41  ;
N1513 G1X1188.71Y2045.38  ;
N1514 G1X1188.95Y2045.29  ;
N1515 G1X1189.16Y2045.15  ;
N1516 G1X1189.31Y2044.97  ;
N1517 G1X1189.4Y2044.76  ;
N1518 G1X1189.43Y2044.52  ;
N1519 G1X1189.42Y2044.39  ;
N1520 G1X1189.39Y2044.26  ;
N1521 G1X1189.35Y2044.14  ;
N1522 G1X1189.29Y2044.01  ;
N1523 G1X1189.2Y2043.88  ;
N1524 G1X1189.09Y2043.75  ;
N1525 G1X1188.94Y2043.59  ;
N1526 G1X1188.74Y2043.4  ;
N1527 G1X1188.48Y2043.18  ;
N1528 G1X1188.27Y2043.01  ;
N1529 G1X1188.12Y2042.87  ;
N1530 G1X1188.03Y2042.78  ;
N1531 G1X1187.97Y2042.71  ;
N1532 G1X1187.91Y2042.64  ;
N1533 G1X1187.86Y2042.56  ;
N1534 G1X1188.62Y2042.56  ;
N1535 G1X1188.68Y2042.56  ;
N1536 G1X1189.43Y2042.57  ;
N1537 G1X1189.43Y2042.38  ;
N1538 G1X1189.43Y2042.37  ;
N1539 G1X1189.43Y2042.19  ;
N1540 G1X1188.41Y2042.19  ;
N1541 G1X1188.34Y2042.19  ;
N1542 G1X1187.32Y2042.18  ;
N1543 G1X1187.32Y2042.28  ;
N1544 G1X1187.34Y2042.37  ;
N1545 G1X1187.36Y2042.46  ;
N1546 G1X1187.43Y2042.6  ;
N1547 G1X1187.51Y2042.74  ;
N1548 G1X1187.62Y2042.88  ;
N1549 G1X1187.76Y2043.03  ;
N1550 G1X1187.93Y2043.19  ;
N1551 G1X1188.13Y2043.37  ;
N1552 G1X1188.44Y2043.64  ;
N1553 G1X1188.68Y2043.86  ;
N1554 G1X1188.84Y2044.05  ;
N1555 G1X1188.94Y2044.22  ;
N1556 G1X1189Y2044.37  ;
N1557 G1X1189.02Y2044.53  ;
N1558 G1X1189Y2044.67  ;
N1559 G1X1188.95Y2044.8  ;
N1560 G1X1188.86Y2044.92  ;
N1561 G1X1188.73Y2045.01  ;
N1562 G1X1188.59Y2045.06  ;
N1563 G1X1188.42Y2045.08  ;
N1564 G1X1188.24Y2045.06  ;
N1565 G1X1188.09Y2045  ;
N1566 G1X1187.96Y2044.91  ;
N1567 G1X1187.87Y2044.78  ;
N1568 G1X1187.81Y2044.62  ;
N1569 G1X1187.79Y2044.43  ;
N1570 G1X1187.6Y2044.45  ;
N1571 G1X1187.58Y2044.46  ;
N1572 G1X1187.39Y2044.48  ;
N1573 G65 P9104 A102 B04  ;
N1574 G0X1190.11Y2043.31  ;
N1575 G65 P9102 A102 B04  ;
N1576 G1X1190.6Y2043.31  ;
N1577 G1X1190.63Y2043.31  ;
N1578 G1X1191.12Y2043.32  ;
N1579 G1X1191.12Y2044.01  ;
N1580 G1X1191.12Y2044.06  ;
N1581 G1X1191.12Y2044.76  ;
N1582 G1X1190.63Y2044.06  ;
N1583 G1X1190.6Y2044.01  ;
N1584 G1X1190.11Y2043.31  ;
N1585 G65 P9104 A102 B04  ;
N1586 G0X1189.73Y2043.31  ;
N1587 G65 P9102 A102 B04  ;
N1588 G1X1190.43Y2044.31  ;
N1589 G1X1190.48Y2044.39  ;
N1590 G1X1191.19Y2045.39  ;
N1591 G1X1191.34Y2045.39  ;
N1592 G1X1191.35Y2045.39  ;
N1593 G1X1191.51Y2045.39  ;
N1594 G1X1191.51Y2044.39  ;
N1595 G1X1191.51Y2044.32  ;
N1596 G1X1191.51Y2043.32  ;
N1597 G1X1191.72Y2043.32  ;
N1598 G1X1191.74Y2043.32  ;
N1599 G1X1191.94Y2043.32  ;
N1600 G1X1191.94Y2043.14  ;
N1601 G1X1191.94Y2043.13  ;
N1602 G1X1191.94Y2042.96  ;
N1603 G1X1191.74Y2042.96  ;
N1604 G1X1191.72Y2042.96  ;
N1605 G1X1191.51Y2042.96  ;
N1606 G1X1191.51Y2042.59  ;
N1607 G1X1191.51Y2042.56  ;
N1608 G1X1191.51Y2042.19  ;
N1609 G1X1191.32Y2042.19  ;
N1610 G1X1191.31Y2042.19  ;
N1611 G1X1191.12Y2042.19  ;
N1612 G1X1191.12Y2042.56  ;
N1613 G1X1191.12Y2042.58  ;
N1614 G1X1191.12Y2042.95  ;
N1615 G1X1190.45Y2042.95  ;
N1616 G1X1190.4Y2042.95  ;
N1617 G1X1189.73Y2042.95  ;
N1618 G1X1189.73Y2043.13  ;
N1619 G1X1189.73Y2043.14  ;
N1620 G1X1189.73Y2043.31  ;
N1621 G65 P9104 A101 B02  ;
N1622 G0X1172.64Y2032.76  ;
N1623 G65 P9102 A101 B02  ;
N1624 G1X1176.14Y2036.26  ;
N1625 G3X1176.18Y2036.22I-3.64J-3.71  ;
N1626 G65 P9104 A101 B01  ;
N1627 G0X1126.5Y2032.6  ;
N1628 G65 P9102 A101 B01  ;
N1629 G1X1130.45Y2032.6  ;
N1630 G3X1130.45Y2032.55I-19.95J-0.05  ;
N1631 G65 P9104 A101 B02  ;
N1632 G0X1048.64Y2032.76  ;
N1633 G65 P9102 A101 B02  ;
N1634 G1X1052.14Y2036.26  ;
N1635 G3X1052.18Y2036.22I-3.64J-3.71  ;
N1636 G65 P9104 A101 B01  ;
N1637 G0X1025.45Y1936.5  ;
N1638 G65 P9102 A101 B01  ;
N1639 G1X1025.45Y1940.5  ;
N1640 G1X1025.45Y1952.7  ;
N1641 G1X1021.45Y1952.7  ;
N1642 G1X1021.45Y1962.3  ;
N1643 G1X1025.45Y1962.3  ;
N1644 G1X1025.45Y1969.55  ;
N1645 G1X1028.5Y1969.55  ;
N1646 G3X1030.45Y1971.5I0J1.95  ;
N1647 G1X1030.45Y1992.5  ;
N1648 G3X1028.5Y1994.45I-1.95J0  ;
N1649 G1X1025.45Y1994.45  ;
N1650 G1X1025.45Y2040.25  ;
N1651 G1X1021.45Y2040.25  ;
N1652 G1X1021.45Y2049.85  ;
N1653 G1X1025.45Y2049.85  ;
N1654 G1X1025.45Y2090.07  ;
N1655 G1X1035.48Y2100.1  ;
N1656 G1X1185.52Y2100.1  ;
N1657 G1X1195.55Y2090.07  ;
N1658 G1X1195.55Y2049.85  ;
N1659 G1X1199.55Y2049.85  ;
N1660 G1X1199.55Y2040.25  ;
N1661 G1X1195.55Y2040.25  ;
N1662 G1X1195.55Y1994.45  ;
N1663 G1X1192.5Y1994.45  ;
N1664 G3X1190.55Y1992.5I0J-1.95  ;
N1665 G1X1190.55Y1971.5  ;
N1666 G3X1192.5Y1969.55I1.95J0  ;
N1667 G1X1195.55Y1969.55  ;
N1668 G1X1195.55Y1962.3  ;
N1669 G1X1199.55Y1962.3  ;
N1670 G1X1199.55Y1952.7  ;
N1671 G1X1195.55Y1952.7  ;
N1672 G1X1195.55Y1940.45  ;
N1673 G1X1025.5Y1940.45  ;
N1674 G65 P9104 A102 B04  ;
N1675 M98 P9103  ;
(P18:ID11:W56240401)  ;
N1676 M98 P9101  ;
N1677 G0X1814.81Y353.5  ;
N1678 G65 P9102 A102 B04  ;
N1679 G1X1389.22Y353.5  ;
N1680 G65 P9104 A102 B04  ;
N1681 G0X1389.22Y357.5  ;
N1682 G65 P9102 A102 B04  ;
N1683 G1X1814.81Y357.5  ;
N1684 G65 P9104 A102 B04  ;
N1685 G0X1408.68Y533  ;
N1686 G65 P9102 A102 B04  ;
N1687 G1X1404.93Y526.5  ;
N1688 G1X1397.43Y526.5  ;
N1689 G1X1393.67Y533  ;
N1690 G1X1397.43Y539.5  ;
N1691 G1X1404.93Y539.5  ;
N1692 G1X1408.68Y533  ;
N1693 G65 P9104 A102 B04  ;
N1694 G0X1404.93Y650.5  ;
N1695 G65 P9102 A102 B04  ;
N1696 G1X1397.43Y650.5  ;
N1697 G1X1393.67Y657  ;
N1698 G1X1397.43Y663.5  ;
N1699 G1X1404.93Y663.5  ;
N1700 G1X1408.68Y657  ;
N1701 G1X1404.93Y650.5  ;
N1702 G65 P9104 A102 B04  ;
N1703 G0X1347.6Y679.1  ;
N1704 G65 P9102 A102 B04  ;
N1705 G1X1489.01Y679.1  ;
N1706 G65 P9104 A102 B04  ;
N1707 G0X1505.64Y857.3  ;
N1708 G65 P9102 A102 B04  ;
N1709 G1X1362.16Y857.3  ;
N1710 G65 P9104 A102 B04  ;
N1711 G0X1397.43Y1434.5  ;
N1712 G65 P9102 A102 B04  ;
N1713 G1X1393.67Y1441  ;
N1714 G1X1397.43Y1447.5  ;
N1715 G1X1404.93Y1447.5  ;
N1716 G1X1408.68Y1441  ;
N1717 G1X1404.93Y1434.5  ;
N1718 G1X1397.43Y1434.5  ;
N1719 G65 P9104 A102 B04  ;
N1720 G0X1355.92Y1496.9  ;
N1721 G65 P9102 A102 B04  ;
N1722 G1X1499.41Y1496.9  ;
N1723 G65 P9104 A102 B04  ;
N1724 G0X1404.93Y1558.5  ;
N1725 G65 P9102 A102 B04  ;
N1726 G1X1397.43Y1558.5  ;
N1727 G1X1393.67Y1565  ;
N1728 G1X1397.43Y1571.5  ;
N1729 G1X1404.93Y1571.5  ;
N1730 G1X1408.68Y1565  ;
N1731 G1X1404.93Y1558.5  ;
N1732 G65 P9104 A102 B04  ;
N1733 G0X1353.84Y1675.1  ;
N1734 G65 P9102 A102 B04  ;
N1735 G1X1505.64Y1675.1  ;
N1736 G65 P9104 A102 B04  ;
N1737 G0X1307.24Y141.5  ;
N1738 G65 P9102 A102 B04  ;
N1739 G1X1245.57Y141.5  ;
N1740 G65 P9104 A101 B02  ;
N1741 G0X1294.19Y266  ;
N1742 G65 P9102 A101 B02  ;
N1743 G1X1291.59Y267.5  ;
N1744 G2X1291.24Y268.8I0.47J0.82  ;
N1745 G1X1292.86Y271.6  ;
N1746 G1X1299.32Y271.6  ;
N1747 G1X1302.56Y266  ;
N1748 G1X1299.32Y260.4  ;
N1749 G1X1292.86Y260.4  ;
N1750 G1X1289.62Y266  ;
N1751 G1X1291.24Y268.8  ;
N1752 G65 P9104 A101 B02  ;
N1753 G0X1565.88Y348.82  ;
N1754 G65 P9102 A101 B02  ;
N1755 G1X1563.79Y350.9  ;
N1756 G3X1563.83Y350.94I2.48J-2.4  ;
N1757 G65 P9104 A101 B02  ;
N1758 G0X1567.12Y384.59  ;
N1759 G65 P9102 A101 B02  ;
N1760 G1X1565.62Y387.19  ;
N1761 G2X1565.97Y388.48I0.82J0.47  ;
N1762 G1X1568.27Y389.81  ;
N1763 G1X1572.87Y387.16  ;
N1764 G1X1572.87Y381.84  ;
N1765 G1X1568.27Y379.19  ;
N1766 G1X1563.67Y381.84  ;
N1767 G1X1563.67Y387.16  ;
N1768 G1X1565.97Y388.48  ;
N1769 G65 P9104 A101 B02  ;
N1770 G0X1607.12Y384.59  ;
N1771 G65 P9102 A101 B02  ;
N1772 G1X1605.62Y387.19  ;
N1773 G2X1605.97Y388.48I0.82J0.47  ;
N1774 G1X1608.27Y389.81  ;
N1775 G1X1612.87Y387.16  ;
N1776 G1X1612.87Y381.84  ;
N1777 G1X1608.27Y379.19  ;
N1778 G1X1603.67Y381.84  ;
N1779 G1X1603.67Y387.16  ;
N1780 G1X1605.97Y388.48  ;
N1781 G65 P9104 A101 B02  ;
N1782 G0X1589.22Y439.5  ;
N1783 G65 P9102 A101 B02  ;
N1784 G1X1589.22Y442.5  ;
N1785 G3X1588.27Y443.45I-0.95J0  ;
N1786 G1X1567.27Y443.45  ;
N1787 G3X1564.32Y440.5I0J-2.95  ;
N1788 G1X1564.32Y396.5  ;
N1789 G3X1567.27Y393.55I2.95J0  ;
N1790 G1X1609.27Y393.55  ;
N1791 G3X1612.22Y396.5I0J2.95  ;
N1792 G1X1612.22Y440.5  ;
N1793 G3X1609.27Y443.45I-2.95J0  ;
N1794 G1X1588.27Y443.45  ;
N1795 G65 P9104 A101 B02  ;
N1796 G0X1587.12Y453.59  ;
N1797 G65 P9102 A101 B02  ;
N1798 G1X1585.62Y456.19  ;
N1799 G2X1585.97Y457.48I0.82J0.47  ;
N1800 G1X1588.27Y458.81  ;
N1801 G1X1592.87Y456.16  ;
N1802 G1X1592.87Y450.84  ;
N1803 G1X1588.27Y448.19  ;
N1804 G1X1583.67Y450.84  ;
N1805 G1X1583.67Y456.16  ;
N1806 G1X1585.97Y457.48  ;
N1807 G65 P9104 A101 B02  ;
N1808 G0X1589.22Y509.5  ;
N1809 G65 P9102 A101 B02  ;
N1810 G1X1589.22Y512.5  ;
N1811 G3X1588.27Y513.45I-0.95J0  ;
N1812 G1X1567.27Y513.45  ;
N1813 G3X1564.32Y510.5I0J-2.95  ;
N1814 G1X1564.32Y466.5  ;
N1815 G3X1567.27Y463.55I2.95J0  ;
N1816 G1X1609.27Y463.55  ;
N1817 G3X1612.22Y466.5I0J2.95  ;
N1818 G1X1612.22Y510.5  ;
N1819 G3X1609.27Y513.45I-2.95J0  ;
N1820 G1X1588.27Y513.45  ;
N1821 G65 P9104 A101 B02  ;
N1822 G0X1607.12Y522.59  ;
N1823 G65 P9102 A101 B02  ;
N1824 G1X1605.62Y525.19  ;
N1825 G2X1605.97Y526.48I0.82J0.47  ;
N1826 G1X1608.27Y527.81  ;
N1827 G1X1612.87Y525.16  ;
N1828 G1X1612.87Y519.84  ;
N1829 G1X1608.27Y517.19  ;
N1830 G1X1603.67Y519.84  ;
N1831 G1X1603.67Y525.16  ;
N1832 G1X1605.97Y526.48  ;
N1833 G65 P9104 A101 B02  ;
N1834 G0X1567.12Y522.59  ;
N1835 G65 P9102 A101 B02  ;
N1836 G1X1565.62Y525.19  ;
N1837 G2X1565.97Y526.48I0.82J0.47  ;
N1838 G1X1568.27Y527.81  ;
N1839 G1X1572.87Y525.16  ;
N1840 G1X1572.87Y519.84  ;
N1841 G1X1568.27Y517.19  ;
N1842 G1X1563.67Y519.84  ;
N1843 G1X1563.67Y525.16  ;
N1844 G1X1565.97Y526.48  ;
N1845 G65 P9104 A101 B02  ;
N1846 G0X1564.23Y542.46  ;
N1847 G65 P9102 A101 B02  ;
N1848 G1X1562.85Y543.84  ;
N1849 G3X1562.89Y543.88I1.42J-1.34  ;
N1850 G65 P9104 A101 B02  ;
N1851 G0X1399.55Y534.56  ;
N1852 G65 P9102 A101 B02  ;
N1853 G1X1397.47Y536.64  ;
N1854 G3X1397.5Y536.68I3.71J-3.64  ;
N1855 G65 P9104 A101 B02  ;
N1856 G0X1399.55Y658.56  ;
N1857 G65 P9102 A101 B02  ;
N1858 G1X1397.47Y660.64  ;
N1859 G3X1397.5Y660.68I3.71J-3.64  ;
N1860 G65 P9104 A101 B02  ;
N1861 G0X1583.57Y680.25  ;
N1862 G65 P9102 A101 B02  ;
N1863 G1X1580.57Y680.25  ;
N1864 G2X1579.62Y681.2I0J0.95  ;
N1865 G1X1579.62Y683.25  ;
N1866 G1X1591.52Y683.25  ;
N1867 G1X1591.52Y679.15  ;
N1868 G1X1579.62Y679.15  ;
N1869 G1X1579.62Y681.2  ;
N1870 G65 P9104 A101 B02  ;
N1871 G0X1583.57Y856.15  ;
N1872 G65 P9102 A101 B02  ;
N1873 G1X1580.57Y856.15  ;
N1874 G3X1579.62Y855.2I0J-0.95  ;
N1875 G1X1579.62Y853.15  ;
N1876 G1X1591.52Y853.15  ;
N1877 G1X1591.52Y857.25  ;
N1878 G1X1579.62Y857.25  ;
N1879 G1X1579.62Y855.2  ;
N1880 G65 P9104 A101 B02  ;
N1881 G0X1578.15Y972.79  ;
N1882 G65 P9102 A101 B02  ;
N1883 G1X1576.27Y975.13  ;
N1884 G3X1574.91Y975.26I-0.74J-0.59  ;
N1885 G3X1570.36Y970.22I18.18J-21  ;
N1886 G3X1570.36Y943.78I22.91J-13.22  ;
N1887 G3X1580.54Y934.96I22.73J15.96  ;
N1888 G3X1605.99Y934.96I12.73J22.04  ;
N1889 G3X1616.18Y943.78I-12.54J24.78  ;
N1890 G3X1616.18Y970.22I-22.91J13.22  ;
N1891 G3X1605.99Y979.04I-22.73J-15.96  ;
N1892 G3X1580.54Y979.04I-12.72J-22.04  ;
N1893 G3X1574.91Y975.26I12.55J-24.78  ;
N1894 G65 P9104 A101 B02  ;
N1895 G0X1598.79Y1065.5  ;
N1896 G65 P9102 A101 B02  ;
N1897 G1X1598.79Y1068.5  ;
N1898 G2X1599.74Y1069.45I0.95J0  ;
N1899 G1X1601.79Y1069.45  ;
N1900 G1X1601.79Y1058.55  ;
N1901 G1X1597.69Y1058.55  ;
N1902 G1X1597.69Y1069.45  ;
N1903 G1X1599.74Y1069.45  ;
N1904 G65 P9104 A101 B02  ;
N1905 G0X1743.06Y791.95  ;
N1906 G65 P9102 A101 B02  ;
N1907 G1X1740.06Y791.95  ;
N1908 G3X1739.11Y791I0J-0.95  ;
N1909 G1X1739.11Y788.95  ;
N1910 G1X1786.01Y788.95  ;
N1911 G1X1786.01Y793.05  ;
N1912 G1X1739.11Y793.05  ;
N1913 G1X1739.11Y791  ;
N1914 G65 P9104 A101 B01  ;
N1915 G0X1855.31Y691.5  ;
N1916 G65 P9102 A101 B01  ;
N1917 G1X1855.31Y694.5  ;
N1918 G3X1854.36Y695.45I-0.95J0  ;
N1919 G1X1824.36Y695.45  ;
N1920 G3X1814.41Y685.5I0J-9.95  ;
N1921 G1X1814.41Y495.55  ;
N1922 G1X1874.36Y495.55  ;
N1923 G3X1884.31Y505.5I0J9.95  ;
N1924 G1X1884.31Y695.45  ;
N1925 G1X1854.36Y695.45  ;
N1926 G65 P9104 A101 B02  ;
N1927 G0X1956.37Y791.95  ;
N1928 G65 P9102 A101 B02  ;
N1929 G1X1953.37Y791.95  ;
N1930 G3X1952.42Y791I0J-0.95  ;
N1931 G1X1952.42Y788.95  ;
N1932 G1X1970.32Y788.95  ;
N1933 G1X1970.32Y793.05  ;
N1934 G1X1952.42Y793.05  ;
N1935 G1X1952.42Y791  ;
N1936 G65 P9104 A101 B02  ;
N1937 G0X1956.75Y356.42  ;
N1938 G65 P9102 A101 B02  ;
N1939 G1X1954.67Y358.51  ;
N1940 G3X1954.7Y358.54I7.78J-7.71  ;
N1941 G65 P9104 A101 B02  ;
N1942 G0X1956.37Y187.95  ;
N1943 G65 P9102 A101 B02  ;
N1944 G1X1953.37Y187.95  ;
N1945 G3X1952.42Y187I0J-0.95  ;
N1946 G1X1952.42Y184.95  ;
N1947 G1X1970.32Y184.95  ;
N1948 G1X1970.32Y189.05  ;
N1949 G1X1952.42Y189.05  ;
N1950 G1X1952.42Y187  ;
N1951 G65 P9104 A101 B02  ;
N1952 G0X1887.49Y127.79  ;
N1953 G65 P9102 A101 B02  ;
N1954 G1X1885.41Y129.88  ;
N1955 G3X1885.44Y129.91I4.95J-4.88  ;
N1956 G65 P9104 A101 B02  ;
N1957 G0X1837.49Y127.79  ;
N1958 G65 P9102 A101 B02  ;
N1959 G1X1835.41Y129.88  ;
N1960 G3X1835.44Y129.91I4.95J-4.88  ;
N1961 G65 P9104 A101 B01  ;
N1962 G0X1846.99Y76.9  ;
N1963 G65 P9102 A101 B01  ;
N1964 G1X1843.49Y80.4  ;
N1965 G1X1833.96Y70.87  ;
N1966 G3X1865.71Y39.13I15.88J-15.87  ;
N1967 G1X1890.23Y63.65  ;
N1968 G3X1858.48Y95.4I-15.87J15.87  ;
N1969 G1X1843.99Y80.9  ;
N1970 G65 P9104 A101 B02  ;
N1971 G0X1819.49Y32.79  ;
N1972 G65 P9102 A101 B02  ;
N1973 G1X1817.41Y34.88  ;
N1974 G3X1817.44Y34.91I4.95J-4.88  ;
N1975 G65 P9104 A101 B02  ;
N1976 G0X1743.06Y187.95  ;
N1977 G65 P9102 A101 B02  ;
N1978 G1X1740.06Y187.95  ;
N1979 G3X1739.11Y187I0J-0.95  ;
N1980 G1X1739.11Y184.95  ;
N1981 G1X1786.01Y184.95  ;
N1982 G1X1786.01Y189.05  ;
N1983 G1X1739.11Y189.05  ;
N1984 G1X1739.11Y187  ;
N1985 G65 P9104 A101 B01  ;
N1986 G0X1782.56Y1020.09  ;
N1987 G65 P9102 A101 B01  ;
N1988 G1X1778.46Y1017.32  ;
N1989 G3X1778.07Y1017.9I49.9J33.68  ;
N1990 G65 P9104 A101 B02  ;
N1991 G0X1598.79Y1215.5  ;
N1992 G65 P9102 A101 B02  ;
N1993 G1X1598.79Y1218.5  ;
N1994 G2X1599.74Y1219.45I0.95J0  ;
N1995 G1X1601.79Y1219.45  ;
N1996 G1X1601.79Y1208.55  ;
N1997 G1X1597.69Y1208.55  ;
N1998 G1X1597.69Y1219.45  ;
N1999 G1X1599.74Y1219.45  ;
N2000 G65 P9104 A101 B02  ;
N2001 G0X1743.06Y1311.95  ;
N2002 G65 P9102 A101 B02  ;
N2003 G1X1740.06Y1311.95  ;
N2004 G3X1739.11Y1311I0J-0.95  ;
N2005 G1X1739.11Y1308.95  ;
N2006 G1X1786.01Y1308.95  ;
N2007 G1X1786.01Y1313.05  ;
N2008 G1X1739.11Y1313.05  ;
N2009 G1X1739.11Y1311  ;
N2010 G65 P9104 A101 B02  ;
N2011 G0X1956.37Y1311.95  ;
N2012 G65 P9102 A101 B02  ;
N2013 G1X1953.37Y1311.95  ;
N2014 G3X1952.42Y1311I0J-0.95  ;
N2015 G1X1952.42Y1308.95  ;
N2016 G1X1970.32Y1308.95  ;
N2017 G1X1970.32Y1313.05  ;
N2018 G1X1952.42Y1313.05  ;
N2019 G1X1952.42Y1311  ;
N2020 G65 P9104 A101 B02  ;
N2021 G0X1399.55Y1442.56  ;
N2022 G65 P9102 A101 B02  ;
N2023 G1X1397.47Y1444.64  ;
N2024 G3X1397.5Y1444.68I3.71J-3.64  ;
N2025 G65 P9104 A101 B02  ;
N2026 G0X1294.19Y1461  ;
N2027 G65 P9102 A101 B02  ;
N2028 G1X1291.59Y1462.5  ;
N2029 G2X1291.24Y1463.8I0.47J0.82  ;
N2030 G1X1292.86Y1466.6  ;
N2031 G1X1299.32Y1466.6  ;
N2032 G1X1302.56Y1461  ;
N2033 G1X1299.32Y1455.4  ;
N2034 G1X1292.86Y1455.4  ;
N2035 G1X1289.62Y1461  ;
N2036 G1X1291.24Y1463.8  ;
N2037 G65 P9104 A101 B02  ;
N2038 G0X1399.55Y1566.56  ;
N2039 G65 P9102 A101 B02  ;
N2040 G1X1397.47Y1568.64  ;
N2041 G3X1397.5Y1568.68I3.71J-3.64  ;
N2042 G65 P9104 A101 B02  ;
N2043 G0X1583.57Y1498.05  ;
N2044 G65 P9102 A101 B02  ;
N2045 G1X1580.57Y1498.05  ;
N2046 G2X1579.62Y1499I0J0.95  ;
N2047 G1X1579.62Y1501.05  ;
N2048 G1X1591.52Y1501.05  ;
N2049 G1X1591.52Y1496.95  ;
N2050 G1X1579.62Y1496.95  ;
N2051 G1X1579.62Y1499  ;
N2052 G65 P9104 A101 B02  ;
N2053 G0X1583.57Y1672.05  ;
N2054 G65 P9102 A101 B02  ;
N2055 G1X1580.57Y1672.05  ;
N2056 G2X1579.62Y1673I0J0.95  ;
N2057 G1X1579.62Y1675.05  ;
N2058 G1X1591.52Y1675.05  ;
N2059 G1X1591.52Y1670.95  ;
N2060 G1X1579.62Y1670.95  ;
N2061 G1X1579.62Y1673  ;
N2062 G65 P9104 A101 B01  ;
N2063 G0X1608.27Y1829.33  ;
N2064 G65 P9102 A101 B01  ;
N2065 G1X1613.22Y1829.33  ;
N2066 G1X1613.22Y1887  ;
N2067 G3X1610.27Y1889.95I-2.95J0  ;
N2068 G1X1601.14Y1889.95  ;
N2069 G1X1601.14Y1892.78  ;
N2070 G1X1589.24Y1892.78  ;
N2071 G1X1589.24Y1889.95  ;
N2072 G1X1540.37Y1889.95  ;
N2073 G3X1537.42Y1887I0J-2.95  ;
N2074 G1X1537.42Y1767  ;
N2075 G3X1540.37Y1764.05I2.95J0  ;
N2076 G1X1589.24Y1764.05  ;
N2077 G1X1589.24Y1761.22  ;
N2078 G1X1601.14Y1761.22  ;
N2079 G1X1601.14Y1764.05  ;
N2080 G1X1610.27Y1764.05  ;
N2081 G3X1613.22Y1767I0J2.95  ;
N2082 G1X1613.22Y1828.63  ;
N2083 G65 P9104 A101 B02  ;
N2084 G0X1680.46Y1769.14  ;
N2085 G65 P9102 A101 B02  ;
N2086 G1X1679.73Y1769.14  ;
N2087 G3X1679.31Y1768.72I0J-0.42  ;
N2088 G1X1679.31Y1759.95  ;
N2089 G1X1681.41Y1759.95  ;
N2090 G1X1681.41Y1770.05  ;
N2091 G1X1679.31Y1770.05  ;
N2092 G1X1679.31Y1768.72  ;
N2093 G65 P9104 A101 B02  ;
N2094 G0X1680.46Y1893.14  ;
N2095 G65 P9102 A101 B02  ;
N2096 G1X1679.73Y1893.14  ;
N2097 G3X1679.31Y1892.72I0J-0.42  ;
N2098 G1X1679.31Y1883.95  ;
N2099 G1X1681.41Y1883.95  ;
N2100 G1X1681.41Y1894.05  ;
N2101 G1X1679.31Y1894.05  ;
N2102 G1X1679.31Y1892.72  ;
N2103 G65 P9104 A101 B02  ;
N2104 G0X1743.06Y1915.95  ;
N2105 G65 P9102 A101 B02  ;
N2106 G1X1740.06Y1915.95  ;
N2107 G3X1739.11Y1915I0J-0.95  ;
N2108 G1X1739.11Y1912.95  ;
N2109 G1X1786.01Y1912.95  ;
N2110 G1X1786.01Y1917.05  ;
N2111 G1X1739.11Y1917.05  ;
N2112 G1X1739.11Y1915  ;
N2113 G65 P9104 A101 B02  ;
N2114 G0X1819.49Y2074.79  ;
N2115 G65 P9102 A101 B02  ;
N2116 G1X1817.41Y2076.88  ;
N2117 G3X1817.44Y2076.91I4.95J-4.88  ;
N2118 G65 P9104 A101 B01  ;
N2119 G0X1848.5Y2023.59  ;
N2120 G65 P9102 A101 B01  ;
N2121 G1X1845Y2020.09  ;
N2122 G1X1858.48Y2006.6  ;
N2123 G3X1890.23Y2038.35I15.88J15.88  ;
N2124 G1X1865.71Y2062.87  ;
N2125 G3X1833.96Y2031.13I-15.87J-15.87  ;
N2126 G1X1844.5Y2020.59  ;
N2127 G65 P9104 A101 B02  ;
N2128 G0X1837.49Y1979.79  ;
N2129 G65 P9102 A101 B02  ;
N2130 G1X1835.41Y1981.88  ;
N2131 G3X1835.44Y1981.91I4.95J-4.88  ;
N2132 G65 P9104 A101 B02  ;
N2133 G0X1887.49Y1979.79  ;
N2134 G65 P9102 A101 B02  ;
N2135 G1X1885.41Y1981.88  ;
N2136 G3X1885.44Y1981.91I4.95J-4.88  ;
N2137 G65 P9104 A101 B02  ;
N2138 G0X1956.37Y1915.95  ;
N2139 G65 P9102 A101 B02  ;
N2140 G1X1953.37Y1915.95  ;
N2141 G3X1952.42Y1915I0J-0.95  ;
N2142 G1X1952.42Y1912.95  ;
N2143 G1X1970.32Y1912.95  ;
N2144 G1X1970.32Y1917.05  ;
N2145 G1X1952.42Y1917.05  ;
N2146 G1X1952.42Y1915  ;
N2147 G65 P9104 A101 B02  ;
N2148 G0X1956.75Y1756.42  ;
N2149 G65 P9102 A101 B02  ;
N2150 G1X1954.67Y1758.51  ;
N2151 G3X1954.7Y1758.54I7.78J-7.71  ;
N2152 G65 P9104 A101 B02  ;
N2153 G0X1882.73Y1658.06  ;
N2154 G65 P9102 A101 B02  ;
N2155 G1X1880.65Y1660.14  ;
N2156 G3X1880.68Y1660.18I3.71J-3.64  ;
N2157 G65 P9104 A101 B01  ;
N2158 G0X1845.31Y1602.5  ;
N2159 G65 P9102 A101 B01  ;
N2160 G1X1845.31Y1605.5  ;
N2161 G3X1844.36Y1606.45I-0.95J0  ;
N2162 G1X1814.41Y1606.45  ;
N2163 G1X1814.41Y1416.5  ;
N2164 G3X1824.36Y1406.55I9.95J0  ;
N2165 G1X1884.31Y1406.55  ;
N2166 G1X1884.31Y1596.5  ;
N2167 G3X1874.36Y1606.45I-9.95J0  ;
N2168 G1X1844.36Y1606.45  ;
N2169 G65 P9104 A101 B01  ;
N2170 G0X1995.45Y40.95  ;
N2171 G65 P9102 A101 B01  ;
N2172 G1X1992.45Y40.95  ;
N2173 G1X1931.18Y40.95  ;
N2174 G3X1914.97Y35.54I-6.49J-7.54  ;
N2175 G1X1884.38Y4.95  ;
N2176 G1X1632.12Y4.95  ;
N2177 G1X1632.12Y44.95  ;
N2178 G1X1269.54Y44.95  ;
N2179 G1X1269.54Y49.05  ;
N2180 G1X1270.04Y49.05  ;
N2181 G1X1270.04Y83.95  ;
N2182 G1X1269.54Y83.95  ;
N2183 G1X1269.54Y90.05  ;
N2184 G1X1274.04Y90.05  ;
N2185 G1X1274.04Y91.95  ;
N2186 G1X1236.95Y91.95  ;
N2187 G1X1236.95Y2010.05  ;
N2188 G1X1274.04Y2010.05  ;
N2189 G1X1274.04Y2011.95  ;
N2190 G1X1269.54Y2011.95  ;
N2191 G1X1269.54Y2018.05  ;
N2192 G1X1270.04Y2018.05  ;
N2193 G1X1270.04Y2052.95  ;
N2194 G1X1269.54Y2052.95  ;
N2195 G1X1269.54Y2057.05  ;
N2196 G1X1632.12Y2057.05  ;
N2197 G1X1632.12Y2097.05  ;
N2198 G1X1884.38Y2097.05  ;
N2199 G1X1913.82Y2067.61  ;
N2200 G3X1929.65Y2061.05I9.85J1.39  ;
N2201 G1X1992.5Y2061.05  ;
N2202 G1X1992.5Y41  ;
N2203 G65 P9104 A102 B04  ;
N2204 M98 P9103  ;
(P19:ID8:W56240412)  ;
N2205 M98 P9101  ;
N2206 G0X1044.5Y2193.54  ;
N2207 G65 P9102 A102 B04  ;
N2208 G1X1038Y2197.3  ;
N2209 G1X1038Y2204.8  ;
N2210 G1X1044.5Y2208.55  ;
N2211 G1X1051Y2204.8  ;
N2212 G1X1051Y2197.3  ;
N2213 G1X1044.5Y2193.54  ;
N2214 G65 P9104 A102 B04  ;
N2215 G0X1162Y2197.3  ;
N2216 G65 P9102 A102 B04  ;
N2217 G1X1162Y2204.8  ;
N2218 G1X1168.5Y2208.55  ;
N2219 G1X1175Y2204.8  ;
N2220 G1X1175Y2197.3  ;
N2221 G1X1168.5Y2193.54  ;
N2222 G1X1162Y2197.3  ;
N2223 G65 P9104 A102 B04  ;
N2224 G0X1177.21Y2210.68  ;
N2225 G65 P9102 A102 B04  ;
N2226 G1X1177.8Y2212.23  ;
N2227 G1X1177.84Y2212.35  ;
N2228 G1X1178.43Y2213.89  ;
N2229 G1X1178.65Y2213.89  ;
N2230 G1X1178.67Y2213.89  ;
N2231 G1X1178.89Y2213.89  ;
N2232 G1X1179.52Y2212.35  ;
N2233 G1X1179.57Y2212.23  ;
N2234 G1X1180.21Y2210.69  ;
N2235 G1X1179.97Y2210.69  ;
N2236 G1X1179.96Y2210.69  ;
N2237 G1X1179.72Y2210.69  ;
N2238 G1X1179.54Y2211.16  ;
N2239 G1X1179.53Y2211.19  ;
N2240 G1X1179.35Y2211.66  ;
N2241 G1X1178.7Y2211.66  ;
N2242 G1X1178.65Y2211.66  ;
N2243 G1X1178.01Y2211.66  ;
N2244 G1X1177.84Y2211.19  ;
N2245 G1X1177.82Y2211.15  ;
N2246 G1X1177.66Y2210.68  ;
N2247 G1X1177.44Y2210.68  ;
N2248 G1X1177.42Y2210.68  ;
N2249 G1X1177.21Y2210.68  ;
N2250 G65 P9104 A102 B04  ;
N2251 G0X1178.13Y2212  ;
N2252 G65 P9102 A102 B04  ;
N2253 G1X1178.65Y2212  ;
N2254 G1X1178.69Y2212  ;
N2255 G1X1179.22Y2212  ;
N2256 G1X1179.05Y2212.43  ;
N2257 G1X1179.04Y2212.46  ;
N2258 G1X1178.88Y2212.89  ;
N2259 G1X1178.79Y2213.14  ;
N2260 G1X1178.71Y2213.37  ;
N2261 G1X1178.65Y2213.56  ;
N2262 G1X1178.61Y2213.35  ;
N2263 G1X1178.55Y2213.15  ;
N2264 G1X1178.48Y2212.94  ;
N2265 G1X1178.31Y2212.49  ;
N2266 G1X1178.3Y2212.46  ;
N2267 G1X1178.13Y2212  ;
N2268 G65 P9104 A102 B04  ;
N2269 G0X1180.19Y2210.68  ;
N2270 G65 P9102 A102 B04  ;
N2271 G1X1180.78Y2212.23  ;
N2272 G1X1180.83Y2212.35  ;
N2273 G1X1181.42Y2213.89  ;
N2274 G1X1181.64Y2213.89  ;
N2275 G1X1181.65Y2213.89  ;
N2276 G1X1181.87Y2213.89  ;
N2277 G1X1182.51Y2212.35  ;
N2278 G1X1182.56Y2212.23  ;
N2279 G1X1183.19Y2210.69  ;
N2280 G1X1182.96Y2210.69  ;
N2281 G1X1182.94Y2210.69  ;
N2282 G1X1182.71Y2210.69  ;
N2283 G1X1182.53Y2211.16  ;
N2284 G1X1182.51Y2211.19  ;
N2285 G1X1182.33Y2211.66  ;
N2286 G1X1181.69Y2211.66  ;
N2287 G1X1181.64Y2211.66  ;
N2288 G1X1180.99Y2211.66  ;
N2289 G1X1180.82Y2211.19  ;
N2290 G1X1180.81Y2211.15  ;
N2291 G1X1180.64Y2210.68  ;
N2292 G1X1180.42Y2210.68  ;
N2293 G1X1180.41Y2210.68  ;
N2294 G1X1180.19Y2210.68  ;
N2295 G65 P9104 A102 B04  ;
N2296 G0X1181.11Y2212  ;
N2297 G65 P9102 A102 B04  ;
N2298 G1X1181.64Y2212  ;
N2299 G1X1181.68Y2212  ;
N2300 G1X1182.2Y2212  ;
N2301 G1X1182.04Y2212.43  ;
N2302 G1X1182.03Y2212.46  ;
N2303 G1X1181.86Y2212.89  ;
N2304 G1X1181.77Y2213.14  ;
N2305 G1X1181.69Y2213.37  ;
N2306 G1X1181.63Y2213.56  ;
N2307 G1X1181.59Y2213.35  ;
N2308 G1X1181.53Y2213.15  ;
N2309 G1X1181.46Y2212.94  ;
N2310 G1X1181.29Y2212.49  ;
N2311 G1X1181.28Y2212.46  ;
N2312 G1X1181.11Y2212  ;
N2313 G65 P9104 A102 B04  ;
N2314 G0X1183.39Y2212.98  ;
N2315 G65 P9102 A102 B04  ;
N2316 G1X1183.44Y2213.25  ;
N2317 G1X1183.54Y2213.48  ;
N2318 G1X1183.7Y2213.67  ;
N2319 G1X1183.9Y2213.8  ;
N2320 G1X1184.14Y2213.88  ;
N2321 G1X1184.43Y2213.91  ;
N2322 G1X1184.71Y2213.88  ;
N2323 G1X1184.95Y2213.79  ;
N2324 G1X1185.16Y2213.65  ;
N2325 G1X1185.31Y2213.47  ;
N2326 G1X1185.4Y2213.26  ;
N2327 G1X1185.43Y2213.02  ;
N2328 G1X1185.42Y2212.89  ;
N2329 G1X1185.39Y2212.76  ;
N2330 G1X1185.35Y2212.64  ;
N2331 G1X1185.29Y2212.51  ;
N2332 G1X1185.2Y2212.38  ;
N2333 G1X1185.09Y2212.25  ;
N2334 G1X1184.94Y2212.09  ;
N2335 G1X1184.74Y2211.9  ;
N2336 G1X1184.48Y2211.68  ;
N2337 G1X1184.27Y2211.51  ;
N2338 G1X1184.12Y2211.37  ;
N2339 G1X1184.03Y2211.28  ;
N2340 G1X1183.97Y2211.21  ;
N2341 G1X1183.91Y2211.14  ;
N2342 G1X1183.86Y2211.06  ;
N2343 G1X1184.62Y2211.06  ;
N2344 G1X1184.68Y2211.06  ;
N2345 G1X1185.43Y2211.07  ;
N2346 G1X1185.43Y2210.88  ;
N2347 G1X1185.43Y2210.87  ;
N2348 G1X1185.43Y2210.69  ;
N2349 G1X1184.41Y2210.69  ;
N2350 G1X1184.34Y2210.69  ;
N2351 G1X1183.32Y2210.68  ;
N2352 G1X1183.32Y2210.78  ;
N2353 G1X1183.34Y2210.87  ;
N2354 G1X1183.36Y2210.96  ;
N2355 G1X1183.43Y2211.1  ;
N2356 G1X1183.51Y2211.24  ;
N2357 G1X1183.62Y2211.38  ;
N2358 G1X1183.76Y2211.53  ;
N2359 G1X1183.93Y2211.69  ;
N2360 G1X1184.13Y2211.87  ;
N2361 G1X1184.44Y2212.14  ;
N2362 G1X1184.68Y2212.36  ;
N2363 G1X1184.84Y2212.55  ;
N2364 G1X1184.94Y2212.72  ;
N2365 G1X1185Y2212.87  ;
N2366 G1X1185.02Y2213.03  ;
N2367 G1X1185Y2213.17  ;
N2368 G1X1184.95Y2213.3  ;
N2369 G1X1184.86Y2213.42  ;
N2370 G1X1184.73Y2213.51  ;
N2371 G1X1184.59Y2213.56  ;
N2372 G1X1184.42Y2213.58  ;
N2373 G1X1184.24Y2213.56  ;
N2374 G1X1184.09Y2213.5  ;
N2375 G1X1183.96Y2213.41  ;
N2376 G1X1183.87Y2213.28  ;
N2377 G1X1183.81Y2213.12  ;
N2378 G1X1183.79Y2212.93  ;
N2379 G1X1183.6Y2212.95  ;
N2380 G1X1183.58Y2212.96  ;
N2381 G1X1183.39Y2212.98  ;
N2382 G65 P9104 A102 B04  ;
N2383 G0X1186.11Y2211.81  ;
N2384 G65 P9102 A102 B04  ;
N2385 G1X1186.6Y2211.81  ;
N2386 G1X1186.63Y2211.81  ;
N2387 G1X1187.12Y2211.82  ;
N2388 G1X1187.12Y2212.51  ;
N2389 G1X1187.12Y2212.56  ;
N2390 G1X1187.12Y2213.26  ;
N2391 G1X1186.63Y2212.56  ;
N2392 G1X1186.6Y2212.51  ;
N2393 G1X1186.11Y2211.81  ;
N2394 G65 P9104 A102 B04  ;
N2395 G0X1185.73Y2211.81  ;
N2396 G65 P9102 A102 B04  ;
N2397 G1X1186.43Y2212.81  ;
N2398 G1X1186.48Y2212.89  ;
N2399 G1X1187.19Y2213.89  ;
N2400 G1X1187.34Y2213.89  ;
N2401 G1X1187.35Y2213.89  ;
N2402 G1X1187.51Y2213.89  ;
N2403 G1X1187.51Y2212.89  ;
N2404 G1X1187.51Y2212.82  ;
N2405 G1X1187.51Y2211.82  ;
N2406 G1X1187.72Y2211.82  ;
N2407 G1X1187.74Y2211.82  ;
N2408 G1X1187.94Y2211.82  ;
N2409 G1X1187.94Y2211.64  ;
N2410 G1X1187.94Y2211.63  ;
N2411 G1X1187.94Y2211.46  ;
N2412 G1X1187.74Y2211.46  ;
N2413 G1X1187.72Y2211.46  ;
N2414 G1X1187.51Y2211.46  ;
N2415 G1X1187.51Y2211.09  ;
N2416 G1X1187.51Y2211.06  ;
N2417 G1X1187.51Y2210.69  ;
N2418 G1X1187.32Y2210.69  ;
N2419 G1X1187.31Y2210.69  ;
N2420 G1X1187.12Y2210.69  ;
N2421 G1X1187.12Y2211.06  ;
N2422 G1X1187.12Y2211.08  ;
N2423 G1X1187.12Y2211.45  ;
N2424 G1X1186.45Y2211.45  ;
N2425 G1X1186.4Y2211.45  ;
N2426 G1X1185.73Y2211.45  ;
N2427 G1X1185.73Y2211.63  ;
N2428 G1X1185.73Y2211.64  ;
N2429 G1X1185.73Y2211.81  ;
N2430 G65 P9104 A101 B02  ;
N2431 G0X1168.64Y2201.26  ;
N2432 G65 P9102 A101 B02  ;
N2433 G1X1172.14Y2204.76  ;
N2434 G3X1172.18Y2204.72I-3.64J-3.71  ;
N2435 G65 P9104 A101 B01  ;
N2436 G0X1122.5Y2201.1  ;
N2437 G65 P9102 A101 B01  ;
N2438 G1X1126.45Y2201.1  ;
N2439 G3X1126.45Y2201.05I-19.95J-0.05  ;
N2440 G65 P9104 A101 B02  ;
N2441 G0X1044.64Y2201.26  ;
N2442 G65 P9102 A101 B02  ;
N2443 G1X1048.14Y2204.76  ;
N2444 G3X1048.18Y2204.72I-3.64J-3.71  ;
N2445 G65 P9104 A101 B01  ;
N2446 G0X1021.45Y2105  ;
N2447 G65 P9102 A101 B01  ;
N2448 G1X1021.45Y2109  ;
N2449 G1X1021.45Y2121.2  ;
N2450 G1X1017.45Y2121.2  ;
N2451 G1X1017.45Y2130.8  ;
N2452 G1X1021.45Y2130.8  ;
N2453 G1X1021.45Y2138.05  ;
N2454 G1X1024.5Y2138.05  ;
N2455 G3X1026.45Y2140I0J1.95  ;
N2456 G1X1026.45Y2161  ;
N2457 G3X1024.5Y2162.95I-1.95J0  ;
N2458 G1X1021.45Y2162.95  ;
N2459 G1X1021.45Y2208.75  ;
N2460 G1X1017.45Y2208.75  ;
N2461 G1X1017.45Y2218.35  ;
N2462 G1X1021.45Y2218.35  ;
N2463 G1X1021.45Y2258.57  ;
N2464 G1X1031.48Y2268.6  ;
N2465 G1X1181.52Y2268.6  ;
N2466 G1X1191.55Y2258.57  ;
N2467 G1X1191.55Y2218.35  ;
N2468 G1X1195.55Y2218.35  ;
N2469 G1X1195.55Y2208.75  ;
N2470 G1X1191.55Y2208.75  ;
N2471 G1X1191.55Y2162.95  ;
N2472 G1X1188.5Y2162.95  ;
N2473 G3X1186.55Y2161I0J-1.95  ;
N2474 G1X1186.55Y2140  ;
N2475 G3X1188.5Y2138.05I1.95J0  ;
N2476 G1X1191.55Y2138.05  ;
N2477 G1X1191.55Y2130.8  ;
N2478 G1X1195.55Y2130.8  ;
N2479 G1X1195.55Y2121.2  ;
N2480 G1X1191.55Y2121.2  ;
N2481 G1X1191.55Y2108.95  ;
N2482 G1X1021.5Y2108.95  ;
N2483 G65 P9104 A102 B04  ;
N2484 M98 P9103  ;
(P20:ID7:W56240408)  ;
N2485 M98 P9101  ;
N2486 G0X825.2Y2390.51  ;
N2487 G65 P9102 A102 B04  ;
N2488 G1X825.2Y2391.94  ;
N2489 G65 P9104 A102 B04  ;
N2490 G0X821.62Y2391.94  ;
N2491 G65 P9102 A102 B04  ;
N2492 G1X823.41Y2395.51  ;
N2493 G1X825.2Y2391.94  ;
N2494 G1X821.62Y2391.94  ;
N2495 G65 P9104 A102 B04  ;
N2496 G0X821.62Y2390.51  ;
N2497 G65 P9102 A102 B04  ;
N2498 G1X821.62Y2391.94  ;
N2499 G65 P9104 A102 B04  ;
N2500 G0X820.46Y2392.65  ;
N2501 G65 P9102 A102 B04  ;
N2502 G1X817.61Y2392.65  ;
N2503 G65 P9104 A102 B04  ;
N2504 G0X817.61Y2390.51  ;
N2505 G65 P9102 A102 B04  ;
N2506 G1X817.61Y2395.51  ;
N2507 G1X820.46Y2395.51  ;
N2508 G1X821.18Y2394.79  ;
N2509 G1X821.18Y2393.36  ;
N2510 G1X820.46Y2392.65  ;
N2511 G1X821.18Y2391.94  ;
N2512 G1X821.18Y2391.22  ;
N2513 G1X820.46Y2390.51  ;
N2514 G1X817.61Y2390.51  ;
N2515 G65 P9104 A102 B04  ;
N2516 G0X817.16Y2390.51  ;
N2517 G65 P9102 A102 B04  ;
N2518 G1X815.73Y2390.51  ;
N2519 G65 P9104 A102 B04  ;
N2520 G0X815.29Y2390.51  ;
N2521 G65 P9102 A102 B04  ;
N2522 G1X813.14Y2392.65  ;
N2523 G65 P9104 A102 B04  ;
N2524 G0X811.71Y2392.65  ;
N2525 G65 P9102 A102 B04  ;
N2526 G1X814.57Y2392.65  ;
N2527 G1X815.29Y2393.36  ;
N2528 G1X815.29Y2394.79  ;
N2529 G1X814.57Y2395.51  ;
N2530 G1X811.71Y2395.51  ;
N2531 G1X811.71Y2390.51  ;
N2532 G65 P9104 A102 B04  ;
N2533 G0X811.27Y2390.51  ;
N2534 G65 P9102 A102 B04  ;
N2535 G1X809.12Y2392.65  ;
N2536 G65 P9104 A102 B04  ;
N2537 G0X807.7Y2392.65  ;
N2538 G65 P9102 A102 B04  ;
N2539 G1X810.55Y2392.65  ;
N2540 G1X811.27Y2393.36  ;
N2541 G1X811.27Y2394.79  ;
N2542 G1X810.55Y2395.51  ;
N2543 G1X807.7Y2395.51  ;
N2544 G1X807.7Y2390.51  ;
N2545 G65 P9104 A102 B04  ;
N2546 G0X807.25Y2390.51  ;
N2547 G65 P9102 A102 B04  ;
N2548 G1X807.25Y2391.94  ;
N2549 G65 P9104 A102 B04  ;
N2550 G0X803.68Y2391.94  ;
N2551 G65 P9102 A102 B04  ;
N2552 G1X805.46Y2395.51  ;
N2553 G1X807.25Y2391.94  ;
N2554 G1X803.68Y2391.94  ;
N2555 G65 P9104 A102 B04  ;
N2556 G0X803.68Y2390.51  ;
N2557 G65 P9102 A102 B04  ;
N2558 G1X803.68Y2391.94  ;
N2559 G65 P9104 A102 B04  ;
N2560 G0X816.45Y2390.51  ;
N2561 G65 P9102 A102 B04  ;
N2562 G1X816.45Y2395.51  ;
N2563 G65 P9104 A102 B04  ;
N2564 G0X817.16Y2395.51  ;
N2565 G65 P9102 A102 B04  ;
N2566 G1X815.73Y2395.51  ;
N2567 G65 P9104 A102 B04  ;
N2568 G0X846.04Y2421.76  ;
N2569 G65 P9102 A102 B04  ;
N2570 G1X842.47Y2423.54  ;
N2571 G1X846.04Y2425.33  ;
N2572 G1X846.04Y2421.76  ;
N2573 G1X847.47Y2421.76  ;
N2574 G65 P9104 A102 B04  ;
N2575 G0X847.47Y2425.33  ;
N2576 G65 P9102 A102 B04  ;
N2577 G1X846.04Y2425.33  ;
N2578 G65 P9104 A102 B04  ;
N2579 G0X846.04Y2425.77  ;
N2580 G65 P9102 A102 B04  ;
N2581 G1X842.47Y2427.56  ;
N2582 G1X846.04Y2429.35  ;
N2583 G1X846.04Y2425.77  ;
N2584 G1X847.47Y2425.77  ;
N2585 G65 P9104 A102 B04  ;
N2586 G0X847.47Y2429.35  ;
N2587 G65 P9102 A102 B04  ;
N2588 G1X846.04Y2429.35  ;
N2589 G65 P9104 A102 B04  ;
N2590 G0X843.19Y2429.79  ;
N2591 G65 P9102 A102 B04  ;
N2592 G1X842.47Y2430.51  ;
N2593 G1X842.47Y2432.65  ;
N2594 G1X843.19Y2433.36  ;
N2595 G1X844.61Y2433.36  ;
N2596 G1X845.33Y2432.65  ;
N2597 G1X845.33Y2430.51  ;
N2598 G1X846.04Y2429.79  ;
N2599 G1X847.47Y2429.79  ;
N2600 G1X847.47Y2432.65  ;
N2601 G1X846.76Y2433.36  ;
N2602 G65 P9104 A102 B04  ;
N2603 G0X847.47Y2436.67  ;
N2604 G65 P9102 A102 B04  ;
N2605 G1X845.33Y2436.67  ;
N2606 G65 P9104 A102 B04  ;
N2607 G0X846.04Y2437.38  ;
N2608 G65 P9102 A102 B04  ;
N2609 G1X846.04Y2433.81  ;
N2610 G1X842.47Y2436.67  ;
N2611 G65 P9104 A101 B01  ;
N2612 G0X829.21Y2259.53  ;
N2613 G65 P9102 A101 B01  ;
N2614 G1X833.21Y2259.7  ;
N2615 G2X833.47Y2259.45I0.01J-0.25  ;
N2616 G2X826.02Y2252I-7.45J0  ;
N2617 G1X801.02Y2252  ;
N2618 G2X801.02Y2266.9I0J7.45  ;
N2619 G1X826.02Y2266.9  ;
N2620 G2X833.47Y2259.45I0J-7.45  ;
N2621 G65 P9104 A101 B01  ;
N2622 G0X771.02Y2072.95  ;
N2623 G65 P9102 A101 B01  ;
N2624 G1X776.02Y2072.95  ;
N2625 G1X851.07Y2072.95  ;
N2626 G1X851.07Y2442.65  ;
N2627 G1X775.97Y2442.65  ;
N2628 G1X775.97Y2073.65  ;
N2629 G65 P9104 A102 B04  ;
N2630 M98 P9103  ;
(P21:ID12:W56240411B)  ;
N2631 M98 P9101  ;
N2632 G0X957.5Y2264.02  ;
N2633 G65 P9102 A102 B04  ;
N2634 G1X964.5Y2268.06  ;
N2635 G1X964.5Y2276.14  ;
N2636 G1X957.5Y2280.18  ;
N2637 G1X950.5Y2276.14  ;
N2638 G1X950.5Y2268.06  ;
N2639 G1X957.5Y2264.02  ;
N2640 G65 P9104 A102 B04  ;
N2641 G0X943.5Y2300.52  ;
N2642 G65 P9102 A102 B04  ;
N2643 G1X950.5Y2304.56  ;
N2644 G1X950.5Y2312.64  ;
N2645 G1X943.5Y2316.68  ;
N2646 G1X936.5Y2312.64  ;
N2647 G1X936.5Y2304.56  ;
N2648 G1X943.5Y2300.52  ;
N2649 G65 P9104 A102 B04  ;
N2650 G0X973.5Y2360.52  ;
N2651 G65 P9102 A102 B04  ;
N2652 G1X980.5Y2364.56  ;
N2653 G1X980.5Y2372.64  ;
N2654 G1X973.5Y2376.68  ;
N2655 G1X966.5Y2372.64  ;
N2656 G1X966.5Y2364.56  ;
N2657 G1X973.5Y2360.52  ;
N2658 G65 P9104 A101 B02  ;
N2659 G0X973.64Y2368.81  ;
N2660 G65 P9102 A101 B02  ;
N2661 G1X977.14Y2372.31  ;
N2662 G3X977.18Y2372.28I-3.64J-3.71  ;
N2663 G65 P9104 A101 B02  ;
N2664 G0X943.64Y2308.81  ;
N2665 G65 P9102 A101 B02  ;
N2666 G1X947.14Y2312.31  ;
N2667 G3X947.18Y2312.28I-3.64J-3.71  ;
N2668 G65 P9104 A101 B02  ;
N2669 G0X959.6Y2290.65  ;
N2670 G65 P9102 A101 B02  ;
N2671 G1X963.55Y2290.65  ;
N2672 G1X963.55Y2292.65  ;
N2673 G1X953.45Y2292.65  ;
N2674 G1X953.45Y2288.55  ;
N2675 G1X963.55Y2288.55  ;
N2676 G1X963.55Y2290.6  ;
N2677 G65 P9104 A101 B02  ;
N2678 G0X957.64Y2272.31  ;
N2679 G65 P9102 A101 B02  ;
N2680 G1X961.14Y2275.81  ;
N2681 G3X961.18Y2275.78I-3.64J-3.71  ;
N2682 G65 P9104 A101 B01  ;
N2683 G0X979.5Y2150.55  ;
N2684 G65 P9102 A101 B01  ;
N2685 G1X983.5Y2150.55  ;
N2686 G1X993.55Y2150.55  ;
N2687 G1X993.55Y2162.6  ;
N2688 G2X998.5Y2167.55I4.95J0  ;
N2689 G1X1008.55Y2167.55  ;
N2690 G1X1008.55Y2373.65  ;
N2691 G1X998.5Y2373.65  ;
N2692 G2X993.55Y2378.6I0J4.95  ;
N2693 G1X993.55Y2388.65  ;
N2694 G1X944.24Y2388.65  ;
N2695 G3X935.56Y2383.66I0J-10.05  ;
N2696 G1X906.18Y2333.3  ;
N2697 G3X903.45Y2323.19I17.32J-10.11  ;
N2698 G1X903.45Y2195.88  ;
N2699 G3X909.32Y2181.71I20.05J0  ;
N2700 G1X932.61Y2158.42  ;
N2701 G3X946.78Y2152.55I14.17J14.18  ;
N2702 G1X983.45Y2152.55  ;
N2703 G1X983.45Y2150.6  ;
N2704 G65 P9104 A102 B04  ;
N2705 M98 P9103  ;
(P22:ID8:W56240412)  ;
N2706 M98 P9101  ;
N2707 G0X1044.5Y2362.04  ;
N2708 G65 P9102 A102 B04  ;
N2709 G1X1038Y2365.8  ;
N2710 G1X1038Y2373.3  ;
N2711 G1X1044.5Y2377.05  ;
N2712 G1X1051Y2373.3  ;
N2713 G1X1051Y2365.8  ;
N2714 G1X1044.5Y2362.04  ;
N2715 G65 P9104 A102 B04  ;
N2716 G0X1162Y2365.8  ;
N2717 G65 P9102 A102 B04  ;
N2718 G1X1162Y2373.3  ;
N2719 G1X1168.5Y2377.05  ;
N2720 G1X1175Y2373.3  ;
N2721 G1X1175Y2365.8  ;
N2722 G1X1168.5Y2362.04  ;
N2723 G1X1162Y2365.8  ;
N2724 G65 P9104 A102 B04  ;
N2725 G0X1177.21Y2379.18  ;
N2726 G65 P9102 A102 B04  ;
N2727 G1X1177.8Y2380.73  ;
N2728 G1X1177.84Y2380.85  ;
N2729 G1X1178.43Y2382.39  ;
N2730 G1X1178.65Y2382.39  ;
N2731 G1X1178.67Y2382.39  ;
N2732 G1X1178.89Y2382.39  ;
N2733 G1X1179.52Y2380.85  ;
N2734 G1X1179.57Y2380.73  ;
N2735 G1X1180.21Y2379.19  ;
N2736 G1X1179.97Y2379.19  ;
N2737 G1X1179.96Y2379.19  ;
N2738 G1X1179.72Y2379.19  ;
N2739 G1X1179.54Y2379.66  ;
N2740 G1X1179.53Y2379.69  ;
N2741 G1X1179.35Y2380.16  ;
N2742 G1X1178.7Y2380.16  ;
N2743 G1X1178.65Y2380.16  ;
N2744 G1X1178.01Y2380.16  ;
N2745 G1X1177.84Y2379.69  ;
N2746 G1X1177.82Y2379.65  ;
N2747 G1X1177.66Y2379.18  ;
N2748 G1X1177.44Y2379.18  ;
N2749 G1X1177.42Y2379.18  ;
N2750 G1X1177.21Y2379.18  ;
N2751 G65 P9104 A102 B04  ;
N2752 G0X1178.13Y2380.5  ;
N2753 G65 P9102 A102 B04  ;
N2754 G1X1178.65Y2380.5  ;
N2755 G1X1178.69Y2380.5  ;
N2756 G1X1179.22Y2380.5  ;
N2757 G1X1179.05Y2380.93  ;
N2758 G1X1179.04Y2380.96  ;
N2759 G1X1178.88Y2381.39  ;
N2760 G1X1178.79Y2381.64  ;
N2761 G1X1178.71Y2381.87  ;
N2762 G1X1178.65Y2382.06  ;
N2763 G1X1178.61Y2381.85  ;
N2764 G1X1178.55Y2381.65  ;
N2765 G1X1178.48Y2381.44  ;
N2766 G1X1178.31Y2380.99  ;
N2767 G1X1178.3Y2380.96  ;
N2768 G1X1178.13Y2380.5  ;
N2769 G65 P9104 A102 B04  ;
N2770 G0X1180.19Y2379.18  ;
N2771 G65 P9102 A102 B04  ;
N2772 G1X1180.78Y2380.73  ;
N2773 G1X1180.83Y2380.85  ;
N2774 G1X1181.42Y2382.39  ;
N2775 G1X1181.64Y2382.39  ;
N2776 G1X1181.65Y2382.39  ;
N2777 G1X1181.87Y2382.39  ;
N2778 G1X1182.51Y2380.85  ;
N2779 G1X1182.56Y2380.73  ;
N2780 G1X1183.19Y2379.19  ;
N2781 G1X1182.96Y2379.19  ;
N2782 G1X1182.94Y2379.19  ;
N2783 G1X1182.71Y2379.19  ;
N2784 G1X1182.53Y2379.66  ;
N2785 G1X1182.51Y2379.69  ;
N2786 G1X1182.33Y2380.16  ;
N2787 G1X1181.69Y2380.16  ;
N2788 G1X1181.64Y2380.16  ;
N2789 G1X1180.99Y2380.16  ;
N2790 G1X1180.82Y2379.69  ;
N2791 G1X1180.81Y2379.65  ;
N2792 G1X1180.64Y2379.18  ;
N2793 G1X1180.42Y2379.18  ;
N2794 G1X1180.41Y2379.18  ;
N2795 G1X1180.19Y2379.18  ;
N2796 G65 P9104 A102 B04  ;
N2797 G0X1181.11Y2380.5  ;
N2798 G65 P9102 A102 B04  ;
N2799 G1X1181.64Y2380.5  ;
N2800 G1X1181.68Y2380.5  ;
N2801 G1X1182.2Y2380.5  ;
N2802 G1X1182.04Y2380.93  ;
N2803 G1X1182.03Y2380.96  ;
N2804 G1X1181.86Y2381.39  ;
N2805 G1X1181.77Y2381.64  ;
N2806 G1X1181.69Y2381.87  ;
N2807 G1X1181.63Y2382.06  ;
N2808 G1X1181.59Y2381.85  ;
N2809 G1X1181.53Y2381.65  ;
N2810 G1X1181.46Y2381.44  ;
N2811 G1X1181.29Y2380.99  ;
N2812 G1X1181.28Y2380.96  ;
N2813 G1X1181.11Y2380.5  ;
N2814 G65 P9104 A102 B04  ;
N2815 G0X1183.39Y2381.48  ;
N2816 G65 P9102 A102 B04  ;
N2817 G1X1183.44Y2381.75  ;
N2818 G1X1183.54Y2381.98  ;
N2819 G1X1183.7Y2382.17  ;
N2820 G1X1183.9Y2382.3  ;
N2821 G1X1184.14Y2382.38  ;
N2822 G1X1184.43Y2382.41  ;
N2823 G1X1184.71Y2382.38  ;
N2824 G1X1184.95Y2382.29  ;
N2825 G1X1185.16Y2382.15  ;
N2826 G1X1185.31Y2381.97  ;
N2827 G1X1185.4Y2381.76  ;
N2828 G1X1185.43Y2381.52  ;
N2829 G1X1185.42Y2381.39  ;
N2830 G1X1185.39Y2381.26  ;
N2831 G1X1185.35Y2381.14  ;
N2832 G1X1185.29Y2381.01  ;
N2833 G1X1185.2Y2380.88  ;
N2834 G1X1185.09Y2380.75  ;
N2835 G1X1184.94Y2380.59  ;
N2836 G1X1184.74Y2380.4  ;
N2837 G1X1184.48Y2380.18  ;
N2838 G1X1184.27Y2380.01  ;
N2839 G1X1184.12Y2379.87  ;
N2840 G1X1184.03Y2379.78  ;
N2841 G1X1183.97Y2379.71  ;
N2842 G1X1183.91Y2379.64  ;
N2843 G1X1183.86Y2379.56  ;
N2844 G1X1184.62Y2379.56  ;
N2845 G1X1184.68Y2379.56  ;
N2846 G1X1185.43Y2379.57  ;
N2847 G1X1185.43Y2379.38  ;
N2848 G1X1185.43Y2379.37  ;
N2849 G1X1185.43Y2379.19  ;
N2850 G1X1184.41Y2379.19  ;
N2851 G1X1184.34Y2379.19  ;
N2852 G1X1183.32Y2379.18  ;
N2853 G1X1183.32Y2379.28  ;
N2854 G1X1183.34Y2379.37  ;
N2855 G1X1183.36Y2379.46  ;
N2856 G1X1183.43Y2379.6  ;
N2857 G1X1183.51Y2379.74  ;
N2858 G1X1183.62Y2379.88  ;
N2859 G1X1183.76Y2380.03  ;
N2860 G1X1183.93Y2380.19  ;
N2861 G1X1184.13Y2380.37  ;
N2862 G1X1184.44Y2380.64  ;
N2863 G1X1184.68Y2380.86  ;
N2864 G1X1184.84Y2381.05  ;
N2865 G1X1184.94Y2381.22  ;
N2866 G1X1185Y2381.37  ;
N2867 G1X1185.02Y2381.53  ;
N2868 G1X1185Y2381.67  ;
N2869 G1X1184.95Y2381.8  ;
N2870 G1X1184.86Y2381.92  ;
N2871 G1X1184.73Y2382.01  ;
N2872 G1X1184.59Y2382.06  ;
N2873 G1X1184.42Y2382.08  ;
N2874 G1X1184.24Y2382.06  ;
N2875 G1X1184.09Y2382  ;
N2876 G1X1183.96Y2381.91  ;
N2877 G1X1183.87Y2381.78  ;
N2878 G1X1183.81Y2381.62  ;
N2879 G1X1183.79Y2381.43  ;
N2880 G1X1183.6Y2381.45  ;
N2881 G1X1183.58Y2381.46  ;
N2882 G1X1183.39Y2381.48  ;
N2883 G65 P9104 A102 B04  ;
N2884 G0X1186.11Y2380.31  ;
N2885 G65 P9102 A102 B04  ;
N2886 G1X1186.6Y2380.31  ;
N2887 G1X1186.63Y2380.31  ;
N2888 G1X1187.12Y2380.32  ;
N2889 G1X1187.12Y2381.01  ;
N2890 G1X1187.12Y2381.06  ;
N2891 G1X1187.12Y2381.76  ;
N2892 G1X1186.63Y2381.06  ;
N2893 G1X1186.6Y2381.01  ;
N2894 G1X1186.11Y2380.31  ;
N2895 G65 P9104 A102 B04  ;
N2896 G0X1185.73Y2380.31  ;
N2897 G65 P9102 A102 B04  ;
N2898 G1X1186.43Y2381.31  ;
N2899 G1X1186.48Y2381.39  ;
N2900 G1X1187.19Y2382.39  ;
N2901 G1X1187.34Y2382.39  ;
N2902 G1X1187.35Y2382.39  ;
N2903 G1X1187.51Y2382.39  ;
N2904 G1X1187.51Y2381.39  ;
N2905 G1X1187.51Y2381.32  ;
N2906 G1X1187.51Y2380.32  ;
N2907 G1X1187.72Y2380.32  ;
N2908 G1X1187.74Y2380.32  ;
N2909 G1X1187.94Y2380.32  ;
N2910 G1X1187.94Y2380.14  ;
N2911 G1X1187.94Y2380.13  ;
N2912 G1X1187.94Y2379.96  ;
N2913 G1X1187.74Y2379.96  ;
N2914 G1X1187.72Y2379.96  ;
N2915 G1X1187.51Y2379.96  ;
N2916 G1X1187.51Y2379.59  ;
N2917 G1X1187.51Y2379.56  ;
N2918 G1X1187.51Y2379.19  ;
N2919 G1X1187.32Y2379.19  ;
N2920 G1X1187.31Y2379.19  ;
N2921 G1X1187.12Y2379.19  ;
N2922 G1X1187.12Y2379.56  ;
N2923 G1X1187.12Y2379.58  ;
N2924 G1X1187.12Y2379.95  ;
N2925 G1X1186.45Y2379.95  ;
N2926 G1X1186.4Y2379.95  ;
N2927 G1X1185.73Y2379.95  ;
N2928 G1X1185.73Y2380.13  ;
N2929 G1X1185.73Y2380.14  ;
N2930 G1X1185.73Y2380.31  ;
N2931 G65 P9104 A101 B02  ;
N2932 G0X1168.64Y2369.76  ;
N2933 G65 P9102 A101 B02  ;
N2934 G1X1172.14Y2373.26  ;
N2935 G3X1172.18Y2373.22I-3.64J-3.71  ;
N2936 G65 P9104 A101 B01  ;
N2937 G0X1122.5Y2369.6  ;
N2938 G65 P9102 A101 B01  ;
N2939 G1X1126.45Y2369.6  ;
N2940 G3X1126.45Y2369.55I-19.95J-0.05  ;
N2941 G65 P9104 A101 B02  ;
N2942 G0X1044.64Y2369.76  ;
N2943 G65 P9102 A101 B02  ;
N2944 G1X1048.14Y2373.26  ;
N2945 G3X1048.18Y2373.22I-3.64J-3.71  ;
N2946 G65 P9104 A101 B01  ;
N2947 G0X1021.45Y2273.5  ;
N2948 G65 P9102 A101 B01  ;
N2949 G1X1021.45Y2277.5  ;
N2950 G1X1021.45Y2289.7  ;
N2951 G1X1017.45Y2289.7  ;
N2952 G1X1017.45Y2299.3  ;
N2953 G1X1021.45Y2299.3  ;
N2954 G1X1021.45Y2306.55  ;
N2955 G1X1024.5Y2306.55  ;
N2956 G3X1026.45Y2308.5I0J1.95  ;
N2957 G1X1026.45Y2329.5  ;
N2958 G3X1024.5Y2331.45I-1.95J0  ;
N2959 G1X1021.45Y2331.45  ;
N2960 G1X1021.45Y2377.25  ;
N2961 G1X1017.45Y2377.25  ;
N2962 G1X1017.45Y2386.85  ;
N2963 G1X1021.45Y2386.85  ;
N2964 G1X1021.45Y2427.07  ;
N2965 G1X1031.48Y2437.1  ;
N2966 G1X1181.52Y2437.1  ;
N2967 G1X1191.55Y2427.07  ;
N2968 G1X1191.55Y2386.85  ;
N2969 G1X1195.55Y2386.85  ;
N2970 G1X1195.55Y2377.25  ;
N2971 G1X1191.55Y2377.25  ;
N2972 G1X1191.55Y2331.45  ;
N2973 G1X1188.5Y2331.45  ;
N2974 G3X1186.55Y2329.5I0J-1.95  ;
N2975 G1X1186.55Y2308.5  ;
N2976 G3X1188.5Y2306.55I1.95J0  ;
N2977 G1X1191.55Y2306.55  ;
N2978 G1X1191.55Y2299.3  ;
N2979 G1X1195.55Y2299.3  ;
N2980 G1X1195.55Y2289.7  ;
N2981 G1X1191.55Y2289.7  ;
N2982 G1X1191.55Y2277.45  ;
N2983 G1X1021.5Y2277.45  ;
N2984 G65 P9104 A102 B04  ;
N2985 M98 P9103  ;
(P23:ID10:W56240407)  ;
N2986 M98 P9101  ;
N2987 G0X1065.85Y2654.97  ;
N2988 G65 P9102 A102 B04  ;
N2989 G1X1061.2Y2663.02  ;
N2990 G1X1065.85Y2671.07  ;
N2991 G1X1075.15Y2671.07  ;
N2992 G1X1079.8Y2663.02  ;
N2993 G1X1075.15Y2654.97  ;
N2994 G1X1065.85Y2654.97  ;
N2995 G65 P9104 A102 B04  ;
N2996 G0X1166.2Y2646.52  ;
N2997 G65 P9102 A102 B04  ;
N2998 G1X1170.85Y2654.57  ;
N2999 G1X1180.15Y2654.57  ;
N3000 G1X1184.8Y2646.52  ;
N3001 G1X1180.15Y2638.47  ;
N3002 G1X1170.85Y2638.47  ;
N3003 G1X1166.2Y2646.52  ;
N3004 G65 P9104 A101 B02  ;
N3005 G0X1177.76Y2648.85  ;
N3006 G65 P9102 A101 B02  ;
N3007 G1X1179.85Y2650.94  ;
N3008 G3X1179.88Y2650.91I-4.35J-4.42  ;
N3009 G65 P9104 A101 B01  ;
N3010 G0X1115.75Y2633.02  ;
N3011 G65 P9102 A101 B01  ;
N3012 G1X1115.85Y2637.97  ;
N3013 G3X1095.55Y2618.02I-0.35J-19.95  ;
N3014 G1X1095.55Y2518.02  ;
N3015 G3X1135.45Y2518.02I19.95J0  ;
N3016 G1X1135.45Y2618.02  ;
N3017 G3X1116.54Y2637.94I-19.95J0  ;
N3018 G65 P9104 A101 B02  ;
N3019 G0X1072.76Y2665.35  ;
N3020 G65 P9102 A101 B02  ;
N3021 G1X1074.85Y2667.44  ;
N3022 G3X1074.88Y2667.41I-4.35J-4.42  ;
N3023 G65 P9104 A101 B01  ;
N3024 G0X1039.49Y2441.52  ;
N3025 G65 P9102 A101 B01  ;
N3026 G1X1039.49Y2446.47  ;
N3027 G1X1045.55Y2446.47  ;
N3028 G1X1045.55Y2449.47  ;
N3029 G1X1185.45Y2449.47  ;
N3030 G1X1185.45Y2446.47  ;
N3031 G1X1195.55Y2446.47  ;
N3032 G1X1195.55Y2686.57  ;
N3033 G1X1035.45Y2686.57  ;
N3034 G1X1035.45Y2446.47  ;
N3035 G1X1038.79Y2446.47  ;
N3036 G65 P9104 A102 B04  ;
N3037 M98 P9103  ;
(P24:ID12:W56240411B)  ;
N3038 M98 P9101  ;
N3039 G0X961.5Y2511.02  ;
N3040 G65 P9102 A102 B04  ;
N3041 G1X968.5Y2515.06  ;
N3042 G1X968.5Y2523.14  ;
N3043 G1X961.5Y2527.18  ;
N3044 G1X954.5Y2523.14  ;
N3045 G1X954.5Y2515.06  ;
N3046 G1X961.5Y2511.02  ;
N3047 G65 P9104 A102 B04  ;
N3048 G0X947.5Y2547.52  ;
N3049 G65 P9102 A102 B04  ;
N3050 G1X954.5Y2551.56  ;
N3051 G1X954.5Y2559.64  ;
N3052 G1X947.5Y2563.68  ;
N3053 G1X940.5Y2559.64  ;
N3054 G1X940.5Y2551.56  ;
N3055 G1X947.5Y2547.52  ;
N3056 G65 P9104 A102 B04  ;
N3057 G0X977.5Y2607.52  ;
N3058 G65 P9102 A102 B04  ;
N3059 G1X984.5Y2611.56  ;
N3060 G1X984.5Y2619.64  ;
N3061 G1X977.5Y2623.68  ;
N3062 G1X970.5Y2619.64  ;
N3063 G1X970.5Y2611.56  ;
N3064 G1X977.5Y2607.52  ;
N3065 G65 P9104 A101 B02  ;
N3066 G0X977.64Y2615.81  ;
N3067 G65 P9102 A101 B02  ;
N3068 G1X981.14Y2619.31  ;
N3069 G3X981.18Y2619.28I-3.64J-3.71  ;
N3070 G65 P9104 A101 B02  ;
N3071 G0X947.64Y2555.81  ;
N3072 G65 P9102 A101 B02  ;
N3073 G1X951.14Y2559.31  ;
N3074 G3X951.18Y2559.28I-3.64J-3.71  ;
N3075 G65 P9104 A101 B02  ;
N3076 G0X963.6Y2537.65  ;
N3077 G65 P9102 A101 B02  ;
N3078 G1X967.55Y2537.65  ;
N3079 G1X967.55Y2539.65  ;
N3080 G1X957.45Y2539.65  ;
N3081 G1X957.45Y2535.55  ;
N3082 G1X967.55Y2535.55  ;
N3083 G1X967.55Y2537.6  ;
N3084 G65 P9104 A101 B02  ;
N3085 G0X961.64Y2519.31  ;
N3086 G65 P9102 A101 B02  ;
N3087 G1X965.14Y2522.81  ;
N3088 G3X965.18Y2522.78I-3.64J-3.71  ;
N3089 G65 P9104 A101 B01  ;
N3090 G0X983.5Y2397.55  ;
N3091 G65 P9102 A101 B01  ;
N3092 G1X987.5Y2397.55  ;
N3093 G1X997.55Y2397.55  ;
N3094 G1X997.55Y2409.6  ;
N3095 G2X1002.5Y2414.55I4.95J0  ;
N3096 G1X1012.55Y2414.55  ;
N3097 G1X1012.55Y2620.65  ;
N3098 G1X1002.5Y2620.65  ;
N3099 G2X997.55Y2625.6I0J4.95  ;
N3100 G1X997.55Y2635.65  ;
N3101 G1X948.24Y2635.65  ;
N3102 G3X939.56Y2630.66I0J-10.05  ;
N3103 G1X910.18Y2580.3  ;
N3104 G3X907.45Y2570.19I17.32J-10.11  ;
N3105 G1X907.45Y2442.88  ;
N3106 G3X913.32Y2428.71I20.05J0  ;
N3107 G1X936.61Y2405.42  ;
N3108 G3X950.78Y2399.55I14.17J14.18  ;
N3109 G1X987.45Y2399.55  ;
N3110 G1X987.45Y2397.6  ;
N3111 G65 P9104 A102 B04  ;
N3112 M98 P9103  ;
(P25:ID7:W56240408)  ;
N3113 M98 P9101  ;
N3114 G0X825.2Y2769.11  ;
N3115 G65 P9102 A102 B04  ;
N3116 G1X825.2Y2770.54  ;
N3117 G65 P9104 A102 B04  ;
N3118 G0X821.62Y2770.54  ;
N3119 G65 P9102 A102 B04  ;
N3120 G1X823.41Y2774.11  ;
N3121 G1X825.2Y2770.54  ;
N3122 G1X821.62Y2770.54  ;
N3123 G65 P9104 A102 B04  ;
N3124 G0X821.62Y2769.11  ;
N3125 G65 P9102 A102 B04  ;
N3126 G1X821.62Y2770.54  ;
N3127 G65 P9104 A102 B04  ;
N3128 G0X820.46Y2771.25  ;
N3129 G65 P9102 A102 B04  ;
N3130 G1X817.61Y2771.25  ;
N3131 G65 P9104 A102 B04  ;
N3132 G0X817.61Y2769.11  ;
N3133 G65 P9102 A102 B04  ;
N3134 G1X817.61Y2774.11  ;
N3135 G1X820.46Y2774.11  ;
N3136 G1X821.18Y2773.39  ;
N3137 G1X821.18Y2771.96  ;
N3138 G1X820.46Y2771.25  ;
N3139 G1X821.18Y2770.54  ;
N3140 G1X821.18Y2769.82  ;
N3141 G1X820.46Y2769.11  ;
N3142 G1X817.61Y2769.11  ;
N3143 G65 P9104 A102 B04  ;
N3144 G0X817.16Y2769.11  ;
N3145 G65 P9102 A102 B04  ;
N3146 G1X815.73Y2769.11  ;
N3147 G65 P9104 A102 B04  ;
N3148 G0X815.29Y2769.11  ;
N3149 G65 P9102 A102 B04  ;
N3150 G1X813.14Y2771.25  ;
N3151 G65 P9104 A102 B04  ;
N3152 G0X811.71Y2771.25  ;
N3153 G65 P9102 A102 B04  ;
N3154 G1X814.57Y2771.25  ;
N3155 G1X815.29Y2771.96  ;
N3156 G1X815.29Y2773.39  ;
N3157 G1X814.57Y2774.11  ;
N3158 G1X811.71Y2774.11  ;
N3159 G1X811.71Y2769.11  ;
N3160 G65 P9104 A102 B04  ;
N3161 G0X811.27Y2769.11  ;
N3162 G65 P9102 A102 B04  ;
N3163 G1X809.12Y2771.25  ;
N3164 G65 P9104 A102 B04  ;
N3165 G0X807.7Y2771.25  ;
N3166 G65 P9102 A102 B04  ;
N3167 G1X810.55Y2771.25  ;
N3168 G1X811.27Y2771.96  ;
N3169 G1X811.27Y2773.39  ;
N3170 G1X810.55Y2774.11  ;
N3171 G1X807.7Y2774.11  ;
N3172 G1X807.7Y2769.11  ;
N3173 G65 P9104 A102 B04  ;
N3174 G0X807.25Y2769.11  ;
N3175 G65 P9102 A102 B04  ;
N3176 G1X807.25Y2770.54  ;
N3177 G65 P9104 A102 B04  ;
N3178 G0X803.68Y2770.54  ;
N3179 G65 P9102 A102 B04  ;
N3180 G1X805.46Y2774.11  ;
N3181 G1X807.25Y2770.54  ;
N3182 G1X803.68Y2770.54  ;
N3183 G65 P9104 A102 B04  ;
N3184 G0X803.68Y2769.11  ;
N3185 G65 P9102 A102 B04  ;
N3186 G1X803.68Y2770.54  ;
N3187 G65 P9104 A102 B04  ;
N3188 G0X816.45Y2769.11  ;
N3189 G65 P9102 A102 B04  ;
N3190 G1X816.45Y2774.11  ;
N3191 G65 P9104 A102 B04  ;
N3192 G0X817.16Y2774.11  ;
N3193 G65 P9102 A102 B04  ;
N3194 G1X815.73Y2774.11  ;
N3195 G65 P9104 A102 B04  ;
N3196 G0X846.04Y2800.36  ;
N3197 G65 P9102 A102 B04  ;
N3198 G1X842.47Y2802.14  ;
N3199 G1X846.04Y2803.93  ;
N3200 G1X846.04Y2800.36  ;
N3201 G1X847.47Y2800.36  ;
N3202 G65 P9104 A102 B04  ;
N3203 G0X847.47Y2803.93  ;
N3204 G65 P9102 A102 B04  ;
N3205 G1X846.04Y2803.93  ;
N3206 G65 P9104 A102 B04  ;
N3207 G0X846.04Y2804.37  ;
N3208 G65 P9102 A102 B04  ;
N3209 G1X842.47Y2806.16  ;
N3210 G1X846.04Y2807.95  ;
N3211 G1X846.04Y2804.37  ;
N3212 G1X847.47Y2804.37  ;
N3213 G65 P9104 A102 B04  ;
N3214 G0X847.47Y2807.95  ;
N3215 G65 P9102 A102 B04  ;
N3216 G1X846.04Y2807.95  ;
N3217 G65 P9104 A102 B04  ;
N3218 G0X843.19Y2808.39  ;
N3219 G65 P9102 A102 B04  ;
N3220 G1X842.47Y2809.11  ;
N3221 G1X842.47Y2811.25  ;
N3222 G1X843.19Y2811.96  ;
N3223 G1X844.61Y2811.96  ;
N3224 G1X845.33Y2811.25  ;
N3225 G1X845.33Y2809.11  ;
N3226 G1X846.04Y2808.39  ;
N3227 G1X847.47Y2808.39  ;
N3228 G1X847.47Y2811.25  ;
N3229 G1X846.76Y2811.96  ;
N3230 G65 P9104 A102 B04  ;
N3231 G0X847.47Y2815.27  ;
N3232 G65 P9102 A102 B04  ;
N3233 G1X845.33Y2815.27  ;
N3234 G65 P9104 A102 B04  ;
N3235 G0X846.04Y2815.98  ;
N3236 G65 P9102 A102 B04  ;
N3237 G1X846.04Y2812.41  ;
N3238 G1X842.47Y2815.27  ;
N3239 G65 P9104 A101 B01  ;
N3240 G0X829.21Y2638.13  ;
N3241 G65 P9102 A101 B01  ;
N3242 G1X833.21Y2638.3  ;
N3243 G2X833.47Y2638.05I0.01J-0.25  ;
N3244 G2X826.02Y2630.6I-7.45J0  ;
N3245 G1X801.02Y2630.6  ;
N3246 G2X801.02Y2645.5I0J7.45  ;
N3247 G1X826.02Y2645.5  ;
N3248 G2X833.47Y2638.05I0J-7.45  ;
N3249 G65 P9104 A101 B01  ;
N3250 G0X771.02Y2451.55  ;
N3251 G65 P9102 A101 B01  ;
N3252 G1X776.02Y2451.55  ;
N3253 G1X851.07Y2451.55  ;
N3254 G1X851.07Y2821.25  ;
N3255 G1X775.97Y2821.25  ;
N3256 G1X775.97Y2452.25  ;
N3257 G65 P9104 A102 B04  ;
N3258 M98 P9103  ;
(P26:ID12:W56240411B)  ;
N3259 M98 P9101  ;
N3260 G0X975.5Y2757.72  ;
N3261 G65 P9102 A102 B04  ;
N3262 G1X982.5Y2761.76  ;
N3263 G1X982.5Y2769.84  ;
N3264 G1X975.5Y2773.88  ;
N3265 G1X968.5Y2769.84  ;
N3266 G1X968.5Y2761.76  ;
N3267 G1X975.5Y2757.72  ;
N3268 G65 P9104 A102 B04  ;
N3269 G0X961.5Y2794.22  ;
N3270 G65 P9102 A102 B04  ;
N3271 G1X968.5Y2798.26  ;
N3272 G1X968.5Y2806.34  ;
N3273 G1X961.5Y2810.38  ;
N3274 G1X954.5Y2806.34  ;
N3275 G1X954.5Y2798.26  ;
N3276 G1X961.5Y2794.22  ;
N3277 G65 P9104 A102 B04  ;
N3278 G0X991.5Y2854.22  ;
N3279 G65 P9102 A102 B04  ;
N3280 G1X998.5Y2858.26  ;
N3281 G1X998.5Y2866.34  ;
N3282 G1X991.5Y2870.38  ;
N3283 G1X984.5Y2866.34  ;
N3284 G1X984.5Y2858.26  ;
N3285 G1X991.5Y2854.22  ;
N3286 G65 P9104 A101 B02  ;
N3287 G0X991.64Y2862.51  ;
N3288 G65 P9102 A101 B02  ;
N3289 G1X995.14Y2866.01  ;
N3290 G3X995.18Y2865.98I-3.64J-3.71  ;
N3291 G65 P9104 A101 B02  ;
N3292 G0X961.64Y2802.51  ;
N3293 G65 P9102 A101 B02  ;
N3294 G1X965.14Y2806.01  ;
N3295 G3X965.18Y2805.98I-3.64J-3.71  ;
N3296 G65 P9104 A101 B02  ;
N3297 G0X977.6Y2784.35  ;
N3298 G65 P9102 A101 B02  ;
N3299 G1X981.55Y2784.35  ;
N3300 G1X981.55Y2786.35  ;
N3301 G1X971.45Y2786.35  ;
N3302 G1X971.45Y2782.25  ;
N3303 G1X981.55Y2782.25  ;
N3304 G1X981.55Y2784.3  ;
N3305 G65 P9104 A101 B02  ;
N3306 G0X975.64Y2766.01  ;
N3307 G65 P9102 A101 B02  ;
N3308 G1X979.14Y2769.51  ;
N3309 G3X979.18Y2769.48I-3.64J-3.71  ;
N3310 G65 P9104 A101 B01  ;
N3311 G0X997.5Y2644.25  ;
N3312 G65 P9102 A101 B01  ;
N3313 G1X1001.5Y2644.25  ;
N3314 G1X1011.55Y2644.25  ;
N3315 G1X1011.55Y2656.3  ;
N3316 G2X1016.5Y2661.25I4.95J0  ;
N3317 G1X1026.55Y2661.25  ;
N3318 G1X1026.55Y2867.35  ;
N3319 G1X1016.5Y2867.35  ;
N3320 G2X1011.55Y2872.3I0J4.95  ;
N3321 G1X1011.55Y2882.35  ;
N3322 G1X962.24Y2882.35  ;
N3323 G3X953.56Y2877.36I0J-10.05  ;
N3324 G1X924.18Y2827  ;
N3325 G3X921.45Y2816.89I17.32J-10.11  ;
N3326 G1X921.45Y2689.58  ;
N3327 G3X927.32Y2675.41I20.05J0  ;
N3328 G1X950.61Y2652.12  ;
N3329 G3X964.78Y2646.25I14.17J14.18  ;
N3330 G1X1001.45Y2646.25  ;
N3331 G1X1001.45Y2644.3  ;
N3332 G65 P9104 A102 B04  ;
N3333 M98 P9103  ;
(P27:ID13:W56240405)  ;
N3334 M98 P9101  ;
N3335 G0X1649.13Y2237  ;
N3336 G65 P9102 A102 B04  ;
N3337 G1X1649.13Y2247  ;
N3338 G1X1645.13Y2247  ;
N3339 G1X1645.13Y2237  ;
N3340 G65 P9104 A102 B04  ;
N3341 G0X1645.13Y2827  ;
N3342 G65 P9102 A102 B04  ;
N3343 G1X1645.13Y2817  ;
N3344 G1X1649.13Y2817  ;
N3345 G1X1649.13Y2827  ;
N3346 G65 P9104 A102 B04  ;
N3347 G0X1710.13Y2888  ;
N3348 G65 P9102 A102 B04  ;
N3349 G1X1720.13Y2888  ;
N3350 G1X1720.13Y2892  ;
N3351 G1X1710.13Y2892  ;
N3352 G65 P9104 A101 B02  ;
N3353 G0X1211.35Y2902.95  ;
N3354 G65 P9102 A101 B02  ;
N3355 G1X1209.85Y2905.55  ;
N3356 G2X1210.2Y2906.85I0.82J0.48  ;
N3357 G1X1213Y2908.47  ;
N3358 G1X1218.6Y2905.23  ;
N3359 G1X1218.6Y2898.77  ;
N3360 G1X1213Y2895.53  ;
N3361 G1X1207.4Y2898.77  ;
N3362 G1X1207.4Y2905.23  ;
N3363 G1X1210.2Y2906.85  ;
N3364 G65 P9104 A101 B02  ;
N3365 G0X1261.19Y2557  ;
N3366 G65 P9102 A101 B02  ;
N3367 G1X1258.59Y2558.5  ;
N3368 G2X1258.24Y2559.8I0.47J0.82  ;
N3369 G1X1259.86Y2562.6  ;
N3370 G1X1266.32Y2562.6  ;
N3371 G1X1269.56Y2557  ;
N3372 G1X1266.32Y2551.4  ;
N3373 G1X1259.86Y2551.4  ;
N3374 G1X1256.62Y2557  ;
N3375 G1X1258.24Y2559.8  ;
N3376 G65 P9104 A101 B02  ;
N3377 G0X1261.19Y2507  ;
N3378 G65 P9102 A101 B02  ;
N3379 G1X1258.59Y2508.5  ;
N3380 G2X1258.24Y2509.8I0.47J0.82  ;
N3381 G1X1259.86Y2512.6  ;
N3382 G1X1266.32Y2512.6  ;
N3383 G1X1269.56Y2507  ;
N3384 G1X1266.32Y2501.4  ;
N3385 G1X1259.86Y2501.4  ;
N3386 G1X1256.62Y2507  ;
N3387 G1X1258.24Y2509.8  ;
N3388 G65 P9104 A101 B02  ;
N3389 G0X1281.03Y2241.51  ;
N3390 G65 P9102 A101 B02  ;
N3391 G1X1278.43Y2243.01  ;
N3392 G2X1278.08Y2244.31I0.48J0.83  ;
N3393 G1X1279.42Y2246.62  ;
N3394 G1X1284.76Y2246.62  ;
N3395 G1X1287.43Y2242  ;
N3396 G1X1284.76Y2237.37  ;
N3397 G1X1279.42Y2237.37  ;
N3398 G1X1276.75Y2242  ;
N3399 G1X1278.08Y2244.31  ;
N3400 G65 P9104 A101 B02  ;
N3401 G0X1281.03Y2223.51  ;
N3402 G65 P9102 A101 B02  ;
N3403 G1X1278.43Y2225.01  ;
N3404 G2X1278.08Y2226.31I0.48J0.83  ;
N3405 G1X1279.42Y2228.62  ;
N3406 G1X1284.76Y2228.62  ;
N3407 G1X1287.43Y2224  ;
N3408 G1X1284.76Y2219.37  ;
N3409 G1X1279.42Y2219.37  ;
N3410 G1X1276.75Y2224  ;
N3411 G1X1278.08Y2226.31  ;
N3412 G65 P9104 A101 B02  ;
N3413 G0X1211.35Y2162.95  ;
N3414 G65 P9102 A101 B02  ;
N3415 G1X1209.85Y2165.55  ;
N3416 G2X1210.2Y2166.85I0.82J0.48  ;
N3417 G1X1213Y2168.47  ;
N3418 G1X1218.6Y2165.23  ;
N3419 G1X1218.6Y2158.77  ;
N3420 G1X1213Y2155.53  ;
N3421 G1X1207.4Y2158.77  ;
N3422 G1X1207.4Y2165.23  ;
N3423 G1X1210.2Y2166.85  ;
N3424 G65 P9104 A101 B01  ;
N3425 G0X1710.13Y2172  ;
N3426 G65 P9102 A101 B01  ;
N3427 G1X1720.13Y2172  ;
N3428 G1X1720.13Y2176  ;
N3429 G1X1710.13Y2176  ;
N3430 G65 P9104 A101 B01  ;
N3431 G0X1995.12Y2125  ;
N3432 G65 P9102 A101 B01  ;
N3433 G1X1995.12Y2128  ;
N3434 G1X1995.12Y2936.05  ;
N3435 G1X1738.63Y2936.05  ;
N3436 G1X1738.63Y2931.05  ;
N3437 G1X1408.59Y2931.05  ;
N3438 G2X1402.64Y2937I0J5.95  ;
N3439 G1X1402.64Y2997  ;
N3440 G3X1396.59Y3003.05I-6.05J0  ;
N3441 G1X1242.04Y3003.05  ;
N3442 G1X1242.04Y2998.05  ;
N3443 G1X1221.05Y2998.05  ;
N3444 G1X1221.05Y3003.05  ;
N3445 G1X1204.95Y3003.05  ;
N3446 G1X1204.95Y2060.95  ;
N3447 G1X1221.05Y2060.95  ;
N3448 G1X1221.05Y2065.95  ;
N3449 G1X1242.04Y2065.95  ;
N3450 G1X1242.04Y2060.95  ;
N3451 G1X1396.59Y2060.95  ;
N3452 G3X1402.64Y2067I0J6.05  ;
N3453 G1X1402.64Y2127  ;
N3454 G2X1408.59Y2132.95I5.95J0  ;
N3455 G1X1738.63Y2132.95  ;
N3456 G1X1738.63Y2127.95  ;
N3457 G1X1995.07Y2127.95  ;
N3458 G65 P9104 A101 B01  ;
N3459 M98 P9103  ;
(P28:ID9:W56240422)  ;
N3460 M98 P9101  ;
N3461 G0X1870.14Y3010  ;
N3462 G65 P9102 A101 B01  ;
N3463 G1X1870.14Y3005.05  ;
N3464 G1X1880.5Y3005.05  ;
N3465 G3X1885.45Y3010I0J4.95  ;
N3466 G1X1885.45Y3015.05  ;
N3467 G1X1940.55Y3015.05  ;
N3468 G1X1940.55Y2939.95  ;
N3469 G1X1875.45Y2939.95  ;
N3470 G1X1875.45Y2966.56  ;
N3471 G1X1862.55Y2966.56  ;
N3472 G1X1862.55Y2939.95  ;
N3473 G1X1797.45Y2939.95  ;
N3474 G1X1797.45Y3015.05  ;
N3475 G1X1852.55Y3015.05  ;
N3476 G1X1852.55Y3010  ;
N3477 G3X1857.5Y3005.05I4.95J0  ;
N3478 G1X1869.49Y3005.05  ;
N3479 G65 P9104 A101 B01  ;
N3480 M98 P9103  ;
(P29:ID9:W56240422)  ;
N3481 M98 P9101  ;
N3482 G0X1723.14Y3010  ;
N3483 G65 P9102 A101 B01  ;
N3484 G1X1723.14Y3005.05  ;
N3485 G1X1733.5Y3005.05  ;
N3486 G3X1738.45Y3010I0J4.95  ;
N3487 G1X1738.45Y3015.05  ;
N3488 G1X1793.55Y3015.05  ;
N3489 G1X1793.55Y2939.95  ;
N3490 G1X1728.45Y2939.95  ;
N3491 G1X1728.45Y2966.56  ;
N3492 G1X1715.55Y2966.56  ;
N3493 G1X1715.55Y2939.95  ;
N3494 G1X1650.45Y2939.95  ;
N3495 G1X1650.45Y3015.05  ;
N3496 G1X1705.55Y3015.05  ;
N3497 G1X1705.55Y3010  ;
N3498 G3X1710.5Y3005.05I4.95J0  ;
N3499 G1X1722.49Y3005.05  ;
N3500 G65 P9104 A102 B04  ;
N3501 M98 P9103  ;
(P30:ID12:W56240411B)  ;
N3502 M98 P9101  ;
N3503 G0X1089.5Y2808.92  ;
N3504 G65 P9102 A102 B04  ;
N3505 G1X1096.5Y2812.96  ;
N3506 G1X1096.5Y2821.04  ;
N3507 G1X1089.5Y2825.08  ;
N3508 G1X1082.5Y2821.04  ;
N3509 G1X1082.5Y2812.96  ;
N3510 G1X1089.5Y2808.92  ;
N3511 G65 P9104 A102 B04  ;
N3512 G0X1075.5Y2845.42  ;
N3513 G65 P9102 A102 B04  ;
N3514 G1X1082.5Y2849.46  ;
N3515 G1X1082.5Y2857.54  ;
N3516 G1X1075.5Y2861.58  ;
N3517 G1X1068.5Y2857.54  ;
N3518 G1X1068.5Y2849.46  ;
N3519 G1X1075.5Y2845.42  ;
N3520 G65 P9104 A102 B04  ;
N3521 G0X1105.5Y2905.42  ;
N3522 G65 P9102 A102 B04  ;
N3523 G1X1112.5Y2909.46  ;
N3524 G1X1112.5Y2917.54  ;
N3525 G1X1105.5Y2921.58  ;
N3526 G1X1098.5Y2917.54  ;
N3527 G1X1098.5Y2909.46  ;
N3528 G1X1105.5Y2905.42  ;
N3529 G65 P9104 A101 B02  ;
N3530 G0X1105.64Y2913.71  ;
N3531 G65 P9102 A101 B02  ;
N3532 G1X1109.14Y2917.21  ;
N3533 G3X1109.18Y2917.18I-3.64J-3.71  ;
N3534 G65 P9104 A101 B02  ;
N3535 G0X1075.64Y2853.71  ;
N3536 G65 P9102 A101 B02  ;
N3537 G1X1079.14Y2857.21  ;
N3538 G3X1079.18Y2857.18I-3.64J-3.71  ;
N3539 G65 P9104 A101 B02  ;
N3540 G0X1091.6Y2835.55  ;
N3541 G65 P9102 A101 B02  ;
N3542 G1X1095.55Y2835.55  ;
N3543 G1X1095.55Y2837.55  ;
N3544 G1X1085.45Y2837.55  ;
N3545 G1X1085.45Y2833.45  ;
N3546 G1X1095.55Y2833.45  ;
N3547 G1X1095.55Y2835.5  ;
N3548 G65 P9104 A101 B02  ;
N3549 G0X1089.64Y2817.21  ;
N3550 G65 P9102 A101 B02  ;
N3551 G1X1093.14Y2820.71  ;
N3552 G3X1093.18Y2820.68I-3.64J-3.71  ;
N3553 G65 P9104 A101 B01  ;
N3554 G0X1111.5Y2695.45  ;
N3555 G65 P9102 A101 B01  ;
N3556 G1X1115.5Y2695.45  ;
N3557 G1X1125.55Y2695.45  ;
N3558 G1X1125.55Y2707.5  ;
N3559 G2X1130.5Y2712.45I4.95J0  ;
N3560 G1X1140.55Y2712.45  ;
N3561 G1X1140.55Y2918.55  ;
N3562 G1X1130.5Y2918.55  ;
N3563 G2X1125.55Y2923.5I0J4.95  ;
N3564 G1X1125.55Y2933.55  ;
N3565 G1X1076.24Y2933.55  ;
N3566 G3X1067.56Y2928.56I0J-10.05  ;
N3567 G1X1038.18Y2878.2  ;
N3568 G3X1035.45Y2868.09I17.32J-10.11  ;
N3569 G1X1035.45Y2740.78  ;
N3570 G3X1041.32Y2726.61I20.05J0  ;
N3571 G1X1064.61Y2703.32  ;
N3572 G3X1078.78Y2697.45I14.17J14.18  ;
N3573 G1X1115.45Y2697.45  ;
N3574 G1X1115.45Y2695.5  ;
N3575 G65 P9104 A102 B04  ;
N3576 M98 P9103  ;
(P31:ID14:W56240411A)  ;
N3577 M98 P9101  ;
N3578 G0X819.18Y2847.83  ;
N3579 G65 P9102 A102 B04  ;
N3580 G1X819.18Y2849.54  ;
N3581 G1X823.46Y2849.54  ;
N3582 G1X821.32Y2853.83  ;
N3583 G1X819.18Y2849.54  ;
N3584 G65 P9104 A102 B04  ;
N3585 G0X823.46Y2849.54  ;
N3586 G65 P9102 A102 B04  ;
N3587 G1X823.46Y2847.83  ;
N3588 G65 P9104 A102 B04  ;
N3589 G0X824Y2847.83  ;
N3590 G65 P9102 A102 B04  ;
N3591 G1X824Y2849.54  ;
N3592 G1X828.28Y2849.54  ;
N3593 G1X826.14Y2853.83  ;
N3594 G1X824Y2849.54  ;
N3595 G65 P9104 A102 B04  ;
N3596 G0X828.28Y2849.54  ;
N3597 G65 P9102 A102 B04  ;
N3598 G1X828.28Y2847.83  ;
N3599 G65 P9104 A102 B04  ;
N3600 G0X833.1Y2848.68  ;
N3601 G65 P9102 A102 B04  ;
N3602 G1X832.25Y2847.83  ;
N3603 G1X828.82Y2847.83  ;
N3604 G1X828.82Y2849.54  ;
N3605 G1X829.68Y2850.4  ;
N3606 G1X832.25Y2850.4  ;
N3607 G1X833.1Y2851.26  ;
N3608 G1X833.1Y2852.97  ;
N3609 G1X832.25Y2853.83  ;
N3610 G1X829.68Y2853.83  ;
N3611 G1X828.82Y2852.97  ;
N3612 G65 P9104 A102 B04  ;
N3613 G0X837.07Y2853.83  ;
N3614 G65 P9102 A102 B04  ;
N3615 G1X833.64Y2849.54  ;
N3616 G1X837.93Y2849.54  ;
N3617 G65 P9104 A102 B04  ;
N3618 G0X837.07Y2850.4  ;
N3619 G65 P9102 A102 B04  ;
N3620 G1X837.07Y2847.83  ;
N3621 G65 P9104 A101 B02  ;
N3622 G0X841.77Y2988.17  ;
N3623 G65 P9102 A101 B02  ;
N3624 G1X845.24Y2990.17  ;
N3625 G3X845.33Y2990.51I-0.13J0.21  ;
N3626 G1X843.72Y2993.3  ;
N3627 G1X837.28Y2993.3  ;
N3628 G1X834.06Y2987.72  ;
N3629 G1X837.28Y2982.15  ;
N3630 G1X843.72Y2982.15  ;
N3631 G1X846.94Y2987.72  ;
N3632 G1X845.33Y2990.51  ;
N3633 G65 P9104 A101 B02  ;
N3634 G0X829.27Y3009.44  ;
N3635 G65 P9102 A101 B02  ;
N3636 G1X830.05Y3011.33  ;
N3637 G1X834.67Y3009.42  ;
N3638 G1X833.1Y3005.63  ;
N3639 G1X823.77Y3009.5  ;
N3640 G1X825.34Y3013.29  ;
N3641 G1X830Y3011.35  ;
N3642 G65 P9104 A101 B02  ;
N3643 G0X811.77Y3048.17  ;
N3644 G65 P9102 A101 B02  ;
N3645 G1X815.24Y3050.17  ;
N3646 G3X815.33Y3050.51I-0.13J0.21  ;
N3647 G1X813.72Y3053.3  ;
N3648 G1X807.28Y3053.3  ;
N3649 G1X804.06Y3047.72  ;
N3650 G1X807.28Y3042.15  ;
N3651 G1X813.72Y3042.15  ;
N3652 G1X816.94Y3047.72  ;
N3653 G1X815.33Y3050.51  ;
N3654 G65 P9104 A101 B01  ;
N3655 G0X805.53Y2825.72  ;
N3656 G65 P9102 A101 B01  ;
N3657 G1X805.53Y2830.67  ;
N3658 G1X800.45Y2830.67  ;
N3659 G1X800.45Y2852.72  ;
N3660 G3X795.5Y2857.67I-4.95J0  ;
N3661 G1X775.45Y2857.67  ;
N3662 G1X775.45Y3042.77  ;
N3663 G1X785.5Y3042.77  ;
N3664 G3X790.45Y3047.72I0J4.95  ;
N3665 G1X790.45Y3067.77  ;
N3666 G1X816.21Y3067.77  ;
N3667 G2X824.04Y3064.02I0J-10.05  ;
N3668 G1X886.33Y2986.55  ;
N3669 G2X887.78Y2976.41I-7.84J-6.3  ;
N3670 G1X882.88Y2964.59  ;
N3671 G1X879.09Y2966.15  ;
N3672 G1X875.23Y2956.82  ;
N3673 G1X879.02Y2955.25  ;
N3674 G1X852.07Y2890.2  ;
N3675 G3X850.55Y2882.56I18.43J-7.64  ;
N3676 G1X850.55Y2852.72  ;
N3677 G2X830.5Y2832.67I-20.05J0  ;
N3678 G1X810.55Y2832.67  ;
N3679 G1X810.55Y2830.67  ;
N3680 G1X806.23Y2830.67  ;
N3681 G65 P9104 A102 B04  ;
N3682 M98 P9103  ;
(P32:ID14:W56240411A)  ;
N3683 M98 P9101  ;
N3684 G0X941.18Y2905.63  ;
N3685 G65 P9102 A102 B04  ;
N3686 G1X941.18Y2907.34  ;
N3687 G1X945.46Y2907.34  ;
N3688 G1X943.32Y2911.63  ;
N3689 G1X941.18Y2907.34  ;
N3690 G65 P9104 A102 B04  ;
N3691 G0X945.46Y2907.34  ;
N3692 G65 P9102 A102 B04  ;
N3693 G1X945.46Y2905.63  ;
N3694 G65 P9104 A102 B04  ;
N3695 G0X946Y2905.63  ;
N3696 G65 P9102 A102 B04  ;
N3697 G1X946Y2907.34  ;
N3698 G1X950.28Y2907.34  ;
N3699 G1X948.14Y2911.63  ;
N3700 G1X946Y2907.34  ;
N3701 G65 P9104 A102 B04  ;
N3702 G0X950.28Y2907.34  ;
N3703 G65 P9102 A102 B04  ;
N3704 G1X950.28Y2905.63  ;
N3705 G65 P9104 A102 B04  ;
N3706 G0X955.1Y2906.48  ;
N3707 G65 P9102 A102 B04  ;
N3708 G1X954.25Y2905.63  ;
N3709 G1X950.82Y2905.63  ;
N3710 G1X950.82Y2907.34  ;
N3711 G1X951.68Y2908.2  ;
N3712 G1X954.25Y2908.2  ;
N3713 G1X955.1Y2909.06  ;
N3714 G1X955.1Y2910.77  ;
N3715 G1X954.25Y2911.63  ;
N3716 G1X951.68Y2911.63  ;
N3717 G1X950.82Y2910.77  ;
N3718 G65 P9104 A102 B04  ;
N3719 G0X959.07Y2911.63  ;
N3720 G65 P9102 A102 B04  ;
N3721 G1X955.64Y2907.34  ;
N3722 G1X959.93Y2907.34  ;
