O0099  ;
( MACHINE : TCI Laser )  ;
( MATERIAL : Acero al carbono N2 )  ;
( THICKNESS : 3 )  ;
( REPETITIONS : 10 )  ;
( SIMULATION TIME : 00:36:47 )  ;
( FORMAT : 1500x3000 )  ;
( JOB NUMBER : VARS5630\K563372s30-3000 )  ;
( PROGRAM NUMBER : 10409 )  ;
( TYPE : 0 )  ;
( NUMBER OF SHEETS : 1 )  ;
( CUTTING HEADS : 1 )  ;
#516= 1  ;
#517= 1  ;
N105 G65 P9100 A103 B04  ;
(P1:ID1:W56197519)  ;
N106 M98 P9101  ;
N107 G0X790.1Y219.11  ;
N108 G65 P9102 A102 B04  ;
N109 G1X790.1Y227.89  ;
N110 G1X782.5Y232.28  ;
N111 G1X774.9Y227.89  ;
N112 G1X774.9Y219.11  ;
N113 G1X782.5Y214.72  ;
N114 G1X790.1Y219.11  ;
N115 G65 P9104 A102 B04  ;
N116 G0X799Y319.72  ;
N117 G65 P9102 A102 B04  ;
N118 G1X806.6Y324.11  ;
N119 G1X806.6Y332.89  ;
N120 G1X799Y337.28  ;
N121 G1X791.4Y332.89  ;
N122 G1X791.4Y324.11  ;
N123 G1X799Y319.72  ;
N124 G65 P9104 A101 B02  ;
N125 G0X798.01Y329.28  ;
N126 G65 P9102 A101 B02  ;
N127 G1X794.58Y332.71  ;
N128 G3X794.69Y332.81I4.42J-4.21  ;
N129 G65 P9104 A101 B01  ;
N130 G0X786.8Y268.59  ;
N131 G65 P9102 A101 B01  ;
N132 G1X782.8Y268.65  ;
N133 G3X782.65Y268.5I0J-0.15  ;
N134 G3X802.5Y248.65I19.85J0  ;
N135 G1X862.5Y248.65  ;
N136 G3X862.5Y288.35I0J19.85  ;
N137 G1X802.5Y288.35  ;
N138 G3X782.65Y268.5I0J-19.85  ;
N139 G65 P9104 A101 B02  ;
N140 G0X781.51Y224.28  ;
N141 G65 P9102 A101 B02  ;
N142 G1X778.08Y227.71  ;
N143 G3X778.19Y227.81I4.42J-4.21  ;
N144 G65 P9104 A101 B01  ;
N145 G0X913Y188.35  ;
N146 G65 P9102 A101 B01  ;
N147 G1X909Y188.35  ;
N148 G1X759.35Y188.35  ;
N149 G1X759.35Y348.65  ;
N150 G1X909.15Y348.65  ;
N151 G1X909.15Y343.6  ;
N152 G1X906.15Y343.6  ;
N153 G1X906.15Y193.4  ;
N154 G1X909.15Y193.4  ;
N155 G1X909.15Y188.5  ;
N156 G65 P9104 A101 B02  ;
N157 M98 P9103  ;
(P2:ID2:W56197520)  ;
N158 M98 P9101  ;
N159 G0X664.26Y233.55  ;
N160 G65 P9102 A101 B02  ;
N161 G1X660.79Y235.55  ;
N162 G2X660.74Y235.75I0.08J0.12  ;
N163 G1X662.32Y238.5  ;
N164 G1X668.68Y238.5  ;
N165 G1X671.85Y233  ;
N166 G1X668.68Y227.5  ;
N167 G1X662.32Y227.5  ;
N168 G1X659.15Y233  ;
N169 G1X660.74Y235.75  ;
N170 G65 P9104 A101 B02  ;
N171 G0X634.26Y233.55  ;
N172 G65 P9102 A101 B02  ;
N173 G1X630.79Y235.55  ;
N174 G2X630.74Y235.75I0.08J0.12  ;
N175 G1X632.32Y238.5  ;
N176 G1X638.68Y238.5  ;
N177 G1X641.85Y233  ;
N178 G1X638.68Y227.5  ;
N179 G1X632.32Y227.5  ;
N180 G1X629.15Y233  ;
N181 G1X630.74Y235.75  ;
N182 G65 P9104 A101 B01  ;
N183 G0X645.57Y201.2  ;
N184 G65 P9102 A101 B01  ;
N185 G1X645.65Y205.2  ;
N186 G3X645.5Y205.35I-0.15J0  ;
N187 G3X630.65Y190.5I0J-14.85  ;
N188 G1X630.65Y90.5  ;
N189 G3X660.35Y90.5I14.85J0  ;
N190 G1X660.35Y190.5  ;
N191 G3X645.5Y205.35I-14.85J0  ;
N192 G65 P9104 A101 B02  ;
N193 G0X634.26Y33.55  ;
N194 G65 P9102 A101 B02  ;
N195 G1X630.79Y35.55  ;
N196 G2X630.74Y35.75I0.08J0.12  ;
N197 G1X632.32Y38.5  ;
N198 G1X638.68Y38.5  ;
N199 G1X641.85Y33  ;
N200 G1X638.68Y27.5  ;
N201 G1X632.32Y27.5  ;
N202 G1X629.15Y33  ;
N203 G1X630.74Y35.75  ;
N204 G65 P9104 A101 B02  ;
N205 G0X664.26Y33.55  ;
N206 G65 P9102 A101 B02  ;
N207 G1X660.79Y35.55  ;
N208 G2X660.74Y35.75I0.08J0.12  ;
N209 G1X662.32Y38.5  ;
N210 G1X668.68Y38.5  ;
N211 G1X671.85Y33  ;
N212 G1X668.68Y27.5  ;
N213 G1X662.32Y27.5  ;
N214 G1X659.15Y33  ;
N215 G1X660.74Y35.75  ;
N216 G65 P9104 A101 B01  ;
N217 G0X714.7Y15.35  ;
N218 G65 P9102 A101 B01  ;
N219 G1X710.7Y15.35  ;
N220 G1X629.5Y15.35  ;
N221 G2X624.35Y20.5I0J5.15  ;
N222 G1X624.35Y43.5  ;
N223 G3X619.5Y48.35I-4.85J0  ;
N224 G1X603.35Y48.35  ;
N225 G1X603.35Y52.55  ;
N226 G1X606.18Y52.55  ;
N227 G3X606.35Y52.72I0.32J-0.15  ;
N228 G1X606.35Y246.28  ;
N229 G3X606.18Y246.45I0.15J0.32  ;
N230 G1X603.35Y246.45  ;
N231 G1X603.35Y250.65  ;
N232 G1X710.85Y250.65  ;
N233 G1X710.85Y15.5  ;
N234 G65 P9104 A102 B04  ;
N235 M98 P9103  ;
(P3:ID1:W56197519)  ;
N236 M98 P9101  ;
N237 G0X770.1Y46.11  ;
N238 G65 P9102 A102 B04  ;
N239 G1X770.1Y54.89  ;
N240 G1X762.5Y59.28  ;
N241 G1X754.9Y54.89  ;
N242 G1X754.9Y46.11  ;
N243 G1X762.5Y41.72  ;
N244 G1X770.1Y46.11  ;
N245 G65 P9104 A102 B04  ;
N246 G0X779Y146.72  ;
N247 G65 P9102 A102 B04  ;
N248 G1X786.6Y151.11  ;
N249 G1X786.6Y159.89  ;
N250 G1X779Y164.28  ;
N251 G1X771.4Y159.89  ;
N252 G1X771.4Y151.11  ;
N253 G1X779Y146.72  ;
N254 G65 P9104 A101 B02  ;
N255 G0X778.01Y156.28  ;
N256 G65 P9102 A101 B02  ;
N257 G1X774.58Y159.71  ;
N258 G3X774.69Y159.81I4.42J-4.21  ;
N259 G65 P9104 A101 B01  ;
N260 G0X766.8Y95.59  ;
N261 G65 P9102 A101 B01  ;
N262 G1X762.8Y95.65  ;
N263 G3X762.65Y95.5I0J-0.15  ;
N264 G3X782.5Y75.65I19.85J0  ;
N265 G1X842.5Y75.65  ;
N266 G3X842.5Y115.35I0J19.85  ;
N267 G1X782.5Y115.35  ;
N268 G3X762.65Y95.5I0J-19.85  ;
N269 G65 P9104 A101 B02  ;
N270 G0X761.51Y51.28  ;
N271 G65 P9102 A101 B02  ;
N272 G1X758.08Y54.71  ;
N273 G3X758.19Y54.81I4.42J-4.21  ;
N274 G65 P9104 A101 B01  ;
N275 G0X893Y15.35  ;
N276 G65 P9102 A101 B01  ;
N277 G1X889Y15.35  ;
N278 G1X739.35Y15.35  ;
N279 G1X739.35Y175.65  ;
N280 G1X889.15Y175.65  ;
N281 G1X889.15Y170.6  ;
N282 G1X886.15Y170.6  ;
N283 G1X886.15Y20.4  ;
N284 G1X889.15Y20.4  ;
N285 G1X889.15Y15.5  ;
N286 G65 P9104 A102 B04  ;
N287 M98 P9103  ;
(P4:ID3:W56197510)  ;
N288 M98 P9101  ;
N289 G0X612.5Y340.69  ;
N290 G65 P9102 A102 B04  ;
N291 G1X606Y344.45  ;
N292 G1X606Y351.95  ;
N293 G1X612.5Y355.71  ;
N294 G1X619Y351.95  ;
N295 G1X619Y344.45  ;
N296 G1X612.5Y340.69  ;
N297 G65 P9104 A102 B04  ;
N298 G0X716Y344.45  ;
N299 G65 P9102 A102 B04  ;
N300 G1X716Y351.95  ;
N301 G1X722.5Y355.71  ;
N302 G1X729Y351.95  ;
N303 G1X729Y344.45  ;
N304 G1X722.5Y340.69  ;
N305 G1X716Y344.45  ;
N306 G65 P9104 A101 B02  ;
N307 G0X722.57Y348.48  ;
N308 G65 P9102 A101 B02  ;
N309 G1X726Y351.91  ;
N310 G3X726.11Y351.81I-3.5J-3.71  ;
N311 G65 P9104 A101 B01  ;
N312 G0X683.5Y348.35  ;
N313 G65 P9102 A101 B01  ;
N314 G1X687.35Y348.35  ;
N315 G3X687.35Y348.2I-19.85J-0.15  ;
N316 G65 P9104 A101 B02  ;
N317 G0X612.57Y348.48  ;
N318 G65 P9102 A101 B02  ;
N319 G1X616Y351.91  ;
N320 G3X616.11Y351.81I-3.5J-3.71  ;
N321 G65 P9104 A101 B01  ;
N322 G0X592.35Y259.5  ;
N323 G65 P9102 A101 B01  ;
N324 G1X592.35Y263.5  ;
N325 G1X592.35Y278.35  ;
N326 G1X589.35Y278.35  ;
N327 G1X589.35Y288.65  ;
N328 G1X592.35Y288.65  ;
N329 G1X592.35Y293.65  ;
N330 G1X595.5Y293.65  ;
N331 G3X597.35Y295.5I0J1.85  ;
N332 G1X597.35Y315.7  ;
N333 G3X595.5Y317.55I-1.85J0  ;
N334 G1X592.35Y317.55  ;
N335 G1X592.35Y354.55  ;
N336 G1X589.35Y354.55  ;
N337 G1X589.35Y364.85  ;
N338 G1X592.35Y364.85  ;
N339 G1X592.35Y402.76  ;
N340 G1X602.44Y412.85  ;
N341 G1X732.56Y412.85  ;
N342 G1X742.65Y402.76  ;
N343 G1X742.65Y364.85  ;
N344 G1X745.65Y364.85  ;
N345 G1X745.65Y354.55  ;
N346 G1X742.65Y354.55  ;
N347 G1X742.65Y317.55  ;
N348 G1X739.5Y317.55  ;
N349 G3X737.65Y315.7I0J-1.85  ;
N350 G1X737.65Y295.5  ;
N351 G3X739.5Y293.65I1.85J0  ;
N352 G1X742.65Y293.65  ;
N353 G1X742.65Y288.65  ;
N354 G1X745.65Y288.65  ;
N355 G1X745.65Y278.35  ;
N356 G1X742.65Y278.35  ;
N357 G1X742.65Y263.35  ;
N358 G1X592.5Y263.35  ;
N359 G65 P9104 A102 B04  ;
N360 M98 P9103  ;
(P5:ID3:W56197510)  ;
N361 M98 P9101  ;
N362 G0X612.5Y665.09  ;
N363 G65 P9102 A102 B04  ;
N364 G1X606Y668.85  ;
N365 G1X606Y676.35  ;
N366 G1X612.5Y680.11  ;
N367 G1X619Y676.35  ;
N368 G1X619Y668.85  ;
N369 G1X612.5Y665.09  ;
N370 G65 P9104 A102 B04  ;
N371 G0X716Y668.85  ;
N372 G65 P9102 A102 B04  ;
N373 G1X716Y676.35  ;
N374 G1X722.5Y680.11  ;
N375 G1X729Y676.35  ;
N376 G1X729Y668.85  ;
N377 G1X722.5Y665.09  ;
N378 G1X716Y668.85  ;
N379 G65 P9104 A101 B02  ;
N380 G0X722.57Y672.88  ;
N381 G65 P9102 A101 B02  ;
N382 G1X726Y676.31  ;
N383 G3X726.11Y676.21I-3.5J-3.71  ;
N384 G65 P9104 A101 B01  ;
N385 G0X683.5Y672.75  ;
N386 G65 P9102 A101 B01  ;
N387 G1X687.35Y672.75  ;
N388 G3X687.35Y672.6I-19.85J-0.15  ;
N389 G65 P9104 A101 B02  ;
N390 G0X612.57Y672.88  ;
N391 G65 P9102 A101 B02  ;
N392 G1X616Y676.31  ;
N393 G3X616.11Y676.21I-3.5J-3.71  ;
N394 G65 P9104 A101 B01  ;
N395 G0X592.35Y583.9  ;
N396 G65 P9102 A101 B01  ;
N397 G1X592.35Y587.9  ;
N398 G1X592.35Y602.75  ;
N399 G1X589.35Y602.75  ;
N400 G1X589.35Y613.05  ;
N401 G1X592.35Y613.05  ;
N402 G1X592.35Y618.05  ;
N403 G1X595.5Y618.05  ;
N404 G3X597.35Y619.9I0J1.85  ;
N405 G1X597.35Y640.1  ;
N406 G3X595.5Y641.95I-1.85J0  ;
N407 G1X592.35Y641.95  ;
N408 G1X592.35Y678.95  ;
N409 G1X589.35Y678.95  ;
N410 G1X589.35Y689.25  ;
N411 G1X592.35Y689.25  ;
N412 G1X592.35Y727.16  ;
N413 G1X602.44Y737.25  ;
N414 G1X732.56Y737.25  ;
N415 G1X742.65Y727.16  ;
N416 G1X742.65Y689.25  ;
N417 G1X745.65Y689.25  ;
N418 G1X745.65Y678.95  ;
N419 G1X742.65Y678.95  ;
N420 G1X742.65Y641.95  ;
N421 G1X739.5Y641.95  ;
N422 G3X737.65Y640.1I0J-1.85  ;
N423 G1X737.65Y619.9  ;
N424 G3X739.5Y618.05I1.85J0  ;
N425 G1X742.65Y618.05  ;
N426 G1X742.65Y613.05  ;
N427 G1X745.65Y613.05  ;
N428 G1X745.65Y602.75  ;
N429 G1X742.65Y602.75  ;
N430 G1X742.65Y587.75  ;
N431 G1X592.5Y587.75  ;
N432 G65 P9104 A102 B04  ;
N433 M98 P9103  ;
(P6:ID3:W56197510)  ;
N434 M98 P9101  ;
N435 G0X612.5Y502.89  ;
N436 G65 P9102 A102 B04  ;
N437 G1X606Y506.65  ;
N438 G1X606Y514.15  ;
N439 G1X612.5Y517.91  ;
N440 G1X619Y514.15  ;
N441 G1X619Y506.65  ;
N442 G1X612.5Y502.89  ;
N443 G65 P9104 A102 B04  ;
N444 G0X716Y506.65  ;
N445 G65 P9102 A102 B04  ;
N446 G1X716Y514.15  ;
N447 G1X722.5Y517.91  ;
N448 G1X729Y514.15  ;
N449 G1X729Y506.65  ;
N450 G1X722.5Y502.89  ;
N451 G1X716Y506.65  ;
N452 G65 P9104 A101 B02  ;
N453 G0X722.57Y510.68  ;
N454 G65 P9102 A101 B02  ;
N455 G1X726Y514.11  ;
N456 G3X726.11Y514.01I-3.5J-3.71  ;
N457 G65 P9104 A101 B01  ;
N458 G0X683.5Y510.55  ;
N459 G65 P9102 A101 B01  ;
N460 G1X687.35Y510.55  ;
N461 G3X687.35Y510.4I-19.85J-0.15  ;
N462 G65 P9104 A101 B02  ;
N463 G0X612.57Y510.68  ;
N464 G65 P9102 A101 B02  ;
N465 G1X616Y514.11  ;
N466 G3X616.11Y514.01I-3.5J-3.71  ;
N467 G65 P9104 A101 B01  ;
N468 G0X592.35Y421.7  ;
N469 G65 P9102 A101 B01  ;
N470 G1X592.35Y425.7  ;
N471 G1X592.35Y440.55  ;
N472 G1X589.35Y440.55  ;
N473 G1X589.35Y450.85  ;
N474 G1X592.35Y450.85  ;
N475 G1X592.35Y455.85  ;
N476 G1X595.5Y455.85  ;
N477 G3X597.35Y457.7I0J1.85  ;
N478 G1X597.35Y477.9  ;
N479 G3X595.5Y479.75I-1.85J0  ;
N480 G1X592.35Y479.75  ;
N481 G1X592.35Y516.75  ;
N482 G1X589.35Y516.75  ;
N483 G1X589.35Y527.05  ;
N484 G1X592.35Y527.05  ;
N485 G1X592.35Y564.96  ;
N486 G1X602.44Y575.05  ;
N487 G1X732.56Y575.05  ;
N488 G1X742.65Y564.96  ;
N489 G1X742.65Y527.05  ;
N490 G1X745.65Y527.05  ;
N491 G1X745.65Y516.75  ;
N492 G1X742.65Y516.75  ;
N493 G1X742.65Y479.75  ;
N494 G1X739.5Y479.75  ;
N495 G3X737.65Y477.9I0J-1.85  ;
N496 G1X737.65Y457.7  ;
N497 G3X739.5Y455.85I1.85J0  ;
N498 G1X742.65Y455.85  ;
N499 G1X742.65Y450.85  ;
N500 G1X745.65Y450.85  ;
N501 G1X745.65Y440.55  ;
N502 G1X742.65Y440.55  ;
N503 G1X742.65Y425.55  ;
N504 G1X592.5Y425.55  ;
N505 G65 P9104 A101 B02  ;
N506 M98 P9103  ;
(P7:ID4:W56197522)  ;
N507 M98 P9101  ;
N508 G0X769.26Y412.05  ;
N509 G65 P9102 A101 B02  ;
N510 G1X765.79Y414.05  ;
N511 G2X765.74Y414.25I0.08J0.12  ;
N512 G1X767.32Y417  ;
N513 G1X773.68Y417  ;
N514 G1X776.85Y411.5  ;
N515 G1X773.68Y406  ;
N516 G1X767.32Y406  ;
N517 G1X764.15Y411.5  ;
N518 G1X765.74Y414.25  ;
N519 G65 P9104 A101 B02  ;
N520 G0X769.26Y512.05  ;
N521 G65 P9102 A101 B02  ;
N522 G1X765.79Y514.05  ;
N523 G2X765.74Y514.25I0.08J0.12  ;
N524 G1X767.32Y517  ;
N525 G1X773.68Y517  ;
N526 G1X776.85Y511.5  ;
N527 G1X773.68Y506  ;
N528 G1X767.32Y506  ;
N529 G1X764.15Y511.5  ;
N530 G1X765.74Y514.25  ;
N531 G65 P9104 A101 B01  ;
N532 G0X800.18Y356.5  ;
N533 G65 P9102 A101 B01  ;
N534 G1X800.18Y361.35  ;
N535 G1X768.44Y361.35  ;
N536 G1X758.35Y371.44  ;
N537 G1X758.35Y551.56  ;
N538 G1X768.44Y561.65  ;
N539 G1X808.65Y561.65  ;
N540 G1X808.65Y536.35  ;
N541 G1X799.5Y536.35  ;
N542 G3X796.65Y533.5I0J-2.85  ;
N543 G1X796.65Y389.5  ;
N544 G3X799.5Y386.65I2.85J0  ;
N545 G1X808.65Y386.65  ;
N546 G1X808.65Y361.35  ;
N547 G1X800.98Y361.35  ;
N548 G65 P9104 A101 B01  ;
N549 M98 P9103  ;
(P8:ID5:W56337209)  ;
N550 M98 P9101  ;
N551 G0X888.7Y438.72  ;
N552 G65 P9102 A101 B01  ;
N553 G1X892.69Y438.89  ;
N554 G2X892.85Y438.74I0.01J-0.15  ;
N555 G2X885.5Y431.39I-7.35J0  ;
N556 G1X860.5Y431.39  ;
N557 G2X860.5Y446.09I0J7.35  ;
N558 G1X885.5Y446.09  ;
N559 G2X892.85Y438.74I0J-7.35  ;
N560 G65 P9104 A101 B01  ;
N561 G0X865.66Y356.5  ;
N562 G65 P9102 A101 B01  ;
N563 G1X865.66Y361.35  ;
N564 G1X910.65Y361.35  ;
N565 G1X910.65Y631.85  ;
N566 G1X835.35Y631.85  ;
N567 G1X835.35Y361.35  ;
N568 G1X864.81Y361.35  ;
N569 G65 P9104 A101 B02  ;
N570 M98 P9103  ;
(P9:ID4:W56197522)  ;
N571 M98 P9101  ;
N572 G0X769.26Y625.05  ;
N573 G65 P9102 A101 B02  ;
N574 G1X765.79Y627.05  ;
N575 G2X765.74Y627.25I0.08J0.12  ;
N576 G1X767.32Y630  ;
N577 G1X773.68Y630  ;
N578 G1X776.85Y624.5  ;
N579 G1X773.68Y619  ;
N580 G1X767.32Y619  ;
N581 G1X764.15Y624.5  ;
N582 G1X765.74Y627.25  ;
N583 G65 P9104 A101 B02  ;
N584 G0X769.26Y725.05  ;
N585 G65 P9102 A101 B02  ;
N586 G1X765.79Y727.05  ;
N587 G2X765.74Y727.25I0.08J0.12  ;
N588 G1X767.32Y730  ;
N589 G1X773.68Y730  ;
N590 G1X776.85Y724.5  ;
N591 G1X773.68Y719  ;
N592 G1X767.32Y719  ;
N593 G1X764.15Y724.5  ;
N594 G1X765.74Y727.25  ;
N595 G65 P9104 A101 B01  ;
N596 G0X800.18Y569.5  ;
N597 G65 P9102 A101 B01  ;
N598 G1X800.18Y574.35  ;
N599 G1X768.44Y574.35  ;
N600 G1X758.35Y584.44  ;
N601 G1X758.35Y764.56  ;
N602 G1X768.44Y774.65  ;
N603 G1X808.65Y774.65  ;
N604 G1X808.65Y749.35  ;
N605 G1X799.5Y749.35  ;
N606 G3X796.65Y746.5I0J-2.85  ;
N607 G1X796.65Y602.5  ;
N608 G3X799.5Y599.65I2.85J0  ;
N609 G1X808.65Y599.65  ;
N610 G1X808.65Y574.35  ;
N611 G1X800.98Y574.35  ;
N612 G65 P9104 A102 B04  ;
N613 M98 P9103  ;
(P10:ID3:W56197510)  ;
N614 M98 P9101  ;
N615 G0X612.5Y827.29  ;
N616 G65 P9102 A102 B04  ;
N617 G1X606Y831.05  ;
N618 G1X606Y838.55  ;
N619 G1X612.5Y842.31  ;
N620 G1X619Y838.55  ;
N621 G1X619Y831.05  ;
N622 G1X612.5Y827.29  ;
N623 G65 P9104 A102 B04  ;
N624 G0X716Y831.05  ;
N625 G65 P9102 A102 B04  ;
N626 G1X716Y838.55  ;
N627 G1X722.5Y842.31  ;
N628 G1X729Y838.55  ;
N629 G1X729Y831.05  ;
N630 G1X722.5Y827.29  ;
N631 G1X716Y831.05  ;
N632 G65 P9104 A101 B02  ;
N633 G0X722.57Y835.08  ;
N634 G65 P9102 A101 B02  ;
N635 G1X726Y838.51  ;
N636 G3X726.11Y838.41I-3.5J-3.71  ;
N637 G65 P9104 A101 B01  ;
N638 G0X683.5Y834.95  ;
N639 G65 P9102 A101 B01  ;
N640 G1X687.35Y834.95  ;
N641 G3X687.35Y834.8I-19.85J-0.15  ;
N642 G65 P9104 A101 B02  ;
N643 G0X612.57Y835.08  ;
N644 G65 P9102 A101 B02  ;
N645 G1X616Y838.51  ;
N646 G3X616.11Y838.41I-3.5J-3.71  ;
N647 G65 P9104 A101 B01  ;
N648 G0X592.35Y746.1  ;
N649 G65 P9102 A101 B01  ;
N650 G1X592.35Y750.1  ;
N651 G1X592.35Y764.95  ;
N652 G1X589.35Y764.95  ;
N653 G1X589.35Y775.25  ;
N654 G1X592.35Y775.25  ;
N655 G1X592.35Y780.25  ;
N656 G1X595.5Y780.25  ;
N657 G3X597.35Y782.1I0J1.85  ;
N658 G1X597.35Y802.3  ;
N659 G3X595.5Y804.15I-1.85J0  ;
N660 G1X592.35Y804.15  ;
N661 G1X592.35Y841.15  ;
N662 G1X589.35Y841.15  ;
N663 G1X589.35Y851.45  ;
N664 G1X592.35Y851.45  ;
N665 G1X592.35Y889.36  ;
N666 G1X602.44Y899.45  ;
N667 G1X732.56Y899.45  ;
N668 G1X742.65Y889.36  ;
N669 G1X742.65Y851.45  ;
N670 G1X745.65Y851.45  ;
N671 G1X745.65Y841.15  ;
N672 G1X742.65Y841.15  ;
N673 G1X742.65Y804.15  ;
N674 G1X739.5Y804.15  ;
N675 G3X737.65Y802.3I0J-1.85  ;
N676 G1X737.65Y782.1  ;
N677 G3X739.5Y780.25I1.85J0  ;
N678 G1X742.65Y780.25  ;
N679 G1X742.65Y775.25  ;
N680 G1X745.65Y775.25  ;
N681 G1X745.65Y764.95  ;
N682 G1X742.65Y764.95  ;
N683 G1X742.65Y749.95  ;
N684 G1X592.5Y749.95  ;
N685 G65 P9104 A101 B01  ;
N686 M98 P9103  ;
(P11:ID5:W56337209)  ;
N687 M98 P9101  ;
N688 G0X888.7Y721.92  ;
N689 G65 P9102 A101 B01  ;
N690 G1X892.69Y722.09  ;
N691 G2X892.85Y721.94I0.01J-0.15  ;
N692 G2X885.5Y714.59I-7.35J0  ;
N693 G1X860.5Y714.59  ;
N694 G2X860.5Y729.29I0J7.35  ;
N695 G1X885.5Y729.29  ;
N696 G2X892.85Y721.94I0J-7.35  ;
N697 G65 P9104 A101 B01  ;
N698 G0X865.66Y639.7  ;
N699 G65 P9102 A101 B01  ;
N700 G1X865.66Y644.55  ;
N701 G1X910.65Y644.55  ;
N702 G1X910.65Y915.05  ;
N703 G1X835.35Y915.05  ;
N704 G1X835.35Y644.55  ;
N705 G1X864.81Y644.55  ;
N706 G65 P9104 A101 B01  ;
N707 M98 P9103  ;
(P12:ID6:W56197514)  ;
N708 M98 P9101  ;
N709 G0X778.35Y967.7  ;
N710 G65 P9102 A101 B01  ;
N711 G1X778.35Y971.7  ;
N712 G2X778.5Y971.85I0.15J0  ;
N713 G1X784Y971.85  ;
N714 G2X786.85Y969I0J-2.85  ;
N715 G1X786.85Y950  ;
N716 G2X784Y947.15I-2.85J0  ;
N717 G1X773Y947.15  ;
N718 G2X770.15Y950I0J2.85  ;
N719 G1X770.15Y969  ;
N720 G2X773Y971.85I2.85J0  ;
N721 G1X778.5Y971.85  ;
N722 G65 P9104 A101 B01  ;
N723 G0X772.9Y881  ;
N724 G65 P9102 A101 B01  ;
N725 G1X772.9Y885.85  ;
N726 G1X769.85Y885.85  ;
N727 G1X769.85Y888.35  ;
N728 G1X762.94Y888.35  ;
N729 G1X754.85Y896.44  ;
N730 G1X754.85Y1067.56  ;
N731 G1X762.94Y1075.65  ;
N732 G1X800.12Y1075.65  ;
N733 G1X807.39Y1036.12  ;
N734 G3X812.16Y1032.15I4.77J0.88  ;
N735 G1X820.15Y1032.15  ;
N736 G1X820.15Y988.65  ;
N737 G1X822.65Y988.65  ;
N738 G1X822.65Y978.35  ;
N739 G1X820.15Y978.35  ;
N740 G1X820.15Y931.85  ;
N741 G1X812.16Y931.85  ;
N742 G3X807.39Y927.88I0J-4.85  ;
N743 G1X800.12Y888.35  ;
N744 G1X780.15Y888.35  ;
N745 G1X780.15Y885.85  ;
N746 G1X773.8Y885.85  ;
N747 G65 P9104 A101 B01  ;
N748 M98 P9103  ;
(P13:ID6:W56197514)  ;
N749 M98 P9101  ;
N750 G0X696.85Y994  ;
N751 G65 P9102 A101 B01  ;
N752 G1X696.85Y998  ;
N753 G2X697Y998.15I0.15J0  ;
N754 G1X702.5Y998.15  ;
N755 G2X705.35Y995.3I0J-2.85  ;
N756 G1X705.35Y976.3  ;
N757 G2X702.5Y973.45I-2.85J0  ;
N758 G1X691.5Y973.45  ;
N759 G2X688.65Y976.3I0J2.85  ;
N760 G1X688.65Y995.3  ;
N761 G2X691.5Y998.15I2.85J0  ;
N762 G1X697Y998.15  ;
N763 G65 P9104 A101 B01  ;
N764 G0X691.4Y907.3  ;
N765 G65 P9102 A101 B01  ;
N766 G1X691.4Y912.15  ;
N767 G1X688.35Y912.15  ;
N768 G1X688.35Y914.65  ;
N769 G1X681.44Y914.65  ;
N770 G1X673.35Y922.74  ;
N771 G1X673.35Y1093.86  ;
N772 G1X681.44Y1101.95  ;
N773 G1X718.62Y1101.95  ;
N774 G1X725.89Y1062.42  ;
N775 G3X730.66Y1058.45I4.77J0.88  ;
N776 G1X738.65Y1058.45  ;
N777 G1X738.65Y1014.95  ;
N778 G1X741.15Y1014.95  ;
N779 G1X741.15Y1004.65  ;
N780 G1X738.65Y1004.65  ;
N781 G1X738.65Y958.15  ;
N782 G1X730.66Y958.15  ;
N783 G3X725.89Y954.18I0J-4.85  ;
N784 G1X718.62Y914.65  ;
N785 G1X698.65Y914.65  ;
N786 G1X698.65Y912.15  ;
N787 G1X692.3Y912.15  ;
N788 G65 P9104 A101 B01  ;
N789 M98 P9103  ;
(P14:ID6:W56197514)  ;
N790 M98 P9101  ;
N791 G0X616.35Y994  ;
N792 G65 P9102 A101 B01  ;
N793 G1X616.35Y998  ;
N794 G2X616.5Y998.15I0.15J0  ;
N795 G1X622Y998.15  ;
N796 G2X624.85Y995.3I0J-2.85  ;
N797 G1X624.85Y976.3  ;
N798 G2X622Y973.45I-2.85J0  ;
N799 G1X611Y973.45  ;
N800 G2X608.15Y976.3I0J2.85  ;
N801 G1X608.15Y995.3  ;
N802 G2X611Y998.15I2.85J0  ;
N803 G1X616.5Y998.15  ;
N804 G65 P9104 A101 B01  ;
N805 G0X610.9Y907.3  ;
N806 G65 P9102 A101 B01  ;
N807 G1X610.9Y912.15  ;
N808 G1X607.85Y912.15  ;
N809 G1X607.85Y914.65  ;
N810 G1X600.94Y914.65  ;
N811 G1X592.85Y922.74  ;
N812 G1X592.85Y1093.86  ;
N813 G1X600.94Y1101.95  ;
N814 G1X638.12Y1101.95  ;
N815 G1X645.39Y1062.42  ;
N816 G3X650.16Y1058.45I4.77J0.88  ;
N817 G1X658.15Y1058.45  ;
N818 G1X658.15Y1014.95  ;
N819 G1X660.65Y1014.95  ;
N820 G1X660.65Y1004.65  ;
N821 G1X658.15Y1004.65  ;
N822 G1X658.15Y958.15  ;
N823 G1X650.16Y958.15  ;
N824 G3X645.39Y954.18I0J-4.85  ;
N825 G1X638.12Y914.65  ;
N826 G1X618.15Y914.65  ;
N827 G1X618.15Y912.15  ;
N828 G1X611.8Y912.15  ;
N829 G65 P9104 A101 B01  ;
N830 M98 P9103  ;
(P15:ID6:W56197514)  ;
N831 M98 P9101  ;
N832 G0X778.35Y1170.2  ;
N833 G65 P9102 A101 B01  ;
N834 G1X778.35Y1174.2  ;
N835 G2X778.5Y1174.35I0.15J0  ;
N836 G1X784Y1174.35  ;
N837 G2X786.85Y1171.5I0J-2.85  ;
N838 G1X786.85Y1152.5  ;
N839 G2X784Y1149.65I-2.85J0  ;
N840 G1X773Y1149.65  ;
N841 G2X770.15Y1152.5I0J2.85  ;
N842 G1X770.15Y1171.5  ;
N843 G2X773Y1174.35I2.85J0  ;
N844 G1X778.5Y1174.35  ;
N845 G65 P9104 A101 B01  ;
N846 G0X772.9Y1083.5  ;
N847 G65 P9102 A101 B01  ;
N848 G1X772.9Y1088.35  ;
N849 G1X769.85Y1088.35  ;
N850 G1X769.85Y1090.85  ;
N851 G1X762.94Y1090.85  ;
N852 G1X754.85Y1098.94  ;
N853 G1X754.85Y1270.06  ;
N854 G1X762.94Y1278.15  ;
N855 G1X800.12Y1278.15  ;
N856 G1X807.39Y1238.62  ;
N857 G3X812.16Y1234.65I4.77J0.88  ;
N858 G1X820.15Y1234.65  ;
N859 G1X820.15Y1191.15  ;
N860 G1X822.65Y1191.15  ;
N861 G1X822.65Y1180.85  ;
N862 G1X820.15Y1180.85  ;
N863 G1X820.15Y1134.35  ;
N864 G1X812.16Y1134.35  ;
N865 G3X807.39Y1130.38I0J-4.85  ;
N866 G1X800.12Y1090.85  ;
N867 G1X780.15Y1090.85  ;
N868 G1X780.15Y1088.35  ;
N869 G1X773.8Y1088.35  ;
N870 G65 P9104 A101 B01  ;
N871 M98 P9103  ;
(P16:ID5:W56337209)  ;
N872 M98 P9101  ;
N873 G0X888.7Y1005.12  ;
N874 G65 P9102 A101 B01  ;
N875 G1X892.69Y1005.29  ;
N876 G2X892.85Y1005.14I0.01J-0.15  ;
N877 G2X885.5Y997.79I-7.35J0  ;
N878 G1X860.5Y997.79  ;
N879 G2X860.5Y1012.49I0J7.35  ;
N880 G1X885.5Y1012.49  ;
N881 G2X892.85Y1005.14I0J-7.35  ;
N882 G65 P9104 A101 B01  ;
N883 G0X865.66Y922.9  ;
N884 G65 P9102 A101 B01  ;
N885 G1X865.66Y927.75  ;
N886 G1X910.65Y927.75  ;
N887 G1X910.65Y1198.25  ;
N888 G1X835.35Y1198.25  ;
N889 G1X835.35Y927.75  ;
N890 G1X864.81Y927.75  ;
N891 G65 P9104 A101 B01  ;
N892 M98 P9103  ;
(P17:ID6:W56197514)  ;
N893 M98 P9101  ;
N894 G0X696.85Y1196.5  ;
N895 G65 P9102 A101 B01  ;
N896 G1X696.85Y1200.5  ;
N897 G2X697Y1200.65I0.15J0  ;
N898 G1X702.5Y1200.65  ;
N899 G2X705.35Y1197.8I0J-2.85  ;
N900 G1X705.35Y1178.8  ;
N901 G2X702.5Y1175.95I-2.85J0  ;
N902 G1X691.5Y1175.95  ;
N903 G2X688.65Y1178.8I0J2.85  ;
N904 G1X688.65Y1197.8  ;
N905 G2X691.5Y1200.65I2.85J0  ;
N906 G1X697Y1200.65  ;
N907 G65 P9104 A101 B01  ;
N908 G0X691.4Y1109.8  ;
N909 G65 P9102 A101 B01  ;
N910 G1X691.4Y1114.65  ;
N911 G1X688.35Y1114.65  ;
N912 G1X688.35Y1117.15  ;
N913 G1X681.44Y1117.15  ;
N914 G1X673.35Y1125.24  ;
N915 G1X673.35Y1296.36  ;
N916 G1X681.44Y1304.45  ;
N917 G1X718.62Y1304.45  ;
N918 G1X725.89Y1264.92  ;
N919 G3X730.66Y1260.95I4.77J0.88  ;
N920 G1X738.65Y1260.95  ;
N921 G1X738.65Y1217.45  ;
N922 G1X741.15Y1217.45  ;
N923 G1X741.15Y1207.15  ;
N924 G1X738.65Y1207.15  ;
N925 G1X738.65Y1160.65  ;
N926 G1X730.66Y1160.65  ;
N927 G3X725.89Y1156.68I0J-4.85  ;
N928 G1X718.62Y1117.15  ;
N929 G1X698.65Y1117.15  ;
N930 G1X698.65Y1114.65  ;
N931 G1X692.3Y1114.65  ;
N932 G65 P9104 A101 B01  ;
N933 M98 P9103  ;
(P18:ID6:W56197514)  ;
N934 M98 P9101  ;
N935 G0X616.35Y1196.5  ;
N936 G65 P9102 A101 B01  ;
N937 G1X616.35Y1200.5  ;
N938 G2X616.5Y1200.65I0.15J0  ;
N939 G1X622Y1200.65  ;
N940 G2X624.85Y1197.8I0J-2.85  ;
N941 G1X624.85Y1178.8  ;
N942 G2X622Y1175.95I-2.85J0  ;
N943 G1X611Y1175.95  ;
N944 G2X608.15Y1178.8I0J2.85  ;
N945 G1X608.15Y1197.8  ;
N946 G2X611Y1200.65I2.85J0  ;
N947 G1X616.5Y1200.65  ;
N948 G65 P9104 A101 B01  ;
N949 G0X610.9Y1109.8  ;
N950 G65 P9102 A101 B01  ;
N951 G1X610.9Y1114.65  ;
N952 G1X607.85Y1114.65  ;
N953 G1X607.85Y1117.15  ;
N954 G1X600.94Y1117.15  ;
N955 G1X592.85Y1125.24  ;
N956 G1X592.85Y1296.36  ;
N957 G1X600.94Y1304.45  ;
N958 G1X638.12Y1304.45  ;
N959 G1X645.39Y1264.92  ;
N960 G3X650.16Y1260.95I4.77J0.88  ;
N961 G1X658.15Y1260.95  ;
N962 G1X658.15Y1217.45  ;
N963 G1X660.65Y1217.45  ;
N964 G1X660.65Y1207.15  ;
N965 G1X658.15Y1207.15  ;
N966 G1X658.15Y1160.65  ;
N967 G1X650.16Y1160.65  ;
N968 G3X645.39Y1156.68I0J-4.85  ;
N969 G1X638.12Y1117.15  ;
N970 G1X618.15Y1117.15  ;
N971 G1X618.15Y1114.65  ;
N972 G1X611.8Y1114.65  ;
N973 G65 P9104 A101 B01  ;
N974 M98 P9103  ;
(P19:ID6:W56197514)  ;
N975 M98 P9101  ;
N976 G0X698.85Y1399  ;
N977 G65 P9102 A101 B01  ;
N978 G1X698.85Y1403  ;
N979 G2X699Y1403.15I0.15J0  ;
N980 G1X704.5Y1403.15  ;
N981 G2X707.35Y1400.3I0J-2.85  ;
N982 G1X707.35Y1381.3  ;
N983 G2X704.5Y1378.45I-2.85J0  ;
N984 G1X693.5Y1378.45  ;
N985 G2X690.65Y1381.3I0J2.85  ;
N986 G1X690.65Y1400.3  ;
N987 G2X693.5Y1403.15I2.85J0  ;
N988 G1X699Y1403.15  ;
N989 G65 P9104 A101 B01  ;
N990 G0X693.4Y1312.3  ;
N991 G65 P9102 A101 B01  ;
N992 G1X693.4Y1317.15  ;
N993 G1X690.35Y1317.15  ;
N994 G1X690.35Y1319.65  ;
N995 G1X683.44Y1319.65  ;
N996 G1X675.35Y1327.74  ;
N997 G1X675.35Y1498.86  ;
N998 G1X683.44Y1506.95  ;
N999 G1X720.62Y1506.95  ;
N1000 G1X727.89Y1467.42  ;
N1001 G3X732.66Y1463.45I4.77J0.88  ;
N1002 G1X740.65Y1463.45  ;
N1003 G1X740.65Y1419.95  ;
N1004 G1X743.15Y1419.95  ;
N1005 G1X743.15Y1409.65  ;
N1006 G1X740.65Y1409.65  ;
N1007 G1X740.65Y1363.15  ;
N1008 G1X732.66Y1363.15  ;
N1009 G3X727.89Y1359.18I0J-4.85  ;
N1010 G1X720.62Y1319.65  ;
N1011 G1X700.65Y1319.65  ;
N1012 G1X700.65Y1317.15  ;
N1013 G1X694.3Y1317.15  ;
N1014 G65 P9104 A101 B01  ;
N1015 M98 P9103  ;
(P20:ID5:W56337209)  ;
N1016 M98 P9101  ;
N1017 G0X888.7Y1288.32  ;
N1018 G65 P9102 A101 B01  ;
N1019 G1X892.69Y1288.49  ;
N1020 G2X892.85Y1288.34I0.01J-0.15  ;
N1021 G2X885.5Y1280.99I-7.35J0  ;
N1022 G1X860.5Y1280.99  ;
N1023 G2X860.5Y1295.69I0J7.35  ;
N1024 G1X885.5Y1295.69  ;
N1025 G2X892.85Y1288.34I0J-7.35  ;
N1026 G65 P9104 A101 B01  ;
N1027 G0X865.66Y1206.1  ;
N1028 G65 P9102 A101 B01  ;
N1029 G1X865.66Y1210.95  ;
N1030 G1X910.65Y1210.95  ;
N1031 G1X910.65Y1481.45  ;
N1032 G1X835.35Y1481.45  ;
N1033 G1X835.35Y1210.95  ;
N1034 G1X864.81Y1210.95  ;
N1035 G65 P9104 A102 B04  ;
N1036 M98 P9103  ;
(P21:ID7:W56197513S)  ;
N1037 M98 P9101  ;
N1038 G0X848.98Y1599.1  ;
N1039 G65 P9102 A102 B04  ;
N1040 G1X852.74Y1605.6  ;
N1041 G1X848.98Y1612.1  ;
N1042 G1X841.48Y1612.1  ;
N1043 G1X837.72Y1605.6  ;
N1044 G1X841.48Y1599.1  ;
N1045 G1X848.98Y1599.1  ;
N1046 G65 P9104 A102 B04  ;
N1047 G0X871.48Y1659.1  ;
N1048 G65 P9102 A102 B04  ;
N1049 G1X878.98Y1659.1  ;
N1050 G1X882.74Y1665.6  ;
N1051 G1X878.98Y1672.1  ;
N1052 G1X871.48Y1672.1  ;
N1053 G1X867.72Y1665.6  ;
N1054 G1X871.48Y1659.1  ;
N1055 G65 P9104 A101 B02  ;
N1056 G0X874.95Y1665.67  ;
N1057 G65 P9102 A101 B02  ;
N1058 G1X871.52Y1669.1  ;
N1059 G3X871.62Y1669.21I3.71J-3.5  ;
N1060 G65 P9104 A101 B02  ;
N1061 G0X860.16Y1637.8  ;
N1062 G65 P9102 A101 B02  ;
N1063 G1X859.6Y1639.13  ;
N1064 G1X855.18Y1637.25  ;
N1065 G1X856.31Y1634.58  ;
N1066 G1X865.43Y1638.45  ;
N1067 G1X864.29Y1641.12  ;
N1068 G1X859.74Y1639.19  ;
N1069 G65 P9104 A101 B02  ;
N1070 G0X844.95Y1605.67  ;
N1071 G65 P9102 A101 B02  ;
N1072 G1X841.52Y1609.1  ;
N1073 G3X841.62Y1609.21I3.71J-3.5  ;
N1074 G65 P9104 A101 B01  ;
N1075 G0X866.84Y1534.6  ;
N1076 G65 P9102 A101 B01  ;
N1077 G1X866.84Y1539.45  ;
N1078 G1X865.08Y1539.45  ;
N1079 G1X865.08Y1540.45  ;
N1080 G1X839.67Y1540.45  ;
N1081 G1X818.94Y1589.28  ;
N1082 G1X821.8Y1590.49  ;
N1083 G1X817.81Y1599.88  ;
N1084 G1X814.96Y1598.67  ;
N1085 G1X809.92Y1610.54  ;
N1086 G2X810.91Y1617.8I6.58J2.8  ;
N1087 G1X865.16Y1685.75  ;
N1088 G1X895.38Y1685.75  ;
N1089 G1X895.38Y1665.6  ;
N1090 G3X900.23Y1660.75I4.85J0  ;
N1091 G1X910.38Y1660.75  ;
N1092 G1X910.38Y1565.45  ;
N1093 G1X890.23Y1565.45  ;
N1094 G3X885.38Y1560.6I0J-4.85  ;
N1095 G1X885.38Y1540.45  ;
N1096 G1X870.38Y1540.45  ;
N1097 G1X870.38Y1539.45  ;
N1098 G1X867.74Y1539.45  ;
N1099 G65 P9104 A101 B01  ;
N1100 M98 P9103  ;
(P22:ID6:W56197514)  ;
N1101 M98 P9101  ;
N1102 G0X780.85Y1480.3  ;
N1103 G65 P9102 A101 B01  ;
N1104 G1X780.85Y1484.3  ;
N1105 G2X781Y1484.45I0.15J0  ;
N1106 G1X786.5Y1484.45  ;
N1107 G2X789.35Y1481.6I0J-2.85  ;
N1108 G1X789.35Y1462.6  ;
N1109 G2X786.5Y1459.75I-2.85J0  ;
N1110 G1X775.5Y1459.75  ;
N1111 G2X772.65Y1462.6I0J2.85  ;
N1112 G1X772.65Y1481.6  ;
N1113 G2X775.5Y1484.45I2.85J0  ;
N1114 G1X781Y1484.45  ;
N1115 G65 P9104 A101 B01  ;
N1116 G0X775.4Y1393.6  ;
N1117 G65 P9102 A101 B01  ;
N1118 G1X775.4Y1398.45  ;
N1119 G1X772.35Y1398.45  ;
N1120 G1X772.35Y1400.95  ;
N1121 G1X765.44Y1400.95  ;
N1122 G1X757.35Y1409.04  ;
N1123 G1X757.35Y1580.16  ;
N1124 G1X765.44Y1588.25  ;
N1125 G1X802.62Y1588.25  ;
N1126 G1X809.89Y1548.72  ;
N1127 G3X814.66Y1544.75I4.77J0.88  ;
N1128 G1X822.65Y1544.75  ;
N1129 G1X822.65Y1501.25  ;
N1130 G1X825.15Y1501.25  ;
N1131 G1X825.15Y1490.95  ;
N1132 G1X822.65Y1490.95  ;
N1133 G1X822.65Y1444.45  ;
N1134 G1X814.66Y1444.45  ;
N1135 G3X809.89Y1440.48I0J-4.85  ;
N1136 G1X802.62Y1400.95  ;
N1137 G1X782.65Y1400.95  ;
N1138 G1X782.65Y1398.45  ;
N1139 G1X776.3Y1398.45  ;
N1140 G65 P9104 A102 B04  ;
N1141 M98 P9103  ;
(P23:ID7:W56197513S)  ;
N1142 M98 P9101  ;
N1143 G0X628.98Y1567.2  ;
N1144 G65 P9102 A102 B04  ;
N1145 G1X632.74Y1573.7  ;
N1146 G1X628.98Y1580.2  ;
N1147 G1X621.48Y1580.2  ;
N1148 G1X617.72Y1573.7  ;
N1149 G1X621.48Y1567.2  ;
N1150 G1X628.98Y1567.2  ;
N1151 G65 P9104 A102 B04  ;
N1152 G0X651.48Y1627.2  ;
N1153 G65 P9102 A102 B04  ;
N1154 G1X658.98Y1627.2  ;
N1155 G1X662.74Y1633.7  ;
N1156 G1X658.98Y1640.2  ;
N1157 G1X651.48Y1640.2  ;
N1158 G1X647.72Y1633.7  ;
N1159 G1X651.48Y1627.2  ;
N1160 G65 P9104 A101 B02  ;
N1161 G0X654.95Y1633.77  ;
N1162 G65 P9102 A101 B02  ;
N1163 G1X651.52Y1637.2  ;
N1164 G3X651.62Y1637.31I3.71J-3.5  ;
N1165 G65 P9104 A101 B02  ;
N1166 G0X640.16Y1605.9  ;
N1167 G65 P9102 A101 B02  ;
N1168 G1X639.6Y1607.23  ;
N1169 G1X635.18Y1605.35  ;
N1170 G1X636.31Y1602.68  ;
N1171 G1X645.43Y1606.55  ;
N1172 G1X644.29Y1609.22  ;
N1173 G1X639.74Y1607.29  ;
N1174 G65 P9104 A101 B02  ;
N1175 G0X624.95Y1573.77  ;
N1176 G65 P9102 A101 B02  ;
N1177 G1X621.52Y1577.2  ;
N1178 G3X621.62Y1577.31I3.71J-3.5  ;
N1179 G65 P9104 A101 B01  ;
N1180 G0X646.84Y1502.7  ;
N1181 G65 P9102 A101 B01  ;
N1182 G1X646.84Y1507.55  ;
N1183 G1X645.08Y1507.55  ;
N1184 G1X645.08Y1508.55  ;
N1185 G1X619.67Y1508.55  ;
N1186 G1X598.94Y1557.38  ;
N1187 G1X601.8Y1558.59  ;
N1188 G1X597.81Y1567.98  ;
N1189 G1X594.96Y1566.77  ;
N1190 G1X589.92Y1578.64  ;
N1191 G2X590.91Y1585.9I6.58J2.8  ;
N1192 G1X645.16Y1653.85  ;
N1193 G1X675.38Y1653.85  ;
N1194 G1X675.38Y1633.7  ;
N1195 G3X680.23Y1628.85I4.85J0  ;
N1196 G1X690.38Y1628.85  ;
N1197 G1X690.38Y1533.55  ;
N1198 G1X670.23Y1533.55  ;
N1199 G3X665.38Y1528.7I0J-4.85  ;
N1200 G1X665.38Y1508.55  ;
N1201 G1X650.38Y1508.55  ;
N1202 G1X650.38Y1507.55  ;
N1203 G1X647.74Y1507.55  ;
N1204 G65 P9104 A102 B04  ;
N1205 M98 P9103  ;
(P24:ID8:W56244402)  ;
N1206 M98 P9101  ;
N1207 G0X444.13Y235.7  ;
N1208 G65 P9102 A102 B04  ;
N1209 G3X444.13Y235.7I-11J0  ;
N1210 G65 P9104 A101 B02  ;
N1211 G0X405.7Y184.25  ;
N1212 G65 P9102 A101 B02  ;
N1213 G1X401.85Y184.25  ;
N1214 G1X401.85Y185.55  ;
N1215 G1X412.55Y185.55  ;
N1216 G1X412.55Y182.65  ;
N1217 G1X401.85Y182.65  ;
N1218 G1X401.85Y184.1  ;
N1219 G65 P9104 A101 B02  ;
N1220 G0X421.96Y136.81  ;
N1221 G65 P9102 A101 B02  ;
N1222 G1X418.53Y140.24  ;
N1223 G3X418.64Y140.34I4.95J-4.74  ;
N1224 G65 P9104 A101 B01  ;
N1225 G0X476.05Y99.56  ;
N1226 G65 P9102 A101 B01  ;
N1227 G1X479.56Y102.91  ;
N1228 G2X479.05Y68.28I-18.08J-17.05  ;
N1229 G1X443.7Y32.93  ;
N1230 G2X408.55Y68.07I-17.57J17.57  ;
N1231 G1X443.91Y103.43  ;
N1232 G2X479.11Y103.37I17.57J-17.57  ;
N1233 G65 P9104 A101 B02  ;
N1234 G0X471.96Y136.81  ;
N1235 G65 P9102 A101 B02  ;
N1236 G1X468.53Y140.24  ;
N1237 G3X468.64Y140.34I4.95J-4.74  ;
N1238 G65 P9104 A101 B02  ;
N1239 G0X546Y183.95  ;
N1240 G65 P9102 A101 B02  ;
N1241 G1X542.15Y183.95  ;
N1242 G1X542.15Y182.65  ;
N1243 G1X555.85Y182.65  ;
N1244 G1X555.85Y185.55  ;
N1245 G1X542.15Y185.55  ;
N1246 G1X542.15Y184.1  ;
N1247 G65 P9104 A101 B01  ;
N1248 G0X545.93Y309.5  ;
N1249 G65 P9102 A101 B01  ;
N1250 G1X545.93Y313.35  ;
N1251 G3X546.08Y313.35I0.15J-10.85  ;
N1252 G65 P9104 A101 B02  ;
N1253 G0X467.84Y326.07  ;
N1254 G65 P9102 A101 B02  ;
N1255 G1X464.42Y329.5  ;
N1256 G3X464.52Y329.61I3.71J-3.5  ;
N1257 G65 P9104 A101 B01  ;
N1258 G0X434.48Y541.7  ;
N1259 G65 P9102 A101 B01  ;
N1260 G1X434.48Y545.7  ;
N1261 G2X434.63Y545.85I0.15J0  ;
N1262 G1X465.98Y545.85  ;
N1263 G1X465.98Y353  ;
N1264 G2X459.13Y346.15I-6.85J0  ;
N1265 G1X396.28Y346.15  ;
N1266 G1X396.28Y539  ;
N1267 G2X403.13Y545.85I6.85J0  ;
N1268 G1X434.63Y545.85  ;
N1269 G65 P9104 A101 B02  ;
N1270 G0X287.59Y588.27  ;
N1271 G65 P9102 A101 B02  ;
N1272 G1X284.24Y588.27  ;
N1273 G1X284.24Y589.6  ;
N1274 G1X290.94Y589.6  ;
N1275 G1X290.94Y586.65  ;
N1276 G1X284.24Y586.65  ;
N1277 G1X284.24Y588.12  ;
N1278 G65 P9104 A101 B02  ;
N1279 G0X147.95Y527.07  ;
N1280 G65 P9102 A101 B02  ;
N1281 G1X144.52Y530.5  ;
N1282 G3X144.63Y530.61I3.71J-3.5  ;
N1283 G65 P9104 A101 B02  ;
N1284 G0X147.95Y405.07  ;
N1285 G65 P9102 A101 B02  ;
N1286 G1X144.52Y408.5  ;
N1287 G3X144.63Y408.61I3.71J-3.5  ;
N1288 G65 P9104 A101 B01  ;
N1289 G0X260.72Y331.2  ;
N1290 G65 P9102 A101 B01  ;
N1291 G1X260.72Y335.2  ;
N1292 G2X260.87Y335.35I0.15J0  ;
N1293 G1X291.17Y335.35  ;
N1294 G2X296.02Y330.5I0J-4.85  ;
N1295 G1X296.02Y220.5  ;
N1296 G2X291.17Y215.65I-4.85J0  ;
N1297 G1X230.57Y215.65  ;
N1298 G2X225.72Y220.5I0J4.85  ;
N1299 G1X225.72Y330.5  ;
N1300 G2X230.57Y335.35I4.85J0  ;
N1301 G1X260.87Y335.35  ;
N1302 G65 P9104 A101 B02  ;
N1303 G0X333.28Y344.7  ;
N1304 G65 P9102 A101 B02  ;
N1305 G1X333.28Y345.55  ;
N1306 G1X333.98Y345.55  ;
N1307 G1X333.98Y335.45  ;
N1308 G1X332.28Y335.45  ;
N1309 G1X332.28Y345.55  ;
N1310 G1X333.13Y345.55  ;
N1311 G65 P9104 A101 B02  ;
N1312 G0X287.59Y435.02  ;
N1313 G65 P9102 A101 B02  ;
N1314 G1X284.24Y435.02  ;
N1315 G1X284.24Y436.35  ;
N1316 G1X290.94Y436.35  ;
N1317 G1X290.94Y433.4  ;
N1318 G1X284.24Y433.4  ;
N1319 G1X284.24Y434.87  ;
N1320 G65 P9104 A101 B02  ;
N1321 G0X333.28Y220.7  ;
N1322 G65 P9102 A101 B02  ;
N1323 G1X333.28Y221.55  ;
N1324 G1X333.98Y221.55  ;
N1325 G1X333.98Y211.45  ;
N1326 G1X332.28Y211.45  ;
N1327 G1X332.28Y221.55  ;
N1328 G1X333.13Y221.55  ;
N1329 G65 P9104 A101 B02  ;
N1330 G0X378.38Y38.39  ;
N1331 G65 P9102 A101 B02  ;
N1332 G1X375.12Y41.64  ;
N1333 G3X375.23Y41.75I3.36J-3.14  ;
N1334 G65 P9104 A101 B02  ;
N1335 G0X405.7Y704.25  ;
N1336 G65 P9102 A101 B02  ;
N1337 G1X401.85Y704.25  ;
N1338 G1X401.85Y705.55  ;
N1339 G1X412.55Y705.55  ;
N1340 G1X412.55Y702.65  ;
N1341 G1X401.85Y702.65  ;
N1342 G1X401.85Y704.1  ;
N1343 G65 P9104 A101 B02  ;
N1344 G0X289.64Y748  ;
N1345 G65 P9102 A101 B02  ;
N1346 G1X289.64Y750.85  ;
N1347 G1X290.94Y750.85  ;
N1348 G1X290.94Y745.15  ;
N1349 G1X288.04Y745.15  ;
N1350 G1X288.04Y750.85  ;
N1351 G1X289.49Y750.85  ;
N1352 G65 P9104 A101 B01  ;
N1353 G0X405.98Y957.75  ;
N1354 G65 P9102 A101 B01  ;
N1355 G1X405.98Y961.6  ;
N1356 G3X406.13Y961.6I0.15J-60.1  ;
N1357 G65 P9104 A101 B01  ;
N1358 G0X284.78Y1020.7  ;
N1359 G65 P9102 A101 B01  ;
N1360 G1X284.82Y1024.7  ;
N1361 G3X284.67Y1024.85I-0.15J0  ;
N1362 G3X276.54Y1023.61I0J-27.34  ;
N1363 G3X269.2Y1020.02I7.96J-25.57  ;
N1364 G3X263.37Y1014.42I14.79J-21.24  ;
N1365 G3X259.62Y1007.35I19.91J-15.1  ;
N1366 G3X259.62Y991.65I23.14J-7.85  ;
N1367 G3X263.37Y984.58I23.66J8.03  ;
N1368 G3X269.2Y978.98I20.62J15.64  ;
N1369 G3X276.54Y975.39I15.3J21.98  ;
N1370 G3X292.8Y975.39I8.13J26.1  ;
N1371 G3X300.14Y978.98I-7.96J25.57  ;
N1372 G3X305.97Y984.58I-14.79J21.24  ;
N1373 G3X309.72Y991.65I-19.91J15.1  ;
N1374 G3X309.72Y1007.35I-23.14J7.85  ;
N1375 G3X305.97Y1014.42I-23.66J-8.03  ;
N1376 G3X300.14Y1020.02I-20.62J-15.64  ;
N1377 G3X292.8Y1023.61I-15.3J-21.98  ;
N1378 G3X284.67Y1024.85I-8.13J-26.1  ;
N1379 G65 P9104 A101 B02  ;
N1380 G0X287.59Y1051.52  ;
N1381 G65 P9102 A101 B02  ;
N1382 G1X284.24Y1051.52  ;
N1383 G1X284.24Y1052.85  ;
N1384 G1X290.94Y1052.85  ;
N1385 G1X290.94Y1049.9  ;
N1386 G1X284.24Y1049.9  ;
N1387 G1X284.24Y1051.37  ;
N1388 G65 P9104 A101 B02  ;
N1389 G0X405.7Y1101.05  ;
N1390 G65 P9102 A101 B02  ;
N1391 G1X401.85Y1101.05  ;
N1392 G1X401.85Y1102.35  ;
N1393 G1X412.55Y1102.35  ;
N1394 G1X412.55Y1099.45  ;
N1395 G1X401.85Y1099.45  ;
N1396 G1X401.85Y1100.9  ;
N1397 G65 P9104 A101 B02  ;
N1398 G0X546Y1101.05  ;
N1399 G65 P9102 A101 B02  ;
N1400 G1X542.15Y1101.05  ;
N1401 G1X542.15Y1102.35  ;
N1402 G1X555.85Y1102.35  ;
N1403 G1X555.85Y1099.45  ;
N1404 G1X542.15Y1099.45  ;
N1405 G1X542.15Y1100.9  ;
N1406 G65 P9104 A101 B01  ;
N1407 G0X427.48Y1454.7  ;
N1408 G65 P9102 A101 B01  ;
N1409 G1X427.48Y1458.7  ;
N1410 G2X427.63Y1458.85I0.15J0  ;
N1411 G1X459.13Y1458.85  ;
N1412 G2X465.98Y1452I0J-6.85  ;
N1413 G1X465.98Y1259.15  ;
N1414 G1X403.13Y1259.15  ;
N1415 G2X396.28Y1266I0J6.85  ;
N1416 G1X396.28Y1458.85  ;
N1417 G1X427.63Y1458.85  ;
N1418 G65 P9104 A101 B01  ;
N1419 G0X545.93Y1509.5  ;
N1420 G65 P9102 A101 B01  ;
N1421 G1X545.93Y1513.35  ;
N1422 G3X546.08Y1513.35I0.15J-10.85  ;
N1423 G65 P9104 A101 B02  ;
N1424 G0X546Y1621.05  ;
N1425 G65 P9102 A101 B02  ;
N1426 G1X542.15Y1621.05  ;
N1427 G1X542.15Y1622.35  ;
N1428 G1X555.85Y1622.35  ;
N1429 G1X555.85Y1619.45  ;
N1430 G1X542.15Y1619.45  ;
N1431 G1X542.15Y1620.9  ;
N1432 G65 P9104 A101 B02  ;
N1433 G0X471.96Y1670.81  ;
N1434 G65 P9102 A101 B02  ;
N1435 G1X468.53Y1674.24  ;
N1436 G3X468.64Y1674.34I4.95J-4.74  ;
N1437 G65 P9104 A101 B01  ;
N1438 G0X475.46Y1704.84  ;
N1439 G65 P9102 A101 B01  ;
N1440 G1X478.87Y1701.39  ;
N1441 G2X443.91Y1701.57I-17.39J17.75  ;
N1442 G1X408.55Y1736.93  ;
N1443 G2X443.7Y1772.07I17.58J17.57  ;
N1444 G1X479.05Y1736.72  ;
N1445 G2X479.33Y1701.85I-17.57J-17.58  ;
N1446 G65 P9104 A101 B02  ;
N1447 G0X421.96Y1670.81  ;
N1448 G65 P9102 A101 B02  ;
N1449 G1X418.53Y1674.24  ;
N1450 G3X418.64Y1674.34I4.95J-4.74  ;
N1451 G65 P9104 A101 B02  ;
N1452 G0X405.7Y1621.05  ;
N1453 G65 P9102 A101 B02  ;
N1454 G1X401.85Y1621.05  ;
N1455 G1X401.85Y1622.35  ;
N1456 G1X412.55Y1622.35  ;
N1457 G1X412.55Y1619.45  ;
N1458 G1X401.85Y1619.45  ;
N1459 G1X401.85Y1620.9  ;
N1460 G65 P9104 A101 B02  ;
N1461 G0X378.38Y1766.39  ;
N1462 G65 P9102 A101 B02  ;
N1463 G1X375.12Y1769.64  ;
N1464 G3X375.23Y1769.75I3.36J-3.14  ;
N1465 G65 P9104 A101 B02  ;
N1466 G0X297.79Y1435.05  ;
N1467 G65 P9102 A101 B02  ;
N1468 G1X294.33Y1437.05  ;
N1469 G2X294.27Y1437.25I0.07J0.12  ;
N1470 G1X295.57Y1439.5  ;
N1471 G1X300.77Y1439.5  ;
N1472 G1X303.37Y1435  ;
N1473 G1X300.77Y1430.5  ;
N1474 G1X295.57Y1430.5  ;
N1475 G1X292.97Y1435  ;
N1476 G1X294.27Y1437.25  ;
N1477 G65 P9104 A101 B01  ;
N1478 G0X278.32Y1421.7  ;
N1479 G65 P9102 A101 B01  ;
N1480 G1X278.32Y1425.7  ;
N1481 G3X278.17Y1425.85I-0.15J0  ;
N1482 G1X257.17Y1425.85  ;
N1483 G3X254.32Y1423I0J-2.85  ;
N1484 G1X254.32Y1379  ;
N1485 G3X257.17Y1376.15I2.85J0  ;
N1486 G1X299.17Y1376.15  ;
N1487 G3X302.02Y1379I0J2.85  ;
N1488 G1X302.02Y1423  ;
N1489 G3X299.17Y1425.85I-2.85J0  ;
N1490 G1X278.17Y1425.85  ;
N1491 G65 P9104 A101 B02  ;
N1492 G0X257.79Y1435.05  ;
N1493 G65 P9102 A101 B02  ;
N1494 G1X254.33Y1437.05  ;
N1495 G2X254.27Y1437.25I0.07J0.12  ;
N1496 G1X255.57Y1439.5  ;
N1497 G1X260.77Y1439.5  ;
N1498 G1X263.37Y1435  ;
N1499 G1X260.77Y1430.5  ;
N1500 G1X255.57Y1430.5  ;
N1501 G1X252.97Y1435  ;
N1502 G1X254.27Y1437.25  ;
N1503 G65 P9104 A101 B02  ;
N1504 G0X278.79Y1366.05  ;
N1505 G65 P9102 A101 B02  ;
N1506 G1X275.33Y1368.05  ;
N1507 G2X275.27Y1368.25I0.07J0.12  ;
N1508 G1X276.57Y1370.5  ;
N1509 G1X281.77Y1370.5  ;
N1510 G1X284.37Y1366  ;
N1511 G1X281.77Y1361.5  ;
N1512 G1X276.57Y1361.5  ;
N1513 G1X273.97Y1366  ;
N1514 G1X275.27Y1368.25  ;
N1515 G65 P9104 A101 B01  ;
N1516 G0X278.32Y1351.7  ;
N1517 G65 P9102 A101 B01  ;
N1518 G1X278.32Y1355.7  ;
N1519 G3X278.17Y1355.85I-0.15J0  ;
N1520 G1X257.17Y1355.85  ;
N1521 G3X254.32Y1353I0J-2.85  ;
N1522 G1X254.32Y1309  ;
N1523 G3X257.17Y1306.15I2.85J0  ;
N1524 G1X299.17Y1306.15  ;
N1525 G3X302.02Y1309I0J2.85  ;
N1526 G1X302.02Y1353  ;
N1527 G3X299.17Y1355.85I-2.85J0  ;
N1528 G1X278.17Y1355.85  ;
N1529 G65 P9104 A101 B02  ;
N1530 G0X257.79Y1297.05  ;
N1531 G65 P9102 A101 B02  ;
N1532 G1X254.33Y1299.05  ;
N1533 G2X254.27Y1299.25I0.07J0.12  ;
N1534 G1X255.57Y1301.5  ;
N1535 G1X260.77Y1301.5  ;
N1536 G1X263.37Y1297  ;
N1537 G1X260.77Y1292.5  ;
N1538 G1X255.57Y1292.5  ;
N1539 G1X252.97Y1297  ;
N1540 G1X254.27Y1299.25  ;
N1541 G65 P9104 A101 B02  ;
N1542 G0X297.79Y1297.05  ;
N1543 G65 P9102 A101 B02  ;
N1544 G1X294.33Y1299.05  ;
N1545 G2X294.27Y1299.25I0.07J0.12  ;
N1546 G1X295.57Y1301.5  ;
N1547 G1X300.77Y1301.5  ;
N1548 G1X303.37Y1297  ;
N1549 G1X300.77Y1292.5  ;
N1550 G1X295.57Y1292.5  ;
N1551 G1X292.97Y1297  ;
N1552 G1X294.27Y1299.25  ;
N1553 G65 P9104 A101 B02  ;
N1554 G0X287.59Y1204.77  ;
N1555 G65 P9102 A101 B02  ;
N1556 G1X284.24Y1204.77  ;
N1557 G1X284.24Y1206.1  ;
N1558 G1X290.94Y1206.1  ;
N1559 G1X290.94Y1203.15  ;
N1560 G1X284.24Y1203.15  ;
N1561 G1X284.24Y1204.62  ;
N1562 G65 P9104 A101 B02  ;
N1563 G0X147.95Y1298.07  ;
N1564 G65 P9102 A101 B02  ;
N1565 G1X144.52Y1301.5  ;
N1566 G3X144.63Y1301.61I3.71J-3.5  ;
N1567 G65 P9104 A101 B02  ;
N1568 G0X147.95Y1420.07  ;
N1569 G65 P9102 A101 B02  ;
N1570 G1X144.52Y1423.5  ;
N1571 G3X144.63Y1423.61I3.71J-3.5  ;
N1572 G65 P9104 A101 B02  ;
N1573 G0X73.01Y1527.05  ;
N1574 G65 P9102 A101 B02  ;
N1575 G1X69.55Y1529.05  ;
N1576 G2X69.49Y1529.25I0.07J0.12  ;
N1577 G1X71.08Y1532  ;
N1578 G1X77.43Y1532  ;
N1579 G1X80.61Y1526.5  ;
N1580 G1X77.43Y1521  ;
N1581 G1X71.08Y1521  ;
N1582 G1X67.91Y1526.5  ;
N1583 G1X69.49Y1529.25  ;
N1584 G65 P9104 A101 B02  ;
N1585 G0X289.64Y903  ;
N1586 G65 P9102 A101 B02  ;
N1587 G1X289.64Y905.85  ;
N1588 G1X290.94Y905.85  ;
N1589 G1X290.94Y900.15  ;
N1590 G1X288.04Y900.15  ;
N1591 G1X288.04Y905.85  ;
N1592 G1X289.49Y905.85  ;
N1593 G65 P9104 A101 B02  ;
N1594 G0X73.01Y721.05  ;
N1595 G65 P9102 A101 B02  ;
N1596 G1X69.55Y723.05  ;
N1597 G2X69.49Y723.25I0.07J0.12  ;
N1598 G1X71.08Y726  ;
N1599 G1X77.43Y726  ;
N1600 G1X80.61Y720.5  ;
N1601 G1X77.43Y715  ;
N1602 G1X71.08Y715  ;
N1603 G1X67.91Y720.5  ;
N1604 G1X69.49Y723.25  ;
N1605 G65 P9104 A101 B02  ;
N1606 G0X546Y704.25  ;
N1607 G65 P9102 A101 B02  ;
N1608 G1X542.15Y704.25  ;
N1609 G1X542.15Y705.55  ;
N1610 G1X555.85Y705.55  ;
N1611 G1X555.85Y702.65  ;
N1612 G1X542.15Y702.65  ;
N1613 G1X542.15Y704.1  ;
N1614 G65 P9104 A101 B01  ;
N1615 G0X576.23Y59.3  ;
N1616 G65 P9102 A101 B01  ;
N1617 G1X576.23Y63.3  ;
N1618 G1X576.23Y1741.85  ;
N1619 G1X508.59Y1741.85  ;
N1620 G1X504.24Y1740.81  ;
N1621 G2X503.34Y1741.15I-0.2J0.82  ;
N1622 G1X500.35Y1745.49  ;
N1623 G1X458.58Y1787.26  ;
N1624 G3X452.81Y1789.65I-5.77J-5.76  ;
N1625 G1X327.13Y1789.65  ;
N1626 G3X322.98Y1785.5I0J-4.15  ;
N1627 G1X322.98Y1749.65  ;
N1628 G1X49.91Y1749.65  ;
N1629 G1X49.91Y1744.35  ;
N1630 G1X50.41Y1744.35  ;
N1631 G1X50.41Y1714.65  ;
N1632 G1X49.91Y1714.65  ;
N1633 G1X49.91Y1705.35  ;
N1634 G1X56.61Y1705.35  ;
N1635 G1X56.61Y1702.65  ;
N1636 G1X15.35Y1702.65  ;
N1637 G1X15.35Y102.35  ;
N1638 G1X54.13Y102.35  ;
N1639 G1X54.13Y101.9  ;
N1640 G1X49.91Y101.9  ;
N1641 G1X49.91Y90.35  ;
N1642 G1X50.41Y90.35  ;
N1643 G1X50.41Y60.65  ;
N1644 G1X49.91Y60.65  ;
N1645 G1X49.91Y55.35  ;
N1646 G1X322.98Y55.35  ;
N1647 G1X322.98Y19.5  ;
N1648 G3X327.13Y15.35I4.15J0  ;
N1649 G1X452.81Y15.35  ;
N1650 G3X458.58Y17.74I0J8.15  ;
N1651 G1X500.35Y59.51  ;
N1652 G1X503.34Y63.85  ;
N1653 G2X504.24Y64.19I0.7J-0.48  ;
N1654 G1X508.59Y63.15  ;
N1655 G1X576.08Y63.15  ;
N1656 G65 P9104 A102 B04  ;
N1657 M98 P9103  ;
(P25:ID7:W56197513S)  ;
N1658 M98 P9101  ;
N1659 G0X726.98Y1659.5  ;
N1660 G65 P9102 A102 B04  ;
N1661 G1X730.74Y1666  ;
N1662 G1X726.98Y1672.5  ;
N1663 G1X719.48Y1672.5  ;
N1664 G1X715.72Y1666  ;
N1665 G1X719.48Y1659.5  ;
N1666 G1X726.98Y1659.5  ;
N1667 G65 P9104 A102 B04  ;
N1668 G0X749.48Y1719.5  ;
N1669 G65 P9102 A102 B04  ;
N1670 G1X756.98Y1719.5  ;
N1671 G1X760.74Y1726  ;
N1672 G1X756.98Y1732.5  ;
N1673 G1X749.48Y1732.5  ;
N1674 G1X745.72Y1726  ;
N1675 G1X749.48Y1719.5  ;
N1676 G65 P9104 A101 B02  ;
N1677 G0X752.95Y1726.07  ;
N1678 G65 P9102 A101 B02  ;
N1679 G1X749.52Y1729.5  ;
N1680 G3X749.62Y1729.61I3.71J-3.5  ;
N1681 G65 P9104 A101 B02  ;
N1682 G0X738.16Y1698.2  ;
N1683 G65 P9102 A101 B02  ;
N1684 G1X737.6Y1699.53  ;
N1685 G1X733.18Y1697.65  ;
N1686 G1X734.31Y1694.98  ;
N1687 G1X743.43Y1698.85  ;
N1688 G1X742.29Y1701.52  ;
N1689 G1X737.74Y1699.59  ;
N1690 G65 P9104 A101 B02  ;
N1691 G0X722.95Y1666.07  ;
N1692 G65 P9102 A101 B02  ;
N1693 G1X719.52Y1669.5  ;
N1694 G3X719.62Y1669.61I3.71J-3.5  ;
N1695 G65 P9104 A101 B01  ;
N1696 G0X744.84Y1595  ;
N1697 G65 P9102 A101 B01  ;
N1698 G1X744.84Y1599.85  ;
N1699 G1X743.08Y1599.85  ;
N1700 G1X743.08Y1600.85  ;
N1701 G1X717.67Y1600.85  ;
N1702 G1X696.94Y1649.68  ;
N1703 G1X699.8Y1650.89  ;
N1704 G1X695.81Y1660.28  ;
N1705 G1X692.96Y1659.07  ;
N1706 G1X687.92Y1670.94  ;
N1707 G2X688.91Y1678.2I6.58J2.8  ;
N1708 G1X743.16Y1746.15  ;
N1709 G1X773.38Y1746.15  ;
N1710 G1X773.38Y1726  ;
N1711 G3X778.23Y1721.15I4.85J0  ;
N1712 G1X788.38Y1721.15  ;
N1713 G1X788.38Y1625.85  ;
N1714 G1X768.23Y1625.85  ;
N1715 G3X763.38Y1621I0J-4.85  ;
N1716 G1X763.38Y1600.85  ;
N1717 G1X748.38Y1600.85  ;
N1718 G1X748.38Y1599.85  ;
N1719 G1X745.74Y1599.85  ;
N1720 G65 P9104 A102 B04  ;
N1721 M98 P9103  ;
(P26:ID9:W56244403)  ;
N1722 M98 P9101  ;
N1723 G0X1352.33Y236.5  ;
N1724 G65 P9102 A102 B04  ;
N1725 G3X1352.33Y236.5I-11J0  ;
N1726 G65 P9104 A102 B04  ;
N1727 G0X977.4Y655.29  ;
N1728 G65 P9102 A102 B04  ;
N1729 G1X977.4Y656.11  ;
N1730 G65 P9104 A102 B04  ;
N1731 G0X977.4Y655.7  ;
N1732 G65 P9102 A102 B04  ;
N1733 G1X973.4Y655.7  ;
N1734 G1X973.81Y655.29  ;
N1735 G65 P9104 A102 B04  ;
N1736 G0X975.69Y657.11  ;
N1737 G65 P9102 A102 B04  ;
N1738 G1X975.69Y659.4  ;
N1739 G1X976.26Y659.97  ;
N1740 G1X976.83Y659.97  ;
N1741 G1X977.4Y659.4  ;
N1742 G1X977.4Y657.68  ;
N1743 G1X976.83Y657.11  ;
N1744 G1X973.98Y657.11  ;
N1745 G1X973.4Y657.68  ;
N1746 G1X973.4Y659.4  ;
N1747 G65 P9104 A102 B04  ;
N1748 G0X973.98Y660.97  ;
N1749 G65 P9102 A102 B04  ;
N1750 G1X973.4Y661.54  ;
N1751 G1X973.4Y663.26  ;
N1752 G1X973.98Y663.83  ;
N1753 G1X975.12Y663.83  ;
N1754 G1X975.69Y663.26  ;
N1755 G1X976.26Y663.83  ;
N1756 G1X976.83Y663.83  ;
N1757 G1X977.4Y663.26  ;
N1758 G1X977.4Y661.54  ;
N1759 G1X976.83Y660.97  ;
N1760 G65 P9104 A102 B04  ;
N1761 G0X975.69Y661.54  ;
N1762 G65 P9102 A102 B04  ;
N1763 G1X975.69Y663.26  ;
N1764 G65 P9104 A102 B04  ;
N1765 G0X975.69Y664.83  ;
N1766 G65 P9102 A102 B04  ;
N1767 G1X975.69Y667.11  ;
N1768 G1X976.26Y667.68  ;
N1769 G1X976.83Y667.68  ;
N1770 G1X977.4Y667.11  ;
N1771 G1X977.4Y665.4  ;
N1772 G1X976.83Y664.83  ;
N1773 G1X973.98Y664.83  ;
N1774 G1X973.4Y665.4  ;
N1775 G1X973.4Y667.11  ;
N1776 G65 P9104 A102 B04  ;
N1777 G0X973.98Y668.68  ;
N1778 G65 P9102 A102 B04  ;
N1779 G1X973.4Y669.26  ;
N1780 G1X973.4Y670.97  ;
N1781 G1X973.98Y671.54  ;
N1782 G1X976.83Y671.54  ;
N1783 G1X977.4Y670.97  ;
N1784 G1X977.4Y669.26  ;
N1785 G1X976.83Y668.68  ;
N1786 G1X973.98Y668.68  ;
N1787 G65 P9104 A102 B04  ;
N1788 G0X973.4Y670.97  ;
N1789 G65 P9102 A102 B04  ;
N1790 G1X977.4Y669.26  ;
N1791 G65 P9104 A102 B04  ;
N1792 G0X973.98Y672.54  ;
N1793 G65 P9102 A102 B04  ;
N1794 G1X973.4Y673.11  ;
N1795 G1X973.4Y674.83  ;
N1796 G1X973.98Y675.4  ;
N1797 G1X975.12Y675.4  ;
N1798 G1X975.69Y674.83  ;
N1799 G1X975.69Y673.11  ;
N1800 G1X976.26Y672.54  ;
N1801 G1X977.4Y672.54  ;
N1802 G1X977.4Y674.83  ;
N1803 G1X976.83Y675.4  ;
N1804 G65 P9104 A102 B04  ;
N1805 G0X973.98Y676.4  ;
N1806 G65 P9102 A102 B04  ;
N1807 G1X973.4Y676.97  ;
N1808 G1X973.4Y678.68  ;
N1809 G1X973.98Y679.26  ;
N1810 G1X975.12Y679.26  ;
N1811 G1X975.69Y678.68  ;
N1812 G1X975.69Y676.97  ;
N1813 G1X976.26Y676.4  ;
N1814 G1X977.4Y676.4  ;
N1815 G1X977.4Y678.68  ;
N1816 G1X976.83Y679.26  ;
N1817 G65 P9104 A102 B04  ;
N1818 G0X977.4Y680.83  ;
N1819 G65 P9102 A102 B04  ;
N1820 G1X973.4Y683.11  ;
N1821 G1X973.4Y680.26  ;
N1822 G65 P9104 A102 B04  ;
N1823 G0X975.69Y680.83  ;
N1824 G65 P9102 A102 B04  ;
N1825 G1X975.69Y682.54  ;
N1826 G65 P9104 A102 B04  ;
N1827 G0X975.69Y684.68  ;
N1828 G65 P9102 A102 B04  ;
N1829 G1X975.12Y684.11  ;
N1830 G1X973.98Y684.11  ;
N1831 G1X973.4Y684.68  ;
N1832 G1X973.4Y686.4  ;
N1833 G1X973.98Y686.97  ;
N1834 G1X975.12Y686.97  ;
N1835 G1X975.69Y686.4  ;
N1836 G1X975.69Y684.68  ;
N1837 G1X976.26Y684.11  ;
N1838 G1X976.83Y684.11  ;
N1839 G1X977.4Y684.68  ;
N1840 G1X977.4Y686.4  ;
N1841 G1X976.83Y686.97  ;
N1842 G1X976.26Y686.97  ;
N1843 G1X975.69Y686.4  ;
N1844 G65 P9104 A102 B04  ;
N1845 G0X975.69Y688.54  ;
N1846 G65 P9102 A102 B04  ;
N1847 G1X975.69Y690.26  ;
N1848 G65 P9104 A102 B04  ;
N1849 G0X977.4Y688.54  ;
N1850 G65 P9102 A102 B04  ;
N1851 G1X973.4Y690.83  ;
N1852 G1X973.4Y687.97  ;
N1853 G65 P9104 A101 B02  ;
N1854 G0X1055.95Y507.07  ;
N1855 G65 P9102 A101 B02  ;
N1856 G1X1052.52Y510.5  ;
N1857 G3X1052.63Y510.61I3.71J-3.5  ;
N1858 G65 P9104 A101 B02  ;
N1859 G0X1055.95Y385.07  ;
N1860 G65 P9102 A101 B02  ;
N1861 G1X1052.52Y388.5  ;
N1862 G3X1052.63Y388.61I3.71J-3.5  ;
N1863 G65 P9104 A101 B02  ;
N1864 G0X981.01Y277.05  ;
N1865 G65 P9102 A101 B02  ;
N1866 G1X977.55Y279.05  ;
N1867 G2X977.49Y279.25I0.07J0.12  ;
N1868 G1X979.08Y282  ;
N1869 G1X985.43Y282  ;
N1870 G1X988.61Y276.5  ;
N1871 G1X985.43Y271  ;
N1872 G1X979.08Y271  ;
N1873 G1X975.91Y276.5  ;
N1874 G1X977.49Y279.25  ;
N1875 G65 P9104 A101 B02  ;
N1876 G0X993.15Y61.39  ;
N1877 G65 P9102 A101 B02  ;
N1878 G1X990.78Y63.76  ;
N1879 G3X990.89Y63.87I2.48J-2.26  ;
N1880 G65 P9104 A101 B02  ;
N1881 G0X1286.38Y38.39  ;
N1882 G65 P9102 A101 B02  ;
N1883 G1X1283.12Y41.64  ;
N1884 G3X1283.23Y41.75I3.36J-3.14  ;
N1885 G65 P9104 A101 B01  ;
N1886 G0X1385.13Y98.31  ;
N1887 G65 P9102 A101 B01  ;
N1888 G1X1388.9Y101.36  ;
N1889 G2X1387.05Y68.28I-19.42J-15.5  ;
N1890 G1X1351.7Y32.93  ;
N1891 G2X1316.55Y68.07I-17.57J17.57  ;
N1892 G1X1351.91Y103.43  ;
N1893 G2X1388.49Y101.86I17.57J-17.57  ;
N1894 G65 P9104 A101 B02  ;
N1895 G0X1379.96Y136.81  ;
N1896 G65 P9102 A101 B02  ;
N1897 G1X1376.53Y140.24  ;
N1898 G3X1376.64Y140.34I4.95J-4.74  ;
N1899 G65 P9104 A101 B02  ;
N1900 G0X1329.96Y136.81  ;
N1901 G65 P9102 A101 B02  ;
N1902 G1X1326.53Y140.24  ;
N1903 G3X1326.64Y140.34I4.95J-4.74  ;
N1904 G65 P9104 A101 B02  ;
N1905 G0X1314.2Y184.25  ;
N1906 G65 P9102 A101 B02  ;
N1907 G1X1310.35Y184.25  ;
N1908 G1X1310.35Y185.55  ;
N1909 G1X1320.55Y185.55  ;
N1910 G1X1320.55Y182.65  ;
N1911 G1X1310.35Y182.65  ;
N1912 G1X1310.35Y184.1  ;
N1913 G65 P9104 A101 B02  ;
N1914 G0X1454Y184.25  ;
N1915 G65 P9102 A101 B02  ;
N1916 G1X1450.15Y184.25  ;
N1917 G1X1450.15Y185.55  ;
N1918 G1X1463.85Y185.55  ;
N1919 G1X1463.85Y182.65  ;
N1920 G1X1450.15Y182.65  ;
N1921 G1X1450.15Y184.1  ;
N1922 G65 P9104 A101 B01  ;
N1923 G0X1453.93Y309.5  ;
N1924 G65 P9102 A101 B01  ;
N1925 G1X1453.93Y313.35  ;
N1926 G3X1454.08Y313.35I0.15J-10.85  ;
N1927 G65 P9104 A101 B01  ;
N1928 G0X1342.48Y541.7  ;
N1929 G65 P9102 A101 B01  ;
N1930 G1X1342.48Y545.7  ;
N1931 G2X1342.63Y545.85I0.15J0  ;
N1932 G1X1373.98Y545.85  ;
N1933 G1X1373.98Y353  ;
N1934 G2X1367.13Y346.15I-6.85J0  ;
N1935 G1X1304.28Y346.15  ;
N1936 G1X1304.28Y539  ;
N1937 G2X1311.13Y545.85I6.85J0  ;
N1938 G1X1342.63Y545.85  ;
N1939 G65 P9104 A101 B02  ;
N1940 G0X1195.59Y600.22  ;
N1941 G65 P9102 A101 B02  ;
N1942 G1X1192.24Y600.22  ;
N1943 G1X1192.24Y598.9  ;
N1944 G1X1198.94Y598.9  ;
N1945 G1X1198.94Y601.85  ;
N1946 G1X1192.24Y601.85  ;
N1947 G1X1192.24Y600.37  ;
N1948 G65 P9104 A101 B02  ;
N1949 G0X1195.59Y753.47  ;
N1950 G65 P9102 A101 B02  ;
N1951 G1X1192.24Y753.47  ;
N1952 G1X1192.24Y752.15  ;
N1953 G1X1198.94Y752.15  ;
N1954 G1X1198.94Y755.1  ;
N1955 G1X1192.24Y755.1  ;
N1956 G1X1192.24Y753.62  ;
N1957 G65 P9104 A101 B02  ;
N1958 G0X1314.2Y704.25  ;
N1959 G65 P9102 A101 B02  ;
N1960 G1X1310.35Y704.25  ;
N1961 G1X1310.35Y705.55  ;
N1962 G1X1320.55Y705.55  ;
N1963 G1X1320.55Y702.65  ;
N1964 G1X1310.35Y702.65  ;
N1965 G1X1310.35Y704.1  ;
N1966 G65 P9104 A101 B02  ;
N1967 G0X1454Y704.25  ;
N1968 G65 P9102 A101 B02  ;
N1969 G1X1450.15Y704.25  ;
N1970 G1X1450.15Y705.55  ;
N1971 G1X1463.85Y705.55  ;
N1972 G1X1463.85Y702.65  ;
N1973 G1X1450.15Y702.65  ;
N1974 G1X1450.15Y704.1  ;
N1975 G65 P9104 A101 B02  ;
N1976 G0X1197.64Y902  ;
N1977 G65 P9102 A101 B02  ;
N1978 G1X1197.64Y904.85  ;
N1979 G1X1198.94Y904.85  ;
N1980 G1X1198.94Y899.15  ;
N1981 G1X1196.04Y899.15  ;
N1982 G1X1196.04Y904.85  ;
N1983 G1X1197.49Y904.85  ;
N1984 G65 P9104 A101 B02  ;
N1985 G0X1197.34Y1057  ;
N1986 G65 P9102 A101 B02  ;
N1987 G1X1197.34Y1059.85  ;
N1988 G1X1196.04Y1059.85  ;
N1989 G1X1196.04Y1054.15  ;
N1990 G1X1198.94Y1054.15  ;
N1991 G1X1198.94Y1059.85  ;
N1992 G1X1197.49Y1059.85  ;
N1993 G65 P9104 A101 B02  ;
N1994 G0X1314.2Y1101.05  ;
N1995 G65 P9102 A101 B02  ;
N1996 G1X1310.35Y1101.05  ;
N1997 G1X1310.35Y1102.35  ;
N1998 G1X1320.55Y1102.35  ;
N1999 G1X1320.55Y1099.45  ;
N2000 G1X1310.35Y1099.45  ;
N2001 G1X1310.35Y1100.9  ;
N2002 G65 P9104 A101 B02  ;
N2003 G0X1454Y1101.05  ;
N2004 G65 P9102 A101 B02  ;
N2005 G1X1450.15Y1101.05  ;
N2006 G1X1450.15Y1102.35  ;
N2007 G1X1463.85Y1102.35  ;
N2008 G1X1463.85Y1099.45  ;
N2009 G1X1450.15Y1099.45  ;
N2010 G1X1450.15Y1100.9  ;
N2011 G65 P9104 A101 B01  ;
N2012 G0X1335.48Y1454.7  ;
N2013 G65 P9102 A101 B01  ;
N2014 G1X1335.48Y1458.7  ;
N2015 G2X1335.63Y1458.85I0.15J0  ;
N2016 G1X1367.13Y1458.85  ;
N2017 G2X1373.98Y1452I0J-6.85  ;
N2018 G1X1373.98Y1259.15  ;
N2019 G1X1309.14Y1259.15  ;
N2020 G2X1304.28Y1265.99I0.99J5.85  ;
N2021 G1X1304.28Y1458.85  ;
N2022 G1X1335.63Y1458.85  ;
N2023 G65 P9104 A101 B02  ;
N2024 G0X1318.52Y1468.89  ;
N2025 G65 P9102 A101 B02  ;
N2026 G1X1315.09Y1472.32  ;
N2027 G3X1315.2Y1472.43I3.54J-3.32  ;
N2028 G65 P9104 A101 B01  ;
N2029 G0X1453.93Y1509.5  ;
N2030 G65 P9102 A101 B01  ;
N2031 G1X1453.93Y1513.35  ;
N2032 G3X1454.08Y1513.35I0.15J-10.85  ;
N2033 G65 P9104 A101 B02  ;
N2034 G0X1454Y1621.05  ;
N2035 G65 P9102 A101 B02  ;
N2036 G1X1450.15Y1621.05  ;
N2037 G1X1450.15Y1622.35  ;
N2038 G1X1463.85Y1622.35  ;
N2039 G1X1463.85Y1619.45  ;
N2040 G1X1450.15Y1619.45  ;
N2041 G1X1450.15Y1620.9  ;
N2042 G65 P9104 A101 B02  ;
N2043 G0X1379.96Y1670.81  ;
N2044 G65 P9102 A101 B02  ;
N2045 G1X1376.53Y1674.24  ;
N2046 G3X1376.64Y1674.34I4.95J-4.74  ;
N2047 G65 P9104 A101 B01  ;
N2048 G0X1384.59Y1706.03  ;
N2049 G65 P9102 A101 B01  ;
N2050 G1X1388.27Y1702.88  ;
N2051 G2X1351.91Y1701.57I-18.79J16.26  ;
N2052 G1X1316.55Y1736.93  ;
N2053 G2X1351.7Y1772.07I17.58J17.57  ;
N2054 G1X1387.05Y1736.72  ;
N2055 G2X1388.69Y1703.38I-17.57J-17.58  ;
N2056 G65 P9104 A101 B02  ;
N2057 G0X1400.02Y1743.49  ;
N2058 G65 P9102 A101 B02  ;
N2059 G1X1397.65Y1745.86  ;
N2060 G3X1397.76Y1745.97I2.48J-2.26  ;
N2061 G65 P9104 A101 B02  ;
N2062 G0X1329.96Y1670.81  ;
N2063 G65 P9102 A101 B02  ;
N2064 G1X1326.53Y1674.24  ;
N2065 G3X1326.64Y1674.34I4.95J-4.74  ;
N2066 G65 P9104 A101 B02  ;
N2067 G0X1314.2Y1621.05  ;
N2068 G65 P9102 A101 B02  ;
N2069 G1X1310.35Y1621.05  ;
N2070 G1X1310.35Y1622.35  ;
N2071 G1X1320.55Y1622.35  ;
N2072 G1X1320.55Y1619.45  ;
N2073 G1X1310.35Y1619.45  ;
N2074 G1X1310.35Y1620.9  ;
N2075 G65 P9104 A101 B02  ;
N2076 G0X1286.38Y1766.39  ;
N2077 G65 P9102 A101 B02  ;
N2078 G1X1283.12Y1769.64  ;
N2079 G3X1283.23Y1769.75I3.36J-3.14  ;
N2080 G65 P9104 A101 B02  ;
N2081 G0X981.01Y1631.05  ;
N2082 G65 P9102 A101 B02  ;
N2083 G1X977.55Y1633.05  ;
N2084 G2X977.49Y1633.25I0.07J0.12  ;
N2085 G1X979.08Y1636  ;
N2086 G1X985.43Y1636  ;
N2087 G1X988.61Y1630.5  ;
N2088 G1X985.43Y1625  ;
N2089 G1X979.08Y1625  ;
N2090 G1X975.91Y1630.5  ;
N2091 G1X977.49Y1633.25  ;
N2092 G65 P9104 A101 B02  ;
N2093 G0X980.08Y1616.3  ;
N2094 G65 P9102 A101 B02  ;
N2095 G1X980.08Y1618.25  ;
N2096 G1X981.38Y1618.25  ;
N2097 G1X981.38Y1614.35  ;
N2098 G1X978.48Y1614.35  ;
N2099 G1X978.48Y1618.25  ;
N2100 G1X979.93Y1618.25  ;
N2101 G65 P9104 A101 B02  ;
N2102 G0X980.08Y1418.5  ;
N2103 G65 P9102 A101 B02  ;
N2104 G1X980.08Y1420.45  ;
N2105 G1X981.38Y1420.45  ;
N2106 G1X981.38Y1416.55  ;
N2107 G1X978.48Y1416.55  ;
N2108 G1X978.48Y1420.45  ;
N2109 G1X979.93Y1420.45  ;
N2110 G65 P9104 A101 B02  ;
N2111 G0X1055.95Y1400.07  ;
N2112 G65 P9102 A101 B02  ;
N2113 G1X1052.52Y1403.5  ;
N2114 G3X1052.63Y1403.61I3.71J-3.5  ;
N2115 G65 P9104 A101 B02  ;
N2116 G0X1055.95Y1278.07  ;
N2117 G65 P9102 A101 B02  ;
N2118 G1X1052.52Y1281.5  ;
N2119 G3X1052.63Y1281.61I3.71J-3.5  ;
N2120 G65 P9104 A101 B02  ;
N2121 G0X1195.59Y1216.72  ;
N2122 G65 P9102 A101 B02  ;
N2123 G1X1192.24Y1216.72  ;
N2124 G1X1192.24Y1215.4  ;
N2125 G1X1198.94Y1215.4  ;
N2126 G1X1198.94Y1218.35  ;
N2127 G1X1192.24Y1218.35  ;
N2128 G1X1192.24Y1216.87  ;
N2129 G65 P9104 A101 B02  ;
N2130 G0X1195.59Y1369.97  ;
N2131 G65 P9102 A101 B02  ;
N2132 G1X1192.24Y1369.97  ;
N2133 G1X1192.24Y1368.65  ;
N2134 G1X1198.94Y1368.65  ;
N2135 G1X1198.94Y1371.6  ;
N2136 G1X1192.24Y1371.6  ;
N2137 G1X1192.24Y1370.12  ;
N2138 G65 P9104 A101 B01  ;
N2139 G0X1484.23Y59.3  ;
N2140 G65 P9102 A101 B01  ;
N2141 G1X1484.23Y63.3  ;
N2142 G1X1484.23Y1741.85  ;
N2143 G1X1416.59Y1741.85  ;
N2144 G1X1412.26Y1740.81  ;
N2145 G2X1411.35Y1741.18I-0.2J0.83  ;
N2146 G1X1408.95Y1744.89  ;
N2147 G1X1366.58Y1787.26  ;
N2148 G3X1360.81Y1789.65I-5.77J-5.76  ;
N2149 G1X1235.13Y1789.65  ;
N2150 G3X1230.98Y1785.5I0J-4.15  ;
N2151 G1X1230.98Y1749.65  ;
N2152 G1X957.91Y1749.65  ;
N2153 G1X957.91Y1744.35  ;
N2154 G1X958.41Y1744.35  ;
N2155 G1X958.41Y1714.65  ;
N2156 G1X957.91Y1714.65  ;
N2157 G1X957.91Y1703.1  ;
N2158 G1X962.13Y1703.1  ;
N2159 G1X962.13Y1702.65  ;
N2160 G1X923.35Y1702.65  ;
N2161 G1X923.35Y102.35  ;
N2162 G1X964.61Y102.35  ;
N2163 G1X964.61Y99.65  ;
N2164 G1X957.91Y99.65  ;
N2165 G1X957.91Y90.35  ;
N2166 G1X958.41Y90.35  ;
N2167 G1X958.41Y60.65  ;
N2168 G1X957.91Y60.65  ;
N2169 G1X957.91Y55.35  ;
N2170 G1X1230.98Y55.35  ;
N2171 G1X1230.98Y19.5  ;
N2172 G3X1235.13Y15.35I4.15J0  ;
N2173 G1X1360.81Y15.35  ;
N2174 G3X1366.58Y17.74I0J8.15  ;
N2175 G1X1408.35Y59.51  ;
N2176 G1X1411.34Y63.85  ;
N2177 G2X1412.24Y64.19I0.7J-0.48  ;
N2178 G1X1416.59Y63.15  ;
N2179 G1X1484.08Y63.15  ;
N2180 G65 P9104 A102 B04  ;
N2181 M98 P9103  ;
(P27:ID7:W56197513S)  ;
N2182 M98 P9101  ;
N2183 G0X1422.98Y1818.8  ;
N2184 G65 P9102 A102 B04  ;
N2185 G1X1426.74Y1825.3  ;
N2186 G1X1422.98Y1831.8  ;
N2187 G1X1415.48Y1831.8  ;
N2188 G1X1411.72Y1825.3  ;
N2189 G1X1415.48Y1818.8  ;
N2190 G1X1422.98Y1818.8  ;
N2191 G65 P9104 A102 B04  ;
N2192 G0X1445.48Y1878.8  ;
N2193 G65 P9102 A102 B04  ;
N2194 G1X1452.98Y1878.8  ;
N2195 G1X1456.74Y1885.3  ;
N2196 G1X1452.98Y1891.8  ;
N2197 G1X1445.48Y1891.8  ;
N2198 G1X1441.72Y1885.3  ;
N2199 G1X1445.48Y1878.8  ;
N2200 G65 P9104 A101 B02  ;
N2201 G0X1448.95Y1885.37  ;
N2202 G65 P9102 A101 B02  ;
N2203 G1X1445.52Y1888.8  ;
N2204 G3X1445.62Y1888.91I3.71J-3.5  ;
N2205 G65 P9104 A101 B02  ;
N2206 G0X1434.16Y1857.5  ;
N2207 G65 P9102 A101 B02  ;
N2208 G1X1433.6Y1858.83  ;
N2209 G1X1429.18Y1856.95  ;
N2210 G1X1430.31Y1854.28  ;
N2211 G1X1439.43Y1858.15  ;
N2212 G1X1438.29Y1860.82  ;
N2213 G1X1433.74Y1858.89  ;
N2214 G65 P9104 A101 B02  ;
N2215 G0X1418.95Y1825.37  ;
N2216 G65 P9102 A101 B02  ;
N2217 G1X1415.52Y1828.8  ;
N2218 G3X1415.62Y1828.91I3.71J-3.5  ;
N2219 G65 P9104 A101 B01  ;
N2220 G0X1440.84Y1754.3  ;
N2221 G65 P9102 A101 B01  ;
N2222 G1X1440.84Y1759.15  ;
N2223 G1X1439.08Y1759.15  ;
N2224 G1X1439.08Y1760.15  ;
N2225 G1X1413.67Y1760.15  ;
N2226 G1X1392.94Y1808.98  ;
N2227 G1X1395.8Y1810.19  ;
N2228 G1X1391.81Y1819.58  ;
N2229 G1X1388.96Y1818.37  ;
N2230 G1X1383.92Y1830.24  ;
N2231 G2X1384.91Y1837.5I6.58J2.8  ;
N2232 G1X1439.16Y1905.45  ;
N2233 G1X1469.38Y1905.45  ;
N2234 G1X1469.38Y1885.3  ;
N2235 G3X1474.23Y1880.45I4.85J0  ;
N2236 G1X1484.38Y1880.45  ;
N2237 G1X1484.38Y1785.15  ;
N2238 G1X1464.23Y1785.15  ;
N2239 G3X1459.38Y1780.3I0J-4.85  ;
N2240 G1X1459.38Y1760.15  ;
N2241 G1X1444.38Y1760.15  ;
N2242 G1X1444.38Y1759.15  ;
N2243 G1X1441.74Y1759.15  ;
N2244 G65 P9104 A102 B04  ;
N2245 M98 P9103  ;
(P28:ID10:W56197513)  ;
N2246 M98 P9101  ;
N2247 G0X1306.74Y1822.5  ;
N2248 G65 P9102 A102 B04  ;
N2249 G1X1302.98Y1816  ;
N2250 G1X1295.48Y1816  ;
N2251 G1X1291.72Y1822.5  ;
N2252 G1X1295.48Y1829  ;
N2253 G1X1302.98Y1829  ;
N2254 G1X1306.74Y1822.5  ;
N2255 G65 P9104 A102 B04  ;
N2256 G0X1272.98Y1876  ;
N2257 G65 P9102 A102 B04  ;
N2258 G1X1265.48Y1876  ;
N2259 G1X1261.72Y1882.5  ;
N2260 G1X1265.48Y1889  ;
N2261 G1X1272.98Y1889  ;
N2262 G1X1276.74Y1882.5  ;
N2263 G1X1272.98Y1876  ;
N2264 G65 P9104 A101 B02  ;
N2265 G0X1268.95Y1882.57  ;
N2266 G65 P9102 A101 B02  ;
N2267 G1X1265.52Y1886  ;
N2268 G3X1265.62Y1886.11I3.71J-3.5  ;
N2269 G65 P9104 A101 B02  ;
N2270 G0X1283.35Y1850.81  ;
N2271 G65 P9102 A101 B02  ;
N2272 G1X1279.8Y1852.32  ;
N2273 G1X1280.31Y1853.52  ;
N2274 G1X1289.43Y1849.65  ;
N2275 G1X1288.29Y1846.98  ;
N2276 G1X1279.18Y1850.85  ;
N2277 G1X1279.75Y1852.18  ;
N2278 G65 P9104 A101 B02  ;
N2279 G0X1298.95Y1822.57  ;
N2280 G65 P9102 A101 B02  ;
N2281 G1X1295.52Y1826  ;
N2282 G3X1295.62Y1826.11I3.71J-3.5  ;
N2283 G65 P9104 A101 B01  ;
N2284 G0X1291.04Y1953.5  ;
N2285 G65 P9102 A101 B01  ;
N2286 G1X1291.04Y1948.65  ;
N2287 G1X1289.08Y1948.65  ;
N2288 G1X1289.08Y1947.65  ;
N2289 G1X1263.67Y1947.65  ;
N2290 G1X1242.94Y1898.82  ;
N2291 G1X1245.8Y1897.61  ;
N2292 G1X1241.81Y1888.22  ;
N2293 G1X1238.96Y1889.43  ;
N2294 G1X1233.92Y1877.56  ;
N2295 G3X1234.91Y1870.3I6.58J-2.8  ;
N2296 G1X1289.16Y1802.35  ;
N2297 G1X1319.38Y1802.35  ;
N2298 G1X1319.38Y1822.5  ;
N2299 G2X1324.23Y1827.35I4.85J0  ;
N2300 G1X1334.38Y1827.35  ;
N2301 G1X1334.38Y1922.65  ;
N2302 G1X1314.23Y1922.65  ;
N2303 G2X1309.38Y1927.5I0J4.85  ;
N2304 G1X1309.38Y1947.65  ;
N2305 G1X1294.38Y1947.65  ;
N2306 G1X1294.38Y1948.65  ;
N2307 G1X1291.94Y1948.65  ;
N2308 G65 P9104 A102 B04  ;
N2309 M98 P9103  ;
(P29:ID10:W56197513)  ;
N2310 M98 P9101  ;
N2311 G0X1192.74Y1791.6  ;
N2312 G65 P9102 A102 B04  ;
N2313 G1X1188.98Y1785.1  ;
N2314 G1X1181.48Y1785.1  ;
N2315 G1X1177.72Y1791.6  ;
N2316 G1X1181.48Y1798.1  ;
N2317 G1X1188.98Y1798.1  ;
N2318 G1X1192.74Y1791.6  ;
N2319 G65 P9104 A102 B04  ;
N2320 G0X1158.98Y1845.1  ;
N2321 G65 P9102 A102 B04  ;
N2322 G1X1151.48Y1845.1  ;
N2323 G1X1147.72Y1851.6  ;
N2324 G1X1151.48Y1858.1  ;
N2325 G1X1158.98Y1858.1  ;
N2326 G1X1162.74Y1851.6  ;
N2327 G1X1158.98Y1845.1  ;
N2328 G65 P9104 A101 B02  ;
N2329 G0X1154.95Y1851.67  ;
N2330 G65 P9102 A101 B02  ;
N2331 G1X1151.52Y1855.1  ;
N2332 G3X1151.62Y1855.21I3.71J-3.5  ;
N2333 G65 P9104 A101 B02  ;
N2334 G0X1169.35Y1819.91  ;
N2335 G65 P9102 A101 B02  ;
N2336 G1X1165.8Y1821.42  ;
N2337 G1X1166.31Y1822.62  ;
N2338 G1X1175.43Y1818.75  ;
N2339 G1X1174.29Y1816.08  ;
N2340 G1X1165.18Y1819.95  ;
N2341 G1X1165.75Y1821.28  ;
N2342 G65 P9104 A101 B02  ;
N2343 G0X1184.95Y1791.67  ;
N2344 G65 P9102 A101 B02  ;
N2345 G1X1181.52Y1795.1  ;
N2346 G3X1181.62Y1795.21I3.71J-3.5  ;
N2347 G65 P9104 A101 B01  ;
N2348 G0X1177.04Y1922.6  ;
N2349 G65 P9102 A101 B01  ;
N2350 G1X1177.04Y1917.75  ;
N2351 G1X1175.08Y1917.75  ;
N2352 G1X1175.08Y1916.75  ;
N2353 G1X1149.67Y1916.75  ;
N2354 G1X1128.94Y1867.92  ;
N2355 G1X1131.8Y1866.71  ;
N2356 G1X1127.81Y1857.32  ;
N2357 G1X1124.96Y1858.53  ;
N2358 G1X1119.92Y1846.66  ;
N2359 G3X1120.91Y1839.4I6.58J-2.8  ;
N2360 G1X1175.16Y1771.45  ;
N2361 G1X1205.38Y1771.45  ;
N2362 G1X1205.38Y1791.6  ;
N2363 G2X1210.23Y1796.45I4.85J0  ;
N2364 G1X1220.38Y1796.45  ;
N2365 G1X1220.38Y1891.75  ;
N2366 G1X1200.23Y1891.75  ;
N2367 G2X1195.38Y1896.6I0J4.85  ;
N2368 G1X1195.38Y1916.75  ;
N2369 G1X1180.38Y1916.75  ;
N2370 G1X1180.38Y1917.75  ;
N2371 G1X1177.94Y1917.75  ;
N2372 G65 P9104 A102 B04  ;
N2373 M98 P9103  ;
(P30:ID10:W56197513)  ;
N2374 M98 P9101  ;
N2375 G0X1078.74Y1782.5  ;
N2376 G65 P9102 A102 B04  ;
N2377 G1X1074.98Y1776  ;
N2378 G1X1067.48Y1776  ;
N2379 G1X1063.72Y1782.5  ;
N2380 G1X1067.48Y1789  ;
N2381 G1X1074.98Y1789  ;
N2382 G1X1078.74Y1782.5  ;
N2383 G65 P9104 A102 B04  ;
N2384 G0X1044.98Y1836  ;
N2385 G65 P9102 A102 B04  ;
N2386 G1X1037.48Y1836  ;
N2387 G1X1033.72Y1842.5  ;
N2388 G1X1037.48Y1849  ;
N2389 G1X1044.98Y1849  ;
N2390 G1X1048.74Y1842.5  ;
N2391 G1X1044.98Y1836  ;
N2392 G65 P9104 A101 B02  ;
N2393 G0X1040.95Y1842.57  ;
N2394 G65 P9102 A101 B02  ;
N2395 G1X1037.52Y1846  ;
N2396 G3X1037.62Y1846.11I3.71J-3.5  ;
N2397 G65 P9104 A101 B02  ;
N2398 G0X1055.35Y1810.81  ;
N2399 G65 P9102 A101 B02  ;
N2400 G1X1051.8Y1812.32  ;
N2401 G1X1052.31Y1813.52  ;
N2402 G1X1061.43Y1809.65  ;
N2403 G1X1060.29Y1806.98  ;
N2404 G1X1051.18Y1810.85  ;
N2405 G1X1051.75Y1812.18  ;
N2406 G65 P9104 A101 B02  ;
N2407 G0X1070.95Y1782.57  ;
N2408 G65 P9102 A101 B02  ;
N2409 G1X1067.52Y1786  ;
N2410 G3X1067.62Y1786.11I3.71J-3.5  ;
N2411 G65 P9104 A101 B01  ;
N2412 G0X1063.04Y1913.5  ;
N2413 G65 P9102 A101 B01  ;
N2414 G1X1063.04Y1908.65  ;
N2415 G1X1061.08Y1908.65  ;
N2416 G1X1061.08Y1907.65  ;
N2417 G1X1035.67Y1907.65  ;
N2418 G1X1014.94Y1858.82  ;
N2419 G1X1017.8Y1857.61  ;
N2420 G1X1013.81Y1848.22  ;
N2421 G1X1010.96Y1849.43  ;
N2422 G1X1005.92Y1837.56  ;
N2423 G3X1006.91Y1830.3I6.58J-2.8  ;
N2424 G1X1061.16Y1762.35  ;
N2425 G1X1091.38Y1762.35  ;
N2426 G1X1091.38Y1782.5  ;
N2427 G2X1096.23Y1787.35I4.85J0  ;
N2428 G1X1106.38Y1787.35  ;
N2429 G1X1106.38Y1882.65  ;
N2430 G1X1086.23Y1882.65  ;
N2431 G2X1081.38Y1887.5I0J4.85  ;
N2432 G1X1081.38Y1907.65  ;
N2433 G1X1066.38Y1907.65  ;
N2434 G1X1066.38Y1908.65  ;
N2435 G1X1063.94Y1908.65  ;
N2436 G65 P9104 A102 B04  ;
N2437 M98 P9103  ;
(P31:ID10:W56197513)  ;
N2438 M98 P9101  ;
N2439 G0X1396.74Y1910.8  ;
N2440 G65 P9102 A102 B04  ;
N2441 G1X1392.98Y1904.3  ;
N2442 G1X1385.48Y1904.3  ;
N2443 G1X1381.72Y1910.8  ;
N2444 G1X1385.48Y1917.3  ;
N2445 G1X1392.98Y1917.3  ;
N2446 G1X1396.74Y1910.8  ;
N2447 G65 P9104 A102 B04  ;
N2448 G0X1362.98Y1964.3  ;
N2449 G65 P9102 A102 B04  ;
N2450 G1X1355.48Y1964.3  ;
N2451 G1X1351.72Y1970.8  ;
N2452 G1X1355.48Y1977.3  ;
N2453 G1X1362.98Y1977.3  ;
N2454 G1X1366.74Y1970.8  ;
N2455 G1X1362.98Y1964.3  ;
N2456 G65 P9104 A101 B02  ;
N2457 G0X1358.95Y1970.87  ;
N2458 G65 P9102 A101 B02  ;
N2459 G1X1355.52Y1974.3  ;
N2460 G3X1355.62Y1974.41I3.71J-3.5  ;
N2461 G65 P9104 A101 B02  ;
N2462 G0X1373.35Y1939.11  ;
N2463 G65 P9102 A101 B02  ;
N2464 G1X1369.8Y1940.62  ;
N2465 G1X1370.31Y1941.82  ;
N2466 G1X1379.43Y1937.95  ;
N2467 G1X1378.29Y1935.28  ;
N2468 G1X1369.18Y1939.15  ;
N2469 G1X1369.75Y1940.48  ;
N2470 G65 P9104 A101 B02  ;
N2471 G0X1388.95Y1910.87  ;
N2472 G65 P9102 A101 B02  ;
N2473 G1X1385.52Y1914.3  ;
N2474 G3X1385.62Y1914.41I3.71J-3.5  ;
N2475 G65 P9104 A101 B01  ;
N2476 G0X1381.04Y2041.8  ;
N2477 G65 P9102 A101 B01  ;
N2478 G1X1381.04Y2036.95  ;
N2479 G1X1379.08Y2036.95  ;
N2480 G1X1379.08Y2035.95  ;
N2481 G1X1353.67Y2035.95  ;
N2482 G1X1332.94Y1987.12  ;
N2483 G1X1335.8Y1985.91  ;
N2484 G1X1331.81Y1976.52  ;
N2485 G1X1328.96Y1977.73  ;
N2486 G1X1323.92Y1965.86  ;
N2487 G3X1324.91Y1958.6I6.58J-2.8  ;
N2488 G1X1379.16Y1890.65  ;
N2489 G1X1409.38Y1890.65  ;
N2490 G1X1409.38Y1910.8  ;
N2491 G2X1414.23Y1915.65I4.85J0  ;
N2492 G1X1424.38Y1915.65  ;
N2493 G1X1424.38Y2010.95  ;
N2494 G1X1404.23Y2010.95  ;
N2495 G2X1399.38Y2015.8I0J4.85  ;
N2496 G1X1399.38Y2035.95  ;
N2497 G1X1384.38Y2035.95  ;
N2498 G1X1384.38Y2036.95  ;
N2499 G1X1381.94Y2036.95  ;
N2500 G65 P9104 A101 B02  ;
N2501 M98 P9103  ;
(P32:ID11:W56197504)  ;
N2502 M98 P9101  ;
N2503 G0X947.85Y2242.59  ;
N2504 G65 P9102 A101 B02  ;
N2505 G1X945.85Y2246.06  ;
N2506 G2X945.91Y2246.26I0.13J0.07  ;
N2507 G1X948.66Y2247.85  ;
N2508 G1X954.16Y2244.68  ;
N2509 G1X954.16Y2238.32  ;
N2510 G1X948.66Y2235.15  ;
N2511 G1X943.16Y2238.32  ;
N2512 G1X943.16Y2244.68  ;
N2513 G1X945.91Y2246.26  ;
N2514 G65 P9104 A101 B02  ;
N2515 G0X1039.71Y2751.39  ;
N2516 G65 P9102 A101 B02  ;
N2517 G1X1038.58Y2752.52  ;
N2518 G3X1038.68Y2752.63I1.23J-1.02  ;
N2519 G65 P9104 A101 B02  ;
N2520 G0X1039.71Y2842.39  ;
N2521 G65 P9102 A101 B02  ;
N2522 G1X1038.58Y2843.52  ;
N2523 G3X1038.68Y2843.63I1.23J-1.02  ;
N2524 G65 P9104 A101 B02  ;
N2525 G0X947.85Y2882.59  ;
N2526 G65 P9102 A101 B02  ;
N2527 G1X945.85Y2886.06  ;
N2528 G2X945.91Y2886.26I0.13J0.07  ;
N2529 G1X948.66Y2887.85  ;
N2530 G1X954.16Y2884.68  ;
N2531 G1X954.16Y2878.32  ;
N2532 G1X948.66Y2875.15  ;
N2533 G1X943.16Y2878.32  ;
N2534 G1X943.16Y2884.68  ;
N2535 G1X945.91Y2886.26  ;
N2536 G65 P9104 A101 B02  ;
N2537 G0X945.02Y2915.93  ;
N2538 G65 P9102 A101 B02  ;
N2539 G1X941.59Y2919.36  ;
N2540 G3X941.69Y2919.47I7.07J-6.86  ;
N2541 G65 P9104 A101 B02  ;
N2542 G0X1140.71Y2842.39  ;
N2543 G65 P9102 A101 B02  ;
N2544 G1X1139.58Y2843.52  ;
N2545 G3X1139.68Y2843.63I1.23J-1.02  ;
N2546 G65 P9104 A101 B02  ;
N2547 G0X1140.71Y2751.39  ;
N2548 G65 P9102 A101 B02  ;
N2549 G1X1139.58Y2752.52  ;
N2550 G3X1139.68Y2752.63I1.23J-1.02  ;
N2551 G65 P9104 A101 B01  ;
N2552 G0X1486.4Y2245.22  ;
N2553 G65 P9102 A101 B01  ;
N2554 G1X1483.58Y2242.39  ;
N2555 G1X1453.53Y2212.35  ;
N2556 G1X1123.31Y2212.35  ;
N2557 G3X1117.46Y2206.5I0J-5.85  ;
N2558 G1X1117.46Y2146.5  ;
N2559 G2X1111.31Y2140.35I-6.15J0  ;
N2560 G1X977.81Y2140.35  ;
N2561 G2X971.66Y2146.5I0J6.15  ;
N2562 G1X971.66Y2186.65  ;
N2563 G1X974.66Y2186.65  ;
N2564 G1X974.66Y2187.35  ;
N2565 G1X964.66Y2187.35  ;
N2566 G1X964.66Y2187.85  ;
N2567 G1X934.96Y2187.85  ;
N2568 G1X934.96Y2187.35  ;
N2569 G1X889.35Y2187.35  ;
N2570 G1X889.35Y2937.65  ;
N2571 G1X934.96Y2937.65  ;
N2572 G1X934.96Y2937.15  ;
N2573 G1X964.66Y2937.15  ;
N2574 G1X964.66Y2937.65  ;
N2575 G1X974.66Y2937.65  ;
N2576 G1X974.66Y2938.35  ;
N2577 G1X971.66Y2938.35  ;
N2578 G1X971.66Y2978.5  ;
N2579 G2X977.81Y2984.65I6.15J0  ;
N2580 G1X1111.31Y2984.65  ;
N2581 G2X1117.46Y2978.5I0J-6.15  ;
N2582 G1X1117.46Y2918.5  ;
N2583 G3X1123.31Y2912.65I5.85J0  ;
N2584 G1X1453.53Y2912.65  ;
N2585 G1X1483.62Y2882.56  ;
N2586 G1X1483.62Y2242.5  ;
N2587 G65 P9104 A102 B04  ;
N2588 M98 P9103  ;
(P33:ID12:W56244401)  ;
N2589 M98 P9101  ;
N2590 G0X388.5Y2962.6  ;
N2591 G65 P9102 A102 B04  ;
N2592 G1X382.5Y2966.06  ;
N2593 G1X382.5Y2972.99  ;
N2594 G1X388.5Y2976.45  ;
N2595 G1X394.5Y2972.99  ;
N2596 G1X394.5Y2966.06  ;
N2597 G1X388.5Y2962.6  ;
N2598 G65 P9104 A102 B04  ;
N2599 G0X482.5Y2966.06  ;
N2600 G65 P9102 A102 B04  ;
N2601 G1X482.5Y2972.99  ;
N2602 G1X488.5Y2976.45  ;
N2603 G1X494.5Y2972.99  ;
N2604 G1X494.5Y2966.06  ;
N2605 G1X488.5Y2962.6  ;
N2606 G1X482.5Y2966.06  ;
N2607 G65 P9104 A102 B04  ;
N2608 G0X557.5Y2966.06  ;
N2609 G65 P9102 A102 B04  ;
N2610 G1X557.5Y2972.99  ;
N2611 G1X563.5Y2976.45  ;
N2612 G1X569.5Y2972.99  ;
N2613 G1X569.5Y2966.06  ;
N2614 G1X563.5Y2962.6  ;
N2615 G1X557.5Y2966.06  ;
N2616 G65 P9104 A101 B02  ;
N2617 G0X563.57Y2969.81  ;
N2618 G65 P9102 A101 B02  ;
N2619 G1X567Y2973.24  ;
N2620 G3X567.11Y2973.13I-3.5J-3.71  ;
N2621 G65 P9104 A101 B02  ;
N2622 G0X600.05Y2926.21  ;
N2623 G65 P9102 A101 B02  ;
N2624 G1X602.05Y2929.68  ;
N2625 G2X602.25Y2929.73I0.12J-0.08  ;
N2626 G1X605Y2928.15  ;
N2627 G1X605Y2921.79  ;
N2628 G1X599.5Y2918.62  ;
N2629 G1X594Y2921.79  ;
N2630 G1X594Y2928.15  ;
N2631 G1X599.5Y2931.32  ;
N2632 G1X602.25Y2929.73  ;
N2633 G65 P9104 A101 B02  ;
N2634 G0X488.57Y2969.81  ;
N2635 G65 P9102 A101 B02  ;
N2636 G1X492Y2973.24  ;
N2637 G3X492.11Y2973.13I-3.5J-3.71  ;
N2638 G65 P9104 A101 B02  ;
N2639 G0X388.57Y2969.81  ;
N2640 G65 P9102 A101 B02  ;
N2641 G1X392Y2973.24  ;
N2642 G3X392.11Y2973.13I-3.5J-3.71  ;
N2643 G65 P9104 A101 B02  ;
N2644 G0X337.39Y2923.08  ;
N2645 G65 P9102 A101 B02  ;
N2646 G1X340.82Y2926.5  ;
N2647 G3X340.93Y2926.4I-3.32J-3.53  ;
N2648 G65 P9104 A101 B02  ;
N2649 G0X287.39Y2923.08  ;
N2650 G65 P9102 A101 B02  ;
N2651 G1X290.82Y2926.5  ;
N2652 G3X290.93Y2926.4I-3.32J-3.53  ;
N2653 G65 P9104 A101 B02  ;
N2654 G0X109.05Y2926.21  ;
N2655 G65 P9102 A101 B02  ;
N2656 G1X111.05Y2929.68  ;
N2657 G2X111.25Y2929.73I0.12J-0.08  ;
N2658 G1X114Y2928.15  ;
N2659 G1X114Y2921.79  ;
N2660 G1X108.5Y2918.62  ;
N2661 G1X103Y2921.79  ;
N2662 G1X103Y2928.15  ;
N2663 G1X108.5Y2931.32  ;
N2664 G1X111.25Y2929.73  ;
N2665 G65 P9104 A101 B01  ;
N2666 G0X81.5Y2120.55  ;
N2667 G65 P9102 A101 B01  ;
N2668 G1X85.5Y2120.55  ;
N2669 G1X86.85Y2120.55  ;
N2670 G1X86.85Y2119.55  ;
N2671 G1X788.15Y2119.55  ;
N2672 G1X788.15Y2120.55  ;
N2673 G1X789.65Y2120.55  ;
N2674 G1X789.65Y2122.05  ;
N2675 G1X790.65Y2122.05  ;
N2676 G1X790.65Y2378.11  ;
N2677 G1X787.65Y2378.11  ;
N2678 G1X787.65Y2750.21  ;
N2679 G2X793.5Y2756.06I5.85J0  ;
N2680 G1X853.5Y2756.06  ;
N2681 G3X859.65Y2762.21I0J6.15  ;
N2682 G1X859.65Y2895.71  ;
N2683 G3X853.5Y2901.86I-6.15J0  ;
N2684 G1X813.35Y2901.86  ;
N2685 G1X813.35Y2898.86  ;
N2686 G1X812.65Y2898.86  ;
N2687 G1X812.65Y2908.96  ;
N2688 G1X812.15Y2908.96  ;
N2689 G1X812.15Y2938.66  ;
N2690 G1X812.65Y2938.66  ;
N2691 G1X812.65Y2984.68  ;
N2692 G1X62.35Y2984.68  ;
N2693 G1X62.35Y2938.66  ;
N2694 G1X62.85Y2938.66  ;
N2695 G1X62.85Y2908.96  ;
N2696 G1X62.35Y2908.96  ;
N2697 G1X62.35Y2898.86  ;
N2698 G1X61.65Y2898.86  ;
N2699 G1X61.65Y2901.86  ;
N2700 G1X21.5Y2901.86  ;
N2701 G3X15.35Y2895.71I0J-6.15  ;
N2702 G1X15.35Y2762.21  ;
N2703 G3X21.5Y2756.06I6.15J0  ;
N2704 G1X87.35Y2756.06  ;
N2705 G1X87.35Y2378.11  ;
N2706 G1X84.35Y2378.11  ;
N2707 G1X84.35Y2122.05  ;
N2708 G1X85.35Y2122.05  ;
N2709 G1X85.35Y2120.7  ;
N2710 G65 P9104 A103 B01  ;
N2711 M98 P9103  ;
N2712 M98 P9101  ;
N2713 G0X750Y2067.1  ;
N2714 G65 P9102 A103 B01  ;
N2715 G1X0Y2067.1  ;
N2716 G65 P9104 A103 B01  ;
N2717 M98 P9103  ;
N2718 M98 P9101  ;
N2719 G0X750Y2067.1  ;
N2720 G65 P9102 A103 B01  ;
N2721 G1X1500Y2067.1  ;
N2722 M98 P9104  ;
N2723 M98 P9103  ;
(FOOTER)
N2724 M98 P9110  ;
N2725 M30  ;
%
