O0099  ;
( MACHINE : TCI Laser )  ;
( MATERIAL : Acero al carbono N2 )  ;
( THICKNESS : 3 )  ;
( REPETITIONS : 2 )  ;
( SIMULATION TIME : 00:16:36 )  ;
( FORMAT : 1250x2400 )  ;
( JOB NUMBER : VARS5630\K563372s30-3000 )  ;
( PROGRAM NUMBER : 10407 )  ;
( TYPE : 0 )  ;
( NUMBER OF SHEETS : 1 )  ;
( CUTTING HEADS : 1 )  ;
#516= 1  ;
#517= 1  ;
N105 G65 P9100 A103 B01  ;
(P1:ID1:W56197506)  ;
N106 M98 P9101  ;
N107 G0X235.66Y170.61  ;
N108 G65 P9102 A101 B01  ;
N109 G1X240.51Y170.61  ;
N110 G1X240.51Y182.85  ;
N111 G1X220.66Y182.85  ;
N112 G2X215.51Y188I0J5.15  ;
N113 G1X215.51Y197.85  ;
N114 G1X120.81Y197.85  ;
N115 G1X120.81Y178  ;
N116 G2X115.66Y172.85I-5.15J0  ;
N117 G1X95.81Y172.85  ;
N118 G1X95.81Y128.1  ;
N119 G1X165.65Y97.81  ;
N120 G3X172.65Y98.75I2.72J6.29  ;
N121 G1X240.51Y153.07  ;
N122 G1X240.51Y169.71  ;
N123 G65 P9104 A101 B01  ;
N124 G0X235.66Y328.66  ;
N125 G65 P9102 A101 B01  ;
N126 G1X240.51Y328.66  ;
N127 G1X240.51Y342.85  ;
N128 G1X220.66Y342.85  ;
N129 G2X215.51Y348I0J5.15  ;
N130 G1X215.51Y357.85  ;
N131 G1X120.81Y357.85  ;
N132 G1X120.81Y338  ;
N133 G2X115.66Y332.85I-5.15J0  ;
N134 G1X95.81Y332.85  ;
N135 G1X95.81Y288.1  ;
N136 G1X165.65Y257.81  ;
N137 G3X172.65Y258.75I2.72J6.29  ;
N138 G1X240.51Y313.07  ;
N139 G1X240.51Y327.76  ;
N140 G65 P9104 A101 B01  ;
N141 G0X235.66Y465.42  ;
N142 G65 P9102 A101 B01  ;
N143 G1X240.51Y465.42  ;
N144 G1X240.51Y478.93  ;
N145 G1X172.65Y533.25  ;
N146 G3X165.65Y534.19I-4.28J-5.35  ;
N147 G1X95.81Y503.9  ;
N148 G1X95.81Y459.15  ;
N149 G1X115.66Y459.15  ;
N150 G2X120.81Y454I0J-5.15  ;
N151 G1X120.81Y434.15  ;
N152 G1X215.51Y434.15  ;
N153 G1X215.51Y444  ;
N154 G2X220.66Y449.15I5.15J0  ;
N155 G1X240.51Y449.15  ;
N156 G1X240.51Y464.52  ;
N157 G65 P9104 A101 B01  ;
N158 G0X235.66Y624.81  ;
N159 G65 P9102 A101 B01  ;
N160 G1X240.51Y624.81  ;
N161 G1X240.51Y609.15  ;
N162 G1X220.66Y609.15  ;
N163 G3X215.51Y604I0J-5.15  ;
N164 G1X215.51Y594.15  ;
N165 G1X120.81Y594.15  ;
N166 G1X120.81Y614  ;
N167 G3X115.66Y619.15I-5.15J0  ;
N168 G1X95.81Y619.15  ;
N169 G1X95.81Y663.9  ;
N170 G1X165.65Y694.19  ;
N171 G2X172.65Y693.25I2.72J-6.29  ;
N172 G1X240.51Y638.93  ;
N173 G1X240.51Y625.71  ;
N174 G65 P9104 A101 B01  ;
N175 G0X936.91Y147.15  ;
N176 G65 P9102 A101 B01  ;
N177 G1X940.76Y147.15  ;
N178 G3X940.76Y147I-60.1J-0.15  ;
N179 G65 P9104 A101 B01  ;
N180 G0X1148.66Y152.64  ;
N181 G65 P9102 A101 B01  ;
N182 G1X1153.51Y152.64  ;
N183 G1X1153.51Y172.85  ;
N184 G1X1133.66Y172.85  ;
N185 G2X1128.51Y178I0J5.15  ;
N186 G1X1128.51Y197.85  ;
N187 G1X1033.81Y197.85  ;
N188 G1X1033.81Y188  ;
N189 G2X1028.66Y182.85I-5.15J0  ;
N190 G1X1008.81Y182.85  ;
N191 G1X1008.81Y153.07  ;
N192 G1X1076.66Y98.75  ;
N193 G3X1083.67Y97.81I4.28J5.35  ;
N194 G1X1153.51Y128.1  ;
N195 G1X1153.51Y151.74  ;
N196 G65 P9104 A101 B01  ;
N197 G0X1148.66Y313.61  ;
N198 G65 P9102 A101 B01  ;
N199 G1X1153.51Y313.61  ;
N200 G1X1153.51Y332.85  ;
N201 G1X1133.66Y332.85  ;
N202 G2X1128.51Y338I0J5.15  ;
N203 G1X1128.51Y357.85  ;
N204 G1X1033.81Y357.85  ;
N205 G1X1033.81Y348  ;
N206 G2X1028.66Y342.85I-5.15J0  ;
N207 G1X1008.81Y342.85  ;
N208 G1X1008.81Y313.07  ;
N209 G1X1076.66Y258.75  ;
N210 G3X1083.67Y257.81I4.28J5.35  ;
N211 G1X1153.51Y288.1  ;
N212 G1X1153.51Y312.71  ;
N213 G65 P9104 A101 B01  ;
N214 G0X1148.66Y478.88  ;
N215 G65 P9102 A101 B01  ;
N216 G1X1153.51Y478.88  ;
N217 G1X1153.51Y459.15  ;
N218 G1X1133.66Y459.15  ;
N219 G3X1128.51Y454I0J-5.15  ;
N220 G1X1128.51Y434.15  ;
N221 G1X1033.81Y434.15  ;
N222 G1X1033.81Y444  ;
N223 G3X1028.66Y449.15I-5.15J0  ;
N224 G1X1008.81Y449.15  ;
N225 G1X1008.81Y478.93  ;
N226 G1X1076.66Y533.25  ;
N227 G2X1083.67Y534.19I4.28J-5.35  ;
N228 G1X1153.51Y503.9  ;
N229 G1X1153.51Y479.78  ;
N230 G65 P9104 A101 B01  ;
N231 G0X1148.66Y642.38  ;
N232 G65 P9102 A101 B01  ;
N233 G1X1153.51Y642.38  ;
N234 G1X1153.51Y619.15  ;
N235 G1X1133.66Y619.15  ;
N236 G3X1128.51Y614I0J-5.15  ;
N237 G1X1128.51Y594.15  ;
N238 G1X1033.81Y594.15  ;
N239 G1X1033.81Y604  ;
N240 G3X1028.66Y609.15I-5.15J0  ;
N241 G1X1008.81Y609.15  ;
N242 G1X1008.81Y638.93  ;
N243 G1X1076.66Y693.25  ;
N244 G2X1083.67Y694.19I4.28J-5.35  ;
N245 G1X1153.51Y663.9  ;
N246 G1X1153.51Y643.28  ;
N247 G65 P9104 A101 B01  ;
N248 G0X8.85Y39  ;
N249 G65 P9102 A101 B01  ;
N250 G1X8.85Y43  ;
N251 G1X8.85Y749.15  ;
N252 G1X267.81Y749.15  ;
N253 G1X267.81Y744.86  ;
N254 G1X269.09Y746.15  ;
N255 G1X980.22Y746.15  ;
N256 G1X981.51Y744.86  ;
N257 G1X981.51Y749.15  ;
N258 G1X1240.46Y749.15  ;
N259 G1X1240.46Y42.85  ;
N260 G1X981.51Y42.85  ;
N261 G1X981.51Y47.14  ;
N262 G1X980.22Y45.85  ;
N263 G1X269.09Y45.85  ;
N264 G1X267.81Y47.14  ;
N265 G1X267.81Y42.85  ;
N266 G1X9Y42.85  ;
N267 G65 P9104 A101 B01  ;
N268 M98 P9103  ;
(P2:ID1:W56197506)  ;
N269 M98 P9101  ;
N270 G0X235.66Y953.61  ;
N271 G65 P9102 A101 B01  ;
N272 G1X240.51Y953.61  ;
N273 G1X240.51Y965.85  ;
N274 G1X220.66Y965.85  ;
N275 G2X215.51Y971I0J5.15  ;
N276 G1X215.51Y980.85  ;
N277 G1X120.81Y980.85  ;
N278 G1X120.81Y961  ;
N279 G2X115.66Y955.85I-5.15J0  ;
N280 G1X95.81Y955.85  ;
N281 G1X95.81Y911.1  ;
N282 G1X165.65Y880.81  ;
N283 G3X172.65Y881.75I2.72J6.29  ;
N284 G1X240.51Y936.07  ;
N285 G1X240.51Y952.71  ;
N286 G65 P9104 A101 B01  ;
N287 G0X235.66Y1111.66  ;
N288 G65 P9102 A101 B01  ;
N289 G1X240.51Y1111.66  ;
N290 G1X240.51Y1125.85  ;
N291 G1X220.66Y1125.85  ;
N292 G2X215.51Y1131I0J5.15  ;
N293 G1X215.51Y1140.85  ;
N294 G1X120.81Y1140.85  ;
N295 G1X120.81Y1121  ;
N296 G2X115.66Y1115.85I-5.15J0  ;
N297 G1X95.81Y1115.85  ;
N298 G1X95.81Y1071.1  ;
N299 G1X165.65Y1040.81  ;
N300 G3X172.65Y1041.75I2.72J6.29  ;
N301 G1X240.51Y1096.07  ;
N302 G1X240.51Y1110.76  ;
N303 G65 P9104 A101 B01  ;
N304 G0X235.66Y1248.42  ;
N305 G65 P9102 A101 B01  ;
N306 G1X240.51Y1248.42  ;
N307 G1X240.51Y1261.93  ;
N308 G1X172.65Y1316.25  ;
N309 G3X165.65Y1317.19I-4.28J-5.35  ;
N310 G1X95.81Y1286.9  ;
N311 G1X95.81Y1242.15  ;
N312 G1X115.66Y1242.15  ;
N313 G2X120.81Y1237I0J-5.15  ;
N314 G1X120.81Y1217.15  ;
N315 G1X215.51Y1217.15  ;
N316 G1X215.51Y1227  ;
N317 G2X220.66Y1232.15I5.15J0  ;
N318 G1X240.51Y1232.15  ;
N319 G1X240.51Y1247.52  ;
N320 G65 P9104 A101 B01  ;
N321 G0X235.66Y1407.81  ;
N322 G65 P9102 A101 B01  ;
N323 G1X240.51Y1407.81  ;
N324 G1X240.51Y1392.15  ;
N325 G1X220.66Y1392.15  ;
N326 G3X215.51Y1387I0J-5.15  ;
N327 G1X215.51Y1377.15  ;
N328 G1X120.81Y1377.15  ;
N329 G1X120.81Y1397  ;
N330 G3X115.66Y1402.15I-5.15J0  ;
N331 G1X95.81Y1402.15  ;
N332 G1X95.81Y1446.9  ;
N333 G1X165.65Y1477.19  ;
N334 G2X172.65Y1476.25I2.72J-6.29  ;
N335 G1X240.51Y1421.93  ;
N336 G1X240.51Y1408.71  ;
N337 G65 P9104 A101 B01  ;
N338 G0X936.91Y930.15  ;
N339 G65 P9102 A101 B01  ;
N340 G1X940.76Y930.15  ;
N341 G3X940.76Y930I-60.1J-0.15  ;
N342 G65 P9104 A101 B01  ;
N343 G0X1148.66Y935.64  ;
N344 G65 P9102 A101 B01  ;
N345 G1X1153.51Y935.64  ;
N346 G1X1153.51Y955.85  ;
N347 G1X1133.66Y955.85  ;
N348 G2X1128.51Y961I0J5.15  ;
N349 G1X1128.51Y980.85  ;
N350 G1X1033.81Y980.85  ;
N351 G1X1033.81Y971  ;
N352 G2X1028.66Y965.85I-5.15J0  ;
N353 G1X1008.81Y965.85  ;
N354 G1X1008.81Y936.07  ;
N355 G1X1076.66Y881.75  ;
N356 G3X1083.67Y880.81I4.28J5.35  ;
N357 G1X1153.51Y911.1  ;
N358 G1X1153.51Y934.74  ;
N359 G65 P9104 A101 B01  ;
N360 G0X1148.66Y1096.61  ;
N361 G65 P9102 A101 B01  ;
N362 G1X1153.51Y1096.61  ;
N363 G1X1153.51Y1115.85  ;
N364 G1X1133.66Y1115.85  ;
N365 G2X1128.51Y1121I0J5.15  ;
N366 G1X1128.51Y1140.85  ;
N367 G1X1033.81Y1140.85  ;
N368 G1X1033.81Y1131  ;
N369 G2X1028.66Y1125.85I-5.15J0  ;
N370 G1X1008.81Y1125.85  ;
N371 G1X1008.81Y1096.07  ;
N372 G1X1076.66Y1041.75  ;
N373 G3X1083.67Y1040.81I4.28J5.35  ;
N374 G1X1153.51Y1071.1  ;
N375 G1X1153.51Y1095.71  ;
N376 G65 P9104 A101 B01  ;
N377 G0X1148.66Y1261.88  ;
N378 G65 P9102 A101 B01  ;
N379 G1X1153.51Y1261.88  ;
N380 G1X1153.51Y1242.15  ;
N381 G1X1133.66Y1242.15  ;
N382 G3X1128.51Y1237I0J-5.15  ;
N383 G1X1128.51Y1217.15  ;
N384 G1X1033.81Y1217.15  ;
N385 G1X1033.81Y1227  ;
N386 G3X1028.66Y1232.15I-5.15J0  ;
N387 G1X1008.81Y1232.15  ;
N388 G1X1008.81Y1261.93  ;
N389 G1X1076.66Y1316.25  ;
N390 G2X1083.67Y1317.19I4.28J-5.35  ;
N391 G1X1153.51Y1286.9  ;
N392 G1X1153.51Y1262.78  ;
N393 G65 P9104 A101 B01  ;
N394 G0X1148.66Y1425.38  ;
N395 G65 P9102 A101 B01  ;
N396 G1X1153.51Y1425.38  ;
N397 G1X1153.51Y1402.15  ;
N398 G1X1133.66Y1402.15  ;
N399 G3X1128.51Y1397I0J-5.15  ;
N400 G1X1128.51Y1377.15  ;
N401 G1X1033.81Y1377.15  ;
N402 G1X1033.81Y1387  ;
N403 G3X1028.66Y1392.15I-5.15J0  ;
N404 G1X1008.81Y1392.15  ;
N405 G1X1008.81Y1421.93  ;
N406 G1X1076.66Y1476.25  ;
N407 G2X1083.67Y1477.19I4.28J-5.35  ;
N408 G1X1153.51Y1446.9  ;
N409 G1X1153.51Y1426.28  ;
N410 G65 P9104 A101 B01  ;
N411 G0X8.85Y822  ;
N412 G65 P9102 A101 B01  ;
N413 G1X8.85Y826  ;
N414 G1X8.85Y1532.15  ;
N415 G1X267.81Y1532.15  ;
N416 G1X267.81Y1527.86  ;
N417 G1X269.09Y1529.15  ;
N418 G1X980.22Y1529.15  ;
N419 G1X981.51Y1527.86  ;
N420 G1X981.51Y1532.15  ;
N421 G1X1240.46Y1532.15  ;
N422 G1X1240.46Y825.85  ;
N423 G1X981.51Y825.85  ;
N424 G1X981.51Y830.14  ;
N425 G1X980.22Y828.85  ;
N426 G1X269.09Y828.85  ;
N427 G1X267.81Y830.14  ;
N428 G1X267.81Y825.85  ;
N429 G1X9Y825.85  ;
N430 G65 P9104 A101 B01  ;
N431 M98 P9103  ;
(P3:ID1:W56197506)  ;
N432 M98 P9101  ;
N433 G0X235.66Y1726.61  ;
N434 G65 P9102 A101 B01  ;
N435 G1X240.51Y1726.61  ;
N436 G1X240.51Y1738.85  ;
N437 G1X220.66Y1738.85  ;
N438 G2X215.51Y1744I0J5.15  ;
N439 G1X215.51Y1753.85  ;
N440 G1X120.81Y1753.85  ;
N441 G1X120.81Y1734  ;
N442 G2X115.66Y1728.85I-5.15J0  ;
N443 G1X95.81Y1728.85  ;
N444 G1X95.81Y1684.1  ;
N445 G1X165.65Y1653.81  ;
N446 G3X172.65Y1654.75I2.72J6.29  ;
N447 G1X240.51Y1709.07  ;
N448 G1X240.51Y1725.71  ;
N449 G65 P9104 A101 B01  ;
N450 G0X235.66Y1884.66  ;
N451 G65 P9102 A101 B01  ;
N452 G1X240.51Y1884.66  ;
N453 G1X240.51Y1898.85  ;
N454 G1X220.66Y1898.85  ;
N455 G2X215.51Y1904I0J5.15  ;
N456 G1X215.51Y1913.85  ;
N457 G1X120.81Y1913.85  ;
N458 G1X120.81Y1894  ;
N459 G2X115.66Y1888.85I-5.15J0  ;
N460 G1X95.81Y1888.85  ;
N461 G1X95.81Y1844.1  ;
N462 G1X165.65Y1813.81  ;
N463 G3X172.65Y1814.75I2.72J6.29  ;
N464 G1X240.51Y1869.07  ;
N465 G1X240.51Y1883.76  ;
N466 G65 P9104 A101 B01  ;
N467 G0X235.66Y2021.42  ;
N468 G65 P9102 A101 B01  ;
N469 G1X240.51Y2021.42  ;
N470 G1X240.51Y2034.93  ;
N471 G1X172.65Y2089.25  ;
N472 G3X165.65Y2090.19I-4.28J-5.35  ;
N473 G1X95.81Y2059.9  ;
N474 G1X95.81Y2015.15  ;
N475 G1X115.66Y2015.15  ;
N476 G2X120.81Y2010I0J-5.15  ;
N477 G1X120.81Y1990.15  ;
N478 G1X215.51Y1990.15  ;
N479 G1X215.51Y2000  ;
N480 G2X220.66Y2005.15I5.15J0  ;
N481 G1X240.51Y2005.15  ;
N482 G1X240.51Y2020.52  ;
N483 G65 P9104 A101 B01  ;
N484 G0X235.66Y2180.81  ;
N485 G65 P9102 A101 B01  ;
N486 G1X240.51Y2180.81  ;
N487 G1X240.51Y2165.15  ;
N488 G1X220.66Y2165.15  ;
N489 G3X215.51Y2160I0J-5.15  ;
N490 G1X215.51Y2150.15  ;
N491 G1X120.81Y2150.15  ;
N492 G1X120.81Y2170  ;
N493 G3X115.66Y2175.15I-5.15J0  ;
N494 G1X95.81Y2175.15  ;
N495 G1X95.81Y2219.9  ;
N496 G1X165.65Y2250.19  ;
N497 G2X172.65Y2249.25I2.72J-6.29  ;
N498 G1X240.51Y2194.93  ;
N499 G1X240.51Y2181.71  ;
N500 G65 P9104 A101 B01  ;
N501 G0X936.91Y1703.15  ;
N502 G65 P9102 A101 B01  ;
N503 G1X940.76Y1703.15  ;
N504 G3X940.76Y1703I-60.1J-0.15  ;
N505 G65 P9104 A101 B01  ;
N506 G0X1148.66Y1708.64  ;
N507 G65 P9102 A101 B01  ;
N508 G1X1153.51Y1708.64  ;
N509 G1X1153.51Y1728.85  ;
N510 G1X1133.66Y1728.85  ;
N511 G2X1128.51Y1734I0J5.15  ;
N512 G1X1128.51Y1753.85  ;
N513 G1X1033.81Y1753.85  ;
N514 G1X1033.81Y1744  ;
N515 G2X1028.66Y1738.85I-5.15J0  ;
N516 G1X1008.81Y1738.85  ;
N517 G1X1008.81Y1709.07  ;
N518 G1X1076.66Y1654.75  ;
N519 G3X1083.67Y1653.81I4.28J5.35  ;
N520 G1X1153.51Y1684.1  ;
N521 G1X1153.51Y1707.74  ;
N522 G65 P9104 A101 B01  ;
N523 G0X1148.66Y1869.61  ;
N524 G65 P9102 A101 B01  ;
N525 G1X1153.51Y1869.61  ;
N526 G1X1153.51Y1888.85  ;
N527 G1X1133.66Y1888.85  ;
N528 G2X1128.51Y1894I0J5.15  ;
N529 G1X1128.51Y1913.85  ;
N530 G1X1033.81Y1913.85  ;
N531 G1X1033.81Y1904  ;
N532 G2X1028.66Y1898.85I-5.15J0  ;
N533 G1X1008.81Y1898.85  ;
N534 G1X1008.81Y1869.07  ;
N535 G1X1076.66Y1814.75  ;
N536 G3X1083.67Y1813.81I4.28J5.35  ;
N537 G1X1153.51Y1844.1  ;
N538 G1X1153.51Y1868.71  ;
N539 G65 P9104 A101 B01  ;
N540 G0X1148.66Y2034.88  ;
N541 G65 P9102 A101 B01  ;
N542 G1X1153.51Y2034.88  ;
N543 G1X1153.51Y2015.15  ;
N544 G1X1133.66Y2015.15  ;
N545 G3X1128.51Y2010I0J-5.15  ;
N546 G1X1128.51Y1990.15  ;
N547 G1X1033.81Y1990.15  ;
N548 G1X1033.81Y2000  ;
N549 G3X1028.66Y2005.15I-5.15J0  ;
N550 G1X1008.81Y2005.15  ;
N551 G1X1008.81Y2034.93  ;
N552 G1X1076.66Y2089.25  ;
N553 G2X1083.67Y2090.19I4.28J-5.35  ;
N554 G1X1153.51Y2059.9  ;
N555 G1X1153.51Y2035.78  ;
N556 G65 P9104 A101 B01  ;
N557 G0X1148.66Y2198.38  ;
N558 G65 P9102 A101 B01  ;
N559 G1X1153.51Y2198.38  ;
N560 G1X1153.51Y2175.15  ;
N561 G1X1133.66Y2175.15  ;
N562 G3X1128.51Y2170I0J-5.15  ;
N563 G1X1128.51Y2150.15  ;
N564 G1X1033.81Y2150.15  ;
N565 G1X1033.81Y2160  ;
N566 G3X1028.66Y2165.15I-5.15J0  ;
N567 G1X1008.81Y2165.15  ;
N568 G1X1008.81Y2194.93  ;
N569 G1X1076.66Y2249.25  ;
N570 G2X1083.67Y2250.19I4.28J-5.35  ;
N571 G1X1153.51Y2219.9  ;
N572 G1X1153.51Y2199.28  ;
N573 G65 P9104 A101 B01  ;
N574 G0X8.85Y1595  ;
N575 G65 P9102 A101 B01  ;
N576 G1X8.85Y1599  ;
N577 G1X8.85Y2305.15  ;
N578 G1X267.81Y2305.15  ;
N579 G1X267.81Y2300.86  ;
N580 G1X269.09Y2302.15  ;
N581 G1X980.22Y2302.15  ;
N582 G1X981.51Y2300.86  ;
N583 G1X981.51Y2305.15  ;
N584 G1X1240.46Y2305.15  ;
N585 G1X1240.46Y1598.85  ;
N586 G1X981.51Y1598.85  ;
N587 G1X981.51Y1603.14  ;
N588 G1X980.22Y1601.85  ;
N589 G1X269.09Y1601.85  ;
N590 G1X267.81Y1603.14  ;
N591 G1X267.81Y1598.85  ;
N592 G1X9Y1598.85  ;
N593 M98 P9104  ;
N594 M98 P9103  ;
(FOOTER)
N595 M98 P9110  ;
N596 M30  ;
%
