O0099  ;
( MACHINE : TCI Laser )  ;
( MATERIAL : Acero al carbono N2 )  ;
( THICKNESS : 3 )  ;
( REPETITIONS : 1 )  ;
( SIMULATION TIME : 00:11:12 )  ;
( FORMAT : 1500x3000 )  ;
( JOB NUMBER : VARS5630\K563372s30 )  ;
( PROGRAM NUMBER : 1052 )  ;
( TYPE : 0 )  ;
( NUMBER OF SHEETS : 1 )  ;
( CUTTING HEADS : 1 )  ;
#516= 1  ;
#517= 1  ;
N105 G65 P9100 A103 B04  ;
(P1:ID1:W56197513S)  ;
N106 M98 P9101  ;
N107 G0X1418.75Y95.5  ;
N108 G65 P9102 A102 B04  ;
N109 G1X1414.99Y89  ;
N110 G1X1418.75Y82.5  ;
N111 G1X1426.25Y82.5  ;
N112 G1X1430.01Y89  ;
N113 G1X1426.25Y95.5  ;
N114 G1X1418.75Y95.5  ;
N115 G65 P9104 A102 B04  ;
N116 G0X1396.25Y35.5  ;
N117 G65 P9102 A102 B04  ;
N118 G1X1388.75Y35.5  ;
N119 G1X1384.99Y29  ;
N120 G1X1388.75Y22.5  ;
N121 G1X1396.25Y22.5  ;
N122 G1X1400.01Y29  ;
N123 G1X1396.25Y35.5  ;
N124 G65 P9104 A101 B02  ;
N125 G0X1392.72Y28.87  ;
N126 G65 P9102 A101 B02  ;
N127 G1X1396.21Y25.37  ;
N128 G3X1396.17Y25.33I-3.71J3.63  ;
N129 G65 P9104 A101 B02  ;
N130 G0X1407.48Y56.77  ;
N131 G65 P9102 A101 B02  ;
N132 G1X1408.08Y55.35  ;
N133 G1X1412.67Y57.3  ;
N134 G1X1411.47Y60.13  ;
N135 G1X1402.19Y56.19  ;
N136 G1X1403.39Y53.36  ;
N137 G1X1408.03Y55.33  ;
N138 G65 P9104 A101 B02  ;
N139 G0X1422.72Y88.87  ;
N140 G65 P9102 A101 B02  ;
N141 G1X1426.21Y85.37  ;
N142 G3X1426.17Y85.33I-3.71J3.63  ;
N143 G65 P9104 A101 B01  ;
N144 G0X1400.8Y160  ;
N145 G65 P9102 A101 B01  ;
N146 G1X1400.8Y155.06  ;
N147 G1X1402.56Y155.06  ;
N148 G1X1402.56Y154.06  ;
N149 G1X1428Y154.06  ;
N150 G1X1448.67Y105.37  ;
N151 G1X1445.82Y104.15  ;
N152 G1X1449.87Y94.6  ;
N153 G1X1452.72Y95.81  ;
N154 G1X1457.73Y84.02  ;
N155 G2X1456.75Y76.86I-6.5J-2.76  ;
N156 G1X1402.53Y8.94  ;
N157 G1X1372.44Y8.94  ;
N158 G1X1372.44Y29  ;
N159 G3X1367.5Y33.94I-4.94J0  ;
N160 G1X1357.44Y33.94  ;
N161 G1X1357.44Y129.06  ;
N162 G1X1377.5Y129.06  ;
N163 G3X1382.44Y134I0J4.94  ;
N164 G1X1382.44Y154.06  ;
N165 G1X1397.44Y154.06  ;
N166 G1X1397.44Y155.06  ;
N167 G1X1399.99Y155.06  ;
N168 G65 P9104 A102 B04  ;
N169 M98 P9103  ;
(P2:ID1:W56197513S)  ;
N170 M98 P9101  ;
N171 G0X1418.75Y249.5  ;
N172 G65 P9102 A102 B04  ;
N173 G1X1414.99Y243  ;
N174 G1X1418.75Y236.5  ;
N175 G1X1426.25Y236.5  ;
N176 G1X1430.01Y243  ;
N177 G1X1426.25Y249.5  ;
N178 G1X1418.75Y249.5  ;
N179 G65 P9104 A102 B04  ;
N180 G0X1396.25Y189.5  ;
N181 G65 P9102 A102 B04  ;
N182 G1X1388.75Y189.5  ;
N183 G1X1384.99Y183  ;
N184 G1X1388.75Y176.5  ;
N185 G1X1396.25Y176.5  ;
N186 G1X1400.01Y183  ;
N187 G1X1396.25Y189.5  ;
N188 G65 P9104 A101 B02  ;
N189 G0X1392.72Y182.87  ;
N190 G65 P9102 A101 B02  ;
N191 G1X1396.21Y179.37  ;
N192 G3X1396.17Y179.33I-3.71J3.63  ;
N193 G65 P9104 A101 B02  ;
N194 G0X1407.48Y210.77  ;
N195 G65 P9102 A101 B02  ;
N196 G1X1408.08Y209.35  ;
N197 G1X1412.67Y211.3  ;
N198 G1X1411.47Y214.13  ;
N199 G1X1402.19Y210.19  ;
N200 G1X1403.39Y207.36  ;
N201 G1X1408.03Y209.33  ;
N202 G65 P9104 A101 B02  ;
N203 G0X1422.72Y242.87  ;
N204 G65 P9102 A101 B02  ;
N205 G1X1426.21Y239.37  ;
N206 G3X1426.17Y239.33I-3.71J3.63  ;
N207 G65 P9104 A101 B01  ;
N208 G0X1400.8Y314  ;
N209 G65 P9102 A101 B01  ;
N210 G1X1400.8Y309.06  ;
N211 G1X1402.56Y309.06  ;
N212 G1X1402.56Y308.06  ;
N213 G1X1428Y308.06  ;
N214 G1X1448.67Y259.37  ;
N215 G1X1445.82Y258.15  ;
N216 G1X1449.87Y248.6  ;
N217 G1X1452.72Y249.81  ;
N218 G1X1457.73Y238.02  ;
N219 G2X1456.75Y230.86I-6.5J-2.76  ;
N220 G1X1402.53Y162.94  ;
N221 G1X1372.44Y162.94  ;
N222 G1X1372.44Y183  ;
N223 G3X1367.5Y187.94I-4.94J0  ;
N224 G1X1357.44Y187.94  ;
N225 G1X1357.44Y283.06  ;
N226 G1X1377.5Y283.06  ;
N227 G3X1382.44Y288I0J4.94  ;
N228 G1X1382.44Y308.06  ;
N229 G1X1397.44Y308.06  ;
N230 G1X1397.44Y309.06  ;
N231 G1X1399.99Y309.06  ;
N232 G65 P9104 A101 B02  ;
N233 M98 P9103  ;
(P3:ID2:W56197504)  ;
N234 M98 P9101  ;
N235 G0X1279.46Y351.7  ;
N236 G65 P9102 A101 B02  ;
N237 G1X1280.65Y352.89  ;
N238 G3X1280.7Y352.85I-1.15J-1.23  ;
N239 G65 P9104 A101 B02  ;
N240 G0X1188.46Y351.7  ;
N241 G65 P9102 A101 B02  ;
N242 G1X1189.65Y352.89  ;
N243 G3X1189.7Y352.85I-1.15J-1.23  ;
N244 G65 P9104 A101 B02  ;
N245 G0X1188.46Y452.7  ;
N246 G65 P9102 A101 B02  ;
N247 G1X1189.65Y453.89  ;
N248 G3X1189.7Y453.85I-1.15J-1.23  ;
N249 G65 P9104 A101 B02  ;
N250 G0X1279.46Y452.7  ;
N251 G65 P9102 A101 B02  ;
N252 G1X1280.65Y453.89  ;
N253 G3X1280.7Y453.85I-1.15J-1.23  ;
N254 G65 P9104 A101 B02  ;
N255 G0X1319.55Y544.7  ;
N256 G65 P9102 A101 B02  ;
N257 G1X1323.01Y546.7  ;
N258 G2X1323.34Y546.61I0.12J-0.21  ;
N259 G1X1324.95Y543.81  ;
N260 G1X1321.73Y538.22  ;
N261 G1X1315.27Y538.22  ;
N262 G1X1312.05Y543.81  ;
N263 G1X1315.27Y549.4  ;
N264 G1X1321.73Y549.4  ;
N265 G1X1323.34Y546.61  ;
N266 G65 P9104 A101 B02  ;
N267 G0X1352.99Y547.39  ;
N268 G65 P9102 A101 B02  ;
N269 G1X1356.49Y550.88  ;
N270 G3X1356.53Y550.84I-6.99J-7.07  ;
N271 G65 P9104 A101 B02  ;
N272 G0X679.55Y544.7  ;
N273 G65 P9102 A101 B02  ;
N274 G1X683.01Y546.7  ;
N275 G2X683.34Y546.61I0.12J-0.21  ;
N276 G1X684.95Y543.81  ;
N277 G1X681.73Y538.22  ;
N278 G1X675.27Y538.22  ;
N279 G1X672.05Y543.81  ;
N280 G1X675.27Y549.4  ;
N281 G1X681.73Y549.4  ;
N282 G1X683.34Y546.61  ;
N283 G65 P9104 A101 B01  ;
N284 G0X682.29Y6.13  ;
N285 G65 P9102 A101 B01  ;
N286 G1X679.46Y8.96  ;
N287 G1X649.44Y38.98  ;
N288 G1X649.44Y369.16  ;
N289 G3X643.5Y375.1I-5.94J0  ;
N290 G1X583.5Y375.1  ;
N291 G2X577.44Y381.16I0J6.06  ;
N292 G1X577.44Y514.66  ;
N293 G2X583.5Y520.72I6.06J0  ;
N294 G1X623.56Y520.72  ;
N295 G1X623.56Y517.72  ;
N296 G1X624.44Y517.72  ;
N297 G1X624.44Y527.72  ;
N298 G1X624.94Y527.72  ;
N299 G1X624.94Y557.6  ;
N300 G1X624.44Y557.6  ;
N301 G1X624.44Y603.03  ;
N302 G1X1374.56Y603.03  ;
N303 G1X1374.56Y557.6  ;
N304 G1X1374.06Y557.6  ;
N305 G1X1374.06Y527.72  ;
N306 G1X1374.56Y527.72  ;
N307 G1X1374.56Y517.72  ;
N308 G1X1375.44Y517.72  ;
N309 G1X1375.44Y520.72  ;
N310 G1X1415.5Y520.72  ;
N311 G2X1421.56Y514.66I0J-6.06  ;
N312 G1X1421.56Y381.16  ;
N313 G2X1415.5Y375.1I-6.06J0  ;
N314 G1X1355.5Y375.1  ;
N315 G3X1349.56Y369.16I0J-5.94  ;
N316 G1X1349.56Y38.98  ;
N317 G1X1319.52Y8.94  ;
N318 G1X679.5Y8.94  ;
N319 G65 P9104 A102 B04  ;
N320 M98 P9103  ;
(P4:ID1:W56197513S)  ;
N321 M98 P9101  ;
N322 G0X1443.75Y615.1  ;
N323 G65 P9102 A102 B04  ;
N324 G1X1439.99Y608.6  ;
N325 G1X1443.75Y602.1  ;
N326 G1X1451.25Y602.1  ;
N327 G1X1455.01Y608.6  ;
N328 G1X1451.25Y615.1  ;
N329 G1X1443.75Y615.1  ;
N330 G65 P9104 A102 B04  ;
N331 G0X1421.25Y555.1  ;
N332 G65 P9102 A102 B04  ;
N333 G1X1413.75Y555.1  ;
N334 G1X1409.99Y548.6  ;
N335 G1X1413.75Y542.1  ;
N336 G1X1421.25Y542.1  ;
N337 G1X1425.01Y548.6  ;
N338 G1X1421.25Y555.1  ;
N339 G65 P9104 A101 B02  ;
N340 G0X1417.72Y548.47  ;
N341 G65 P9102 A101 B02  ;
N342 G1X1421.21Y544.97  ;
N343 G3X1421.17Y544.93I-3.71J3.63  ;
N344 G65 P9104 A101 B02  ;
N345 G0X1432.48Y576.37  ;
N346 G65 P9102 A101 B02  ;
N347 G1X1433.08Y574.95  ;
N348 G1X1437.67Y576.9  ;
N349 G1X1436.47Y579.73  ;
N350 G1X1427.19Y575.79  ;
N351 G1X1428.39Y572.96  ;
N352 G1X1433.03Y574.93  ;
N353 G65 P9104 A101 B02  ;
N354 G0X1447.72Y608.47  ;
N355 G65 P9102 A101 B02  ;
N356 G1X1451.21Y604.97  ;
N357 G3X1451.17Y604.93I-3.71J3.63  ;
N358 G65 P9104 A101 B01  ;
N359 G0X1425.8Y679.6  ;
N360 G65 P9102 A101 B01  ;
N361 G1X1425.8Y674.66  ;
N362 G1X1427.56Y674.66  ;
N363 G1X1427.56Y673.66  ;
N364 G1X1453Y673.66  ;
N365 G1X1473.67Y624.97  ;
N366 G1X1470.82Y623.75  ;
N367 G1X1474.87Y614.2  ;
N368 G1X1477.72Y615.41  ;
N369 G1X1482.73Y603.62  ;
N370 G2X1481.75Y596.46I-6.5J-2.76  ;
N371 G1X1427.53Y528.54  ;
N372 G1X1397.44Y528.54  ;
N373 G1X1397.44Y548.6  ;
N374 G3X1392.5Y553.54I-4.94J0  ;
N375 G1X1382.44Y553.54  ;
N376 G1X1382.44Y648.66  ;
N377 G1X1402.5Y648.66  ;
N378 G3X1407.44Y653.6I0J4.94  ;
N379 G1X1407.44Y673.66  ;
N380 G1X1422.44Y673.66  ;
N381 G1X1422.44Y674.66  ;
N382 G1X1424.99Y674.66  ;
N383 G65 P9104 A102 B04  ;
N384 M98 P9103  ;
(P5:ID1:W56197513S)  ;
N385 M98 P9101  ;
N386 G0X1421.75Y768  ;
N387 G65 P9102 A102 B04  ;
N388 G1X1417.99Y761.5  ;
N389 G1X1421.75Y755  ;
N390 G1X1429.25Y755  ;
N391 G1X1433.01Y761.5  ;
N392 G1X1429.25Y768  ;
N393 G1X1421.75Y768  ;
N394 G65 P9104 A102 B04  ;
N395 G0X1399.25Y708  ;
N396 G65 P9102 A102 B04  ;
N397 G1X1391.75Y708  ;
N398 G1X1387.99Y701.5  ;
N399 G1X1391.75Y695  ;
N400 G1X1399.25Y695  ;
N401 G1X1403.01Y701.5  ;
N402 G1X1399.25Y708  ;
N403 G65 P9104 A101 B02  ;
N404 G0X1395.72Y701.37  ;
N405 G65 P9102 A101 B02  ;
N406 G1X1399.21Y697.87  ;
N407 G3X1399.17Y697.83I-3.71J3.63  ;
N408 G65 P9104 A101 B02  ;
N409 G0X1410.48Y729.27  ;
N410 G65 P9102 A101 B02  ;
N411 G1X1411.08Y727.85  ;
N412 G1X1415.67Y729.8  ;
N413 G1X1414.47Y732.63  ;
N414 G1X1405.19Y728.69  ;
N415 G1X1406.39Y725.86  ;
N416 G1X1411.03Y727.83  ;
N417 G65 P9104 A101 B02  ;
N418 G0X1425.72Y761.37  ;
N419 G65 P9102 A101 B02  ;
N420 G1X1429.21Y757.87  ;
N421 G3X1429.17Y757.83I-3.71J3.63  ;
N422 G65 P9104 A101 B01  ;
N423 G0X1403.8Y832.5  ;
N424 G65 P9102 A101 B01  ;
N425 G1X1403.8Y827.56  ;
N426 G1X1405.56Y827.56  ;
N427 G1X1405.56Y826.56  ;
N428 G1X1431Y826.56  ;
N429 G1X1451.67Y777.87  ;
N430 G1X1448.82Y776.65  ;
N431 G1X1452.87Y767.1  ;
N432 G1X1455.72Y768.31  ;
N433 G1X1460.73Y756.52  ;
N434 G2X1459.75Y749.36I-6.5J-2.76  ;
N435 G1X1405.53Y681.44  ;
N436 G1X1375.44Y681.44  ;
N437 G1X1375.44Y701.5  ;
N438 G3X1370.5Y706.44I-4.94J0  ;
N439 G1X1360.44Y706.44  ;
N440 G1X1360.44Y801.56  ;
N441 G1X1380.5Y801.56  ;
N442 G3X1385.44Y806.5I0J4.94  ;
N443 G1X1385.44Y826.56  ;
N444 G1X1400.44Y826.56  ;
N445 G1X1400.44Y827.56  ;
N446 G1X1402.99Y827.56  ;
N447 G65 P9104 A102 B04  ;
N448 M98 P9103  ;
(P6:ID3:W56197513)  ;
N449 M98 P9101  ;
N450 G0X1399.99Y960.5  ;
N451 G65 P9102 A102 B04  ;
N452 G1X1403.75Y967  ;
N453 G1X1411.25Y967  ;
N454 G1X1415.01Y960.5  ;
N455 G1X1411.25Y954  ;
N456 G1X1403.75Y954  ;
N457 G1X1399.99Y960.5  ;
N458 G65 P9104 A102 B04  ;
N459 G0X1433.75Y907  ;
N460 G65 P9102 A102 B04  ;
N461 G1X1441.25Y907  ;
N462 G1X1445.01Y900.5  ;
N463 G1X1441.25Y894  ;
N464 G1X1433.75Y894  ;
N465 G1X1429.99Y900.5  ;
N466 G1X1433.75Y907  ;
N467 G65 P9104 A101 B02  ;
N468 G0X1437.72Y900.37  ;
N469 G65 P9102 A101 B02  ;
N470 G1X1441.21Y896.87  ;
N471 G3X1441.17Y896.83I-3.71J3.63  ;
N472 G65 P9104 A101 B02  ;
N473 G0X1423.42Y932.27  ;
N474 G65 P9102 A101 B02  ;
N475 G1X1427.04Y930.73  ;
N476 G1X1426.47Y929.37  ;
N477 G1X1417.19Y933.31  ;
N478 G1X1418.39Y936.14  ;
N479 G1X1427.67Y932.2  ;
N480 G1X1427.07Y930.78  ;
N481 G65 P9104 A101 B02  ;
N482 G0X1407.72Y960.37  ;
N483 G65 P9102 A101 B02  ;
N484 G1X1411.21Y956.87  ;
N485 G3X1411.17Y956.83I-3.71J3.63  ;
N486 G65 P9104 A101 B01  ;
N487 G0X1415.6Y829.5  ;
N488 G65 P9102 A101 B01  ;
N489 G1X1415.6Y834.44  ;
N490 G1X1417.56Y834.44  ;
N491 G1X1417.56Y835.44  ;
N492 G1X1443Y835.44  ;
N493 G1X1463.67Y884.13  ;
N494 G1X1460.82Y885.35  ;
N495 G1X1464.87Y894.9  ;
N496 G1X1467.72Y893.69  ;
N497 G1X1472.73Y905.48  ;
N498 G3X1471.75Y912.64I-6.5J2.76  ;
N499 G1X1417.53Y980.56  ;
N500 G1X1387.44Y980.56  ;
N501 G1X1387.44Y960.5  ;
N502 G2X1382.5Y955.56I-4.94J0  ;
N503 G1X1372.44Y955.56  ;
N504 G1X1372.44Y860.44  ;
N505 G1X1392.5Y860.44  ;
N506 G2X1397.44Y855.5I0J-4.94  ;
N507 G1X1397.44Y835.44  ;
N508 G1X1412.44Y835.44  ;
N509 G1X1412.44Y834.44  ;
N510 G1X1414.79Y834.44  ;
N511 G65 P9104 A102 B04  ;
N512 M98 P9103  ;
(P7:ID3:W56197513)  ;
N513 M98 P9101  ;
N514 G0X1393.99Y1114.5  ;
N515 G65 P9102 A102 B04  ;
N516 G1X1397.75Y1121  ;
N517 G1X1405.25Y1121  ;
N518 G1X1409.01Y1114.5  ;
N519 G1X1405.25Y1108  ;
N520 G1X1397.75Y1108  ;
N521 G1X1393.99Y1114.5  ;
N522 G65 P9104 A102 B04  ;
N523 G0X1427.75Y1061  ;
N524 G65 P9102 A102 B04  ;
N525 G1X1435.25Y1061  ;
N526 G1X1439.01Y1054.5  ;
N527 G1X1435.25Y1048  ;
N528 G1X1427.75Y1048  ;
N529 G1X1423.99Y1054.5  ;
N530 G1X1427.75Y1061  ;
N531 G65 P9104 A101 B02  ;
N532 G0X1431.72Y1054.37  ;
N533 G65 P9102 A101 B02  ;
N534 G1X1435.21Y1050.87  ;
N535 G3X1435.17Y1050.83I-3.71J3.63  ;
N536 G65 P9104 A101 B02  ;
N537 G0X1417.42Y1086.27  ;
N538 G65 P9102 A101 B02  ;
N539 G1X1421.04Y1084.73  ;
N540 G1X1420.47Y1083.37  ;
N541 G1X1411.19Y1087.31  ;
N542 G1X1412.39Y1090.14  ;
N543 G1X1421.67Y1086.2  ;
N544 G1X1421.07Y1084.78  ;
N545 G65 P9104 A101 B02  ;
N546 G0X1401.72Y1114.37  ;
N547 G65 P9102 A101 B02  ;
N548 G1X1405.21Y1110.87  ;
N549 G3X1405.17Y1110.83I-3.71J3.63  ;
N550 G65 P9104 A101 B01  ;
N551 G0X1409.6Y983.5  ;
N552 G65 P9102 A101 B01  ;
N553 G1X1409.6Y988.44  ;
N554 G1X1411.56Y988.44  ;
N555 G1X1411.56Y989.44  ;
N556 G1X1437Y989.44  ;
N557 G1X1457.67Y1038.13  ;
N558 G1X1454.82Y1039.35  ;
N559 G1X1458.87Y1048.9  ;
N560 G1X1461.72Y1047.69  ;
N561 G1X1466.73Y1059.48  ;
N562 G3X1465.75Y1066.64I-6.5J2.76  ;
N563 G1X1411.53Y1134.56  ;
N564 G1X1381.44Y1134.56  ;
N565 G1X1381.44Y1114.5  ;
N566 G2X1376.5Y1109.56I-4.94J0  ;
N567 G1X1366.44Y1109.56  ;
N568 G1X1366.44Y1014.44  ;
N569 G1X1386.5Y1014.44  ;
N570 G2X1391.44Y1009.5I0J-4.94  ;
N571 G1X1391.44Y989.44  ;
N572 G1X1406.44Y989.44  ;
N573 G1X1406.44Y988.44  ;
N574 G1X1408.79Y988.44  ;
N575 G65 P9104 A102 B04  ;
N576 M98 P9103  ;
(P8:ID4:W56244401)  ;
N577 M98 P9101  ;
N578 G0X950.5Y1453.8  ;
N579 G65 P9102 A102 B04  ;
N580 G1X944.5Y1457.26  ;
N581 G1X944.5Y1464.19  ;
N582 G1X950.5Y1467.65  ;
N583 G1X956.5Y1464.19  ;
N584 G1X956.5Y1457.26  ;
N585 G1X950.5Y1453.8  ;
N586 G65 P9104 A102 B04  ;
N587 G0X1044.5Y1457.26  ;
N588 G65 P9102 A102 B04  ;
N589 G1X1044.5Y1464.19  ;
N590 G1X1050.5Y1467.65  ;
N591 G1X1056.5Y1464.19  ;
N592 G1X1056.5Y1457.26  ;
N593 G1X1050.5Y1453.8  ;
N594 G1X1044.5Y1457.26  ;
N595 G65 P9104 A102 B04  ;
N596 G0X1119.5Y1457.26  ;
N597 G65 P9102 A102 B04  ;
N598 G1X1119.5Y1464.19  ;
N599 G1X1125.5Y1467.65  ;
N600 G1X1131.5Y1464.19  ;
N601 G1X1131.5Y1457.26  ;
N602 G1X1125.5Y1453.8  ;
N603 G1X1119.5Y1457.26  ;
N604 G65 P9104 A101 B02  ;
N605 G0X1125.63Y1460.95  ;
N606 G65 P9102 A101 B02  ;
N607 G1X1129.13Y1464.44  ;
N608 G3X1129.17Y1464.4I-3.63J-3.71  ;
N609 G65 P9104 A101 B02  ;
N610 G0X1161.97Y1417.46  ;
N611 G65 P9102 A101 B02  ;
N612 G1X1163.97Y1420.92  ;
N613 G2X1164.3Y1421.01I0.2J-0.12  ;
N614 G1X1167.09Y1419.4  ;
N615 G1X1167.09Y1412.94  ;
N616 G1X1161.5Y1409.72  ;
N617 G1X1155.91Y1412.94  ;
N618 G1X1155.91Y1419.4  ;
N619 G1X1161.5Y1422.62  ;
N620 G1X1164.3Y1421.01  ;
N621 G65 P9104 A101 B02  ;
N622 G0X1050.63Y1460.95  ;
N623 G65 P9102 A101 B02  ;
N624 G1X1054.13Y1464.44  ;
N625 G3X1054.17Y1464.4I-3.63J-3.71  ;
N626 G65 P9104 A101 B02  ;
N627 G0X950.63Y1460.95  ;
N628 G65 P9102 A101 B02  ;
N629 G1X954.13Y1464.44  ;
N630 G3X954.17Y1464.4I-3.63J-3.71  ;
N631 G65 P9104 A101 B02  ;
N632 G0X899.46Y1414.21  ;
N633 G65 P9102 A101 B02  ;
N634 G1X902.95Y1417.71  ;
N635 G3X902.99Y1417.66I-3.45J-3.54  ;
N636 G65 P9104 A101 B02  ;
N637 G0X849.46Y1414.21  ;
N638 G65 P9102 A101 B02  ;
N639 G1X852.95Y1417.71  ;
N640 G3X852.99Y1417.66I-3.45J-3.54  ;
N641 G65 P9104 A101 B02  ;
N642 G0X670.97Y1417.46  ;
N643 G65 P9102 A101 B02  ;
N644 G1X672.97Y1420.92  ;
N645 G2X673.3Y1421.01I0.2J-0.12  ;
N646 G1X676.09Y1419.4  ;
N647 G1X676.09Y1412.94  ;
N648 G1X670.5Y1409.72  ;
N649 G1X664.91Y1412.94  ;
N650 G1X664.91Y1419.4  ;
N651 G1X670.5Y1422.62  ;
N652 G1X673.3Y1421.01  ;
N653 G65 P9104 A101 B01  ;
N654 G0X643.5Y611.84  ;
N655 G65 P9102 A101 B01  ;
N656 G1X647.5Y611.84  ;
N657 G1X648.94Y611.84  ;
N658 G1X648.94Y610.84  ;
N659 G1X1350.06Y610.84  ;
N660 G1X1350.06Y611.84  ;
N661 G1X1351.56Y611.84  ;
N662 G1X1351.56Y613.34  ;
N663 G1X1352.56Y613.34  ;
N664 G1X1352.56Y869.22  ;
N665 G1X1349.56Y869.22  ;
N666 G1X1349.56Y1241.41  ;
N667 G2X1355.5Y1247.35I5.94J0  ;
N668 G1X1415.5Y1247.35  ;
N669 G3X1421.56Y1253.41I0J6.06  ;
N670 G1X1421.56Y1386.91  ;
N671 G3X1415.5Y1392.97I-6.06J0  ;
N672 G1X1375.44Y1392.97  ;
N673 G1X1375.44Y1389.97  ;
N674 G1X1374.56Y1389.97  ;
N675 G1X1374.56Y1400.07  ;
N676 G1X1374.06Y1400.07  ;
N677 G1X1374.06Y1429.95  ;
N678 G1X1374.56Y1429.95  ;
N679 G1X1374.56Y1475.79  ;
N680 G1X624.44Y1475.79  ;
N681 G1X624.44Y1429.95  ;
N682 G1X624.94Y1429.95  ;
N683 G1X624.94Y1400.07  ;
N684 G1X624.44Y1400.07  ;
N685 G1X624.44Y1389.97  ;
N686 G1X623.56Y1389.97  ;
N687 G1X623.56Y1392.97  ;
N688 G1X583.5Y1392.97  ;
N689 G3X577.44Y1386.91I0J-6.06  ;
N690 G1X577.44Y1253.41  ;
N691 G3X583.5Y1247.35I6.06J0  ;
N692 G1X649.44Y1247.35  ;
N693 G1X649.44Y869.22  ;
N694 G1X646.44Y869.22  ;
N695 G1X646.44Y613.34  ;
N696 G1X647.44Y613.34  ;
N697 G1X647.44Y611.9  ;
N698 G65 P9104 A102 B04  ;
N699 M98 P9103  ;
(P9:ID3:W56197513)  ;
N700 M98 P9101  ;
N701 G0X1410.99Y1525.9  ;
N702 G65 P9102 A102 B04  ;
N703 G1X1414.75Y1532.4  ;
N704 G1X1422.25Y1532.4  ;
N705 G1X1426.01Y1525.9  ;
N706 G1X1422.25Y1519.4  ;
N707 G1X1414.75Y1519.4  ;
N708 G1X1410.99Y1525.9  ;
N709 G65 P9104 A102 B04  ;
N710 G0X1444.75Y1472.4  ;
N711 G65 P9102 A102 B04  ;
N712 G1X1452.25Y1472.4  ;
N713 G1X1456.01Y1465.9  ;
N714 G1X1452.25Y1459.4  ;
N715 G1X1444.75Y1459.4  ;
N716 G1X1440.99Y1465.9  ;
N717 G1X1444.75Y1472.4  ;
N718 G65 P9104 A101 B02  ;
N719 G0X1448.72Y1465.77  ;
N720 G65 P9102 A101 B02  ;
N721 G1X1452.21Y1462.27  ;
N722 G3X1452.17Y1462.23I-3.71J3.63  ;
N723 G65 P9104 A101 B02  ;
N724 G0X1434.42Y1497.67  ;
N725 G65 P9102 A101 B02  ;
N726 G1X1438.04Y1496.13  ;
N727 G1X1437.47Y1494.77  ;
N728 G1X1428.19Y1498.71  ;
N729 G1X1429.39Y1501.54  ;
N730 G1X1438.67Y1497.6  ;
N731 G1X1438.07Y1496.18  ;
N732 G65 P9104 A101 B02  ;
N733 G0X1418.72Y1525.77  ;
N734 G65 P9102 A101 B02  ;
N735 G1X1422.21Y1522.27  ;
N736 G3X1422.17Y1522.23I-3.71J3.63  ;
N737 G65 P9104 A101 B01  ;
N738 G0X1426.6Y1394.9  ;
N739 G65 P9102 A101 B01  ;
N740 G1X1426.6Y1399.84  ;
N741 G1X1428.56Y1399.84  ;
N742 G1X1428.56Y1400.84  ;
N743 G1X1454Y1400.84  ;
N744 G1X1474.67Y1449.53  ;
N745 G1X1471.82Y1450.75  ;
N746 G1X1475.87Y1460.3  ;
N747 G1X1478.72Y1459.09  ;
N748 G1X1483.73Y1470.88  ;
N749 G3X1482.75Y1478.04I-6.5J2.76  ;
N750 G1X1428.53Y1545.96  ;
N751 G1X1398.44Y1545.96  ;
N752 G1X1398.44Y1525.9  ;
N753 G2X1393.5Y1520.96I-4.94J0  ;
N754 G1X1383.44Y1520.96  ;
N755 G1X1383.44Y1425.84  ;
N756 G1X1403.5Y1425.84  ;
N757 G2X1408.44Y1420.9I0J-4.94  ;
N758 G1X1408.44Y1400.84  ;
N759 G1X1423.44Y1400.84  ;
N760 G1X1423.44Y1399.84  ;
N761 G1X1425.79Y1399.84  ;
N762 G65 P9104 A102 B04  ;
N763 M98 P9103  ;
(P10:ID3:W56197513)  ;
N764 M98 P9101  ;
N765 G0X1374.99Y1678.9  ;
N766 G65 P9102 A102 B04  ;
N767 G1X1378.75Y1685.4  ;
N768 G1X1386.25Y1685.4  ;
N769 G1X1390.01Y1678.9  ;
N770 G1X1386.25Y1672.4  ;
N771 G1X1378.75Y1672.4  ;
N772 G1X1374.99Y1678.9  ;
N773 G65 P9104 A102 B04  ;
N774 G0X1408.75Y1625.4  ;
N775 G65 P9102 A102 B04  ;
N776 G1X1416.25Y1625.4  ;
N777 G1X1420.01Y1618.9  ;
N778 G1X1416.25Y1612.4  ;
N779 G1X1408.75Y1612.4  ;
N780 G1X1404.99Y1618.9  ;
N781 G1X1408.75Y1625.4  ;
N782 G65 P9104 A101 B02  ;
N783 G0X1412.72Y1618.77  ;
N784 G65 P9102 A101 B02  ;
N785 G1X1416.21Y1615.27  ;
N786 G3X1416.17Y1615.23I-3.71J3.63  ;
N787 G65 P9104 A101 B02  ;
N788 G0X1398.42Y1650.67  ;
N789 G65 P9102 A101 B02  ;
N790 G1X1402.04Y1649.13  ;
N791 G1X1401.47Y1647.77  ;
N792 G1X1392.19Y1651.71  ;
N793 G1X1393.39Y1654.54  ;
N794 G1X1402.67Y1650.6  ;
N795 G1X1402.07Y1649.18  ;
N796 G65 P9104 A101 B02  ;
N797 G0X1382.72Y1678.77  ;
N798 G65 P9102 A101 B02  ;
N799 G1X1386.21Y1675.27  ;
N800 G3X1386.17Y1675.23I-3.71J3.63  ;
N801 G65 P9104 A101 B01  ;
N802 G0X1390.6Y1547.9  ;
N803 G65 P9102 A101 B01  ;
N804 G1X1390.6Y1552.84  ;
N805 G1X1392.56Y1552.84  ;
N806 G1X1392.56Y1553.84  ;
N807 G1X1418Y1553.84  ;
N808 G1X1438.67Y1602.53  ;
N809 G1X1435.82Y1603.75  ;
N810 G1X1439.87Y1613.3  ;
N811 G1X1442.72Y1612.09  ;
N812 G1X1447.73Y1623.88  ;
N813 G3X1446.75Y1631.04I-6.5J2.76  ;
N814 G1X1392.53Y1698.96  ;
N815 G1X1362.44Y1698.96  ;
N816 G1X1362.44Y1678.9  ;
N817 G2X1357.5Y1673.96I-4.94J0  ;
N818 G1X1347.44Y1673.96  ;
N819 G1X1347.44Y1578.84  ;
N820 G1X1367.5Y1578.84  ;
N821 G2X1372.44Y1573.9I0J-4.94  ;
N822 G1X1372.44Y1553.84  ;
N823 G1X1387.44Y1553.84  ;
N824 G1X1387.44Y1552.84  ;
N825 G1X1389.79Y1552.84  ;
N826 G65 P9104 A102 B04  ;
N827 M98 P9103  ;
(P11:ID5:W56197510)  ;
N828 M98 P9101  ;
N829 G0X1358Y1784.09  ;
N830 G65 P9102 A102 B04  ;
N831 G1X1351.5Y1787.85  ;
N832 G1X1351.5Y1795.35  ;
N833 G1X1358Y1799.11  ;
N834 G1X1364.5Y1795.35  ;
N835 G1X1364.5Y1787.85  ;
N836 G1X1358Y1784.09  ;
N837 G65 P9104 A102 B04  ;
N838 G0X1461.5Y1787.85  ;
N839 G65 P9102 A102 B04  ;
N840 G1X1461.5Y1795.35  ;
N841 G1X1468Y1799.11  ;
N842 G1X1474.5Y1795.35  ;
N843 G1X1474.5Y1787.85  ;
N844 G1X1468Y1784.09  ;
N845 G1X1461.5Y1787.85  ;
N846 G65 P9104 A101 B02  ;
N847 G0X1468.13Y1791.82  ;
N848 G65 P9102 A101 B02  ;
N849 G1X1471.63Y1795.31  ;
N850 G3X1471.67Y1795.27I-3.63J-3.71  ;
N851 G65 P9104 A101 B01  ;
N852 G0X1429Y1791.66  ;
N853 G65 P9102 A101 B01  ;
N854 G1X1432.94Y1791.66  ;
N855 G3X1432.94Y1791.6I-19.94J-0.06  ;
N856 G65 P9104 A101 B02  ;
N857 G0X1358.13Y1791.82  ;
N858 G65 P9102 A101 B02  ;
N859 G1X1361.63Y1795.31  ;
N860 G3X1361.67Y1795.27I-3.63J-3.71  ;
N861 G65 P9104 A101 B01  ;
N862 G0X1337.94Y1702.9  ;
N863 G65 P9102 A101 B01  ;
N864 G1X1337.94Y1706.9  ;
N865 G1X1337.94Y1721.84  ;
N866 G1X1334.94Y1721.84  ;
N867 G1X1334.94Y1731.96  ;
N868 G1X1337.94Y1731.96  ;
N869 G1X1337.94Y1736.96  ;
N870 G1X1341Y1736.96  ;
N871 G3X1342.94Y1738.9I0J1.94  ;
N872 G1X1342.94Y1759.1  ;
N873 G3X1341Y1761.04I-1.94J0  ;
N874 G1X1337.94Y1761.04  ;
N875 G1X1337.94Y1798.04  ;
N876 G1X1334.94Y1798.04  ;
N877 G1X1334.94Y1808.16  ;
N878 G1X1337.94Y1808.16  ;
N879 G1X1337.94Y1846.12  ;
N880 G1X1347.98Y1856.16  ;
N881 G1X1478.02Y1856.16  ;
N882 G1X1488.06Y1846.12  ;
N883 G1X1488.06Y1808.16  ;
N884 G1X1491.06Y1808.16  ;
N885 G1X1491.06Y1798.04  ;
N886 G1X1488.06Y1798.04  ;
N887 G1X1488.06Y1761.04  ;
N888 G1X1485Y1761.04  ;
N889 G3X1483.06Y1759.1I0J-1.94  ;
N890 G1X1483.06Y1738.9  ;
N891 G3X1485Y1736.96I1.94J0  ;
N892 G1X1488.06Y1736.96  ;
N893 G1X1488.06Y1731.96  ;
N894 G1X1491.06Y1731.96  ;
N895 G1X1491.06Y1721.84  ;
N896 G1X1488.06Y1721.84  ;
N897 G1X1488.06Y1706.84  ;
N898 G1X1338Y1706.84  ;
N899 G65 P9104 A102 B04  ;
N900 M98 P9103  ;
(P12:ID5:W56197510)  ;
N901 M98 P9101  ;
N902 G0X1358Y1941.29  ;
N903 G65 P9102 A102 B04  ;
N904 G1X1351.5Y1945.05  ;
N905 G1X1351.5Y1952.55  ;
N906 G1X1358Y1956.31  ;
N907 G1X1364.5Y1952.55  ;
N908 G1X1364.5Y1945.05  ;
N909 G1X1358Y1941.29  ;
N910 G65 P9104 A102 B04  ;
N911 G0X1461.5Y1945.05  ;
N912 G65 P9102 A102 B04  ;
N913 G1X1461.5Y1952.55  ;
N914 G1X1468Y1956.31  ;
N915 G1X1474.5Y1952.55  ;
N916 G1X1474.5Y1945.05  ;
N917 G1X1468Y1941.29  ;
N918 G1X1461.5Y1945.05  ;
N919 G65 P9104 A101 B02  ;
N920 G0X1468.13Y1949.02  ;
N921 G65 P9102 A101 B02  ;
N922 G1X1471.63Y1952.51  ;
N923 G3X1471.67Y1952.47I-3.63J-3.71  ;
N924 G65 P9104 A101 B01  ;
N925 G0X1429Y1948.86  ;
N926 G65 P9102 A101 B01  ;
N927 G1X1432.94Y1948.86  ;
N928 G3X1432.94Y1948.8I-19.94J-0.06  ;
N929 G65 P9104 A101 B02  ;
N930 G0X1358.13Y1949.02  ;
N931 G65 P9102 A101 B02  ;
N932 G1X1361.63Y1952.51  ;
N933 G3X1361.67Y1952.47I-3.63J-3.71  ;
N934 G65 P9104 A101 B01  ;
N935 G0X1337.94Y1860.1  ;
N936 G65 P9102 A101 B01  ;
N937 G1X1337.94Y1864.1  ;
N938 G1X1337.94Y1879.04  ;
N939 G1X1334.94Y1879.04  ;
N940 G1X1334.94Y1889.16  ;
N941 G1X1337.94Y1889.16  ;
N942 G1X1337.94Y1894.16  ;
N943 G1X1341Y1894.16  ;
N944 G3X1342.94Y1896.1I0J1.94  ;
N945 G1X1342.94Y1916.3  ;
N946 G3X1341Y1918.24I-1.94J0  ;
N947 G1X1337.94Y1918.24  ;
N948 G1X1337.94Y1955.24  ;
N949 G1X1334.94Y1955.24  ;
N950 G1X1334.94Y1965.36  ;
N951 G1X1337.94Y1965.36  ;
N952 G1X1337.94Y2003.32  ;
N953 G1X1347.98Y2013.36  ;
N954 G1X1478.02Y2013.36  ;
N955 G1X1488.06Y2003.32  ;
N956 G1X1488.06Y1965.36  ;
N957 G1X1491.06Y1965.36  ;
N958 G1X1491.06Y1955.24  ;
N959 G1X1488.06Y1955.24  ;
N960 G1X1488.06Y1918.24  ;
N961 G1X1485Y1918.24  ;
N962 G3X1483.06Y1916.3I0J-1.94  ;
N963 G1X1483.06Y1896.1  ;
N964 G3X1485Y1894.16I1.94J0  ;
N965 G1X1488.06Y1894.16  ;
N966 G1X1488.06Y1889.16  ;
N967 G1X1491.06Y1889.16  ;
N968 G1X1491.06Y1879.04  ;
N969 G1X1488.06Y1879.04  ;
N970 G1X1488.06Y1864.04  ;
N971 G1X1338Y1864.04  ;
N972 G65 P9104 A102 B04  ;
N973 M98 P9103  ;
(P13:ID5:W56197510)  ;
N974 M98 P9101  ;
N975 G0X1358Y2098.49  ;
N976 G65 P9102 A102 B04  ;
N977 G1X1351.5Y2102.25  ;
N978 G1X1351.5Y2109.75  ;
N979 G1X1358Y2113.51  ;
N980 G1X1364.5Y2109.75  ;
N981 G1X1364.5Y2102.25  ;
N982 G1X1358Y2098.49  ;
N983 G65 P9104 A102 B04  ;
N984 G0X1461.5Y2102.25  ;
N985 G65 P9102 A102 B04  ;
N986 G1X1461.5Y2109.75  ;
N987 G1X1468Y2113.51  ;
N988 G1X1474.5Y2109.75  ;
N989 G1X1474.5Y2102.25  ;
N990 G1X1468Y2098.49  ;
N991 G1X1461.5Y2102.25  ;
N992 G65 P9104 A101 B02  ;
N993 G0X1468.13Y2106.22  ;
N994 G65 P9102 A101 B02  ;
N995 G1X1471.63Y2109.71  ;
N996 G3X1471.67Y2109.67I-3.63J-3.71  ;
N997 G65 P9104 A101 B01  ;
N998 G0X1429Y2106.06  ;
N999 G65 P9102 A101 B01  ;
N1000 G1X1432.94Y2106.06  ;
N1001 G3X1432.94Y2106I-19.94J-0.06  ;
N1002 G65 P9104 A101 B02  ;
N1003 G0X1358.13Y2106.22  ;
N1004 G65 P9102 A101 B02  ;
N1005 G1X1361.63Y2109.71  ;
N1006 G3X1361.67Y2109.67I-3.63J-3.71  ;
N1007 G65 P9104 A101 B01  ;
N1008 G0X1337.94Y2017.3  ;
N1009 G65 P9102 A101 B01  ;
N1010 G1X1337.94Y2021.3  ;
N1011 G1X1337.94Y2036.24  ;
N1012 G1X1334.94Y2036.24  ;
N1013 G1X1334.94Y2046.36  ;
N1014 G1X1337.94Y2046.36  ;
N1015 G1X1337.94Y2051.36  ;
N1016 G1X1341Y2051.36  ;
N1017 G3X1342.94Y2053.3I0J1.94  ;
N1018 G1X1342.94Y2073.5  ;
N1019 G3X1341Y2075.44I-1.94J0  ;
N1020 G1X1337.94Y2075.44  ;
N1021 G1X1337.94Y2112.44  ;
N1022 G1X1334.94Y2112.44  ;
N1023 G1X1334.94Y2122.56  ;
N1024 G1X1337.94Y2122.56  ;
N1025 G1X1337.94Y2160.52  ;
N1026 G1X1347.98Y2170.56  ;
N1027 G1X1478.02Y2170.56  ;
N1028 G1X1488.06Y2160.52  ;
N1029 G1X1488.06Y2122.56  ;
N1030 G1X1491.06Y2122.56  ;
N1031 G1X1491.06Y2112.44  ;
N1032 G1X1488.06Y2112.44  ;
N1033 G1X1488.06Y2075.44  ;
N1034 G1X1485Y2075.44  ;
N1035 G3X1483.06Y2073.5I0J-1.94  ;
N1036 G1X1483.06Y2053.3  ;
N1037 G3X1485Y2051.36I1.94J0  ;
N1038 G1X1488.06Y2051.36  ;
N1039 G1X1488.06Y2046.36  ;
N1040 G1X1491.06Y2046.36  ;
N1041 G1X1491.06Y2036.24  ;
N1042 G1X1488.06Y2036.24  ;
N1043 G1X1488.06Y2021.24  ;
N1044 G1X1338Y2021.24  ;
N1045 G65 P9104 A102 B04  ;
N1046 M98 P9103  ;
(P14:ID5:W56197510)  ;
N1047 M98 P9101  ;
N1048 G0X1358Y2255.69  ;
N1049 G65 P9102 A102 B04  ;
N1050 G1X1351.5Y2259.45  ;
N1051 G1X1351.5Y2266.95  ;
N1052 G1X1358Y2270.71  ;
N1053 G1X1364.5Y2266.95  ;
N1054 G1X1364.5Y2259.45  ;
N1055 G1X1358Y2255.69  ;
N1056 G65 P9104 A102 B04  ;
N1057 G0X1461.5Y2259.45  ;
N1058 G65 P9102 A102 B04  ;
N1059 G1X1461.5Y2266.95  ;
N1060 G1X1468Y2270.71  ;
N1061 G1X1474.5Y2266.95  ;
N1062 G1X1474.5Y2259.45  ;
N1063 G1X1468Y2255.69  ;
N1064 G1X1461.5Y2259.45  ;
N1065 G65 P9104 A101 B02  ;
N1066 G0X1468.13Y2263.42  ;
N1067 G65 P9102 A101 B02  ;
N1068 G1X1471.63Y2266.91  ;
N1069 G3X1471.67Y2266.87I-3.63J-3.71  ;
N1070 G65 P9104 A101 B01  ;
N1071 G0X1429Y2263.26  ;
N1072 G65 P9102 A101 B01  ;
N1073 G1X1432.94Y2263.26  ;
N1074 G3X1432.94Y2263.2I-19.94J-0.06  ;
N1075 G65 P9104 A101 B02  ;
N1076 G0X1358.13Y2263.42  ;
N1077 G65 P9102 A101 B02  ;
N1078 G1X1361.63Y2266.91  ;
N1079 G3X1361.67Y2266.87I-3.63J-3.71  ;
N1080 G65 P9104 A101 B01  ;
N1081 G0X1337.94Y2174.5  ;
N1082 G65 P9102 A101 B01  ;
N1083 G1X1337.94Y2178.5  ;
N1084 G1X1337.94Y2193.44  ;
N1085 G1X1334.94Y2193.44  ;
N1086 G1X1334.94Y2203.56  ;
N1087 G1X1337.94Y2203.56  ;
N1088 G1X1337.94Y2208.56  ;
N1089 G1X1341Y2208.56  ;
N1090 G3X1342.94Y2210.5I0J1.94  ;
N1091 G1X1342.94Y2230.7  ;
N1092 G3X1341Y2232.64I-1.94J0  ;
N1093 G1X1337.94Y2232.64  ;
N1094 G1X1337.94Y2269.64  ;
N1095 G1X1334.94Y2269.64  ;
N1096 G1X1334.94Y2279.76  ;
N1097 G1X1337.94Y2279.76  ;
N1098 G1X1337.94Y2317.72  ;
N1099 G1X1347.98Y2327.76  ;
N1100 G1X1478.02Y2327.76  ;
N1101 G1X1488.06Y2317.72  ;
N1102 G1X1488.06Y2279.76  ;
N1103 G1X1491.06Y2279.76  ;
N1104 G1X1491.06Y2269.64  ;
N1105 G1X1488.06Y2269.64  ;
N1106 G1X1488.06Y2232.64  ;
N1107 G1X1485Y2232.64  ;
N1108 G3X1483.06Y2230.7I0J-1.94  ;
N1109 G1X1483.06Y2210.5  ;
N1110 G3X1485Y2208.56I1.94J0  ;
N1111 G1X1488.06Y2208.56  ;
N1112 G1X1488.06Y2203.56  ;
N1113 G1X1491.06Y2203.56  ;
N1114 G1X1491.06Y2193.44  ;
N1115 G1X1488.06Y2193.44  ;
N1116 G1X1488.06Y2178.44  ;
N1117 G1X1338Y2178.44  ;
N1118 G65 P9104 A101 B02  ;
N1119 M98 P9103  ;
(P15:ID6:W56337205)  ;
N1120 M98 P9101  ;
N1121 G0X75.77Y2324.25  ;
N1122 G65 P9102 A101 B02  ;
N1123 G1X75.77Y2328.19  ;
N1124 G1X74.64Y2328.19  ;
N1125 G1X74.64Y2317.81  ;
N1126 G1X77.02Y2317.81  ;
N1127 G1X77.02Y2328.19  ;
N1128 G1X75.83Y2328.19  ;
N1129 G65 P9104 A101 B02  ;
N1130 G0X75.89Y2414.25  ;
N1131 G65 P9102 A101 B02  ;
N1132 G1X75.89Y2418.19  ;
N1133 G1X77.02Y2418.19  ;
N1134 G1X77.02Y2407.81  ;
N1135 G1X74.64Y2407.81  ;
N1136 G1X74.64Y2418.19  ;
N1137 G1X75.83Y2418.19  ;
N1138 G65 P9104 A101 B02  ;
N1139 G0X42.12Y2432.05  ;
N1140 G65 P9102 A101 B02  ;
N1141 G1X40.12Y2435.51  ;
N1142 G2X40.2Y2435.84I0.2J0.12  ;
N1143 G1X43Y2437.45  ;
N1144 G1X48.59Y2434.23  ;
N1145 G1X48.59Y2427.77  ;
N1146 G1X43Y2424.55  ;
N1147 G1X37.41Y2427.77  ;
N1148 G1X37.41Y2434.23  ;
N1149 G1X40.21Y2435.84  ;
N1150 G65 P9104 A101 B02  ;
N1151 G0X75.89Y2022.25  ;
N1152 G65 P9102 A101 B02  ;
N1153 G1X75.89Y2026.19  ;
N1154 G1X77.02Y2026.19  ;
N1155 G1X77.02Y2015.81  ;
N1156 G1X74.64Y2015.81  ;
N1157 G1X74.64Y2026.19  ;
N1158 G1X75.83Y2026.19  ;
N1159 G65 P9104 A101 B02  ;
N1160 G0X75.89Y1932.25  ;
N1161 G65 P9102 A101 B02  ;
N1162 G1X75.89Y1936.19  ;
N1163 G1X77.02Y1936.19  ;
N1164 G1X77.02Y1925.81  ;
N1165 G1X74.64Y1925.81  ;
N1166 G1X74.64Y1936.19  ;
N1167 G1X75.83Y1936.19  ;
N1168 G65 P9104 A101 B02  ;
N1169 G0X42.12Y1914.05  ;
N1170 G65 P9102 A101 B02  ;
N1171 G1X40.12Y1917.51  ;
N1172 G2X40.2Y1917.84I0.2J0.12  ;
N1173 G1X43Y1919.45  ;
N1174 G1X48.59Y1916.23  ;
N1175 G1X48.59Y1909.77  ;
N1176 G1X43Y1906.55  ;
N1177 G1X37.41Y1909.77  ;
N1178 G1X37.41Y1916.23  ;
N1179 G1X40.21Y1917.84  ;
N1180 G65 P9104 A101 B01  ;
N1181 G0X600.03Y1816  ;
N1182 G65 P9102 A101 B01  ;
N1183 G1X600.03Y1820  ;
N1184 G1X600.03Y1821.44  ;
N1185 G1X601.03Y1821.44  ;
N1186 G1X601.03Y2522.56  ;
N1187 G1X600.03Y2522.56  ;
N1188 G1X600.03Y2524.06  ;
N1189 G1X598.53Y2524.06  ;
N1190 G1X598.53Y2525.06  ;
N1191 G1X342.75Y2525.06  ;
N1192 G1X342.75Y2522.06  ;
N1193 G1X330.42Y2522.06  ;
N1194 G1X330.42Y2521.06  ;
N1195 G1X329.54Y2521.06  ;
N1196 G1X329.54Y2522.06  ;
N1197 G1X248.66Y2522.06  ;
N1198 G2X242.72Y2528I0J5.94  ;
N1199 G1X242.72Y2587  ;
N1200 G3X236.66Y2593.06I-6.06J0  ;
N1201 G1X122.6Y2593.06  ;
N1202 G1X122.6Y2573  ;
N1203 G2X117.66Y2568.06I-4.94J0  ;
N1204 G1X98.1Y2568.06  ;
N1205 G1X98.1Y2551.5  ;
N1206 G2X93.16Y2546.56I-4.94J0  ;
N1207 G1X72.6Y2546.56  ;
N1208 G1X72.6Y2541.56  ;
N1209 G1X48.06Y2541.56  ;
N1210 G1X48.06Y2546.56  ;
N1211 G1X32.94Y2546.56  ;
N1212 G1X32.94Y1797.44  ;
N1213 G1X48.06Y1797.44  ;
N1214 G1X48.06Y1802.44  ;
N1215 G1X72.6Y1802.44  ;
N1216 G1X72.6Y1797.44  ;
N1217 G1X93.16Y1797.44  ;
N1218 G2X98.1Y1792.5I0J-4.94  ;
N1219 G1X98.1Y1760.94  ;
N1220 G1X103.16Y1760.94  ;
N1221 G2X108.1Y1756I0J-4.94  ;
N1222 G1X108.1Y1750.94  ;
N1223 G1X236.66Y1750.94  ;
N1224 G3X242.72Y1757I0J6.06  ;
N1225 G1X242.72Y1816  ;
N1226 G2X248.66Y1821.94I5.94J0  ;
N1227 G1X329.54Y1821.94  ;
N1228 G1X329.54Y1822.94  ;
N1229 G1X330.42Y1822.94  ;
N1230 G1X330.42Y1821.94  ;
N1231 G1X342.75Y1821.94  ;
N1232 G1X342.75Y1818.94  ;
N1233 G1X598.53Y1818.94  ;
N1234 G1X598.53Y1819.94  ;
N1235 G1X599.97Y1819.94  ;
N1236 G65 P9104 A101 B01  ;
N1237 M98 P9103  ;
(P16:ID7:W56197514)  ;
N1238 M98 P9101  ;
N1239 G0X1346.26Y2417.4  ;
N1240 G65 P9102 A101 B01  ;
N1241 G1X1346.26Y2421.4  ;
N1242 G2X1346.5Y2421.64I0.24J0  ;
N1243 G1X1352Y2421.64  ;
N1244 G2X1354.94Y2418.7I0J-2.94  ;
N1245 G1X1354.94Y2399.7  ;
N1246 G2X1352Y2396.76I-2.94J0  ;
N1247 G1X1341Y2396.76  ;
N1248 G2X1338.06Y2399.7I0J2.94  ;
N1249 G1X1338.06Y2418.7  ;
N1250 G2X1341Y2421.64I2.94J0  ;
N1251 G1X1346.5Y2421.64  ;
N1252 G65 P9104 A101 B01  ;
N1253 G0X1340.99Y2330.7  ;
N1254 G65 P9102 A101 B01  ;
N1255 G1X1340.99Y2335.64  ;
N1256 G1X1337.94Y2335.64  ;
N1257 G1X1337.94Y2338.14  ;
N1258 G1X1330.98Y2338.14  ;
N1259 G1X1322.94Y2346.18  ;
N1260 G1X1322.94Y2517.22  ;
N1261 G1X1330.98Y2525.26  ;
N1262 G1X1368.05Y2525.26  ;
N1263 G1X1375.31Y2485.81  ;
N1264 G3X1380.16Y2481.76I4.85J0.89  ;
N1265 G1X1388.06Y2481.76  ;
N1266 G1X1388.06Y2438.26  ;
N1267 G1X1390.56Y2438.26  ;
N1268 G1X1390.56Y2428.14  ;
N1269 G1X1388.06Y2428.14  ;
N1270 G1X1388.06Y2381.64  ;
N1271 G1X1380.16Y2381.64  ;
N1272 G3X1375.31Y2377.59I0J-4.94  ;
N1273 G1X1368.05Y2338.14  ;
N1274 G1X1348.06Y2338.14  ;
N1275 G1X1348.06Y2335.64  ;
N1276 G1X1341.8Y2335.64  ;
N1277 G65 P9104 A101 B01  ;
N1278 M98 P9103  ;
(P17:ID7:W56197514)  ;
N1279 M98 P9101  ;
N1280 G0X1421.76Y2417.4  ;
N1281 G65 P9102 A101 B01  ;
N1282 G1X1421.76Y2421.4  ;
N1283 G2X1422Y2421.64I0.24J0  ;
N1284 G1X1427.5Y2421.64  ;
N1285 G2X1430.44Y2418.7I0J-2.94  ;
N1286 G1X1430.44Y2399.7  ;
N1287 G2X1427.5Y2396.76I-2.94J0  ;
N1288 G1X1416.5Y2396.76  ;
N1289 G2X1413.56Y2399.7I0J2.94  ;
N1290 G1X1413.56Y2418.7  ;
N1291 G2X1416.5Y2421.64I2.94J0  ;
N1292 G1X1422Y2421.64  ;
N1293 G65 P9104 A101 B01  ;
N1294 G0X1416.49Y2330.7  ;
N1295 G65 P9102 A101 B01  ;
N1296 G1X1416.49Y2335.64  ;
N1297 G1X1413.44Y2335.64  ;
N1298 G1X1413.44Y2338.14  ;
N1299 G1X1406.48Y2338.14  ;
N1300 G1X1398.44Y2346.18  ;
N1301 G1X1398.44Y2517.22  ;
N1302 G1X1406.48Y2525.26  ;
N1303 G1X1443.55Y2525.26  ;
N1304 G1X1450.81Y2485.81  ;
N1305 G3X1455.66Y2481.76I4.85J0.89  ;
N1306 G1X1463.56Y2481.76  ;
N1307 G1X1463.56Y2438.26  ;
N1308 G1X1466.06Y2438.26  ;
N1309 G1X1466.06Y2428.14  ;
N1310 G1X1463.56Y2428.14  ;
N1311 G1X1463.56Y2381.64  ;
N1312 G1X1455.66Y2381.64  ;
N1313 G3X1450.81Y2377.59I0J-4.94  ;
N1314 G1X1443.55Y2338.14  ;
N1315 G1X1423.56Y2338.14  ;
N1316 G1X1423.56Y2335.64  ;
N1317 G1X1417.3Y2335.64  ;
N1318 G65 P9104 A101 B01  ;
N1319 M98 P9103  ;
(P18:ID7:W56197514)  ;
N1320 M98 P9101  ;
N1321 G0X1345.26Y2618.9  ;
N1322 G65 P9102 A101 B01  ;
N1323 G1X1345.26Y2622.9  ;
N1324 G2X1345.5Y2623.14I0.24J0  ;
N1325 G1X1351Y2623.14  ;
N1326 G2X1353.94Y2620.2I0J-2.94  ;
N1327 G1X1353.94Y2601.2  ;
N1328 G2X1351Y2598.26I-2.94J0  ;
N1329 G1X1340Y2598.26  ;
N1330 G2X1337.06Y2601.2I0J2.94  ;
N1331 G1X1337.06Y2620.2  ;
N1332 G2X1340Y2623.14I2.94J0  ;
N1333 G1X1345.5Y2623.14  ;
N1334 G65 P9104 A101 B01  ;
N1335 G0X1339.99Y2532.2  ;
N1336 G65 P9102 A101 B01  ;
N1337 G1X1339.99Y2537.14  ;
N1338 G1X1336.94Y2537.14  ;
N1339 G1X1336.94Y2539.64  ;
N1340 G1X1329.98Y2539.64  ;
N1341 G1X1321.94Y2547.68  ;
N1342 G1X1321.94Y2718.72  ;
N1343 G1X1329.98Y2726.76  ;
N1344 G1X1367.05Y2726.76  ;
N1345 G1X1374.31Y2687.31  ;
N1346 G3X1379.16Y2683.26I4.85J0.89  ;
N1347 G1X1387.06Y2683.26  ;
N1348 G1X1387.06Y2639.76  ;
N1349 G1X1389.56Y2639.76  ;
N1350 G1X1389.56Y2629.64  ;
N1351 G1X1387.06Y2629.64  ;
N1352 G1X1387.06Y2583.14  ;
N1353 G1X1379.16Y2583.14  ;
N1354 G3X1374.31Y2579.09I0J-4.94  ;
N1355 G1X1367.05Y2539.64  ;
N1356 G1X1347.06Y2539.64  ;
N1357 G1X1347.06Y2537.14  ;
N1358 G1X1340.8Y2537.14  ;
N1359 G65 P9104 A101 B01  ;
N1360 M98 P9103  ;
(P19:ID8:W56197506)  ;
N1361 M98 P9101  ;
N1362 G0X1205.45Y2623.36  ;
N1363 G65 P9102 A101 B01  ;
N1364 G1X1205.45Y2628.3  ;
N1365 G1X1185.06Y2628.3  ;
N1366 G1X1185.06Y2608.36  ;
N1367 G2X1180Y2603.3I-5.06J0  ;
N1368 G1X1160.06Y2603.3  ;
N1369 G1X1160.06Y2508.42  ;
N1370 G1X1170Y2508.42  ;
N1371 G2X1175.06Y2503.36I0J-5.06  ;
N1372 G1X1175.06Y2483.42  ;
N1373 G1X1204.97Y2483.42  ;
N1374 G1X1259.32Y2551.3  ;
N1375 G3X1260.27Y2558.4I-5.42J4.34  ;
N1376 G1X1229.96Y2628.3  ;
N1377 G1X1206.26Y2628.3  ;
N1378 G65 P9104 A101 B01  ;
N1379 G0X1044.48Y2623.36  ;
N1380 G65 P9102 A101 B01  ;
N1381 G1X1044.48Y2628.3  ;
N1382 G1X1025.06Y2628.3  ;
N1383 G1X1025.06Y2608.36  ;
N1384 G2X1020Y2603.3I-5.06J0  ;
N1385 G1X1000.06Y2603.3  ;
N1386 G1X1000.06Y2508.42  ;
N1387 G1X1010Y2508.42  ;
N1388 G2X1015.06Y2503.36I0J-5.06  ;
N1389 G1X1015.06Y2483.42  ;
N1390 G1X1044.97Y2483.42  ;
N1391 G1X1099.32Y2551.3  ;
N1392 G3X1100.27Y2558.4I-5.42J4.34  ;
N1393 G1X1069.96Y2628.3  ;
N1394 G1X1045.29Y2628.3  ;
N1395 G65 P9104 A101 B01  ;
N1396 G0X879.03Y2623.36  ;
N1397 G65 P9102 A101 B01  ;
N1398 G1X879.03Y2628.3  ;
N1399 G1X898.94Y2628.3  ;
N1400 G1X898.94Y2608.36  ;
N1401 G3X904Y2603.3I5.06J0  ;
N1402 G1X923.94Y2603.3  ;
N1403 G1X923.94Y2508.42  ;
N1404 G1X914Y2508.42  ;
N1405 G3X908.94Y2503.36I0J-5.06  ;
N1406 G1X908.94Y2483.42  ;
N1407 G1X879.03Y2483.42  ;
N1408 G1X824.68Y2551.3  ;
N1409 G2X823.73Y2558.4I5.42J4.34  ;
N1410 G1X854.04Y2628.3  ;
N1411 G1X878.22Y2628.3  ;
N1412 G65 P9104 A101 B01  ;
N1413 G0X715.53Y2623.36  ;
N1414 G65 P9102 A101 B01  ;
N1415 G1X715.53Y2628.3  ;
N1416 G1X738.94Y2628.3  ;
N1417 G1X738.94Y2608.36  ;
N1418 G3X744Y2603.3I5.06J0  ;
N1419 G1X763.94Y2603.3  ;
N1420 G1X763.94Y2508.42  ;
N1421 G1X754Y2508.42  ;
N1422 G3X748.94Y2503.36I0J-5.06  ;
N1423 G1X748.94Y2483.42  ;
N1424 G1X719.03Y2483.42  ;
N1425 G1X664.68Y2551.3  ;
N1426 G2X663.73Y2558.4I5.42J4.34  ;
N1427 G1X694.04Y2628.3  ;
N1428 G1X714.72Y2628.3  ;
N1429 G65 P9104 A101 B01  ;
N1430 G0X1210.94Y2411.61  ;
N1431 G65 P9102 A101 B01  ;
N1432 G1X1210.94Y2415.55  ;
N1433 G3X1211Y2415.55I0.06J-60.19  ;
N1434 G65 P9104 A101 B01  ;
N1435 G0X1187.48Y1710.36  ;
N1436 G65 P9102 A101 B01  ;
N1437 G1X1187.48Y1715.3  ;
N1438 G1X1175.06Y1715.3  ;
N1439 G1X1175.06Y1695.36  ;
N1440 G2X1170Y1690.3I-5.06J0  ;
N1441 G1X1160.06Y1690.3  ;
N1442 G1X1160.06Y1595.42  ;
N1443 G1X1180Y1595.42  ;
N1444 G2X1185.06Y1590.36I0J-5.06  ;
N1445 G1X1185.06Y1570.42  ;
N1446 G1X1229.96Y1570.42  ;
N1447 G1X1260.27Y1640.31  ;
N1448 G3X1259.32Y1647.41I-6.37J2.76  ;
N1449 G1X1204.97Y1715.3  ;
N1450 G1X1188.29Y1715.3  ;
N1451 G65 P9104 A101 B01  ;
N1452 G0X1029.43Y1710.36  ;
N1453 G65 P9102 A101 B01  ;
N1454 G1X1029.43Y1715.3  ;
N1455 G1X1015.06Y1715.3  ;
N1456 G1X1015.06Y1695.36  ;
N1457 G2X1010Y1690.3I-5.06J0  ;
N1458 G1X1000.06Y1690.3  ;
N1459 G1X1000.06Y1595.42  ;
N1460 G1X1020Y1595.42  ;
N1461 G2X1025.06Y1590.36I0J-5.06  ;
N1462 G1X1025.06Y1570.42  ;
N1463 G1X1069.96Y1570.42  ;
N1464 G1X1100.27Y1640.31  ;
N1465 G3X1099.32Y1647.41I-6.37J2.76  ;
N1466 G1X1044.97Y1715.3  ;
N1467 G1X1030.24Y1715.3  ;
N1468 G65 P9104 A101 B01  ;
N1469 G0X892.67Y1710.36  ;
N1470 G65 P9102 A101 B01  ;
N1471 G1X892.67Y1715.3  ;
N1472 G1X879.03Y1715.3  ;
N1473 G1X824.68Y1647.41  ;
N1474 G3X823.73Y1640.31I5.42J-4.34  ;
N1475 G1X854.04Y1570.42  ;
N1476 G1X898.94Y1570.42  ;
N1477 G1X898.94Y1590.36  ;
N1478 G2X904Y1595.42I5.06J0  ;
N1479 G1X923.94Y1595.42  ;
N1480 G1X923.94Y1690.3  ;
N1481 G1X914Y1690.3  ;
N1482 G2X908.94Y1695.36I0J5.06  ;
N1483 G1X908.94Y1715.3  ;
N1484 G1X893.48Y1715.3  ;
N1485 G65 P9104 A101 B01  ;
N1486 G0X733.1Y1710.36  ;
N1487 G65 P9102 A101 B01  ;
N1488 G1X733.1Y1715.3  ;
N1489 G1X748.94Y1715.3  ;
N1490 G1X748.94Y1695.36  ;
N1491 G3X754Y1690.3I5.06J0  ;
N1492 G1X763.94Y1690.3  ;
N1493 G1X763.94Y1595.42  ;
N1494 G1X744Y1595.42  ;
N1495 G3X738.94Y1590.36I0J-5.06  ;
N1496 G1X738.94Y1570.42  ;
N1497 G1X694.04Y1570.42  ;
N1498 G1X663.73Y1640.31  ;
N1499 G2X664.68Y1647.41I6.37J2.76  ;
N1500 G1X719.03Y1715.3  ;
N1501 G1X732.29Y1715.3  ;
N1502 G65 P9104 A101 B01  ;
N1503 G0X1319Y1483.64  ;
N1504 G65 P9102 A101 B01  ;
N1505 G1X1315Y1483.64  ;
N1506 G1X608.94Y1483.64  ;
N1507 G1X608.94Y1742.42  ;
N1508 G1X613.36Y1742.42  ;
N1509 G1X611.94Y1743.83  ;
N1510 G1X611.94Y2454.88  ;
N1511 G1X613.36Y2456.3  ;
N1512 G1X608.94Y2456.3  ;
N1513 G1X608.94Y2715.07  ;
N1514 G1X1315.06Y2715.07  ;
N1515 G1X1315.06Y2456.3  ;
N1516 G1X1310.64Y2456.3  ;
N1517 G1X1312.06Y2454.88  ;
N1518 G1X1312.06Y1743.83  ;
N1519 G1X1310.64Y1742.42  ;
N1520 G1X1315.06Y1742.42  ;
N1521 G1X1315.06Y1483.7  ;
N1522 G65 P9104 A102 B04  ;
N1523 M98 P9103  ;
(P20:ID9:W56197519)  ;
N1524 M98 P9101  ;
N1525 G0X449.61Y2651.9  ;
N1526 G65 P9102 A102 B04  ;
N1527 G1X458.39Y2651.9  ;
N1528 G1X462.78Y2659.5  ;
N1529 G1X458.39Y2667.1  ;
N1530 G1X449.61Y2667.1  ;
N1531 G1X445.22Y2659.5  ;
N1532 G1X449.61Y2651.9  ;
N1533 G65 P9104 A102 B04  ;
N1534 G0X550.22Y2643  ;
N1535 G65 P9102 A102 B04  ;
N1536 G1X554.61Y2635.4  ;
N1537 G1X563.39Y2635.4  ;
N1538 G1X567.78Y2643  ;
N1539 G1X563.39Y2650.6  ;
N1540 G1X554.61Y2650.6  ;
N1541 G1X550.22Y2643  ;
N1542 G65 P9104 A101 B02  ;
N1543 G0X559.84Y2643.93  ;
N1544 G65 P9102 A101 B02  ;
N1545 G1X563.33Y2647.42  ;
N1546 G3X563.38Y2647.38I-4.33J-4.42  ;
N1547 G65 P9104 A101 B01  ;
N1548 G0X499.18Y2655.2  ;
N1549 G65 P9102 A101 B01  ;
N1550 G1X499.24Y2659.2  ;
N1551 G3X499Y2659.44I-0.24J0  ;
N1552 G3X479.06Y2639.5I0J-19.94  ;
N1553 G1X479.06Y2579.5  ;
N1554 G3X518.94Y2579.5I19.94J0  ;
N1555 G1X518.94Y2639.5  ;
N1556 G3X499Y2659.44I-19.94J0  ;
N1557 G65 P9104 A101 B02  ;
N1558 G0X454.84Y2660.43  ;
N1559 G65 P9102 A101 B02  ;
N1560 G1X458.33Y2663.92  ;
N1561 G3X458.38Y2663.88I-4.33J-4.42  ;
N1562 G65 P9104 A101 B01  ;
N1563 G0X418.94Y2529  ;
N1564 G65 P9102 A101 B01  ;
N1565 G1X418.94Y2533  ;
N1566 G1X418.94Y2682.56  ;
N1567 G1X579.06Y2682.56  ;
N1568 G1X579.06Y2532.94  ;
N1569 G1X574.19Y2532.94  ;
N1570 G1X574.19Y2535.94  ;
N1571 G1X423.81Y2535.94  ;
N1572 G1X423.81Y2532.94  ;
N1573 G1X419Y2532.94  ;
N1574 G65 P9104 A102 B04  ;
N1575 M98 P9103  ;
(P21:ID9:W56197519)  ;
N1576 M98 P9101  ;
N1577 G0X281.61Y2651.9  ;
N1578 G65 P9102 A102 B04  ;
N1579 G1X290.39Y2651.9  ;
N1580 G1X294.78Y2659.5  ;
N1581 G1X290.39Y2667.1  ;
N1582 G1X281.61Y2667.1  ;
N1583 G1X277.22Y2659.5  ;
N1584 G1X281.61Y2651.9  ;
N1585 G65 P9104 A102 B04  ;
N1586 G0X382.22Y2643  ;
N1587 G65 P9102 A102 B04  ;
N1588 G1X386.61Y2635.4  ;
N1589 G1X395.39Y2635.4  ;
N1590 G1X399.78Y2643  ;
N1591 G1X395.39Y2650.6  ;
N1592 G1X386.61Y2650.6  ;
N1593 G1X382.22Y2643  ;
N1594 G65 P9104 A101 B02  ;
N1595 G0X391.84Y2643.93  ;
N1596 G65 P9102 A101 B02  ;
N1597 G1X395.33Y2647.42  ;
N1598 G3X395.38Y2647.38I-4.33J-4.42  ;
N1599 G65 P9104 A101 B01  ;
N1600 G0X331.18Y2655.2  ;
N1601 G65 P9102 A101 B01  ;
N1602 G1X331.24Y2659.2  ;
N1603 G3X331Y2659.44I-0.24J0  ;
N1604 G3X311.06Y2639.5I0J-19.94  ;
N1605 G1X311.06Y2579.5  ;
N1606 G3X350.94Y2579.5I19.94J0  ;
N1607 G1X350.94Y2639.5  ;
N1608 G3X331Y2659.44I-19.94J0  ;
N1609 G65 P9104 A101 B02  ;
N1610 G0X286.84Y2660.43  ;
N1611 G65 P9102 A101 B02  ;
N1612 G1X290.33Y2663.92  ;
N1613 G3X290.38Y2663.88I-4.33J-4.42  ;
N1614 G65 P9104 A101 B01  ;
N1615 G0X250.94Y2529  ;
N1616 G65 P9102 A101 B01  ;
N1617 G1X250.94Y2533  ;
N1618 G1X250.94Y2682.56  ;
N1619 G1X411.06Y2682.56  ;
N1620 G1X411.06Y2532.94  ;
N1621 G1X406.19Y2532.94  ;
N1622 G1X406.19Y2535.94  ;
N1623 G1X255.81Y2535.94  ;
N1624 G1X255.81Y2532.94  ;
N1625 G1X251Y2532.94  ;
N1626 G65 P9104 A102 B04  ;
N1627 M98 P9103  ;
(P22:ID1:W56197513S)  ;
N1628 M98 P9101  ;
N1629 G0X68.5Y2664.25  ;
N1630 G65 P9102 A102 B04  ;
N1631 G1X75Y2660.49  ;
N1632 G1X81.5Y2664.25  ;
N1633 G1X81.5Y2671.75  ;
N1634 G1X75Y2675.51  ;
N1635 G1X68.5Y2671.75  ;
N1636 G1X68.5Y2664.25  ;
N1637 G65 P9104 A102 B04  ;
N1638 G0X128.5Y2641.75  ;
N1639 G65 P9102 A102 B04  ;
N1640 G1X128.5Y2634.25  ;
N1641 G1X135Y2630.49  ;
N1642 G1X141.5Y2634.25  ;
N1643 G1X141.5Y2641.75  ;
N1644 G1X135Y2645.51  ;
N1645 G1X128.5Y2641.75  ;
N1646 G65 P9104 A101 B02  ;
N1647 G0X135.13Y2638.22  ;
N1648 G65 P9102 A101 B02  ;
N1649 G1X138.63Y2641.71  ;
N1650 G3X138.67Y2641.67I-3.63J-3.71  ;
N1651 G65 P9104 A101 B02  ;
N1652 G0X107.23Y2652.98  ;
N1653 G65 P9102 A101 B02  ;
N1654 G1X108.65Y2653.58  ;
N1655 G1X106.7Y2658.17  ;
N1656 G1X103.87Y2656.97  ;
N1657 G1X107.81Y2647.69  ;
N1658 G1X110.64Y2648.89  ;
N1659 G1X108.67Y2653.53  ;
N1660 G65 P9104 A101 B02  ;
N1661 G0X75.13Y2668.22  ;
N1662 G65 P9102 A101 B02  ;
N1663 G1X78.63Y2671.71  ;
N1664 G3X78.67Y2671.67I-3.63J-3.71  ;
N1665 G65 P9104 A101 B01  ;
N1666 G0X4Y2646.3  ;
N1667 G65 P9102 A101 B01  ;
N1668 G1X8.94Y2646.3  ;
N1669 G1X8.94Y2648.06  ;
N1670 G1X9.94Y2648.06  ;
N1671 G1X9.94Y2673.5  ;
N1672 G1X58.63Y2694.17  ;
N1673 G1X59.85Y2691.32  ;
N1674 G1X69.4Y2695.37  ;
N1675 G1X68.19Y2698.22  ;
N1676 G1X79.98Y2703.23  ;
N1677 G2X87.14Y2702.25I2.76J-6.5  ;
N1678 G1X155.06Y2648.03  ;
N1679 G1X155.06Y2617.94  ;
N1680 G1X135Y2617.94  ;
N1681 G3X130.06Y2613I0J-4.94  ;
N1682 G1X130.06Y2602.94  ;
N1683 G1X34.94Y2602.94  ;
N1684 G1X34.94Y2623  ;
N1685 G3X30Y2627.94I-4.94J0  ;
N1686 G1X9.94Y2627.94  ;
N1687 G1X9.94Y2642.94  ;
N1688 G1X8.94Y2642.94  ;
N1689 G1X8.94Y2645.49  ;
N1690 G65 P9104 A102 B04  ;
N1691 M98 P9103  ;
(P23:ID3:W56197513)  ;
N1692 M98 P9101  ;
N1693 G0X1458.54Y2658.95  ;
N1694 G65 P9102 A102 B04  ;
N1695 G1X1455.37Y2652.15  ;
N1696 G1X1447.89Y2651.49  ;
N1697 G1X1443.58Y2657.64  ;
N1698 G1X1446.76Y2664.44  ;
N1699 G1X1454.23Y2665.1  ;
N1700 G1X1458.54Y2658.95  ;
N1701 G65 P9104 A102 B04  ;
N1702 G0X1420.25Y2709.3  ;
N1703 G65 P9102 A102 B04  ;
N1704 G1X1412.77Y2708.65  ;
N1705 G1X1408.47Y2714.8  ;
N1706 G1X1411.64Y2721.6  ;
N1707 G1X1419.12Y2722.25  ;
N1708 G1X1423.42Y2716.11  ;
N1709 G1X1420.25Y2709.3  ;
N1710 G65 P9104 A101 B02  ;
N1711 G0X1415.72Y2715.57  ;
N1712 G65 P9102 A101 B02  ;
N1713 G1X1411.93Y2718.74  ;
N1714 G3X1411.97Y2718.79I4.02J-3.29  ;
N1715 G65 P9104 A101 B02  ;
N1716 G0X1432.75Y2685.03  ;
N1717 G65 P9102 A101 B02  ;
N1718 G1X1429Y2686.25  ;
N1719 G1X1429.46Y2687.66  ;
N1720 G1X1439.04Y2684.54  ;
N1721 G1X1438.09Y2681.61  ;
N1722 G1X1428.5Y2684.73  ;
N1723 G1X1428.98Y2686.19  ;
N1724 G65 P9104 A101 B02  ;
N1725 G0X1450.83Y2658.41  ;
N1726 G65 P9102 A101 B02  ;
N1727 G1X1447.05Y2661.59  ;
N1728 G3X1447.09Y2661.63I4.01J-3.29  ;
N1729 G65 P9104 A101 B01  ;
N1730 G0X1431.58Y2788.09  ;
N1731 G65 P9102 A101 B01  ;
N1732 G1X1432.01Y2783.17  ;
N1733 G1X1430.05Y2783  ;
N1734 G1X1430.14Y2782  ;
N1735 G1X1404.8Y2779.79  ;
N1736 G1X1388.45Y2729.47  ;
N1737 G1X1391.4Y2728.52  ;
N1738 G1X1388.19Y2718.65  ;
N1739 G1X1385.24Y2719.6  ;
N1740 G1X1381.29Y2707.42  ;
N1741 G3X1382.89Y2700.37I6.71J-2.18  ;
N1742 G1X1442.82Y2637.44  ;
N1743 G1X1472.79Y2640.06  ;
N1744 G1X1471.05Y2660.04  ;
N1745 G2X1475.54Y2665.4I4.92J0.43  ;
N1746 G1X1485.56Y2666.27  ;
N1747 G1X1477.27Y2761.03  ;
N1748 G1X1457.28Y2759.28  ;
N1749 G2X1451.93Y2763.77I-0.43J4.92  ;
N1750 G1X1450.18Y2783.76  ;
N1751 G1X1435.24Y2782.45  ;
N1752 G1X1435.15Y2783.45  ;
N1753 G1X1432.81Y2783.24  ;
N1754 G65 P9104 A102 B04  ;
N1755 M98 P9103  ;
(P24:ID1:W56197513S)  ;
N1756 M98 P9101  ;
N1757 G0X621Y2786.25  ;
N1758 G65 P9102 A102 B04  ;
N1759 G1X627.5Y2782.49  ;
N1760 G1X634Y2786.25  ;
N1761 G1X634Y2793.75  ;
N1762 G1X627.5Y2797.51  ;
N1763 G1X621Y2793.75  ;
N1764 G1X621Y2786.25  ;
N1765 G65 P9104 A102 B04  ;
N1766 G0X681Y2763.75  ;
N1767 G65 P9102 A102 B04  ;
N1768 G1X681Y2756.25  ;
N1769 G1X687.5Y2752.49  ;
N1770 G1X694Y2756.25  ;
N1771 G1X694Y2763.75  ;
N1772 G1X687.5Y2767.51  ;
N1773 G1X681Y2763.75  ;
N1774 G65 P9104 A101 B02  ;
N1775 G0X687.63Y2760.22  ;
N1776 G65 P9102 A101 B02  ;
N1777 G1X691.13Y2763.71  ;
N1778 G3X691.17Y2763.67I-3.63J-3.71  ;
N1779 G65 P9104 A101 B02  ;
N1780 G0X659.73Y2774.98  ;
N1781 G65 P9102 A101 B02  ;
N1782 G1X661.15Y2775.58  ;
N1783 G1X659.2Y2780.17  ;
N1784 G1X656.37Y2778.97  ;
N1785 G1X660.31Y2769.69  ;
N1786 G1X663.14Y2770.89  ;
N1787 G1X661.17Y2775.53  ;
N1788 G65 P9104 A101 B02  ;
N1789 G0X627.63Y2790.22  ;
N1790 G65 P9102 A101 B02  ;
N1791 G1X631.13Y2793.71  ;
N1792 G3X631.17Y2793.67I-3.63J-3.71  ;
N1793 G65 P9104 A101 B01  ;
N1794 G0X556.5Y2768.3  ;
N1795 G65 P9102 A101 B01  ;
N1796 G1X561.44Y2768.3  ;
N1797 G1X561.44Y2770.06  ;
N1798 G1X562.44Y2770.06  ;
N1799 G1X562.44Y2795.5  ;
N1800 G1X611.13Y2816.17  ;
N1801 G1X612.35Y2813.32  ;
N1802 G1X621.9Y2817.37  ;
N1803 G1X620.69Y2820.22  ;
N1804 G1X632.48Y2825.23  ;
N1805 G2X639.64Y2824.25I2.76J-6.5  ;
N1806 G1X707.56Y2770.03  ;
N1807 G1X707.56Y2739.94  ;
N1808 G1X687.5Y2739.94  ;
N1809 G3X682.56Y2735I0J-4.94  ;
N1810 G1X682.56Y2724.94  ;
N1811 G1X587.44Y2724.94  ;
N1812 G1X587.44Y2745  ;
N1813 G3X582.5Y2749.94I-4.94J0  ;
N1814 G1X562.44Y2749.94  ;
N1815 G1X562.44Y2764.94  ;
N1816 G1X561.44Y2764.94  ;
N1817 G1X561.44Y2767.49  ;
N1818 G65 P9104 A102 B04  ;
N1819 M98 P9103  ;
(P25:ID3:W56197513)  ;
N1820 M98 P9101  ;
N1821 G0X772.74Y2743.9  ;
N1822 G65 P9102 A102 B04  ;
N1823 G1X768.98Y2737.4  ;
N1824 G1X761.48Y2737.4  ;
N1825 G1X757.72Y2743.9  ;
N1826 G1X761.48Y2750.4  ;
N1827 G1X768.98Y2750.4  ;
N1828 G1X772.74Y2743.9  ;
N1829 G65 P9104 A102 B04  ;
N1830 G0X738.98Y2797.4  ;
N1831 G65 P9102 A102 B04  ;
N1832 G1X731.48Y2797.4  ;
N1833 G1X727.72Y2803.9  ;
N1834 G1X731.48Y2810.4  ;
N1835 G1X738.98Y2810.4  ;
N1836 G1X742.74Y2803.9  ;
N1837 G1X738.98Y2797.4  ;
N1838 G65 P9104 A101 B02  ;
N1839 G0X735.01Y2804.03  ;
N1840 G65 P9102 A101 B02  ;
N1841 G1X731.52Y2807.53  ;
N1842 G3X731.56Y2807.57I3.71J-3.63  ;
N1843 G65 P9104 A101 B02  ;
N1844 G0X749.31Y2772.13  ;
N1845 G65 P9102 A101 B02  ;
N1846 G1X745.69Y2773.67  ;
N1847 G1X746.26Y2775.03  ;
N1848 G1X755.54Y2771.09  ;
N1849 G1X754.34Y2768.26  ;
N1850 G1X745.06Y2772.2  ;
N1851 G1X745.66Y2773.62  ;
N1852 G65 P9104 A101 B02  ;
N1853 G0X765.01Y2744.03  ;
N1854 G65 P9102 A101 B02  ;
N1855 G1X761.52Y2747.53  ;
N1856 G3X761.56Y2747.57I3.71J-3.63  ;
N1857 G65 P9104 A101 B01  ;
N1858 G0X757.13Y2874.9  ;
N1859 G65 P9102 A101 B01  ;
N1860 G1X757.13Y2869.96  ;
N1861 G1X755.17Y2869.96  ;
N1862 G1X755.17Y2868.96  ;
N1863 G1X729.73Y2868.96  ;
N1864 G1X709.06Y2820.27  ;
N1865 G1X711.91Y2819.05  ;
N1866 G1X707.86Y2809.5  ;
N1867 G1X705.01Y2810.71  ;
N1868 G1X700Y2798.92  ;
N1869 G3X700.98Y2791.76I6.5J-2.76  ;
N1870 G1X755.2Y2723.84  ;
N1871 G1X785.29Y2723.84  ;
N1872 G1X785.29Y2743.9  ;
N1873 G2X790.23Y2748.84I4.94J0  ;
N1874 G1X800.29Y2748.84  ;
N1875 G1X800.29Y2843.96  ;
N1876 G1X780.23Y2843.96  ;
N1877 G2X775.29Y2848.9I0J4.94  ;
N1878 G1X775.29Y2868.96  ;
N1879 G1X760.29Y2868.96  ;
N1880 G1X760.29Y2869.96  ;
N1881 G1X757.94Y2869.96  ;
N1882 G65 P9104 A101 B01  ;
N1883 M98 P9103  ;
(P26:ID7:W56197514)  ;
N1884 M98 P9101  ;
N1885 G0X1446.76Y2883.2  ;
N1886 G65 P9102 A101 B01  ;
N1887 G1X1446.76Y2887.2  ;
N1888 G2X1447Y2887.44I0.24J0  ;
N1889 G1X1452.5Y2887.44  ;
N1890 G2X1455.44Y2884.5I0J-2.94  ;
N1891 G1X1455.44Y2865.5  ;
N1892 G2X1452.5Y2862.56I-2.94J0  ;
N1893 G1X1441.5Y2862.56  ;
N1894 G2X1438.56Y2865.5I0J2.94  ;
N1895 G1X1438.56Y2884.5  ;
N1896 G2X1441.5Y2887.44I2.94J0  ;
N1897 G1X1447Y2887.44  ;
N1898 G65 P9104 A101 B01  ;
N1899 G0X1441.49Y2796.5  ;
N1900 G65 P9102 A101 B01  ;
N1901 G1X1441.49Y2801.44  ;
N1902 G1X1438.44Y2801.44  ;
N1903 G1X1438.44Y2803.94  ;
N1904 G1X1431.48Y2803.94  ;
N1905 G1X1423.44Y2811.98  ;
N1906 G1X1423.44Y2983.02  ;
N1907 G1X1431.48Y2991.06  ;
N1908 G1X1468.55Y2991.06  ;
N1909 G1X1475.81Y2951.61  ;
N1910 G3X1480.66Y2947.56I4.85J0.89  ;
N1911 G1X1488.56Y2947.56  ;
N1912 G1X1488.56Y2904.06  ;
N1913 G1X1491.06Y2904.06  ;
N1914 G1X1491.06Y2893.94  ;
N1915 G1X1488.56Y2893.94  ;
N1916 G1X1488.56Y2847.44  ;
N1917 G1X1480.66Y2847.44  ;
N1918 G3X1475.81Y2843.39I0J-4.94  ;
N1919 G1X1468.55Y2803.94  ;
N1920 G1X1448.56Y2803.94  ;
N1921 G1X1448.56Y2801.44  ;
N1922 G1X1442.3Y2801.44  ;
N1923 G65 P9104 A101 B01  ;
N1924 M98 P9103  ;
(P27:ID7:W56197514)  ;
N1925 M98 P9101  ;
N1926 G0X1369.26Y2883.2  ;
N1927 G65 P9102 A101 B01  ;
N1928 G1X1369.26Y2887.2  ;
N1929 G2X1369.5Y2887.44I0.24J0  ;
N1930 G1X1375Y2887.44  ;
N1931 G2X1377.94Y2884.5I0J-2.94  ;
N1932 G1X1377.94Y2865.5  ;
N1933 G2X1375Y2862.56I-2.94J0  ;
N1934 G1X1364Y2862.56  ;
N1935 G2X1361.06Y2865.5I0J2.94  ;
N1936 G1X1361.06Y2884.5  ;
N1937 G2X1364Y2887.44I2.94J0  ;
N1938 G1X1369.5Y2887.44  ;
N1939 G65 P9104 A101 B01  ;
N1940 G0X1363.99Y2796.5  ;
N1941 G65 P9102 A101 B01  ;
N1942 G1X1363.99Y2801.44  ;
N1943 G1X1360.94Y2801.44  ;
N1944 G1X1360.94Y2803.94  ;
N1945 G1X1353.98Y2803.94  ;
N1946 G1X1345.94Y2811.98  ;
N1947 G1X1345.94Y2983.02  ;
N1948 G1X1353.98Y2991.06  ;
N1949 G1X1391.05Y2991.06  ;
N1950 G1X1398.31Y2951.61  ;
N1951 G3X1403.16Y2947.56I4.85J0.89  ;
N1952 G1X1411.06Y2947.56  ;
N1953 G1X1411.06Y2904.06  ;
N1954 G1X1413.56Y2904.06  ;
N1955 G1X1413.56Y2893.94  ;
N1956 G1X1411.06Y2893.94  ;
N1957 G1X1411.06Y2847.44  ;
N1958 G1X1403.16Y2847.44  ;
N1959 G3X1398.31Y2843.39I0J-4.94  ;
N1960 G1X1391.05Y2803.94  ;
N1961 G1X1371.06Y2803.94  ;
N1962 G1X1371.06Y2801.44  ;
N1963 G1X1364.8Y2801.44  ;
N1964 G65 P9104 A101 B01  ;
N1965 M98 P9103  ;
(P28:ID7:W56197514)  ;
N1966 M98 P9101  ;
N1967 G0X1294.76Y2804.7  ;
N1968 G65 P9102 A101 B01  ;
N1969 G1X1294.76Y2808.7  ;
N1970 G2X1295Y2808.94I0.24J0  ;
N1971 G1X1300.5Y2808.94  ;
N1972 G2X1303.44Y2806I0J-2.94  ;
N1973 G1X1303.44Y2787  ;
N1974 G2X1300.5Y2784.06I-2.94J0  ;
N1975 G1X1289.5Y2784.06  ;
N1976 G2X1286.56Y2787I0J2.94  ;
N1977 G1X1286.56Y2806  ;
N1978 G2X1289.5Y2808.94I2.94J0  ;
N1979 G1X1295Y2808.94  ;
N1980 G65 P9104 A101 B01  ;
N1981 G0X1289.49Y2718  ;
N1982 G65 P9102 A101 B01  ;
N1983 G1X1289.49Y2722.94  ;
N1984 G1X1286.44Y2722.94  ;
N1985 G1X1286.44Y2725.44  ;
N1986 G1X1279.48Y2725.44  ;
N1987 G1X1271.44Y2733.48  ;
N1988 G1X1271.44Y2904.52  ;
N1989 G1X1279.48Y2912.56  ;
N1990 G1X1316.55Y2912.56  ;
N1991 G1X1323.81Y2873.11  ;
N1992 G3X1328.66Y2869.06I4.85J0.89  ;
N1993 G1X1336.56Y2869.06  ;
N1994 G1X1336.56Y2825.56  ;
N1995 G1X1339.06Y2825.56  ;
N1996 G1X1339.06Y2815.44  ;
N1997 G1X1336.56Y2815.44  ;
N1998 G1X1336.56Y2768.94  ;
N1999 G1X1328.66Y2768.94  ;
N2000 G3X1323.81Y2764.89I0J-4.94  ;
N2001 G1X1316.55Y2725.44  ;
N2002 G1X1296.56Y2725.44  ;
N2003 G1X1296.56Y2722.94  ;
N2004 G1X1290.3Y2722.94  ;
N2005 G65 P9104 A101 B01  ;
N2006 M98 P9103  ;
(P29:ID7:W56197514)  ;
N2007 M98 P9101  ;
N2008 G0X1218.76Y2804.7  ;
N2009 G65 P9102 A101 B01  ;
N2010 G1X1218.76Y2808.7  ;
N2011 G2X1219Y2808.94I0.24J0  ;
N2012 G1X1224.5Y2808.94  ;
N2013 G2X1227.44Y2806I0J-2.94  ;
N2014 G1X1227.44Y2787  ;
N2015 G2X1224.5Y2784.06I-2.94J0  ;
N2016 G1X1213.5Y2784.06  ;
N2017 G2X1210.56Y2787I0J2.94  ;
N2018 G1X1210.56Y2806  ;
N2019 G2X1213.5Y2808.94I2.94J0  ;
N2020 G1X1219Y2808.94  ;
N2021 G65 P9104 A101 B01  ;
N2022 G0X1213.49Y2718  ;
N2023 G65 P9102 A101 B01  ;
N2024 G1X1213.49Y2722.94  ;
N2025 G1X1210.44Y2722.94  ;
N2026 G1X1210.44Y2725.44  ;
N2027 G1X1203.48Y2725.44  ;
N2028 G1X1195.44Y2733.48  ;
N2029 G1X1195.44Y2904.52  ;
N2030 G1X1203.48Y2912.56  ;
N2031 G1X1240.55Y2912.56  ;
N2032 G1X1247.81Y2873.11  ;
N2033 G3X1252.66Y2869.06I4.85J0.89  ;
N2034 G1X1260.56Y2869.06  ;
N2035 G1X1260.56Y2825.56  ;
N2036 G1X1263.06Y2825.56  ;
N2037 G1X1263.06Y2815.44  ;
N2038 G1X1260.56Y2815.44  ;
N2039 G1X1260.56Y2768.94  ;
N2040 G1X1252.66Y2768.94  ;
N2041 G3X1247.81Y2764.89I0J-4.94  ;
N2042 G1X1240.55Y2725.44  ;
N2043 G1X1220.56Y2725.44  ;
N2044 G1X1220.56Y2722.94  ;
N2045 G1X1214.3Y2722.94  ;
N2046 G65 P9104 A101 B01  ;
N2047 M98 P9103  ;
(P30:ID7:W56197514)  ;
N2048 M98 P9101  ;
N2049 G0X1142.76Y2804.7  ;
N2050 G65 P9102 A101 B01  ;
N2051 G1X1142.76Y2808.7  ;
N2052 G2X1143Y2808.94I0.24J0  ;
N2053 G1X1148.5Y2808.94  ;
N2054 G2X1151.44Y2806I0J-2.94  ;
N2055 G1X1151.44Y2787  ;
N2056 G2X1148.5Y2784.06I-2.94J0  ;
N2057 G1X1137.5Y2784.06  ;
N2058 G2X1134.56Y2787I0J2.94  ;
N2059 G1X1134.56Y2806  ;
N2060 G2X1137.5Y2808.94I2.94J0  ;
N2061 G1X1143Y2808.94  ;
N2062 G65 P9104 A101 B01  ;
N2063 G0X1137.49Y2718  ;
N2064 G65 P9102 A101 B01  ;
N2065 G1X1137.49Y2722.94  ;
N2066 G1X1134.44Y2722.94  ;
N2067 G1X1134.44Y2725.44  ;
N2068 G1X1127.48Y2725.44  ;
N2069 G1X1119.44Y2733.48  ;
N2070 G1X1119.44Y2904.52  ;
N2071 G1X1127.48Y2912.56  ;
N2072 G1X1164.55Y2912.56  ;
N2073 G1X1171.81Y2873.11  ;
N2074 G3X1176.66Y2869.06I4.85J0.89  ;
N2075 G1X1184.56Y2869.06  ;
N2076 G1X1184.56Y2825.56  ;
N2077 G1X1187.06Y2825.56  ;
N2078 G1X1187.06Y2815.44  ;
N2079 G1X1184.56Y2815.44  ;
N2080 G1X1184.56Y2768.94  ;
N2081 G1X1176.66Y2768.94  ;
N2082 G3X1171.81Y2764.89I0J-4.94  ;
N2083 G1X1164.55Y2725.44  ;
N2084 G1X1144.56Y2725.44  ;
N2085 G1X1144.56Y2722.94  ;
N2086 G1X1138.3Y2722.94  ;
N2087 G65 P9104 A101 B01  ;
N2088 M98 P9103  ;
(P31:ID7:W56197514)  ;
N2089 M98 P9101  ;
N2090 G0X1064.26Y2806.73  ;
N2091 G65 P9102 A101 B01  ;
N2092 G1X1064.26Y2810.73  ;
N2093 G2X1064.5Y2810.97I0.24J0  ;
N2094 G1X1070Y2810.97  ;
N2095 G2X1072.94Y2808.03I0J-2.94  ;
N2096 G1X1072.94Y2789.03  ;
N2097 G2X1070Y2786.09I-2.94J0  ;
N2098 G1X1059Y2786.09  ;
N2099 G2X1056.06Y2789.03I0J2.94  ;
N2100 G1X1056.06Y2808.03  ;
N2101 G2X1059Y2810.97I2.94J0  ;
N2102 G1X1064.5Y2810.97  ;
N2103 G65 P9104 A101 B01  ;
N2104 G0X1058.99Y2720.03  ;
N2105 G65 P9102 A101 B01  ;
N2106 G1X1058.99Y2724.97  ;
N2107 G1X1055.94Y2724.97  ;
N2108 G1X1055.94Y2727.47  ;
N2109 G1X1048.98Y2727.47  ;
N2110 G1X1040.94Y2735.5  ;
N2111 G1X1040.94Y2906.55  ;
N2112 G1X1048.98Y2914.59  ;
N2113 G1X1086.05Y2914.59  ;
N2114 G1X1093.31Y2875.13  ;
N2115 G3X1098.16Y2871.09I4.85J0.9  ;
N2116 G1X1106.06Y2871.09  ;
N2117 G1X1106.06Y2827.59  ;
N2118 G1X1108.56Y2827.59  ;
N2119 G1X1108.56Y2817.47  ;
N2120 G1X1106.06Y2817.47  ;
N2121 G1X1106.06Y2770.97  ;
N2122 G1X1098.16Y2770.97  ;
N2123 G3X1093.31Y2766.92I0J-4.94  ;
N2124 G1X1086.05Y2727.47  ;
N2125 G1X1066.06Y2727.47  ;
N2126 G1X1066.06Y2724.97  ;
N2127 G1X1059.8Y2724.97  ;
N2128 G65 P9104 A101 B01  ;
N2129 M98 P9103  ;
(P32:ID7:W56197514)  ;
N2130 M98 P9101  ;
N2131 G0X986.76Y2806.7  ;
N2132 G65 P9102 A101 B01  ;
N2133 G1X986.76Y2810.7  ;
N2134 G2X987Y2810.94I0.24J0  ;
N2135 G1X992.5Y2810.94  ;
N2136 G2X995.44Y2808I0J-2.94  ;
N2137 G1X995.44Y2789  ;
N2138 G2X992.5Y2786.06I-2.94J0  ;
N2139 G1X981.5Y2786.06  ;
N2140 G2X978.56Y2789I0J2.94  ;
N2141 G1X978.56Y2808  ;
N2142 G2X981.5Y2810.94I2.94J0  ;
N2143 G1X987Y2810.94  ;
N2144 G65 P9104 A101 B01  ;
N2145 G0X981.49Y2720  ;
N2146 G65 P9102 A101 B01  ;
N2147 G1X981.49Y2724.94  ;
N2148 G1X978.44Y2724.94  ;
N2149 G1X978.44Y2727.44  ;
N2150 G1X971.48Y2727.44  ;
N2151 G1X963.44Y2735.48  ;
N2152 G1X963.44Y2906.52  ;
N2153 G1X971.48Y2914.56  ;
N2154 G1X1008.55Y2914.56  ;
N2155 G1X1015.81Y2875.11  ;
N2156 G3X1020.66Y2871.06I4.85J0.89  ;
N2157 G1X1028.56Y2871.06  ;
N2158 G1X1028.56Y2827.56  ;
N2159 G1X1031.06Y2827.56  ;
N2160 G1X1031.06Y2817.44  ;
N2161 G1X1028.56Y2817.44  ;
N2162 G1X1028.56Y2770.94  ;
N2163 G1X1020.66Y2770.94  ;
N2164 G3X1015.81Y2766.89I0J-4.94  ;
N2165 G1X1008.55Y2727.44  ;
N2166 G1X988.56Y2727.44  ;
N2167 G1X988.56Y2724.94  ;
N2168 G1X982.3Y2724.94  ;
N2169 G65 P9104 A101 B01  ;
N2170 M98 P9103  ;
(P33:ID7:W56197514)  ;
N2171 M98 P9101  ;
N2172 G0X908.76Y2806.7  ;
N2173 G65 P9102 A101 B01  ;
N2174 G1X908.76Y2810.7  ;
N2175 G2X909Y2810.94I0.24J0  ;
N2176 G1X914.5Y2810.94  ;
N2177 G2X917.44Y2808I0J-2.94  ;
N2178 G1X917.44Y2789  ;
N2179 G2X914.5Y2786.06I-2.94J0  ;
N2180 G1X903.5Y2786.06  ;
N2181 G2X900.56Y2789I0J2.94  ;
N2182 G1X900.56Y2808  ;
N2183 G2X903.5Y2810.94I2.94J0  ;
N2184 G1X909Y2810.94  ;
N2185 G65 P9104 A101 B01  ;
N2186 G0X903.49Y2720  ;
N2187 G65 P9102 A101 B01  ;
N2188 G1X903.49Y2724.94  ;
N2189 G1X900.44Y2724.94  ;
N2190 G1X900.44Y2727.44  ;
N2191 G1X893.48Y2727.44  ;
N2192 G1X885.44Y2735.48  ;
N2193 G1X885.44Y2906.52  ;
N2194 G1X893.48Y2914.56  ;
N2195 G1X930.55Y2914.56  ;
N2196 G1X937.81Y2875.11  ;
N2197 G3X942.66Y2871.06I4.85J0.89  ;
N2198 G1X950.56Y2871.06  ;
N2199 G1X950.56Y2827.56  ;
N2200 G1X953.06Y2827.56  ;
N2201 G1X953.06Y2817.44  ;
N2202 G1X950.56Y2817.44  ;
N2203 G1X950.56Y2770.94  ;
N2204 G1X942.66Y2770.94  ;
N2205 G3X937.81Y2766.89I0J-4.94  ;
N2206 G1X930.55Y2727.44  ;
N2207 G1X910.56Y2727.44  ;
N2208 G1X910.56Y2724.94  ;
N2209 G1X904.3Y2724.94  ;
N2210 G65 P9104 A101 B01  ;
N2211 M98 P9103  ;
(P34:ID7:W56197514)  ;
N2212 M98 P9101  ;
N2213 G0X830.76Y2806.7  ;
N2214 G65 P9102 A101 B01  ;
N2215 G1X830.76Y2810.7  ;
N2216 G2X831Y2810.94I0.24J0  ;
N2217 G1X836.5Y2810.94  ;
N2218 G2X839.44Y2808I0J-2.94  ;
N2219 G1X839.44Y2789  ;
N2220 G2X836.5Y2786.06I-2.94J0  ;
N2221 G1X825.5Y2786.06  ;
N2222 G2X822.56Y2789I0J2.94  ;
N2223 G1X822.56Y2808  ;
N2224 G2X825.5Y2810.94I2.94J0  ;
N2225 G1X831Y2810.94  ;
N2226 G65 P9104 A101 B01  ;
N2227 G0X825.49Y2720  ;
N2228 G65 P9102 A101 B01  ;
N2229 G1X825.49Y2724.94  ;
N2230 G1X822.44Y2724.94  ;
N2231 G1X822.44Y2727.44  ;
N2232 G1X815.48Y2727.44  ;
N2233 G1X807.44Y2735.48  ;
N2234 G1X807.44Y2906.52  ;
N2235 G1X815.48Y2914.56  ;
N2236 G1X852.55Y2914.56  ;
N2237 G1X859.81Y2875.11  ;
N2238 G3X864.66Y2871.06I4.85J0.89  ;
N2239 G1X872.56Y2871.06  ;
N2240 G1X872.56Y2827.56  ;
N2241 G1X875.06Y2827.56  ;
N2242 G1X875.06Y2817.44  ;
N2243 G1X872.56Y2817.44  ;
N2244 G1X872.56Y2770.94  ;
N2245 G1X864.66Y2770.94  ;
N2246 G3X859.81Y2766.89I0J-4.94  ;
N2247 G1X852.55Y2727.44  ;
N2248 G1X832.56Y2727.44  ;
N2249 G1X832.56Y2724.94  ;
N2250 G1X826.3Y2724.94  ;
N2251 G65 P9104 A102 B04  ;
N2252 M98 P9103  ;
(P35:ID3:W56197513)  ;
N2253 M98 P9101  ;
N2254 G0X790.27Y2954.93  ;
N2255 G65 P9102 A102 B04  ;
N2256 G1X796.42Y2950.62  ;
N2257 G1X795.76Y2943.15  ;
N2258 G1X788.96Y2939.97  ;
N2259 G1X782.81Y2944.28  ;
N2260 G1X783.47Y2951.76  ;
N2261 G1X790.27Y2954.93  ;
N2262 G65 P9104 A102 B04  ;
N2263 G0X734.03Y2925.97  ;
N2264 G65 P9102 A102 B04  ;
N2265 G1X733.38Y2918.49  ;
N2266 G1X726.57Y2915.32  ;
N2267 G1X720.43Y2919.62  ;
N2268 G1X721.08Y2927.1  ;
N2269 G1X727.88Y2930.27  ;
N2270 G1X734.03Y2925.97  ;
N2271 G65 P9104 A101 B02  ;
N2272 G0X727.08Y2922.59  ;
N2273 G65 P9102 A101 B02  ;
N2274 G1X723.29Y2919.41  ;
N2275 G3X723.25Y2919.46I3.94J3.38  ;
N2276 G65 P9104 A101 B02  ;
N2277 G0X760.1Y2934.06  ;
N2278 G65 P9102 A101 B02  ;
N2279 G1X758.25Y2930.58  ;
N2280 G1X756.95Y2931.27  ;
N2281 G1X761.68Y2940.17  ;
N2282 G1X764.4Y2938.73  ;
N2283 G1X759.67Y2929.83  ;
N2284 G1X758.31Y2930.55  ;
N2285 G65 P9104 A101 B02  ;
N2286 G0X789.46Y2947.24  ;
N2287 G65 P9102 A101 B02  ;
N2288 G1X785.68Y2944.07  ;
N2289 G3X785.64Y2944.12I3.93J3.38  ;
N2290 G65 P9104 A101 B01  ;
N2291 G0X658.41Y2950.8  ;
N2292 G65 P9102 A101 B01  ;
N2293 G1X663.33Y2950.37  ;
N2294 G1X663.16Y2948.42  ;
N2295 G1X664.15Y2948.33  ;
N2296 G1X661.94Y2922.99  ;
N2297 G1X708.64Y2898.15  ;
N2298 G1X710.1Y2900.89  ;
N2299 G1X719.26Y2896.02  ;
N2300 G1X717.81Y2893.28  ;
N2301 G1X729.12Y2887.27  ;
N2302 G3X736.34Y2887.62I3.31J6.23  ;
N2303 G1X808.72Y2935.71  ;
N2304 G1X811.35Y2965.69  ;
N2305 G1X791.36Y2967.44  ;
N2306 G2X786.87Y2972.79I0.43J4.92  ;
N2307 G1X787.75Y2982.81  ;
N2308 G1X692.99Y2991.1  ;
N2309 G1X691.24Y2971.12  ;
N2310 G2X685.89Y2966.62I-4.92J0.43  ;
N2311 G1X665.91Y2968.37  ;
N2312 G1X664.6Y2953.43  ;
N2313 G1X663.6Y2953.52  ;
N2314 G1X663.4Y2951.18  ;
N2315 G65 P9104 A102 B04  ;
N2316 M98 P9103  ;
(P36:ID1:W56197513S)  ;
N2317 M98 P9101  ;
N2318 G0X595.5Y2928.88  ;
N2319 G65 P9102 A102 B04  ;
N2320 G1X589Y2932.64  ;
N2321 G1X582.5Y2928.88  ;
N2322 G1X582.5Y2921.38  ;
N2323 G1X589Y2917.62  ;
N2324 G1X595.5Y2921.38  ;
N2325 G1X595.5Y2928.88  ;
N2326 G65 P9104 A102 B04  ;
N2327 G0X535.5Y2951.38  ;
N2328 G65 P9102 A102 B04  ;
N2329 G1X535.5Y2958.88  ;
N2330 G1X529Y2962.64  ;
N2331 G1X522.5Y2958.88  ;
N2332 G1X522.5Y2951.38  ;
N2333 G1X529Y2947.62  ;
N2334 G1X535.5Y2951.38  ;
N2335 G65 P9104 A101 B02  ;
N2336 G0X528.87Y2954.91  ;
N2337 G65 P9102 A101 B02  ;
N2338 G1X525.37Y2951.42  ;
N2339 G3X525.33Y2951.46I3.63J3.71  ;
N2340 G65 P9104 A101 B02  ;
N2341 G0X556.77Y2940.15  ;
N2342 G65 P9102 A101 B02  ;
N2343 G1X555.35Y2939.55  ;
N2344 G1X557.3Y2934.96  ;
N2345 G1X560.13Y2936.16  ;
N2346 G1X556.19Y2945.44  ;
N2347 G1X553.36Y2944.24  ;
N2348 G1X555.33Y2939.6  ;
N2349 G65 P9104 A101 B02  ;
N2350 G0X588.87Y2924.91  ;
N2351 G65 P9102 A101 B02  ;
N2352 G1X585.37Y2921.42  ;
N2353 G3X585.33Y2921.46I3.63J3.71  ;
N2354 G65 P9104 A101 B01  ;
N2355 G0X660Y2946.83  ;
N2356 G65 P9102 A101 B01  ;
N2357 G1X655.06Y2946.83  ;
N2358 G1X655.06Y2945.07  ;
N2359 G1X654.06Y2945.07  ;
N2360 G1X654.06Y2919.63  ;
N2361 G1X605.37Y2898.96  ;
N2362 G1X604.15Y2901.81  ;
N2363 G1X594.6Y2897.76  ;
N2364 G1X595.81Y2894.91  ;
N2365 G1X584.02Y2889.9  ;
N2366 G2X576.86Y2890.88I-2.76J6.5  ;
N2367 G1X508.94Y2945.1  ;
N2368 G1X508.94Y2975.19  ;
N2369 G1X529Y2975.19  ;
N2370 G3X533.94Y2980.13I0J4.94  ;
N2371 G1X533.94Y2990.19  ;
N2372 G1X629.06Y2990.19  ;
N2373 G1X629.06Y2970.13  ;
N2374 G3X634Y2965.19I4.94J0  ;
N2375 G1X654.06Y2965.19  ;
N2376 G1X654.06Y2950.19  ;
N2377 G1X655.06Y2950.19  ;
N2378 G1X655.06Y2947.64  ;
N2379 G65 P9104 A101 B02  ;
N2380 M98 P9103  ;
(P37:ID10:W56197522)  ;
N2381 M98 P9101  ;
N2382 G0X523.71Y2841.99  ;
N2383 G65 P9102 A101 B02  ;
N2384 G1X520.25Y2843.99  ;
N2385 G2X520.16Y2844.32I0.12J0.21  ;
N2386 G1X521.77Y2847.11  ;
N2387 G1X528.23Y2847.11  ;
N2388 G1X531.45Y2841.52  ;
N2389 G1X528.23Y2835.93  ;
N2390 G1X521.77Y2835.93  ;
N2391 G1X518.55Y2841.52  ;
N2392 G1X520.16Y2844.32  ;
N2393 G65 P9104 A101 B02  ;
N2394 G0X523.71Y2741.99  ;
N2395 G65 P9102 A101 B02  ;
N2396 G1X520.25Y2743.99  ;
N2397 G2X520.16Y2744.32I0.12J0.21  ;
N2398 G1X521.77Y2747.11  ;
N2399 G1X528.23Y2747.11  ;
N2400 G1X531.45Y2741.52  ;
N2401 G1X528.23Y2735.93  ;
N2402 G1X521.77Y2735.93  ;
N2403 G1X518.55Y2741.52  ;
N2404 G1X520.16Y2744.32  ;
N2405 G65 P9104 A101 B01  ;
N2406 G0X554.77Y2686.52  ;
N2407 G65 P9102 A101 B01  ;
N2408 G1X554.77Y2691.46  ;
N2409 G1X522.98Y2691.46  ;
N2410 G1X512.94Y2701.5  ;
N2411 G1X512.94Y2881.55  ;
N2412 G1X522.98Y2891.58  ;
N2413 G1X563.06Y2891.58  ;
N2414 G1X563.06Y2866.46  ;
N2415 G1X554Y2866.46  ;
N2416 G3X551.06Y2863.52I0J-2.94  ;
N2417 G1X551.06Y2719.52  ;
N2418 G3X554Y2716.58I2.94J0  ;
N2419 G1X563.06Y2716.58  ;
N2420 G1X563.06Y2691.46  ;
N2421 G1X555.48Y2691.46  ;
N2422 G65 P9104 A101 B02  ;
N2423 M98 P9103  ;
(P38:ID10:W56197522)  ;
N2424 M98 P9101  ;
N2425 G0X465.71Y2741.99  ;
N2426 G65 P9102 A101 B02  ;
N2427 G1X462.25Y2743.99  ;
N2428 G2X462.16Y2744.32I0.12J0.21  ;
N2429 G1X463.77Y2747.11  ;
N2430 G1X470.23Y2747.11  ;
N2431 G1X473.45Y2741.52  ;
N2432 G1X470.23Y2735.93  ;
N2433 G1X463.77Y2735.93  ;
N2434 G1X460.55Y2741.52  ;
N2435 G1X462.16Y2744.32  ;
N2436 G65 P9104 A101 B02  ;
N2437 G0X465.71Y2841.99  ;
N2438 G65 P9102 A101 B02  ;
N2439 G1X462.25Y2843.99  ;
N2440 G2X462.16Y2844.32I0.12J0.21  ;
N2441 G1X463.77Y2847.11  ;
N2442 G1X470.23Y2847.11  ;
N2443 G1X473.45Y2841.52  ;
N2444 G1X470.23Y2835.93  ;
N2445 G1X463.77Y2835.93  ;
N2446 G1X460.55Y2841.52  ;
N2447 G1X462.16Y2844.32  ;
N2448 G65 P9104 A101 B01  ;
N2449 G0X496.77Y2686.52  ;
N2450 G65 P9102 A101 B01  ;
N2451 G1X496.77Y2691.46  ;
N2452 G1X464.98Y2691.46  ;
N2453 G1X454.94Y2701.5  ;
N2454 G1X454.94Y2881.55  ;
N2455 G1X464.98Y2891.58  ;
N2456 G1X505.06Y2891.58  ;
N2457 G1X505.06Y2866.46  ;
N2458 G1X496Y2866.46  ;
N2459 G3X493.06Y2863.52I0J-2.94  ;
N2460 G1X493.06Y2719.52  ;
N2461 G3X496Y2716.58I2.94J0  ;
N2462 G1X505.06Y2716.58  ;
N2463 G1X505.06Y2691.46  ;
N2464 G1X497.48Y2691.46  ;
N2465 G65 P9104 A101 B02  ;
N2466 M98 P9103  ;
(P39:ID11:W56197520)  ;
N2467 M98 P9101  ;
N2468 G0X417.49Y2707.53  ;
N2469 G65 P9102 A101 B02  ;
N2470 G1X420.95Y2705.53  ;
N2471 G2X421.04Y2705.2I-0.12J-0.21  ;
N2472 G1X419.43Y2702.41  ;
N2473 G1X412.97Y2702.41  ;
N2474 G1X409.75Y2708  ;
N2475 G1X412.97Y2713.59  ;
N2476 G1X419.43Y2713.59  ;
N2477 G1X422.65Y2708  ;
N2478 G1X421.04Y2705.2  ;
N2479 G65 P9104 A101 B02  ;
N2480 G0X387.49Y2707.53  ;
N2481 G65 P9102 A101 B02  ;
N2482 G1X390.95Y2705.53  ;
N2483 G2X391.04Y2705.2I-0.12J-0.21  ;
N2484 G1X389.43Y2702.41  ;
N2485 G1X382.97Y2702.41  ;
N2486 G1X379.75Y2708  ;
N2487 G1X382.97Y2713.59  ;
N2488 G1X389.43Y2713.59  ;
N2489 G1X392.65Y2708  ;
N2490 G1X391.04Y2705.2  ;
N2491 G65 P9104 A101 B01  ;
N2492 G0X406.04Y2739.8  ;
N2493 G65 P9102 A101 B01  ;
N2494 G1X405.96Y2735.8  ;
N2495 G3X406.2Y2735.56I0.24J0  ;
N2496 G3X421.14Y2750.5I0J14.94  ;
N2497 G1X421.14Y2850.5  ;
N2498 G3X391.26Y2850.5I-14.94J0  ;
N2499 G1X391.26Y2750.5  ;
N2500 G3X406.2Y2735.56I14.94J0  ;
N2501 G65 P9104 A101 B02  ;
N2502 G0X417.49Y2907.53  ;
N2503 G65 P9102 A101 B02  ;
N2504 G1X420.95Y2905.53  ;
N2505 G2X421.04Y2905.2I-0.12J-0.21  ;
N2506 G1X419.43Y2902.41  ;
N2507 G1X412.97Y2902.41  ;
N2508 G1X409.75Y2908  ;
N2509 G1X412.97Y2913.59  ;
N2510 G1X419.43Y2913.59  ;
N2511 G1X422.65Y2908  ;
N2512 G1X421.04Y2905.2  ;
N2513 G65 P9104 A101 B02  ;
N2514 G0X387.49Y2907.53  ;
N2515 G65 P9102 A101 B02  ;
N2516 G1X390.95Y2905.53  ;
N2517 G2X391.04Y2905.2I-0.12J-0.21  ;
N2518 G1X389.43Y2902.41  ;
N2519 G1X382.97Y2902.41  ;
N2520 G1X379.75Y2908  ;
N2521 G1X382.97Y2913.59  ;
N2522 G1X389.43Y2913.59  ;
N2523 G1X392.65Y2908  ;
N2524 G1X391.04Y2905.2  ;
N2525 G65 P9104 A101 B01  ;
N2526 G0X337Y2925.56  ;
N2527 G65 P9102 A101 B01  ;
N2528 G1X341Y2925.56  ;
N2529 G1X422.2Y2925.56  ;
N2530 G2X427.26Y2920.5I0J-5.06  ;
N2531 G1X427.26Y2897.5  ;
N2532 G3X432.2Y2892.56I4.94J0  ;
N2533 G1X448.26Y2892.56  ;
N2534 G1X448.26Y2888.54  ;
N2535 G1X445.64Y2888.54  ;
N2536 G3X445.26Y2888.16I-0.44J0.06  ;
N2537 G1X445.26Y2694.84  ;
N2538 G3X445.64Y2694.46I-0.06J-0.44  ;
N2539 G1X448.26Y2694.46  ;
N2540 G1X448.26Y2690.44  ;
N2541 G1X340.94Y2690.44  ;
N2542 G1X340.94Y2925.5  ;
N2543 G65 P9104 A101 B01  ;
N2544 M98 P9103  ;
(P40:ID12:W56337209)  ;
N2545 M98 P9101  ;
N2546 G0X311.19Y2798.13  ;
N2547 G65 P9102 A101 B01  ;
N2548 G1X315.19Y2798.3  ;
N2549 G2X315.44Y2798.06I0.01J-0.24  ;
N2550 G2X308Y2790.62I-7.44J0  ;
N2551 G1X283Y2790.62  ;
N2552 G2X283Y2805.5I0J7.44  ;
N2553 G1X308Y2805.5  ;
N2554 G2X315.44Y2798.06I0J-7.44  ;
N2555 G65 P9104 A101 B01  ;
N2556 G0X288.07Y2715.82  ;
N2557 G65 P9102 A101 B01  ;
N2558 G1X288.07Y2720.76  ;
N2559 G1X333.06Y2720.76  ;
N2560 G1X333.06Y2991.09  ;
N2561 G1X257.94Y2991.09  ;
N2562 G1X257.94Y2720.76  ;
N2563 G1X287.31Y2720.76  ;
N2564 G65 P9104 A101 B01  ;
N2565 M98 P9103  ;
(P41:ID12:W56337209)  ;
N2566 M98 P9101  ;
N2567 G0X228.19Y2798.13  ;
N2568 G65 P9102 A101 B01  ;
N2569 G1X232.19Y2798.3  ;
N2570 G2X232.44Y2798.06I0.01J-0.24  ;
N2571 G2X225Y2790.62I-7.44J0  ;
N2572 G1X200Y2790.62  ;
N2573 G2X200Y2805.5I0J7.44  ;
N2574 G1X225Y2805.5  ;
N2575 G2X232.44Y2798.06I0J-7.44  ;
N2576 G65 P9104 A101 B01  ;
N2577 G0X205.07Y2715.82  ;
N2578 G65 P9102 A101 B01  ;
N2579 G1X205.07Y2720.76  ;
N2580 G1X250.06Y2720.76  ;
N2581 G1X250.06Y2991.09  ;
N2582 G1X174.94Y2991.09  ;
N2583 G1X174.94Y2720.76  ;
N2584 G1X204.31Y2720.76  ;
N2585 G65 P9104 A101 B01  ;
N2586 M98 P9103  ;
(P42:ID12:W56337209)  ;
N2587 M98 P9101  ;
N2588 G0X145.19Y2798.13  ;
N2589 G65 P9102 A101 B01  ;
N2590 G1X149.19Y2798.3  ;
N2591 G2X149.44Y2798.06I0.01J-0.24  ;
N2592 G2X142Y2790.62I-7.44J0  ;
N2593 G1X117Y2790.62  ;
N2594 G2X117Y2805.5I0J7.44  ;
N2595 G1X142Y2805.5  ;
N2596 G2X149.44Y2798.06I0J-7.44  ;
N2597 G65 P9104 A101 B01  ;
N2598 G0X122.07Y2715.82  ;
N2599 G65 P9102 A101 B01  ;
N2600 G1X122.07Y2720.76  ;
N2601 G1X167.06Y2720.76  ;
N2602 G1X167.06Y2991.09  ;
N2603 G1X91.94Y2991.09  ;
N2604 G1X91.94Y2720.76  ;
N2605 G1X121.31Y2720.76  ;
N2606 G65 P9104 A101 B01  ;
N2607 M98 P9103  ;
(P43:ID12:W56337209)  ;
N2608 M98 P9101  ;
N2609 G0X62.19Y2798.13  ;
N2610 G65 P9102 A101 B01  ;
N2611 G1X66.19Y2798.3  ;
N2612 G2X66.44Y2798.06I0.01J-0.24  ;
N2613 G2X59Y2790.62I-7.44J0  ;
N2614 G1X34Y2790.62  ;
N2615 G2X34Y2805.5I0J7.44  ;
N2616 G1X59Y2805.5  ;
N2617 G2X66.44Y2798.06I0J-7.44  ;
N2618 G65 P9104 A101 B01  ;
N2619 G0X39.07Y2715.82  ;
N2620 G65 P9102 A101 B01  ;
N2621 G1X39.07Y2720.76  ;
N2622 G1X84.06Y2720.76  ;
N2623 G1X84.06Y2991.09  ;
N2624 G1X8.94Y2991.09  ;
N2625 G1X8.94Y2720.76  ;
N2626 G1X38.31Y2720.76  ;
N2627 G65 P9104 A102 B04  ;
N2628 M98 P9103  ;
(P44:ID13:W56244403)  ;
N2629 M98 P9101  ;
N2630 G0X438.33Y231  ;
N2631 G65 P9102 A102 B04  ;
N2632 G3X438.33Y231I-11J0  ;
N2633 G65 P9104 A102 B04  ;
N2634 G0X63.4Y649.79  ;
N2635 G65 P9102 A102 B04  ;
N2636 G1X63.4Y650.61  ;
N2637 G65 P9104 A102 B04  ;
N2638 G0X63.4Y650.2  ;
N2639 G65 P9102 A102 B04  ;
N2640 G1X59.4Y650.2  ;
N2641 G1X59.81Y649.79  ;
N2642 G65 P9104 A102 B04  ;
N2643 G0X61.69Y651.61  ;
N2644 G65 P9102 A102 B04  ;
N2645 G1X61.69Y653.9  ;
N2646 G1X62.26Y654.47  ;
N2647 G1X62.83Y654.47  ;
N2648 G1X63.4Y653.9  ;
N2649 G1X63.4Y652.18  ;
N2650 G1X62.83Y651.61  ;
N2651 G1X59.98Y651.61  ;
N2652 G1X59.4Y652.18  ;
N2653 G1X59.4Y653.9  ;
N2654 G65 P9104 A102 B04  ;
N2655 G0X59.98Y655.47  ;
N2656 G65 P9102 A102 B04  ;
N2657 G1X59.4Y656.04  ;
N2658 G1X59.4Y657.76  ;
N2659 G1X59.98Y658.33  ;
N2660 G1X61.12Y658.33  ;
N2661 G1X61.69Y657.76  ;
N2662 G1X62.26Y658.33  ;
N2663 G1X62.83Y658.33  ;
N2664 G1X63.4Y657.76  ;
N2665 G1X63.4Y656.04  ;
N2666 G1X62.83Y655.47  ;
N2667 G65 P9104 A102 B04  ;
N2668 G0X61.69Y656.04  ;
N2669 G65 P9102 A102 B04  ;
N2670 G1X61.69Y657.76  ;
N2671 G65 P9104 A102 B04  ;
N2672 G0X61.69Y659.33  ;
N2673 G65 P9102 A102 B04  ;
N2674 G1X61.69Y661.61  ;
N2675 G1X62.26Y662.18  ;
N2676 G1X62.83Y662.18  ;
N2677 G1X63.4Y661.61  ;
N2678 G1X63.4Y659.9  ;
N2679 G1X62.83Y659.33  ;
N2680 G1X59.98Y659.33  ;
N2681 G1X59.4Y659.9  ;
N2682 G1X59.4Y661.61  ;
N2683 G65 P9104 A102 B04  ;
N2684 G0X59.98Y663.18  ;
N2685 G65 P9102 A102 B04  ;
N2686 G1X59.4Y663.76  ;
N2687 G1X59.4Y665.47  ;
N2688 G1X59.98Y666.04  ;
N2689 G1X62.83Y666.04  ;
N2690 G1X63.4Y665.47  ;
N2691 G1X63.4Y663.76  ;
N2692 G1X62.83Y663.18  ;
N2693 G1X59.98Y663.18  ;
N2694 G65 P9104 A102 B04  ;
N2695 G0X59.4Y665.47  ;
N2696 G65 P9102 A102 B04  ;
N2697 G1X63.4Y663.76  ;
N2698 G65 P9104 A102 B04  ;
N2699 G0X59.98Y667.04  ;
N2700 G65 P9102 A102 B04  ;
N2701 G1X59.4Y667.61  ;
N2702 G1X59.4Y669.33  ;
N2703 G1X59.98Y669.9  ;
N2704 G1X61.12Y669.9  ;
N2705 G1X61.69Y669.33  ;
N2706 G1X61.69Y667.61  ;
N2707 G1X62.26Y667.04  ;
N2708 G1X63.4Y667.04  ;
N2709 G1X63.4Y669.33  ;
N2710 G1X62.83Y669.9  ;
N2711 G65 P9104 A102 B04  ;
N2712 G0X59.98Y670.9  ;
N2713 G65 P9102 A102 B04  ;
N2714 G1X59.4Y671.47  ;
N2715 G1X59.4Y673.18  ;
N2716 G1X59.98Y673.76  ;
N2717 G1X61.12Y673.76  ;
N2718 G1X61.69Y673.18  ;
N2719 G1X61.69Y671.47  ;
N2720 G1X62.26Y670.9  ;
N2721 G1X63.4Y670.9  ;
N2722 G1X63.4Y673.18  ;
N2723 G1X62.83Y673.76  ;
N2724 G65 P9104 A102 B04  ;
N2725 G0X63.4Y675.33  ;
N2726 G65 P9102 A102 B04  ;
N2727 G1X59.4Y677.61  ;
N2728 G1X59.4Y674.76  ;
N2729 G65 P9104 A102 B04  ;
N2730 G0X61.69Y675.33  ;
N2731 G65 P9102 A102 B04  ;
N2732 G1X61.69Y677.04  ;
N2733 G65 P9104 A102 B04  ;
N2734 G0X61.69Y679.18  ;
N2735 G65 P9102 A102 B04  ;
N2736 G1X61.12Y678.61  ;
N2737 G1X59.98Y678.61  ;
N2738 G1X59.4Y679.18  ;
N2739 G1X59.4Y680.9  ;
N2740 G1X59.98Y681.47  ;
N2741 G1X61.12Y681.47  ;
N2742 G1X61.69Y680.9  ;
N2743 G1X61.69Y679.18  ;
N2744 G1X62.26Y678.61  ;
N2745 G1X62.83Y678.61  ;
N2746 G1X63.4Y679.18  ;
N2747 G1X63.4Y680.9  ;
N2748 G1X62.83Y681.47  ;
N2749 G1X62.26Y681.47  ;
N2750 G1X61.69Y680.9  ;
N2751 G65 P9104 A102 B04  ;
N2752 G0X61.69Y683.04  ;
N2753 G65 P9102 A102 B04  ;
N2754 G1X61.69Y684.76  ;
N2755 G65 P9104 A102 B04  ;
N2756 G0X63.4Y683.04  ;
N2757 G65 P9102 A102 B04  ;
N2758 G1X59.4Y685.33  ;
N2759 G1X59.4Y682.47  ;
N2760 G65 P9104 A101 B02  ;
N2761 G0X142.02Y501.63  ;
N2762 G65 P9102 A101 B02  ;
N2763 G1X138.52Y505.13  ;
N2764 G3X138.57Y505.17I3.71J-3.63  ;
N2765 G65 P9104 A101 B02  ;
N2766 G0X142.02Y379.63  ;
N2767 G65 P9102 A101 B02  ;
N2768 G1X138.52Y383.13  ;
N2769 G3X138.57Y383.17I3.71J-3.63  ;
N2770 G65 P9104 A101 B02  ;
N2771 G0X66.97Y271.47  ;
N2772 G65 P9102 A101 B02  ;
N2773 G1X63.5Y273.47  ;
N2774 G2X63.42Y273.8I0.12J0.2  ;
N2775 G1X65.03Y276.59  ;
N2776 G1X71.48Y276.59  ;
N2777 G1X74.71Y271  ;
N2778 G1X71.48Y265.41  ;
N2779 G1X65.03Y265.41  ;
N2780 G1X61.8Y271  ;
N2781 G1X63.42Y273.8  ;
N2782 G65 P9104 A101 B02  ;
N2783 G0X79.21Y55.96  ;
N2784 G65 P9102 A101 B02  ;
N2785 G1X76.78Y58.39  ;
N2786 G3X76.82Y58.43I2.48J-2.39  ;
N2787 G65 P9104 A101 B02  ;
N2788 G0X372.44Y32.96  ;
N2789 G65 P9102 A101 B02  ;
N2790 G1X369.12Y36.27  ;
N2791 G3X369.17Y36.32I3.36J-3.27  ;
N2792 G65 P9104 A101 B01  ;
N2793 G0X471.07Y92.88  ;
N2794 G65 P9102 A101 B01  ;
N2795 G1X474.91Y95.99  ;
N2796 G2X473.12Y62.72I-19.43J-15.63  ;
N2797 G1X437.76Y27.36  ;
N2798 G2X402.49Y62.64I-17.63J17.64  ;
N2799 G1X437.85Y97.99  ;
N2800 G2X474.56Y96.42I17.63J-17.63  ;
N2801 G65 P9104 A101 B02  ;
N2802 G0X466.03Y131.37  ;
N2803 G65 P9102 A101 B02  ;
N2804 G1X462.53Y134.86  ;
N2805 G3X462.57Y134.91I4.95J-4.86  ;
N2806 G65 P9104 A101 B02  ;
N2807 G0X416.03Y131.37  ;
N2808 G65 P9102 A101 B02  ;
N2809 G1X412.53Y134.86  ;
N2810 G3X412.57Y134.91I4.95J-4.86  ;
N2811 G65 P9104 A101 B02  ;
N2812 G0X400.2Y178.66  ;
N2813 G65 P9102 A101 B02  ;
N2814 G1X396.26Y178.66  ;
N2815 G1X396.26Y180.14  ;
N2816 G1X406.64Y180.14  ;
N2817 G1X406.64Y177.06  ;
N2818 G1X396.26Y177.06  ;
N2819 G1X396.26Y178.6  ;
N2820 G65 P9104 A101 B02  ;
N2821 G0X540Y178.66  ;
N2822 G65 P9102 A101 B02  ;
N2823 G1X536.06Y178.66  ;
N2824 G1X536.06Y180.14  ;
N2825 G1X549.94Y180.14  ;
N2826 G1X549.94Y177.06  ;
N2827 G1X536.06Y177.06  ;
N2828 G1X536.06Y178.6  ;
N2829 G65 P9104 A101 B01  ;
N2830 G0X540.02Y304  ;
N2831 G65 P9102 A101 B01  ;
N2832 G1X540.02Y307.94  ;
N2833 G3X540.08Y307.94I0.06J-10.94  ;
N2834 G65 P9104 A101 B01  ;
N2835 G0X428.39Y536.2  ;
N2836 G65 P9102 A101 B01  ;
N2837 G1X428.39Y540.2  ;
N2838 G2X428.63Y540.44I0.24J0  ;
N2839 G1X460.07Y540.44  ;
N2840 G1X460.07Y347.5  ;
N2841 G2X453.13Y340.56I-6.94J0  ;
N2842 G1X390.19Y340.56  ;
N2843 G1X390.19Y533.5  ;
N2844 G2X397.13Y540.44I6.94J0  ;
N2845 G1X428.63Y540.44  ;
N2846 G65 P9104 A101 B02  ;
N2847 G0X281.59Y594.82  ;
N2848 G65 P9102 A101 B02  ;
N2849 G1X278.15Y594.82  ;
N2850 G1X278.15Y593.31  ;
N2851 G1X285.03Y593.31  ;
N2852 G1X285.03Y596.44  ;
N2853 G1X278.15Y596.44  ;
N2854 G1X278.15Y594.87  ;
N2855 G65 P9104 A101 B02  ;
N2856 G0X281.59Y748.06  ;
N2857 G65 P9102 A101 B02  ;
N2858 G1X278.15Y748.06  ;
N2859 G1X278.15Y746.56  ;
N2860 G1X285.03Y746.56  ;
N2861 G1X285.03Y749.69  ;
N2862 G1X278.15Y749.69  ;
N2863 G1X278.15Y748.12  ;
N2864 G65 P9104 A101 B02  ;
N2865 G0X400.2Y698.66  ;
N2866 G65 P9102 A101 B02  ;
N2867 G1X396.26Y698.66  ;
N2868 G1X396.26Y700.14  ;
N2869 G1X406.64Y700.14  ;
N2870 G1X406.64Y697.06  ;
N2871 G1X396.26Y697.06  ;
N2872 G1X396.26Y698.6  ;
N2873 G65 P9104 A101 B02  ;
N2874 G0X540Y698.66  ;
N2875 G65 P9102 A101 B02  ;
N2876 G1X536.06Y698.66  ;
N2877 G1X536.06Y700.14  ;
N2878 G1X549.94Y700.14  ;
N2879 G1X549.94Y697.06  ;
N2880 G1X536.06Y697.06  ;
N2881 G1X536.06Y698.6  ;
N2882 G65 P9104 A101 B02  ;
N2883 G0X283.55Y896.5  ;
N2884 G65 P9102 A101 B02  ;
N2885 G1X283.55Y899.44  ;
N2886 G1X285.03Y899.44  ;
N2887 G1X285.03Y893.56  ;
N2888 G1X281.95Y893.56  ;
N2889 G1X281.95Y899.44  ;
N2890 G1X283.49Y899.44  ;
N2891 G65 P9104 A101 B02  ;
N2892 G0X283.43Y1051.5  ;
N2893 G65 P9102 A101 B02  ;
N2894 G1X283.43Y1054.44  ;
N2895 G1X281.95Y1054.44  ;
N2896 G1X281.95Y1048.56  ;
N2897 G1X285.03Y1048.56  ;
N2898 G1X285.03Y1054.44  ;
N2899 G1X283.49Y1054.44  ;
N2900 G65 P9104 A101 B02  ;
N2901 G0X400.2Y1095.46  ;
N2902 G65 P9102 A101 B02  ;
N2903 G1X396.26Y1095.46  ;
N2904 G1X396.26Y1096.94  ;
N2905 G1X406.64Y1096.94  ;
N2906 G1X406.64Y1093.86  ;
N2907 G1X396.26Y1093.86  ;
N2908 G1X396.26Y1095.4  ;
N2909 G65 P9104 A101 B02  ;
N2910 G0X540Y1095.46  ;
N2911 G65 P9102 A101 B02  ;
N2912 G1X536.06Y1095.46  ;
N2913 G1X536.06Y1096.94  ;
N2914 G1X549.94Y1096.94  ;
N2915 G1X549.94Y1093.86  ;
N2916 G1X536.06Y1093.86  ;
N2917 G1X536.06Y1095.4  ;
N2918 G65 P9104 A101 B01  ;
N2919 G0X421.39Y1449.2  ;
N2920 G65 P9102 A101 B01  ;
N2921 G1X421.39Y1453.2  ;
N2922 G2X421.63Y1453.44I0.24J0  ;
N2923 G1X453.13Y1453.44  ;
N2924 G2X460.07Y1446.5I0J-6.94  ;
N2925 G1X460.07Y1253.56  ;
N2926 G1X395.14Y1253.56  ;
N2927 G2X390.19Y1260.49I0.99J5.94  ;
N2928 G1X390.19Y1453.44  ;
N2929 G1X421.63Y1453.44  ;
N2930 G65 P9104 A101 B02  ;
N2931 G0X404.58Y1463.46  ;
N2932 G65 P9102 A101 B02  ;
N2933 G1X401.09Y1466.95  ;
N2934 G3X401.13Y1466.99I3.54J-3.45  ;
N2935 G65 P9104 A101 B01  ;
N2936 G0X540.02Y1504  ;
N2937 G65 P9102 A101 B01  ;
N2938 G1X540.02Y1507.94  ;
N2939 G3X540.08Y1507.94I0.06J-10.94  ;
N2940 G65 P9104 A101 B02  ;
N2941 G0X540Y1615.46  ;
N2942 G65 P9102 A101 B02  ;
N2943 G1X536.06Y1615.46  ;
N2944 G1X536.06Y1616.94  ;
N2945 G1X549.94Y1616.94  ;
N2946 G1X549.94Y1613.86  ;
N2947 G1X536.06Y1613.86  ;
N2948 G1X536.06Y1615.4  ;
N2949 G65 P9104 A101 B02  ;
N2950 G0X466.03Y1665.37  ;
N2951 G65 P9102 A101 B02  ;
N2952 G1X462.53Y1668.86  ;
N2953 G3X462.57Y1668.91I4.95J-4.86  ;
N2954 G65 P9104 A101 B01  ;
N2955 G0X470.64Y1700.6  ;
N2956 G65 P9102 A101 B01  ;
N2957 G1X474.4Y1697.39  ;
N2958 G2X437.85Y1696.01I-18.92J16.25  ;
N2959 G1X402.49Y1731.36  ;
N2960 G2X437.76Y1766.64I17.64J17.64  ;
N2961 G1X473.12Y1731.28  ;
N2962 G2X474.76Y1697.82I-17.64J-17.64  ;
N2963 G65 P9104 A101 B02  ;
N2964 G0X486.08Y1738.06  ;
N2965 G65 P9102 A101 B02  ;
N2966 G1X483.65Y1740.49  ;
N2967 G3X483.69Y1740.53I2.48J-2.39  ;
N2968 G65 P9104 A101 B02  ;
N2969 G0X416.03Y1665.37  ;
N2970 G65 P9102 A101 B02  ;
N2971 G1X412.53Y1668.86  ;
N2972 G3X412.57Y1668.91I4.95J-4.86  ;
N2973 G65 P9104 A101 B02  ;
N2974 G0X400.2Y1615.46  ;
N2975 G65 P9102 A101 B02  ;
N2976 G1X396.26Y1615.46  ;
N2977 G1X396.26Y1616.94  ;
N2978 G1X406.64Y1616.94  ;
N2979 G1X406.64Y1613.86  ;
N2980 G1X396.26Y1613.86  ;
N2981 G1X396.26Y1615.4  ;
N2982 G65 P9104 A101 B02  ;
N2983 G0X372.44Y1760.96  ;
N2984 G65 P9102 A101 B02  ;
N2985 G1X369.12Y1764.27  ;
N2986 G3X369.17Y1764.32I3.36J-3.27  ;
N2987 G65 P9104 A101 B02  ;
N2988 G0X66.97Y1625.47  ;
N2989 G65 P9102 A101 B02  ;
N2990 G1X63.5Y1627.47  ;
N2991 G2X63.42Y1627.8I0.12J0.2  ;
N2992 G1X65.03Y1630.59  ;
N2993 G1X71.48Y1630.59  ;
N2994 G1X74.71Y1625  ;
N2995 G1X71.48Y1619.41  ;
N2996 G1X65.03Y1619.41  ;
N2997 G1X61.8Y1625  ;
N2998 G1X63.42Y1627.8  ;
N2999 G65 P9104 A101 B02  ;
N3000 G0X65.99Y1610.8  ;
N3001 G65 P9102 A101 B02  ;
N3002 G1X65.99Y1612.84  ;
N3003 G1X67.47Y1612.84  ;
N3004 G1X67.47Y1608.76  ;
N3005 G1X64.39Y1608.76  ;
N3006 G1X64.39Y1612.84  ;
N3007 G1X65.93Y1612.84  ;
N3008 G65 P9104 A101 B02  ;
N3009 G0X65.99Y1413  ;
N3010 G65 P9102 A101 B02  ;
N3011 G1X65.99Y1415.04  ;
N3012 G1X67.47Y1415.04  ;
N3013 G1X67.47Y1410.96  ;
N3014 G1X64.39Y1410.96  ;
N3015 G1X64.39Y1415.04  ;
N3016 G1X65.93Y1415.04  ;
N3017 G65 P9104 A101 B02  ;
N3018 G0X142.02Y1394.63  ;
N3019 G65 P9102 A101 B02  ;
N3020 G1X138.52Y1398.13  ;
N3021 G3X138.57Y1398.17I3.71J-3.63  ;
N3022 G65 P9104 A101 B02  ;
N3023 G0X142.02Y1272.63  ;
N3024 G65 P9102 A101 B02  ;
N3025 G1X138.52Y1276.13  ;
N3026 G3X138.57Y1276.17I3.71J-3.63  ;
N3027 G65 P9104 A101 B02  ;
N3028 G0X281.59Y1211.31  ;
N3029 G65 P9102 A101 B02  ;
N3030 G1X278.15Y1211.31  ;
N3031 G1X278.15Y1209.81  ;
N3032 G1X285.03Y1209.81  ;
N3033 G1X285.03Y1212.94  ;
N3034 G1X278.15Y1212.94  ;
N3035 G1X278.15Y1211.37  ;
N3036 G65 P9104 A101 B02  ;
N3037 G0X281.59Y1364.56  ;
N3038 G65 P9102 A101 B02  ;
N3039 G1X278.15Y1364.56  ;
N3040 G1X278.15Y1363.06  ;
N3041 G1X285.03Y1363.06  ;
N3042 G1X285.03Y1366.19  ;
N3043 G1X278.15Y1366.19  ;
N3044 G1X278.15Y1364.62  ;
N3045 G65 P9104 A101 B01  ;
N3046 G0X570.14Y53.8  ;
N3047 G65 P9102 A101 B01  ;
N3048 G1X570.14Y57.8  ;
N3049 G1X570.14Y1736.26  ;
N3050 G1X502.6Y1736.26  ;
N3051 G1X498.28Y1735.22  ;
N3052 G2X497.27Y1735.63I-0.22J0.92  ;
N3053 G1X494.88Y1739.33  ;
N3054 G1X452.51Y1781.7  ;
N3055 G3X446.81Y1784.06I-5.7J-5.7  ;
N3056 G1X321.13Y1784.06  ;
N3057 G3X317.07Y1780I0J-4.06  ;
N3058 G1X317.07Y1744.06  ;
N3059 G1X44Y1744.06  ;
N3060 G1X44Y1738.94  ;
N3061 G1X44.5Y1738.94  ;
N3062 G1X44.5Y1709.06  ;
N3063 G1X44Y1709.06  ;
N3064 G1X44Y1697.69  ;
N3065 G1X48.22Y1697.69  ;
N3066 G1X48.22Y1697.06  ;
N3067 G1X9.44Y1697.06  ;
N3068 G1X9.44Y96.94  ;
N3069 G1X50.7Y96.94  ;
N3070 G1X50.7Y94.06  ;
N3071 G1X44Y94.06  ;
N3072 G1X44Y84.94  ;
N3073 G1X44.5Y84.94  ;
N3074 G1X44.5Y55.06  ;
N3075 G1X44Y55.06  ;
N3076 G1X44Y49.94  ;
N3077 G1X317.07Y49.94  ;
N3078 G1X317.07Y14  ;
N3079 G3X321.13Y9.94I4.06J0  ;
N3080 G1X446.81Y9.94  ;
N3081 G3X452.51Y12.3I0J8.06  ;
N3082 G1X494.28Y54.07  ;
N3083 G1X497.26Y58.4  ;
N3084 G2X498.26Y58.78I0.78J-0.53  ;
N3085 G1X502.6Y57.74  ;
N3086 G1X570.08Y57.74  ;
N3087 M98 P9104  ;
N3088 M98 P9103  ;
(FOOTER)
N3089 M98 P9110  ;
N3090 M30  ;
%
