O0099  ;
( MACHINE : TCI Laser )  ;
( MATERIAL : Acero al carbono N2 )  ;
( THICKNESS : 3 )  ;
( REPETITIONS : 1 )  ;
( SIMULATION TIME : 00:06:01 )  ;
( FORMAT : 1250x2500 )  ;
( JOB NUMBER : VARS5630\K563372s30_B )  ;
( PROGRAM NUMBER : 9401 )  ;
( TYPE : 0 )  ;
( NUMBER OF SHEETS : 1 )  ;
( CUTTING HEADS : 1 )  ;
#516= 1  ;
#517= 1  ;
N105 G65 P9100 A103 B01  ;
(P1:ID1:W56337209)  ;
N106 M98 P9101  ;
N107 G0X1182.61Y204.89  ;
N108 G65 P9102 A101 B01  ;
N109 G1X1178.61Y204.73  ;
N110 G2X1178.36Y204.97I-0.01J0.24  ;
N111 G2X1185.8Y212.41I7.44J0  ;
N112 G1X1210.8Y212.41  ;
N113 G2X1210.8Y197.53I0J-7.44  ;
N114 G1X1185.8Y197.53  ;
N115 G2X1178.36Y204.97I0J7.44  ;
N116 G65 P9104 A101 B01  ;
N117 G0X1205.73Y287.2  ;
N118 G65 P9102 A101 B01  ;
N119 G1X1205.73Y282.26  ;
N120 G1X1160.74Y282.26  ;
N121 G1X1160.74Y11.94  ;
N122 G1X1235.86Y11.94  ;
N123 G1X1235.86Y282.26  ;
N124 G1X1206.49Y282.26  ;
N125 G65 P9104 A101 B01  ;
N126 M98 P9103  ;
(P2:ID1:W56337209)  ;
N127 M98 P9101  ;
N128 G0X1182.61Y719.59  ;
N129 G65 P9102 A101 B01  ;
N130 G1X1178.61Y719.43  ;
N131 G2X1178.36Y719.67I-0.01J0.24  ;
N132 G2X1185.8Y727.11I7.44J0  ;
N133 G1X1210.8Y727.11  ;
N134 G2X1210.8Y712.23I0J-7.44  ;
N135 G1X1185.8Y712.23  ;
N136 G2X1178.36Y719.67I0J7.44  ;
N137 G65 P9104 A101 B01  ;
N138 G0X1205.73Y801.9  ;
N139 G65 P9102 A101 B01  ;
N140 G1X1205.73Y796.96  ;
N141 G1X1160.74Y796.96  ;
N142 G1X1160.74Y526.64  ;
N143 G1X1235.86Y526.64  ;
N144 G1X1235.86Y796.96  ;
N145 G1X1206.49Y796.96  ;
N146 G65 P9104 A101 B01  ;
N147 M98 P9103  ;
(P3:ID1:W56337209)  ;
N148 M98 P9101  ;
N149 G0X1182.61Y999.79  ;
N150 G65 P9102 A101 B01  ;
N151 G1X1178.61Y999.63  ;
N152 G2X1178.36Y999.87I-0.01J0.24  ;
N153 G2X1185.8Y1007.31I7.44J0  ;
N154 G1X1210.8Y1007.31  ;
N155 G2X1210.8Y992.43I0J-7.44  ;
N156 G1X1185.8Y992.43  ;
N157 G2X1178.36Y999.87I0J7.44  ;
N158 G65 P9104 A101 B01  ;
N159 G0X1205.73Y1082.1  ;
N160 G65 P9102 A101 B01  ;
N161 G1X1205.73Y1077.16  ;
N162 G1X1160.74Y1077.16  ;
N163 G1X1160.74Y806.84  ;
N164 G1X1235.86Y806.84  ;
N165 G1X1235.86Y1077.16  ;
N166 G1X1206.49Y1077.16  ;
N167 G65 P9104 A101 B01  ;
N168 M98 P9103  ;
(P4:ID1:W56337209)  ;
N169 M98 P9101  ;
N170 G0X1182.61Y1279.99  ;
N171 G65 P9102 A101 B01  ;
N172 G1X1178.61Y1279.83  ;
N173 G2X1178.36Y1280.07I-0.01J0.24  ;
N174 G2X1185.8Y1287.51I7.44J0  ;
N175 G1X1210.8Y1287.51  ;
N176 G2X1210.8Y1272.63I0J-7.44  ;
N177 G1X1185.8Y1272.63  ;
N178 G2X1178.36Y1280.07I0J7.44  ;
N179 G65 P9104 A101 B01  ;
N180 G0X1205.73Y1362.3  ;
N181 G65 P9102 A101 B01  ;
N182 G1X1205.73Y1357.36  ;
N183 G1X1160.74Y1357.36  ;
N184 G1X1160.74Y1087.04  ;
N185 G1X1235.86Y1087.04  ;
N186 G1X1235.86Y1357.36  ;
N187 G1X1206.49Y1357.36  ;
N188 G65 P9104 A101 B02  ;
N189 M98 P9103  ;
(P5:ID2:W56197522)  ;
N190 M98 P9101  ;
N191 G0X1196.21Y1417.79  ;
N192 G65 P9102 A101 B02  ;
N193 G1X1192.75Y1419.79  ;
N194 G2X1192.66Y1420.12I0.12J0.21  ;
N195 G1X1194.27Y1422.91  ;
N196 G1X1200.73Y1422.91  ;
N197 G1X1203.95Y1417.32  ;
N198 G1X1200.73Y1411.73  ;
N199 G1X1194.27Y1411.73  ;
N200 G1X1191.05Y1417.32  ;
N201 G1X1192.66Y1420.12  ;
N202 G65 P9104 A101 B02  ;
N203 G0X1196.21Y1517.79  ;
N204 G65 P9102 A101 B02  ;
N205 G1X1192.75Y1519.79  ;
N206 G2X1192.66Y1520.12I0.12J0.21  ;
N207 G1X1194.27Y1522.91  ;
N208 G1X1200.73Y1522.91  ;
N209 G1X1203.95Y1517.32  ;
N210 G1X1200.73Y1511.73  ;
N211 G1X1194.27Y1511.73  ;
N212 G1X1191.05Y1517.32  ;
N213 G1X1192.66Y1520.12  ;
N214 G65 P9104 A101 B01  ;
N215 G0X1227.27Y1362.32  ;
N216 G65 P9102 A101 B01  ;
N217 G1X1227.27Y1367.26  ;
N218 G1X1195.48Y1367.26  ;
N219 G1X1185.44Y1377.3  ;
N220 G1X1185.44Y1557.35  ;
N221 G1X1195.48Y1567.38  ;
N222 G1X1235.56Y1567.38  ;
N223 G1X1235.56Y1542.26  ;
N224 G1X1226.5Y1542.26  ;
N225 G3X1223.56Y1539.32I0J-2.94  ;
N226 G1X1223.56Y1395.32  ;
N227 G3X1226.5Y1392.38I2.94J0  ;
N228 G1X1235.56Y1392.38  ;
N229 G1X1235.56Y1367.26  ;
N230 G1X1227.98Y1367.26  ;
N231 G65 P9104 A101 B02  ;
N232 M98 P9103  ;
(P6:ID2:W56197522)  ;
N233 M98 P9101  ;
N234 G0X1193.71Y1627.79  ;
N235 G65 P9102 A101 B02  ;
N236 G1X1190.25Y1629.79  ;
N237 G2X1190.16Y1630.12I0.12J0.21  ;
N238 G1X1191.77Y1632.91  ;
N239 G1X1198.23Y1632.91  ;
N240 G1X1201.45Y1627.32  ;
N241 G1X1198.23Y1621.73  ;
N242 G1X1191.77Y1621.73  ;
N243 G1X1188.55Y1627.32  ;
N244 G1X1190.16Y1630.12  ;
N245 G65 P9104 A101 B02  ;
N246 G0X1193.71Y1727.79  ;
N247 G65 P9102 A101 B02  ;
N248 G1X1190.25Y1729.79  ;
N249 G2X1190.16Y1730.12I0.12J0.21  ;
N250 G1X1191.77Y1732.91  ;
N251 G1X1198.23Y1732.91  ;
N252 G1X1201.45Y1727.32  ;
N253 G1X1198.23Y1721.73  ;
N254 G1X1191.77Y1721.73  ;
N255 G1X1188.55Y1727.32  ;
N256 G1X1190.16Y1730.12  ;
N257 G65 P9104 A101 B01  ;
N258 G0X1224.77Y1572.32  ;
N259 G65 P9102 A101 B01  ;
N260 G1X1224.77Y1577.26  ;
N261 G1X1192.98Y1577.26  ;
N262 G1X1182.94Y1587.3  ;
N263 G1X1182.94Y1767.35  ;
N264 G1X1192.98Y1777.38  ;
N265 G1X1233.06Y1777.38  ;
N266 G1X1233.06Y1752.26  ;
N267 G1X1224Y1752.26  ;
N268 G3X1221.06Y1749.32I0J-2.94  ;
N269 G1X1221.06Y1605.32  ;
N270 G3X1224Y1602.38I2.94J0  ;
N271 G1X1233.06Y1602.38  ;
N272 G1X1233.06Y1577.26  ;
N273 G1X1225.48Y1577.26  ;
N274 G65 P9104 A102 B04  ;
N275 M98 P9103  ;
(P7:ID3:W56244402)  ;
N276 M98 P9101  ;
N277 G0X437.63Y227.2  ;
N278 G65 P9102 A102 B04  ;
N279 G3X437.63Y227.2I-11J0  ;
N280 G65 P9104 A101 B02  ;
N281 G0X399.2Y175.66  ;
N282 G65 P9102 A101 B02  ;
N283 G1X395.26Y175.66  ;
N284 G1X395.26Y177.14  ;
N285 G1X406.14Y177.14  ;
N286 G1X406.14Y174.06  ;
N287 G1X395.26Y174.06  ;
N288 G1X395.26Y175.6  ;
N289 G65 P9104 A101 B02  ;
N290 G0X415.53Y128.37  ;
N291 G65 P9102 A101 B02  ;
N292 G1X412.03Y131.86  ;
N293 G3X412.07Y131.91I4.95J-4.86  ;
N294 G65 P9104 A101 B02  ;
N295 G0X465.53Y128.37  ;
N296 G65 P9102 A101 B02  ;
N297 G1X462.03Y131.86  ;
N298 G3X462.07Y131.91I4.95J-4.86  ;
N299 G65 P9104 A101 B01  ;
N300 G0X469.49Y91.12  ;
N301 G65 P9102 A101 B01  ;
N302 G1X473.06Y94.53  ;
N303 G2X472.62Y59.72I-18.08J-17.17  ;
N304 G1X437.26Y24.36  ;
N305 G2X401.99Y59.64I-17.63J17.64  ;
N306 G1X437.35Y94.99  ;
N307 G2X472.67Y94.93I17.63J-17.63  ;
N308 G65 P9104 A101 B02  ;
N309 G0X539.5Y175.54  ;
N310 G65 P9102 A101 B02  ;
N311 G1X535.56Y175.54  ;
N312 G1X535.56Y174.06  ;
N313 G1X549.44Y174.06  ;
N314 G1X549.44Y177.14  ;
N315 G1X535.56Y177.14  ;
N316 G1X535.56Y175.6  ;
N317 G65 P9104 A101 B01  ;
N318 G0X539.52Y301  ;
N319 G65 P9102 A101 B01  ;
N320 G1X539.52Y304.94  ;
N321 G3X539.58Y304.94I0.06J-10.94  ;
N322 G65 P9104 A101 B02  ;
N323 G0X461.41Y317.63  ;
N324 G65 P9102 A101 B02  ;
N325 G1X457.91Y321.13  ;
N326 G3X457.96Y321.17I3.72J-3.63  ;
N327 G65 P9104 A101 B02  ;
N328 G0X326.69Y336.2  ;
N329 G65 P9102 A101 B02  ;
N330 G1X326.69Y337.14  ;
N331 G1X327.57Y337.14  ;
N332 G1X327.57Y326.86  ;
N333 G1X325.69Y326.86  ;
N334 G1X325.69Y337.14  ;
N335 G1X326.63Y337.14  ;
N336 G65 P9104 A101 B01  ;
N337 G0X254.13Y322.7  ;
N338 G65 P9102 A101 B01  ;
N339 G1X254.13Y326.7  ;
N340 G2X254.37Y326.94I0.24J0  ;
N341 G1X284.67Y326.94  ;
N342 G2X289.61Y322I0J-4.94  ;
N343 G1X289.61Y212  ;
N344 G2X284.67Y207.06I-4.94J0  ;
N345 G1X224.07Y207.06  ;
N346 G2X219.13Y212I0J4.94  ;
N347 G1X219.13Y322  ;
N348 G2X224.07Y326.94I4.94J0  ;
N349 G1X254.37Y326.94  ;
N350 G65 P9104 A101 B02  ;
N351 G0X281.09Y426.43  ;
N352 G65 P9102 A101 B02  ;
N353 G1X277.65Y426.43  ;
N354 G1X277.65Y427.94  ;
N355 G1X284.53Y427.94  ;
N356 G1X284.53Y424.81  ;
N357 G1X277.65Y424.81  ;
N358 G1X277.65Y426.37  ;
N359 G65 P9104 A101 B02  ;
N360 G0X141.52Y396.63  ;
N361 G65 P9102 A101 B02  ;
N362 G1X138.02Y400.13  ;
N363 G3X138.07Y400.17I3.71J-3.63  ;
N364 G65 P9104 A101 B02  ;
N365 G0X141.52Y518.63  ;
N366 G65 P9102 A101 B02  ;
N367 G1X138.02Y522.13  ;
N368 G3X138.07Y522.17I3.71J-3.63  ;
N369 G65 P9104 A101 B02  ;
N370 G0X281.09Y579.68  ;
N371 G65 P9102 A101 B02  ;
N372 G1X277.65Y579.68  ;
N373 G1X277.65Y581.19  ;
N374 G1X284.53Y581.19  ;
N375 G1X284.53Y578.06  ;
N376 G1X277.65Y578.06  ;
N377 G1X277.65Y579.62  ;
N378 G65 P9104 A101 B01  ;
N379 G0X427.89Y533.2  ;
N380 G65 P9102 A101 B01  ;
N381 G1X427.89Y537.2  ;
N382 G2X428.13Y537.44I0.24J0  ;
N383 G1X459.57Y537.44  ;
N384 G1X459.57Y344.5  ;
N385 G2X452.63Y337.56I-6.94J0  ;
N386 G1X389.69Y337.56  ;
N387 G1X389.69Y530.5  ;
N388 G2X396.63Y537.44I6.94J0  ;
N389 G1X428.13Y537.44  ;
N390 G65 P9104 A101 B02  ;
N391 G0X399.2Y695.66  ;
N392 G65 P9102 A101 B02  ;
N393 G1X395.26Y695.66  ;
N394 G1X395.26Y697.14  ;
N395 G1X406.14Y697.14  ;
N396 G1X406.14Y694.06  ;
N397 G1X395.26Y694.06  ;
N398 G1X395.26Y695.6  ;
N399 G65 P9104 A101 B02  ;
N400 G0X283.05Y739.5  ;
N401 G65 P9102 A101 B02  ;
N402 G1X283.05Y742.44  ;
N403 G1X284.53Y742.44  ;
N404 G1X284.53Y736.56  ;
N405 G1X281.45Y736.56  ;
N406 G1X281.45Y742.44  ;
N407 G1X282.99Y742.44  ;
N408 G65 P9104 A101 B02  ;
N409 G0X283.05Y894.5  ;
N410 G65 P9102 A101 B02  ;
N411 G1X283.05Y897.44  ;
N412 G1X284.53Y897.44  ;
N413 G1X284.53Y891.56  ;
N414 G1X281.45Y891.56  ;
N415 G1X281.45Y897.44  ;
N416 G1X282.99Y897.44  ;
N417 G65 P9104 A101 B01  ;
N418 G0X278.37Y1012.2  ;
N419 G65 P9102 A101 B01  ;
N420 G1X278.41Y1016.2  ;
N421 G3X278.17Y1016.44I-0.24J0  ;
N422 G3X270.02Y1015.2I0J-27.43  ;
N423 G3X262.65Y1011.6I7.98J-25.66  ;
N424 G3X256.8Y1005.98I14.84J-21.32  ;
N425 G3X253.03Y998.88I19.98J-15.16  ;
N426 G3X253.03Y983.12I23.23J-7.88  ;
N427 G3X256.8Y976.02I23.75J8.06  ;
N428 G3X262.65Y970.4I20.69J15.7  ;
N429 G3X270.02Y966.8I15.35J22.06  ;
N430 G3X286.32Y966.8I8.15J26.19  ;
N431 G3X293.69Y970.4I-7.98J25.66  ;
N432 G3X299.54Y976.02I-14.84J21.32  ;
N433 G3X303.31Y983.12I-19.98J15.16  ;
N434 G3X303.31Y998.88I-23.23J7.88  ;
N435 G3X299.54Y1005.98I-23.75J-8.06  ;
N436 G3X293.69Y1011.6I-20.69J-15.7  ;
N437 G3X286.32Y1015.2I-15.35J-22.06  ;
N438 G3X278.17Y1016.44I-8.15J-26.19  ;
N439 G65 P9104 A101 B02  ;
N440 G0X281.09Y1042.93  ;
N441 G65 P9102 A101 B02  ;
N442 G1X277.65Y1042.93  ;
N443 G1X277.65Y1044.44  ;
N444 G1X284.53Y1044.44  ;
N445 G1X284.53Y1041.31  ;
N446 G1X277.65Y1041.31  ;
N447 G1X277.65Y1042.87  ;
N448 G65 P9104 A101 B02  ;
N449 G0X399.2Y1092.46  ;
N450 G65 P9102 A101 B02  ;
N451 G1X395.26Y1092.46  ;
N452 G1X395.26Y1093.94  ;
N453 G1X406.14Y1093.94  ;
N454 G1X406.14Y1090.86  ;
N455 G1X395.26Y1090.86  ;
N456 G1X395.26Y1092.4  ;
N457 G65 P9104 A101 B01  ;
N458 G0X399.57Y949.25  ;
N459 G65 P9102 A101 B01  ;
N460 G1X399.57Y953.19  ;
N461 G3X399.63Y953.19I0.06J-60.19  ;
N462 G65 P9104 A101 B02  ;
N463 G0X539.5Y1092.46  ;
N464 G65 P9102 A101 B02  ;
N465 G1X535.56Y1092.46  ;
N466 G1X535.56Y1093.94  ;
N467 G1X549.44Y1093.94  ;
N468 G1X549.44Y1090.86  ;
N469 G1X535.56Y1090.86  ;
N470 G1X535.56Y1092.4  ;
N471 G65 P9104 A101 B02  ;
N472 G0X281.09Y1196.18  ;
N473 G65 P9102 A101 B02  ;
N474 G1X277.65Y1196.18  ;
N475 G1X277.65Y1197.69  ;
N476 G1X284.53Y1197.69  ;
N477 G1X284.53Y1194.56  ;
N478 G1X277.65Y1194.56  ;
N479 G1X277.65Y1196.12  ;
N480 G65 P9104 A101 B02  ;
N481 G0X291.25Y1288.47  ;
N482 G65 P9102 A101 B02  ;
N483 G1X287.78Y1290.47  ;
N484 G2X287.69Y1290.79I0.12J0.2  ;
N485 G1X289.02Y1293.09  ;
N486 G1X294.32Y1293.09  ;
N487 G1X296.97Y1288.5  ;
N488 G1X294.32Y1283.91  ;
N489 G1X289.02Y1283.91  ;
N490 G1X286.37Y1288.5  ;
N491 G1X287.69Y1290.8  ;
N492 G65 P9104 A101 B02  ;
N493 G0X251.25Y1288.47  ;
N494 G65 P9102 A101 B02  ;
N495 G1X247.78Y1290.47  ;
N496 G2X247.69Y1290.79I0.12J0.2  ;
N497 G1X249.02Y1293.09  ;
N498 G1X254.32Y1293.09  ;
N499 G1X256.97Y1288.5  ;
N500 G1X254.32Y1283.91  ;
N501 G1X249.02Y1283.91  ;
N502 G1X246.37Y1288.5  ;
N503 G1X247.69Y1290.8  ;
N504 G65 P9104 A101 B01  ;
N505 G0X271.91Y1343.2  ;
N506 G65 P9102 A101 B01  ;
N507 G1X271.91Y1347.2  ;
N508 G3X271.67Y1347.44I-0.24J0  ;
N509 G1X250.67Y1347.44  ;
N510 G3X247.73Y1344.5I0J-2.94  ;
N511 G1X247.73Y1300.5  ;
N512 G3X250.67Y1297.56I2.94J0  ;
N513 G1X292.67Y1297.56  ;
N514 G3X295.61Y1300.5I0J2.94  ;
N515 G1X295.61Y1344.5  ;
N516 G3X292.67Y1347.44I-2.94J0  ;
N517 G1X271.67Y1347.44  ;
N518 G65 P9104 A101 B02  ;
N519 G0X272.25Y1357.47  ;
N520 G65 P9102 A101 B02  ;
N521 G1X268.78Y1359.47  ;
N522 G2X268.69Y1359.79I0.12J0.2  ;
N523 G1X270.02Y1362.09  ;
N524 G1X275.32Y1362.09  ;
N525 G1X277.97Y1357.5  ;
N526 G1X275.32Y1352.91  ;
N527 G1X270.02Y1352.91  ;
N528 G1X267.37Y1357.5  ;
N529 G1X268.69Y1359.8  ;
N530 G65 P9104 A101 B01  ;
N531 G0X271.91Y1413.2  ;
N532 G65 P9102 A101 B01  ;
N533 G1X271.91Y1417.2  ;
N534 G3X271.67Y1417.44I-0.24J0  ;
N535 G1X250.67Y1417.44  ;
N536 G3X247.73Y1414.5I0J-2.94  ;
N537 G1X247.73Y1370.5  ;
N538 G3X250.67Y1367.56I2.94J0  ;
N539 G1X292.67Y1367.56  ;
N540 G3X295.61Y1370.5I0J2.94  ;
N541 G1X295.61Y1414.5  ;
N542 G3X292.67Y1417.44I-2.94J0  ;
N543 G1X271.67Y1417.44  ;
N544 G65 P9104 A101 B02  ;
N545 G0X291.25Y1426.47  ;
N546 G65 P9102 A101 B02  ;
N547 G1X287.78Y1428.47  ;
N548 G2X287.69Y1428.79I0.12J0.2  ;
N549 G1X289.02Y1431.09  ;
N550 G1X294.32Y1431.09  ;
N551 G1X296.97Y1426.5  ;
N552 G1X294.32Y1421.91  ;
N553 G1X289.02Y1421.91  ;
N554 G1X286.37Y1426.5  ;
N555 G1X287.69Y1428.8  ;
N556 G65 P9104 A101 B02  ;
N557 G0X251.25Y1426.47  ;
N558 G65 P9102 A101 B02  ;
N559 G1X247.78Y1428.47  ;
N560 G2X247.69Y1428.79I0.12J0.2  ;
N561 G1X249.02Y1431.09  ;
N562 G1X254.32Y1431.09  ;
N563 G1X256.97Y1426.5  ;
N564 G1X254.32Y1421.91  ;
N565 G1X249.02Y1421.91  ;
N566 G1X246.37Y1426.5  ;
N567 G1X247.69Y1428.8  ;
N568 G65 P9104 A101 B02  ;
N569 G0X141.52Y1411.63  ;
N570 G65 P9102 A101 B02  ;
N571 G1X138.02Y1415.13  ;
N572 G3X138.07Y1415.17I3.71J-3.63  ;
N573 G65 P9104 A101 B02  ;
N574 G0X141.52Y1289.63  ;
N575 G65 P9102 A101 B02  ;
N576 G1X138.02Y1293.13  ;
N577 G3X138.07Y1293.17I3.71J-3.63  ;
N578 G65 P9104 A101 B02  ;
N579 G0X66.47Y1518.47  ;
N580 G65 P9102 A101 B02  ;
N581 G1X63Y1520.47  ;
N582 G2X62.92Y1520.8I0.12J0.2  ;
N583 G1X64.53Y1523.59  ;
N584 G1X70.98Y1523.59  ;
N585 G1X74.21Y1518  ;
N586 G1X70.98Y1512.41  ;
N587 G1X64.53Y1512.41  ;
N588 G1X61.3Y1518  ;
N589 G1X62.92Y1520.8  ;
N590 G65 P9104 A101 B02  ;
N591 G0X399.2Y1612.46  ;
N592 G65 P9102 A101 B02  ;
N593 G1X395.26Y1612.46  ;
N594 G1X395.26Y1613.94  ;
N595 G1X406.14Y1613.94  ;
N596 G1X406.14Y1610.86  ;
N597 G1X395.26Y1610.86  ;
N598 G1X395.26Y1612.4  ;
N599 G65 P9104 A101 B02  ;
N600 G0X415.53Y1662.37  ;
N601 G65 P9102 A101 B02  ;
N602 G1X412.03Y1665.86  ;
N603 G3X412.07Y1665.91I4.95J-4.86  ;
N604 G65 P9104 A101 B02  ;
N605 G0X465.53Y1662.37  ;
N606 G65 P9102 A101 B02  ;
N607 G1X462.03Y1665.86  ;
N608 G3X462.07Y1665.91I4.95J-4.86  ;
N609 G65 P9104 A101 B01  ;
N610 G0X469.02Y1696.4  ;
N611 G65 P9102 A101 B01  ;
N612 G1X472.5Y1692.89  ;
N613 G2X437.35Y1693.01I-17.52J17.75  ;
N614 G1X401.99Y1728.36  ;
N615 G2X437.26Y1763.64I17.64J17.64  ;
N616 G1X472.62Y1728.28  ;
N617 G2X472.89Y1693.29I-17.64J-17.64  ;
N618 G65 P9104 A101 B02  ;
N619 G0X539.5Y1612.46  ;
N620 G65 P9102 A101 B02  ;
N621 G1X535.56Y1612.46  ;
N622 G1X535.56Y1613.94  ;
N623 G1X549.44Y1613.94  ;
N624 G1X549.44Y1610.86  ;
N625 G1X535.56Y1610.86  ;
N626 G1X535.56Y1612.4  ;
N627 G65 P9104 A101 B01  ;
N628 G0X539.52Y1501  ;
N629 G65 P9102 A101 B01  ;
N630 G1X539.52Y1504.94  ;
N631 G3X539.58Y1504.94I0.06J-10.94  ;
N632 G65 P9104 A101 B01  ;
N633 G0X420.89Y1446.2  ;
N634 G65 P9102 A101 B01  ;
N635 G1X420.89Y1450.2  ;
N636 G2X421.13Y1450.44I0.24J0  ;
N637 G1X452.63Y1450.44  ;
N638 G2X459.57Y1443.5I0J-6.94  ;
N639 G1X459.57Y1250.56  ;
N640 G1X396.63Y1250.56  ;
N641 G2X389.69Y1257.5I0J6.94  ;
N642 G1X389.69Y1450.44  ;
N643 G1X421.13Y1450.44  ;
N644 G65 P9104 A101 B02  ;
N645 G0X371.94Y1757.96  ;
N646 G65 P9102 A101 B02  ;
N647 G1X368.62Y1761.27  ;
N648 G3X368.67Y1761.32I3.36J-3.27  ;
N649 G65 P9104 A101 B02  ;
N650 G0X539.5Y695.66  ;
N651 G65 P9102 A101 B02  ;
N652 G1X535.56Y695.66  ;
N653 G1X535.56Y697.14  ;
N654 G1X549.44Y697.14  ;
N655 G1X549.44Y694.06  ;
N656 G1X535.56Y694.06  ;
N657 G1X535.56Y695.6  ;
N658 G65 P9104 A101 B02  ;
N659 G0X66.47Y712.47  ;
N660 G65 P9102 A101 B02  ;
N661 G1X63Y714.47  ;
N662 G2X62.92Y714.8I0.12J0.2  ;
N663 G1X64.53Y717.59  ;
N664 G1X70.98Y717.59  ;
N665 G1X74.21Y712  ;
N666 G1X70.98Y706.41  ;
N667 G1X64.53Y706.41  ;
N668 G1X61.3Y712  ;
N669 G1X62.92Y714.8  ;
N670 G65 P9104 A101 B02  ;
N671 G0X326.69Y212.2  ;
N672 G65 P9102 A101 B02  ;
N673 G1X326.69Y213.14  ;
N674 G1X327.57Y213.14  ;
N675 G1X327.57Y202.86  ;
N676 G1X325.69Y202.86  ;
N677 G1X325.69Y213.14  ;
N678 G1X326.63Y213.14  ;
N679 G65 P9104 A101 B02  ;
N680 G0X371.94Y29.96  ;
N681 G65 P9102 A101 B02  ;
N682 G1X368.62Y33.27  ;
N683 G3X368.67Y33.32I3.36J-3.27  ;
N684 G65 P9104 A101 B01  ;
N685 G0X569.64Y50.8  ;
N686 G65 P9102 A101 B01  ;
N687 G1X569.64Y54.8  ;
N688 G1X569.64Y1733.26  ;
N689 G1X502.1Y1733.26  ;
N690 G1X497.76Y1732.22  ;
N691 G2X496.76Y1732.6I-0.22J0.91  ;
N692 G1X493.78Y1736.93  ;
N693 G1X452.01Y1778.7  ;
N694 G3X446.31Y1781.06I-5.7J-5.7  ;
N695 G1X320.63Y1781.06  ;
N696 G3X316.57Y1777I0J-4.06  ;
N697 G1X316.57Y1741.06  ;
N698 G1X43.5Y1741.06  ;
N699 G1X43.5Y1735.94  ;
N700 G1X44Y1735.94  ;
N701 G1X44Y1706.06  ;
N702 G1X43.5Y1706.06  ;
N703 G1X43.5Y1696.94  ;
N704 G1X50.2Y1696.94  ;
N705 G1X50.2Y1694.06  ;
N706 G1X8.94Y1694.06  ;
N707 G1X8.94Y93.94  ;
N708 G1X47.72Y93.94  ;
N709 G1X47.72Y93.31  ;
N710 G1X43.5Y93.31  ;
N711 G1X43.5Y81.94  ;
N712 G1X44Y81.94  ;
N713 G1X44Y52.06  ;
N714 G1X43.5Y52.06  ;
N715 G1X43.5Y46.94  ;
N716 G1X316.57Y46.94  ;
N717 G1X316.57Y11  ;
N718 G3X320.63Y6.94I4.06J0  ;
N719 G1X446.31Y6.94  ;
N720 G3X452.01Y9.3I0J8.06  ;
N721 G1X493.78Y51.07  ;
N722 G1X496.76Y55.4  ;
N723 G2X497.76Y55.78I0.78J-0.53  ;
N724 G1X502.1Y54.74  ;
N725 G1X569.58Y54.74  ;
N726 G65 P9104 A101 B01  ;
N727 M98 P9103  ;
(P8:ID4:W56197506)  ;
N728 M98 P9101  ;
N729 G0X936.75Y1891.42  ;
N730 G65 P9102 A101 B01  ;
N731 G1X940.69Y1891.42  ;
N732 G3X940.69Y1891.36I-60.19J-0.06  ;
N733 G65 P9104 A101 B01  ;
N734 G0X1148.5Y1896.91  ;
N735 G65 P9102 A101 B01  ;
N736 G1X1153.44Y1896.91  ;
N737 G1X1153.44Y1917.3  ;
N738 G1X1133.5Y1917.3  ;
N739 G2X1128.44Y1922.36I0J5.06  ;
N740 G1X1128.44Y1942.3  ;
N741 G1X1033.56Y1942.3  ;
N742 G1X1033.56Y1932.36  ;
N743 G2X1028.5Y1927.3I-5.06J0  ;
N744 G1X1008.56Y1927.3  ;
N745 G1X1008.56Y1897.39  ;
N746 G1X1076.44Y1843.04  ;
N747 G3X1083.54Y1842.09I4.34J5.42  ;
N748 G1X1153.44Y1872.4  ;
N749 G1X1153.44Y1896.1  ;
N750 G65 P9104 A101 B01  ;
N751 G0X1148.5Y2057.87  ;
N752 G65 P9102 A101 B01  ;
N753 G1X1153.44Y2057.87  ;
N754 G1X1153.44Y2077.3  ;
N755 G1X1133.5Y2077.3  ;
N756 G2X1128.44Y2082.36I0J5.06  ;
N757 G1X1128.44Y2102.3  ;
N758 G1X1033.56Y2102.3  ;
N759 G1X1033.56Y2092.36  ;
N760 G2X1028.5Y2087.3I-5.06J0  ;
N761 G1X1008.56Y2087.3  ;
N762 G1X1008.56Y2057.39  ;
N763 G1X1076.44Y2003.04  ;
N764 G3X1083.54Y2002.09I4.34J5.42  ;
N765 G1X1153.44Y2032.4  ;
N766 G1X1153.44Y2057.06  ;
N767 G65 P9104 A101 B01  ;
N768 G0X1148.5Y2223.33  ;
N769 G65 P9102 A101 B01  ;
N770 G1X1153.44Y2223.33  ;
N771 G1X1153.44Y2203.42  ;
N772 G1X1133.5Y2203.42  ;
N773 G3X1128.44Y2198.36I0J-5.06  ;
N774 G1X1128.44Y2178.42  ;
N775 G1X1033.56Y2178.42  ;
N776 G1X1033.56Y2188.36  ;
N777 G3X1028.5Y2193.42I-5.06J0  ;
N778 G1X1008.56Y2193.42  ;
N779 G1X1008.56Y2223.33  ;
N780 G1X1076.44Y2277.67  ;
N781 G2X1083.54Y2278.62I4.34J-5.41  ;
N782 G1X1153.44Y2248.32  ;
N783 G1X1153.44Y2224.14  ;
N784 G65 P9104 A101 B01  ;
N785 G0X1148.5Y2386.83  ;
N786 G65 P9102 A101 B01  ;
N787 G1X1153.44Y2386.83  ;
N788 G1X1153.44Y2363.42  ;
N789 G1X1133.5Y2363.42  ;
N790 G3X1128.44Y2358.36I0J-5.06  ;
N791 G1X1128.44Y2338.42  ;
N792 G1X1033.56Y2338.42  ;
N793 G1X1033.56Y2348.36  ;
N794 G3X1028.5Y2353.42I-5.06J0  ;
N795 G1X1008.56Y2353.42  ;
N796 G1X1008.56Y2383.33  ;
N797 G1X1076.44Y2437.67  ;
N798 G2X1083.54Y2438.62I4.34J-5.41  ;
N799 G1X1153.44Y2408.32  ;
N800 G1X1153.44Y2387.64  ;
N801 G65 P9104 A101 B01  ;
N802 G0X235.5Y2369.26  ;
N803 G65 P9102 A101 B01  ;
N804 G1X240.44Y2369.26  ;
N805 G1X240.44Y2353.42  ;
N806 G1X220.5Y2353.42  ;
N807 G3X215.44Y2348.36I0J-5.06  ;
N808 G1X215.44Y2338.42  ;
N809 G1X120.56Y2338.42  ;
N810 G1X120.56Y2358.36  ;
N811 G3X115.5Y2363.42I-5.06J0  ;
N812 G1X95.56Y2363.42  ;
N813 G1X95.56Y2408.32  ;
N814 G1X165.45Y2438.62  ;
N815 G2X172.55Y2437.67I2.76J-6.36  ;
N816 G1X240.44Y2383.33  ;
N817 G1X240.44Y2370.07  ;
N818 G65 P9104 A101 B01  ;
N819 G0X235.5Y2209.69  ;
N820 G65 P9102 A101 B01  ;
N821 G1X240.44Y2209.69  ;
N822 G1X240.44Y2223.33  ;
N823 G1X172.55Y2277.67  ;
N824 G3X165.45Y2278.62I-4.34J-5.41  ;
N825 G1X95.56Y2248.32  ;
N826 G1X95.56Y2203.42  ;
N827 G1X115.5Y2203.42  ;
N828 G2X120.56Y2198.36I0J-5.06  ;
N829 G1X120.56Y2178.42  ;
N830 G1X215.44Y2178.42  ;
N831 G1X215.44Y2188.36  ;
N832 G2X220.5Y2193.42I5.06J0  ;
N833 G1X240.44Y2193.42  ;
N834 G1X240.44Y2208.88  ;
N835 G65 P9104 A101 B01  ;
N836 G0X235.5Y2072.92  ;
N837 G65 P9102 A101 B01  ;
N838 G1X240.44Y2072.92  ;
N839 G1X240.44Y2087.3  ;
N840 G1X220.5Y2087.3  ;
N841 G2X215.44Y2092.36I0J5.06  ;
N842 G1X215.44Y2102.3  ;
N843 G1X120.56Y2102.3  ;
N844 G1X120.56Y2082.36  ;
N845 G2X115.5Y2077.3I-5.06J0  ;
N846 G1X95.56Y2077.3  ;
N847 G1X95.56Y2032.4  ;
N848 G1X165.45Y2002.09  ;
N849 G3X172.55Y2003.04I2.76J6.37  ;
N850 G1X240.44Y2057.39  ;
N851 G1X240.44Y2072.11  ;
N852 G65 P9104 A101 B01  ;
N853 G0X235.5Y1914.88  ;
N854 G65 P9102 A101 B01  ;
N855 G1X240.44Y1914.88  ;
N856 G1X240.44Y1927.3  ;
N857 G1X220.5Y1927.3  ;
N858 G2X215.44Y1932.36I0J5.06  ;
N859 G1X215.44Y1942.3  ;
N860 G1X120.56Y1942.3  ;
N861 G1X120.56Y1922.36  ;
N862 G2X115.5Y1917.3I-5.06J0  ;
N863 G1X95.56Y1917.3  ;
N864 G1X95.56Y1872.4  ;
N865 G1X165.45Y1842.09  ;
N866 G3X172.55Y1843.04I2.76J6.37  ;
N867 G1X240.44Y1897.39  ;
N868 G1X240.44Y1914.07  ;
N869 G65 P9104 A101 B01  ;
N870 G0X8.78Y1783.36  ;
N871 G65 P9102 A101 B01  ;
N872 G1X8.78Y1787.36  ;
N873 G1X8.78Y2493.42  ;
N874 G1X267.56Y2493.42  ;
N875 G1X267.56Y2489  ;
N876 G1X268.97Y2490.42  ;
N877 G1X980.02Y2490.42  ;
N878 G1X981.44Y2489  ;
N879 G1X981.44Y2493.42  ;
N880 G1X1240.21Y2493.42  ;
N881 G1X1240.21Y1787.3  ;
N882 G1X981.44Y1787.3  ;
N883 G1X981.44Y1791.71  ;
N884 G1X980.02Y1790.3  ;
N885 G1X268.97Y1790.3  ;
N886 G1X267.56Y1791.71  ;
N887 G1X267.56Y1787.3  ;
N888 G1X8.84Y1787.3  ;
N889 G65 P9104 A102 B04  ;
N890 M98 P9103  ;
(P9:ID5:W56244403)  ;
N891 M98 P9101  ;
N892 G0X739.26Y1560.5  ;
N893 G65 P9102 A102 B04  ;
N894 G3X739.26Y1560.5I-11J0  ;
N895 G65 P9104 A102 B04  ;
N896 G0X1092.18Y1141.71  ;
N897 G65 P9102 A102 B04  ;
N898 G1X1092.18Y1140.89  ;
N899 G65 P9104 A102 B04  ;
N900 G0X1092.18Y1141.3  ;
N901 G65 P9102 A102 B04  ;
N902 G1X1096.18Y1141.3  ;
N903 G1X1095.77Y1141.71  ;
N904 G65 P9104 A102 B04  ;
N905 G0X1093.89Y1139.89  ;
N906 G65 P9102 A102 B04  ;
N907 G1X1093.89Y1137.6  ;
N908 G1X1093.32Y1137.03  ;
N909 G1X1092.75Y1137.03  ;
N910 G1X1092.18Y1137.6  ;
N911 G1X1092.18Y1139.32  ;
N912 G1X1092.75Y1139.89  ;
N913 G1X1095.61Y1139.89  ;
N914 G1X1096.18Y1139.32  ;
N915 G1X1096.18Y1137.6  ;
N916 G65 P9104 A102 B04  ;
N917 G0X1095.61Y1136.03  ;
N918 G65 P9102 A102 B04  ;
N919 G1X1096.18Y1135.46  ;
N920 G1X1096.18Y1133.74  ;
N921 G1X1095.61Y1133.17  ;
N922 G1X1094.46Y1133.17  ;
N923 G1X1093.89Y1133.74  ;
N924 G1X1093.32Y1133.17  ;
N925 G1X1092.75Y1133.17  ;
N926 G1X1092.18Y1133.74  ;
N927 G1X1092.18Y1135.46  ;
N928 G1X1092.75Y1136.03  ;
N929 G65 P9104 A102 B04  ;
N930 G0X1093.89Y1135.46  ;
N931 G65 P9102 A102 B04  ;
N932 G1X1093.89Y1133.74  ;
N933 G65 P9104 A102 B04  ;
N934 G0X1093.89Y1132.17  ;
N935 G65 P9102 A102 B04  ;
N936 G1X1093.89Y1129.89  ;
N937 G1X1093.32Y1129.32  ;
N938 G1X1092.75Y1129.32  ;
N939 G1X1092.18Y1129.89  ;
N940 G1X1092.18Y1131.6  ;
N941 G1X1092.75Y1132.17  ;
N942 G1X1095.61Y1132.17  ;
N943 G1X1096.18Y1131.6  ;
N944 G1X1096.18Y1129.89  ;
N945 G65 P9104 A102 B04  ;
N946 G0X1095.61Y1128.32  ;
N947 G65 P9102 A102 B04  ;
N948 G1X1096.18Y1127.74  ;
N949 G1X1096.18Y1126.03  ;
N950 G1X1095.61Y1125.46  ;
N951 G1X1092.75Y1125.46  ;
N952 G1X1092.18Y1126.03  ;
N953 G1X1092.18Y1127.74  ;
N954 G1X1092.75Y1128.32  ;
N955 G1X1095.61Y1128.32  ;
N956 G65 P9104 A102 B04  ;
N957 G0X1096.18Y1126.03  ;
N958 G65 P9102 A102 B04  ;
N959 G1X1092.18Y1127.74  ;
N960 G65 P9104 A102 B04  ;
N961 G0X1095.61Y1124.46  ;
N962 G65 P9102 A102 B04  ;
N963 G1X1096.18Y1123.89  ;
N964 G1X1096.18Y1122.17  ;
N965 G1X1095.61Y1121.6  ;
N966 G1X1094.46Y1121.6  ;
N967 G1X1093.89Y1122.17  ;
N968 G1X1093.89Y1123.89  ;
N969 G1X1093.32Y1124.46  ;
N970 G1X1092.18Y1124.46  ;
N971 G1X1092.18Y1122.17  ;
N972 G1X1092.75Y1121.6  ;
N973 G65 P9104 A102 B04  ;
N974 G0X1095.61Y1120.6  ;
N975 G65 P9102 A102 B04  ;
N976 G1X1096.18Y1120.03  ;
N977 G1X1096.18Y1118.32  ;
N978 G1X1095.61Y1117.74  ;
N979 G1X1094.46Y1117.74  ;
N980 G1X1093.89Y1118.32  ;
N981 G1X1093.89Y1120.03  ;
N982 G1X1093.32Y1120.6  ;
N983 G1X1092.18Y1120.6  ;
N984 G1X1092.18Y1118.32  ;
N985 G1X1092.75Y1117.74  ;
N986 G65 P9104 A102 B04  ;
N987 G0X1092.18Y1116.17  ;
N988 G65 P9102 A102 B04  ;
N989 G1X1096.18Y1113.89  ;
N990 G1X1096.18Y1116.74  ;
N991 G65 P9104 A102 B04  ;
N992 G0X1093.89Y1116.17  ;
N993 G65 P9102 A102 B04  ;
N994 G1X1093.89Y1114.46  ;
N995 G65 P9104 A102 B04  ;
N996 G0X1093.89Y1112.32  ;
N997 G65 P9102 A102 B04  ;
N998 G1X1094.46Y1112.89  ;
N999 G1X1095.61Y1112.89  ;
N1000 G1X1096.18Y1112.32  ;
N1001 G1X1096.18Y1110.6  ;
N1002 G1X1095.61Y1110.03  ;
N1003 G1X1094.46Y1110.03  ;
N1004 G1X1093.89Y1110.6  ;
N1005 G1X1093.89Y1112.32  ;
N1006 G1X1093.32Y1112.89  ;
N1007 G1X1092.75Y1112.89  ;
N1008 G1X1092.18Y1112.32  ;
N1009 G1X1092.18Y1110.6  ;
N1010 G1X1092.75Y1110.03  ;
N1011 G1X1093.32Y1110.03  ;
N1012 G1X1093.89Y1110.6  ;
N1013 G65 P9104 A102 B04  ;
N1014 G0X1093.89Y1108.46  ;
N1015 G65 P9102 A102 B04  ;
N1016 G1X1093.89Y1106.74  ;
N1017 G65 P9104 A102 B04  ;
N1018 G0X1092.18Y1108.46  ;
N1019 G65 P9102 A102 B04  ;
N1020 G1X1096.18Y1106.17  ;
N1021 G1X1096.18Y1109.03  ;
N1022 G65 P9104 A101 B02  ;
N1023 G0X1013.57Y1289.87  ;
N1024 G65 P9102 A101 B02  ;
N1025 G1X1017.06Y1286.37  ;
N1026 G3X1017.02Y1286.33I-3.71J3.63  ;
N1027 G65 P9104 A101 B02  ;
N1028 G0X1013.57Y1411.87  ;
N1029 G65 P9102 A101 B02  ;
N1030 G1X1017.06Y1408.37  ;
N1031 G3X1017.02Y1408.33I-3.71J3.63  ;
N1032 G65 P9104 A101 B02  ;
N1033 G0X1088.62Y1520.03  ;
N1034 G65 P9102 A101 B02  ;
N1035 G1X1092.08Y1518.03  ;
N1036 G2X1092.17Y1517.7I-0.12J-0.21  ;
N1037 G1X1090.55Y1514.91  ;
N1038 G1X1084.1Y1514.91  ;
N1039 G1X1080.87Y1520.5  ;
N1040 G1X1084.1Y1526.09  ;
N1041 G1X1090.55Y1526.09  ;
N1042 G1X1093.78Y1520.5  ;
N1043 G1X1092.17Y1517.7  ;
N1044 G65 P9104 A101 B02  ;
N1045 G0X1076.37Y1735.54  ;
N1046 G65 P9102 A101 B02  ;
N1047 G1X1078.8Y1733.11  ;
N1048 G3X1078.76Y1733.07I-2.47J2.39  ;
N1049 G65 P9104 A101 B02  ;
N1050 G0X783.14Y1758.54  ;
N1051 G65 P9102 A101 B02  ;
N1052 G1X786.46Y1755.23  ;
N1053 G3X786.42Y1755.18I-3.36J3.27  ;
N1054 G65 P9104 A101 B01  ;
N1055 G0X684.51Y1698.62  ;
N1056 G65 P9102 A101 B01  ;
N1057 G1X680.67Y1695.51  ;
N1058 G2X682.47Y1728.78I19.43J15.63  ;
N1059 G1X717.82Y1764.14  ;
N1060 G2X753.09Y1728.86I17.64J-17.64  ;
N1061 G1X717.74Y1693.51  ;
N1062 G2X681.03Y1695.08I-17.64J17.63  ;
N1063 G65 P9104 A101 B02  ;
N1064 G0X689.56Y1660.13  ;
N1065 G65 P9102 A101 B02  ;
N1066 G1X693.05Y1656.64  ;
N1067 G3X693.01Y1656.59I-4.95J4.86  ;
N1068 G65 P9104 A101 B02  ;
N1069 G0X739.56Y1660.13  ;
N1070 G65 P9102 A101 B02  ;
N1071 G1X743.05Y1656.64  ;
N1072 G3X743.01Y1656.59I-4.95J4.86  ;
N1073 G65 P9104 A101 B02  ;
N1074 G0X755.38Y1612.84  ;
N1075 G65 P9102 A101 B02  ;
N1076 G1X759.32Y1612.84  ;
N1077 G1X759.32Y1611.36  ;
N1078 G1X748.94Y1611.36  ;
N1079 G1X748.94Y1614.44  ;
N1080 G1X759.32Y1614.44  ;
N1081 G1X759.32Y1612.9  ;
N1082 G65 P9104 A101 B02  ;
N1083 G0X615.58Y1612.84  ;
N1084 G65 P9102 A101 B02  ;
N1085 G1X619.52Y1612.84  ;
N1086 G1X619.52Y1611.36  ;
N1087 G1X605.64Y1611.36  ;
N1088 G1X605.64Y1614.44  ;
N1089 G1X619.52Y1614.44  ;
N1090 G1X619.52Y1612.9  ;
N1091 G65 P9104 A101 B01  ;
N1092 G0X615.56Y1487.5  ;
N1093 G65 P9102 A101 B01  ;
N1094 G1X615.56Y1483.56  ;
N1095 G3X615.5Y1483.56I-0.06J10.94  ;
N1096 G65 P9104 A101 B01  ;
N1097 G0X727.2Y1255.3  ;
N1098 G65 P9102 A101 B01  ;
N1099 G1X727.2Y1251.3  ;
N1100 G2X726.96Y1251.06I-0.24J0  ;
N1101 G1X695.52Y1251.06  ;
N1102 G1X695.52Y1444  ;
N1103 G2X702.46Y1450.94I6.94J0  ;
N1104 G1X765.4Y1450.94  ;
N1105 G1X765.4Y1258  ;
N1106 G2X758.46Y1251.06I-6.94J0  ;
N1107 G1X726.96Y1251.06  ;
N1108 G65 P9104 A101 B02  ;
N1109 G0X873.99Y1196.68  ;
N1110 G65 P9102 A101 B02  ;
N1111 G1X877.43Y1196.68  ;
N1112 G1X877.43Y1198.19  ;
N1113 G1X870.55Y1198.19  ;
N1114 G1X870.55Y1195.06  ;
N1115 G1X877.43Y1195.06  ;
N1116 G1X877.43Y1196.62  ;
N1117 G65 P9104 A101 B02  ;
N1118 G0X873.99Y1043.43  ;
N1119 G65 P9102 A101 B02  ;
N1120 G1X877.43Y1043.43  ;
N1121 G1X877.43Y1044.94  ;
N1122 G1X870.55Y1044.94  ;
N1123 G1X870.55Y1041.81  ;
N1124 G1X877.43Y1041.81  ;
N1125 G1X877.43Y1043.37  ;
N1126 G65 P9104 A101 B02  ;
N1127 G0X755.38Y1092.84  ;
N1128 G65 P9102 A101 B02  ;
N1129 G1X759.32Y1092.84  ;
N1130 G1X759.32Y1091.36  ;
N1131 G1X748.94Y1091.36  ;
N1132 G1X748.94Y1094.44  ;
N1133 G1X759.32Y1094.44  ;
N1134 G1X759.32Y1092.9  ;
N1135 G65 P9104 A101 B02  ;
N1136 G0X615.58Y1092.84  ;
N1137 G65 P9102 A101 B02  ;
N1138 G1X619.52Y1092.84  ;
N1139 G1X619.52Y1091.36  ;
N1140 G1X605.64Y1091.36  ;
N1141 G1X605.64Y1094.44  ;
N1142 G1X619.52Y1094.44  ;
N1143 G1X619.52Y1092.9  ;
N1144 G65 P9104 A101 B02  ;
N1145 G0X872.03Y895  ;
N1146 G65 P9102 A101 B02  ;
N1147 G1X872.03Y892.06  ;
N1148 G1X870.55Y892.06  ;
N1149 G1X870.55Y897.94  ;
N1150 G1X873.63Y897.94  ;
N1151 G1X873.63Y892.06  ;
N1152 G1X872.09Y892.06  ;
N1153 G65 P9104 A101 B02  ;
N1154 G0X872.15Y740  ;
N1155 G65 P9102 A101 B02  ;
N1156 G1X872.15Y737.06  ;
N1157 G1X873.63Y737.06  ;
N1158 G1X873.63Y742.94  ;
N1159 G1X870.55Y742.94  ;
N1160 G1X870.55Y737.06  ;
N1161 G1X872.09Y737.06  ;
N1162 G65 P9104 A101 B02  ;
N1163 G0X755.38Y696.04  ;
N1164 G65 P9102 A101 B02  ;
N1165 G1X759.32Y696.04  ;
N1166 G1X759.32Y694.56  ;
N1167 G1X748.94Y694.56  ;
N1168 G1X748.94Y697.64  ;
N1169 G1X759.32Y697.64  ;
N1170 G1X759.32Y696.1  ;
N1171 G65 P9104 A101 B02  ;
N1172 G0X615.58Y696.04  ;
N1173 G65 P9102 A101 B02  ;
N1174 G1X619.52Y696.04  ;
N1175 G1X619.52Y694.56  ;
N1176 G1X605.64Y694.56  ;
N1177 G1X605.64Y697.64  ;
N1178 G1X619.52Y697.64  ;
N1179 G1X619.52Y696.1  ;
N1180 G65 P9104 A101 B01  ;
N1181 G0X734.2Y342.3  ;
N1182 G65 P9102 A101 B01  ;
N1183 G1X734.2Y338.3  ;
N1184 G2X733.96Y338.06I-0.24J0  ;
N1185 G1X702.46Y338.06  ;
N1186 G2X695.52Y345I0J6.94  ;
N1187 G1X695.52Y537.94  ;
N1188 G1X760.45Y537.94  ;
N1189 G2X765.4Y531.01I-0.99J-5.94  ;
N1190 G1X765.4Y338.06  ;
N1191 G1X733.96Y338.06  ;
N1192 G65 P9104 A101 B02  ;
N1193 G0X751Y328.04  ;
N1194 G65 P9102 A101 B02  ;
N1195 G1X754.49Y324.55  ;
N1196 G3X754.45Y324.51I-3.53J3.45  ;
N1197 G65 P9104 A101 B01  ;
N1198 G0X615.56Y287.5  ;
N1199 G65 P9102 A101 B01  ;
N1200 G1X615.56Y283.56  ;
N1201 G3X615.5Y283.56I-0.06J10.94  ;
N1202 G65 P9104 A101 B02  ;
N1203 G0X615.58Y176.04  ;
N1204 G65 P9102 A101 B02  ;
N1205 G1X619.52Y176.04  ;
N1206 G1X619.52Y174.56  ;
N1207 G1X605.64Y174.56  ;
N1208 G1X605.64Y177.64  ;
N1209 G1X619.52Y177.64  ;
N1210 G1X619.52Y176.1  ;
N1211 G65 P9104 A101 B02  ;
N1212 G0X689.56Y126.13  ;
N1213 G65 P9102 A101 B02  ;
N1214 G1X693.05Y122.64  ;
N1215 G3X693.01Y122.59I-4.95J4.86  ;
N1216 G65 P9104 A101 B01  ;
N1217 G0X684.94Y90.9  ;
N1218 G65 P9102 A101 B01  ;
N1219 G1X681.18Y94.11  ;
N1220 G2X717.74Y95.49I18.92J-16.25  ;
N1221 G1X753.09Y60.14  ;
N1222 G2X717.82Y24.86I-17.63J-17.64  ;
N1223 G1X682.47Y60.22  ;
N1224 G2X680.82Y93.68I17.63J17.64  ;
N1225 G65 P9104 A101 B02  ;
N1226 G0X669.5Y53.44  ;
N1227 G65 P9102 A101 B02  ;
N1228 G1X671.93Y51.01  ;
N1229 G3X671.89Y50.97I-2.47J2.39  ;
N1230 G65 P9104 A101 B02  ;
N1231 G0X739.56Y126.13  ;
N1232 G65 P9102 A101 B02  ;
N1233 G1X743.05Y122.64  ;
N1234 G3X743.01Y122.59I-4.95J4.86  ;
N1235 G65 P9104 A101 B02  ;
N1236 G0X755.38Y176.04  ;
N1237 G65 P9102 A101 B02  ;
N1238 G1X759.32Y176.04  ;
N1239 G1X759.32Y174.56  ;
N1240 G1X748.94Y174.56  ;
N1241 G1X748.94Y177.64  ;
N1242 G1X759.32Y177.64  ;
N1243 G1X759.32Y176.1  ;
N1244 G65 P9104 A101 B02  ;
N1245 G0X783.14Y30.54  ;
N1246 G65 P9102 A101 B02  ;
N1247 G1X786.46Y27.23  ;
N1248 G3X786.42Y27.18I-3.36J3.27  ;
N1249 G65 P9104 A101 B02  ;
N1250 G0X1088.62Y166.03  ;
N1251 G65 P9102 A101 B02  ;
N1252 G1X1092.08Y164.03  ;
N1253 G2X1092.17Y163.7I-0.12J-0.21  ;
N1254 G1X1090.55Y160.91  ;
N1255 G1X1084.1Y160.91  ;
N1256 G1X1080.87Y166.5  ;
N1257 G1X1084.1Y172.09  ;
N1258 G1X1090.55Y172.09  ;
N1259 G1X1093.78Y166.5  ;
N1260 G1X1092.17Y163.7  ;
N1261 G65 P9104 A101 B02  ;
N1262 G0X1089.59Y180.7  ;
N1263 G65 P9102 A101 B02  ;
N1264 G1X1089.59Y178.66  ;
N1265 G1X1088.11Y178.66  ;
N1266 G1X1088.11Y182.74  ;
N1267 G1X1091.19Y182.74  ;
N1268 G1X1091.19Y178.66  ;
N1269 G1X1089.65Y178.66  ;
N1270 G65 P9104 A101 B02  ;
N1271 G0X1089.59Y378.5  ;
N1272 G65 P9102 A101 B02  ;
N1273 G1X1089.59Y376.46  ;
N1274 G1X1088.11Y376.46  ;
N1275 G1X1088.11Y380.54  ;
N1276 G1X1091.19Y380.54  ;
N1277 G1X1091.19Y376.46  ;
N1278 G1X1089.65Y376.46  ;
N1279 G65 P9104 A101 B02  ;
N1280 G0X1013.57Y396.87  ;
N1281 G65 P9102 A101 B02  ;
N1282 G1X1017.06Y393.37  ;
N1283 G3X1017.02Y393.33I-3.71J3.63  ;
N1284 G65 P9104 A101 B02  ;
N1285 G0X1013.57Y518.87  ;
N1286 G65 P9102 A101 B02  ;
N1287 G1X1017.06Y515.37  ;
N1288 G3X1017.02Y515.33I-3.71J3.63  ;
N1289 G65 P9104 A101 B02  ;
N1290 G0X873.99Y580.18  ;
N1291 G65 P9102 A101 B02  ;
N1292 G1X877.43Y580.18  ;
N1293 G1X877.43Y581.69  ;
N1294 G1X870.55Y581.69  ;
N1295 G1X870.55Y578.56  ;
N1296 G1X877.43Y578.56  ;
N1297 G1X877.43Y580.12  ;
N1298 G65 P9104 A101 B02  ;
N1299 G0X873.99Y426.93  ;
N1300 G65 P9102 A101 B02  ;
N1301 G1X877.43Y426.93  ;
N1302 G1X877.43Y428.44  ;
N1303 G1X870.55Y428.44  ;
N1304 G1X870.55Y425.31  ;
N1305 G1X877.43Y425.31  ;
N1306 G1X877.43Y426.88  ;
N1307 G65 P9104 A101 B01  ;
N1308 G0X585.44Y1737.7  ;
N1309 G65 P9102 A101 B01  ;
N1310 G1X585.44Y1733.7  ;
N1311 G1X585.44Y55.24  ;
N1312 G1X652.99Y55.24  ;
N1313 G1X657.3Y56.28  ;
N1314 G2X658.31Y55.87I0.22J-0.92  ;
N1315 G1X660.71Y52.17  ;
N1316 G1X703.07Y9.8  ;
N1317 G3X708.77Y7.44I5.7J5.7  ;
N1318 G1X834.46Y7.44  ;
N1319 G3X838.52Y11.5I0J4.06  ;
N1320 G1X838.52Y47.44  ;
N1321 G1X1111.59Y47.44  ;
N1322 G1X1111.59Y52.56  ;
N1323 G1X1111.09Y52.56  ;
N1324 G1X1111.09Y82.44  ;
N1325 G1X1111.59Y82.44  ;
N1326 G1X1111.59Y93.81  ;
N1327 G1X1107.36Y93.81  ;
N1328 G1X1107.36Y94.44  ;
N1329 G1X1146.14Y94.44  ;
N1330 G1X1146.14Y1694.56  ;
N1331 G1X1104.89Y1694.56  ;
N1332 G1X1104.89Y1697.44  ;
N1333 G1X1111.59Y1697.44  ;
N1334 G1X1111.59Y1706.56  ;
N1335 G1X1111.09Y1706.56  ;
N1336 G1X1111.09Y1736.44  ;
N1337 G1X1111.59Y1736.44  ;
N1338 G1X1111.59Y1741.56  ;
N1339 G1X838.52Y1741.56  ;
N1340 G1X838.52Y1777.5  ;
N1341 G3X834.46Y1781.56I-4.06J0  ;
N1342 G1X708.77Y1781.56  ;
N1343 G3X703.07Y1779.2I0J-8.06  ;
N1344 G1X661.31Y1737.43  ;
N1345 G1X658.32Y1733.1  ;
N1346 G2X657.33Y1732.72I-0.78J0.53  ;
N1347 G1X652.99Y1733.76  ;
N1348 G1X585.5Y1733.76  ;
N1349 M98 P9104  ;
N1350 M98 P9103  ;
(FOOTER)
N1351 M98 P9110  ;
N1352 M30  ;
%
