O0099  ;
( MACHINE : TCI Laser )  ;
( MATERIAL : Acero al carbono N2 )  ;
( THICKNESS : 2 )  ;
( REPETITIONS : 1 )  ;
( SIMULATION TIME : 00:35:44 )  ;
( FORMAT : 1250x1500 )  ;
( JOB NUMBER : VARS5630\K563222s20 )  ;
( PROGRAM NUMBER : 12105 )  ;
( TYPE : 0 )  ;
( NUMBER OF SHEETS : 1 )  ;
( CUTTING HEADS : 1 )  ;
#516= 1  ;
#517= 1  ;
N105 G65 P9100 A103 B02  ;
(P1:ID1:W56240409)  ;
N106 M98 P9101  ;
N107 G0X52.67Y25.14  ;
N108 G65 P9102 A101 B02  ;
N109 G1X51.67Y26.87  ;
N110 G2X52.2Y28.85I1.25J0.72  ;
N111 G1X55Y30.47  ;
N112 G1X60.6Y27.23  ;
N113 G1X60.6Y20.77  ;
N114 G1X55Y17.53  ;
N115 G1X49.4Y20.77  ;
N116 G1X49.4Y27.23  ;
N117 G1X52.2Y28.85  ;
N118 G65 P9104 A101 B01  ;
N119 G0X54.92Y133.89  ;
N120 G65 P9102 A101 B01  ;
N121 G1X55.92Y137.76  ;
N122 G3X55Y138.95I-0.92J0.24  ;
N123 G3X50.05Y134I0J-4.95  ;
N124 G1X50.05Y44  ;
N125 G3X59.95Y44I4.95J0  ;
N126 G1X59.95Y134  ;
N127 G3X55Y138.95I-4.95J0  ;
N128 G65 P9104 A101 B02  ;
N129 G0X52.67Y155.14  ;
N130 G65 P9102 A101 B02  ;
N131 G1X51.67Y156.87  ;
N132 G2X52.2Y158.85I1.25J0.72  ;
N133 G1X55Y160.47  ;
N134 G1X60.6Y157.23  ;
N135 G1X60.6Y150.77  ;
N136 G1X55Y147.53  ;
N137 G1X49.4Y150.77  ;
N138 G1X49.4Y157.23  ;
N139 G1X52.2Y158.85  ;
N140 G65 P9104 A101 B01  ;
N141 G0X104.5Y26.69  ;
N142 G65 P9102 A101 B01  ;
N143 G1X99.55Y26.69  ;
N144 G1X99.55Y32.05  ;
N145 G1X96.05Y32.05  ;
N146 G1X96.05Y39.05  ;
N147 G1X83Y39.05  ;
N148 G2X78.05Y44I0J4.95  ;
N149 G1X78.05Y134  ;
N150 G2X83Y138.95I4.95J0  ;
N151 G1X96.05Y138.95  ;
N152 G1X96.05Y145.95  ;
N153 G1X99.55Y145.95  ;
N154 G1X99.55Y156.05  ;
N155 G1X96.05Y156.05  ;
N156 G1X96.05Y164.05  ;
N157 G1X13.95Y164.05  ;
N158 G1X13.95Y138.95  ;
N159 G1X27Y138.95  ;
N160 G2X31.95Y134I0J-4.95  ;
N161 G1X31.95Y44  ;
N162 G2X27Y39.05I-4.95J0  ;
N163 G1X13.95Y39.05  ;
N164 G1X13.95Y13.95  ;
N165 G1X96.05Y13.95  ;
N166 G1X96.05Y21.95  ;
N167 G1X99.55Y21.95  ;
N168 G1X99.55Y26.19  ;
N169 G65 P9104 A101 B02  ;
N170 M98 P9103  ;
(P2:ID1:W56240409)  ;
N171 M98 P9101  ;
N172 G0X133.34Y55.86  ;
N173 G65 P9102 A101 B02  ;
N174 G1X134.34Y54.13  ;
N175 G2X133.81Y52.15I-1.25J-0.72  ;
N176 G1X131.01Y50.53  ;
N177 G1X125.41Y53.77  ;
N178 G1X125.41Y60.23  ;
N179 G1X131.01Y63.47  ;
N180 G1X136.61Y60.23  ;
N181 G1X136.61Y53.77  ;
N182 G1X133.81Y52.15  ;
N183 G65 P9104 A101 B01  ;
N184 G0X131.09Y77.11  ;
N185 G65 P9102 A101 B01  ;
N186 G1X130.09Y73.24  ;
N187 G3X131.01Y72.05I0.92J-0.24  ;
N188 G3X135.96Y77I0J4.95  ;
N189 G1X135.96Y167  ;
N190 G3X126.06Y167I-4.95J0  ;
N191 G1X126.06Y77  ;
N192 G3X131.01Y72.05I4.95J0  ;
N193 G65 P9104 A101 B02  ;
N194 G0X133.34Y185.86  ;
N195 G65 P9102 A101 B02  ;
N196 G1X134.34Y184.13  ;
N197 G2X133.81Y182.15I-1.25J-0.72  ;
N198 G1X131.01Y180.53  ;
N199 G1X125.41Y183.77  ;
N200 G1X125.41Y190.23  ;
N201 G1X131.01Y193.47  ;
N202 G1X136.61Y190.23  ;
N203 G1X136.61Y183.77  ;
N204 G1X133.81Y182.15  ;
N205 G65 P9104 A101 B01  ;
N206 G0X81.51Y184.31  ;
N207 G65 P9102 A101 B01  ;
N208 G1X86.46Y184.31  ;
N209 G1X86.46Y178.95  ;
N210 G1X89.96Y178.95  ;
N211 G1X89.96Y171.95  ;
N212 G1X103.01Y171.95  ;
N213 G2X107.96Y167I0J-4.95  ;
N214 G1X107.96Y77  ;
N215 G2X103.01Y72.05I-4.95J0  ;
N216 G1X89.96Y72.05  ;
N217 G1X89.96Y65.05  ;
N218 G1X86.46Y65.05  ;
N219 G1X86.46Y54.95  ;
N220 G1X89.96Y54.95  ;
N221 G1X89.96Y46.95  ;
N222 G1X172.06Y46.95  ;
N223 G1X172.06Y72.05  ;
N224 G1X159.01Y72.05  ;
N225 G2X154.06Y77I0J4.95  ;
N226 G1X154.06Y167  ;
N227 G2X159.01Y171.95I4.95J0  ;
N228 G1X172.06Y171.95  ;
N229 G1X172.06Y197.05  ;
N230 G1X89.96Y197.05  ;
N231 G1X89.96Y189.05  ;
N232 G1X86.46Y189.05  ;
N233 G1X86.46Y184.81  ;
N234 G65 P9104 A101 B02  ;
N235 M98 P9103  ;
(P3:ID1:W56240409)  ;
N236 M98 P9101  ;
N237 G0X201.17Y155.14  ;
N238 G65 P9102 A101 B02  ;
N239 G1X200.17Y156.87  ;
N240 G2X200.7Y158.85I1.25J0.72  ;
N241 G1X203.5Y160.47  ;
N242 G1X209.1Y157.23  ;
N243 G1X209.1Y150.77  ;
N244 G1X203.5Y147.53  ;
N245 G1X197.9Y150.77  ;
N246 G1X197.9Y157.23  ;
N247 G1X200.7Y158.85  ;
N248 G65 P9104 A101 B01  ;
N249 G0X203.42Y133.89  ;
N250 G65 P9102 A101 B01  ;
N251 G1X204.42Y137.76  ;
N252 G3X203.5Y138.95I-0.92J0.24  ;
N253 G3X198.55Y134I0J-4.95  ;
N254 G1X198.55Y44  ;
N255 G3X208.45Y44I4.95J0  ;
N256 G1X208.45Y134  ;
N257 G3X203.5Y138.95I-4.95J0  ;
N258 G65 P9104 A101 B02  ;
N259 G0X201.17Y25.14  ;
N260 G65 P9102 A101 B02  ;
N261 G1X200.17Y26.87  ;
N262 G2X200.7Y28.85I1.25J0.72  ;
N263 G1X203.5Y30.47  ;
N264 G1X209.1Y27.23  ;
N265 G1X209.1Y20.77  ;
N266 G1X203.5Y17.53  ;
N267 G1X197.9Y20.77  ;
N268 G1X197.9Y27.23  ;
N269 G1X200.7Y28.85  ;
N270 G65 P9104 A101 B01  ;
N271 G0X253Y26.69  ;
N272 G65 P9102 A101 B01  ;
N273 G1X248.05Y26.69  ;
N274 G1X248.05Y32.05  ;
N275 G1X244.55Y32.05  ;
N276 G1X244.55Y39.05  ;
N277 G1X231.5Y39.05  ;
N278 G2X226.55Y44I0J4.95  ;
N279 G1X226.55Y134  ;
N280 G2X231.5Y138.95I4.95J0  ;
N281 G1X244.55Y138.95  ;
N282 G1X244.55Y145.95  ;
N283 G1X248.05Y145.95  ;
N284 G1X248.05Y156.05  ;
N285 G1X244.55Y156.05  ;
N286 G1X244.55Y164.05  ;
N287 G1X162.45Y164.05  ;
N288 G1X162.45Y138.95  ;
N289 G1X175.5Y138.95  ;
N290 G2X180.45Y134I0J-4.95  ;
N291 G1X180.45Y44  ;
N292 G2X175.5Y39.05I-4.95J0  ;
N293 G1X162.45Y39.05  ;
N294 G1X162.45Y13.95  ;
N295 G1X244.55Y13.95  ;
N296 G1X244.55Y21.95  ;
N297 G1X248.05Y21.95  ;
N298 G1X248.05Y26.19  ;
N299 G65 P9104 A101 B02  ;
N300 M98 P9103  ;
(P4:ID1:W56240409)  ;
N301 M98 P9101  ;
N302 G0X281.84Y55.86  ;
N303 G65 P9102 A101 B02  ;
N304 G1X282.84Y54.13  ;
N305 G2X282.31Y52.15I-1.25J-0.72  ;
N306 G1X279.51Y50.53  ;
N307 G1X273.91Y53.77  ;
N308 G1X273.91Y60.23  ;
N309 G1X279.51Y63.47  ;
N310 G1X285.11Y60.23  ;
N311 G1X285.11Y53.77  ;
N312 G1X282.31Y52.15  ;
N313 G65 P9104 A101 B01  ;
N314 G0X279.59Y77.11  ;
N315 G65 P9102 A101 B01  ;
N316 G1X278.59Y73.24  ;
N317 G3X279.51Y72.05I0.92J-0.24  ;
N318 G3X284.46Y77I0J4.95  ;
N319 G1X284.46Y167  ;
N320 G3X274.56Y167I-4.95J0  ;
N321 G1X274.56Y77  ;
N322 G3X279.51Y72.05I4.95J0  ;
N323 G65 P9104 A101 B02  ;
N324 G0X281.84Y185.86  ;
N325 G65 P9102 A101 B02  ;
N326 G1X282.84Y184.13  ;
N327 G2X282.31Y182.15I-1.25J-0.72  ;
N328 G1X279.51Y180.53  ;
N329 G1X273.91Y183.77  ;
N330 G1X273.91Y190.23  ;
N331 G1X279.51Y193.47  ;
N332 G1X285.11Y190.23  ;
N333 G1X285.11Y183.77  ;
N334 G1X282.31Y182.15  ;
N335 G65 P9104 A101 B01  ;
N336 G0X230.01Y184.31  ;
N337 G65 P9102 A101 B01  ;
N338 G1X234.96Y184.31  ;
N339 G1X234.96Y178.95  ;
N340 G1X238.46Y178.95  ;
N341 G1X238.46Y171.95  ;
N342 G1X251.51Y171.95  ;
N343 G2X256.46Y167I0J-4.95  ;
N344 G1X256.46Y77  ;
N345 G2X251.51Y72.05I-4.95J0  ;
N346 G1X238.46Y72.05  ;
N347 G1X238.46Y65.05  ;
N348 G1X234.96Y65.05  ;
N349 G1X234.96Y54.95  ;
N350 G1X238.46Y54.95  ;
N351 G1X238.46Y46.95  ;
N352 G1X320.56Y46.95  ;
N353 G1X320.56Y72.05  ;
N354 G1X307.51Y72.05  ;
N355 G2X302.56Y77I0J4.95  ;
N356 G1X302.56Y167  ;
N357 G2X307.51Y171.95I4.95J0  ;
N358 G1X320.56Y171.95  ;
N359 G1X320.56Y197.05  ;
N360 G1X238.46Y197.05  ;
N361 G1X238.46Y189.05  ;
N362 G1X234.96Y189.05  ;
N363 G1X234.96Y184.81  ;
N364 G65 P9104 A101 B02  ;
N365 M98 P9103  ;
(P5:ID1:W56240409)  ;
N366 M98 P9101  ;
N367 G0X350.67Y155.14  ;
N368 G65 P9102 A101 B02  ;
N369 G1X349.67Y156.87  ;
N370 G2X350.2Y158.85I1.25J0.72  ;
N371 G1X353Y160.47  ;
N372 G1X358.6Y157.23  ;
N373 G1X358.6Y150.77  ;
N374 G1X353Y147.53  ;
N375 G1X347.4Y150.77  ;
N376 G1X347.4Y157.23  ;
N377 G1X350.2Y158.85  ;
N378 G65 P9104 A101 B01  ;
N379 G0X352.92Y133.89  ;
N380 G65 P9102 A101 B01  ;
N381 G1X353.92Y137.76  ;
N382 G3X353Y138.95I-0.92J0.24  ;
N383 G3X348.05Y134I0J-4.95  ;
N384 G1X348.05Y44  ;
N385 G3X357.95Y44I4.95J0  ;
N386 G1X357.95Y134  ;
N387 G3X353Y138.95I-4.95J0  ;
N388 G65 P9104 A101 B02  ;
N389 G0X350.67Y25.14  ;
N390 G65 P9102 A101 B02  ;
N391 G1X349.67Y26.87  ;
N392 G2X350.2Y28.85I1.25J0.72  ;
N393 G1X353Y30.47  ;
N394 G1X358.6Y27.23  ;
N395 G1X358.6Y20.77  ;
N396 G1X353Y17.53  ;
N397 G1X347.4Y20.77  ;
N398 G1X347.4Y27.23  ;
N399 G1X350.2Y28.85  ;
N400 G65 P9104 A101 B01  ;
N401 G0X402.5Y26.69  ;
N402 G65 P9102 A101 B01  ;
N403 G1X397.55Y26.69  ;
N404 G1X397.55Y32.05  ;
N405 G1X394.05Y32.05  ;
N406 G1X394.05Y39.05  ;
N407 G1X381Y39.05  ;
N408 G2X376.05Y44I0J4.95  ;
N409 G1X376.05Y134  ;
N410 G2X381Y138.95I4.95J0  ;
N411 G1X394.05Y138.95  ;
N412 G1X394.05Y145.95  ;
N413 G1X397.55Y145.95  ;
N414 G1X397.55Y156.05  ;
N415 G1X394.05Y156.05  ;
N416 G1X394.05Y164.05  ;
N417 G1X311.95Y164.05  ;
N418 G1X311.95Y138.95  ;
N419 G1X325Y138.95  ;
N420 G2X329.95Y134I0J-4.95  ;
N421 G1X329.95Y44  ;
N422 G2X325Y39.05I-4.95J0  ;
N423 G1X311.95Y39.05  ;
N424 G1X311.95Y13.95  ;
N425 G1X394.05Y13.95  ;
N426 G1X394.05Y21.95  ;
N427 G1X397.55Y21.95  ;
N428 G1X397.55Y26.19  ;
N429 G65 P9104 A101 B02  ;
N430 M98 P9103  ;
(P6:ID1:W56240409)  ;
N431 M98 P9101  ;
N432 G0X431.34Y55.86  ;
N433 G65 P9102 A101 B02  ;
N434 G1X432.34Y54.13  ;
N435 G2X431.81Y52.15I-1.25J-0.72  ;
N436 G1X429.01Y50.53  ;
N437 G1X423.41Y53.77  ;
N438 G1X423.41Y60.23  ;
N439 G1X429.01Y63.47  ;
N440 G1X434.61Y60.23  ;
N441 G1X434.61Y53.77  ;
N442 G1X431.81Y52.15  ;
N443 G65 P9104 A101 B01  ;
N444 G0X429.09Y77.11  ;
N445 G65 P9102 A101 B01  ;
N446 G1X428.09Y73.24  ;
N447 G3X429.01Y72.05I0.92J-0.24  ;
N448 G3X433.96Y77I0J4.95  ;
N449 G1X433.96Y167  ;
N450 G3X424.06Y167I-4.95J0  ;
N451 G1X424.06Y77  ;
N452 G3X429.01Y72.05I4.95J0  ;
N453 G65 P9104 A101 B02  ;
N454 G0X431.34Y185.86  ;
N455 G65 P9102 A101 B02  ;
N456 G1X432.34Y184.13  ;
N457 G2X431.81Y182.15I-1.25J-0.72  ;
N458 G1X429.01Y180.53  ;
N459 G1X423.41Y183.77  ;
N460 G1X423.41Y190.23  ;
N461 G1X429.01Y193.47  ;
N462 G1X434.61Y190.23  ;
N463 G1X434.61Y183.77  ;
N464 G1X431.81Y182.15  ;
N465 G65 P9104 A101 B01  ;
N466 G0X379.51Y184.31  ;
N467 G65 P9102 A101 B01  ;
N468 G1X384.46Y184.31  ;
N469 G1X384.46Y178.95  ;
N470 G1X387.96Y178.95  ;
N471 G1X387.96Y171.95  ;
N472 G1X401.01Y171.95  ;
N473 G2X405.96Y167I0J-4.95  ;
N474 G1X405.96Y77  ;
N475 G2X401.01Y72.05I-4.95J0  ;
N476 G1X387.96Y72.05  ;
N477 G1X387.96Y65.05  ;
N478 G1X384.46Y65.05  ;
N479 G1X384.46Y54.95  ;
N480 G1X387.96Y54.95  ;
N481 G1X387.96Y46.95  ;
N482 G1X470.06Y46.95  ;
N483 G1X470.06Y72.05  ;
N484 G1X457.01Y72.05  ;
N485 G2X452.06Y77I0J4.95  ;
N486 G1X452.06Y167  ;
N487 G2X457.01Y171.95I4.95J0  ;
N488 G1X470.06Y171.95  ;
N489 G1X470.06Y197.05  ;
N490 G1X387.96Y197.05  ;
N491 G1X387.96Y189.05  ;
N492 G1X384.46Y189.05  ;
N493 G1X384.46Y184.81  ;
N494 G65 P9104 A101 B02  ;
N495 M98 P9103  ;
(P7:ID1:W56240409)  ;
N496 M98 P9101  ;
N497 G0X499.57Y155.14  ;
N498 G65 P9102 A101 B02  ;
N499 G1X498.57Y156.87  ;
N500 G2X499.1Y158.85I1.25J0.72  ;
N501 G1X501.9Y160.47  ;
N502 G1X507.5Y157.23  ;
N503 G1X507.5Y150.77  ;
N504 G1X501.9Y147.53  ;
N505 G1X496.3Y150.77  ;
N506 G1X496.3Y157.23  ;
N507 G1X499.1Y158.85  ;
N508 G65 P9104 A101 B01  ;
N509 G0X501.82Y133.89  ;
N510 G65 P9102 A101 B01  ;
N511 G1X502.82Y137.76  ;
N512 G3X501.9Y138.95I-0.92J0.24  ;
N513 G3X496.95Y134I0J-4.95  ;
N514 G1X496.95Y44  ;
N515 G3X506.85Y44I4.95J0  ;
N516 G1X506.85Y134  ;
N517 G3X501.9Y138.95I-4.95J0  ;
N518 G65 P9104 A101 B02  ;
N519 G0X499.57Y25.14  ;
N520 G65 P9102 A101 B02  ;
N521 G1X498.57Y26.87  ;
N522 G2X499.1Y28.85I1.25J0.72  ;
N523 G1X501.9Y30.47  ;
N524 G1X507.5Y27.23  ;
N525 G1X507.5Y20.77  ;
N526 G1X501.9Y17.53  ;
N527 G1X496.3Y20.77  ;
N528 G1X496.3Y27.23  ;
N529 G1X499.1Y28.85  ;
N530 G65 P9104 A101 B01  ;
N531 G0X551.4Y26.69  ;
N532 G65 P9102 A101 B01  ;
N533 G1X546.45Y26.69  ;
N534 G1X546.45Y32.05  ;
N535 G1X542.95Y32.05  ;
N536 G1X542.95Y39.05  ;
N537 G1X529.9Y39.05  ;
N538 G2X524.95Y44I0J4.95  ;
N539 G1X524.95Y134  ;
N540 G2X529.9Y138.95I4.95J0  ;
N541 G1X542.95Y138.95  ;
N542 G1X542.95Y145.95  ;
N543 G1X546.45Y145.95  ;
N544 G1X546.45Y156.05  ;
N545 G1X542.95Y156.05  ;
N546 G1X542.95Y164.05  ;
N547 G1X460.85Y164.05  ;
N548 G1X460.85Y138.95  ;
N549 G1X473.9Y138.95  ;
N550 G2X478.85Y134I0J-4.95  ;
N551 G1X478.85Y44  ;
N552 G2X473.9Y39.05I-4.95J0  ;
N553 G1X460.85Y39.05  ;
N554 G1X460.85Y13.95  ;
N555 G1X542.95Y13.95  ;
N556 G1X542.95Y21.95  ;
N557 G1X546.45Y21.95  ;
N558 G1X546.45Y26.19  ;
N559 G65 P9104 A101 B02  ;
N560 M98 P9103  ;
(P8:ID1:W56240409)  ;
N561 M98 P9101  ;
N562 G0X615.57Y25.14  ;
N563 G65 P9102 A101 B02  ;
N564 G1X614.57Y26.87  ;
N565 G2X615.1Y28.85I1.25J0.72  ;
N566 G1X617.9Y30.47  ;
N567 G1X623.5Y27.23  ;
N568 G1X623.5Y20.77  ;
N569 G1X617.9Y17.53  ;
N570 G1X612.3Y20.77  ;
N571 G1X612.3Y27.23  ;
N572 G1X615.1Y28.85  ;
N573 G65 P9104 A101 B01  ;
N574 G0X617.82Y133.89  ;
N575 G65 P9102 A101 B01  ;
N576 G1X618.82Y137.76  ;
N577 G3X617.9Y138.95I-0.92J0.24  ;
N578 G3X612.95Y134I0J-4.95  ;
N579 G1X612.95Y44  ;
N580 G3X622.85Y44I4.95J0  ;
N581 G1X622.85Y134  ;
N582 G3X617.9Y138.95I-4.95J0  ;
N583 G65 P9104 A101 B02  ;
N584 G0X615.57Y155.14  ;
N585 G65 P9102 A101 B02  ;
N586 G1X614.57Y156.87  ;
N587 G2X615.1Y158.85I1.25J0.72  ;
N588 G1X617.9Y160.47  ;
N589 G1X623.5Y157.23  ;
N590 G1X623.5Y150.77  ;
N591 G1X617.9Y147.53  ;
N592 G1X612.3Y150.77  ;
N593 G1X612.3Y157.23  ;
N594 G1X615.1Y158.85  ;
N595 G65 P9104 A101 B01  ;
N596 G0X667.4Y26.69  ;
N597 G65 P9102 A101 B01  ;
N598 G1X662.45Y26.69  ;
N599 G1X662.45Y32.05  ;
N600 G1X658.95Y32.05  ;
N601 G1X658.95Y39.05  ;
N602 G1X645.9Y39.05  ;
N603 G2X640.95Y44I0J4.95  ;
N604 G1X640.95Y134  ;
N605 G2X645.9Y138.95I4.95J0  ;
N606 G1X658.95Y138.95  ;
N607 G1X658.95Y145.95  ;
N608 G1X662.45Y145.95  ;
N609 G1X662.45Y156.05  ;
N610 G1X658.95Y156.05  ;
N611 G1X658.95Y164.05  ;
N612 G1X576.85Y164.05  ;
N613 G1X576.85Y138.95  ;
N614 G1X589.9Y138.95  ;
N615 G2X594.85Y134I0J-4.95  ;
N616 G1X594.85Y44  ;
N617 G2X589.9Y39.05I-4.95J0  ;
N618 G1X576.85Y39.05  ;
N619 G1X576.85Y13.95  ;
N620 G1X658.95Y13.95  ;
N621 G1X658.95Y21.95  ;
N622 G1X662.45Y21.95  ;
N623 G1X662.45Y26.19  ;
N624 G65 P9104 A101 B02  ;
N625 M98 P9103  ;
(P9:ID2:W56240414)  ;
N626 M98 P9101  ;
N627 G0X639.23Y183.9  ;
N628 G65 P9102 A101 B02  ;
N629 G1X638.06Y183.59  ;
N630 G3X637.77Y182.5I0.17J-0.63  ;
N631 G3X637.77Y182.5I1.45J1.45  ;
N632 G65 P9104 A101 B02  ;
N633 G0X639.23Y223.9  ;
N634 G65 P9102 A101 B02  ;
N635 G1X638.06Y223.59  ;
N636 G3X637.77Y222.5I0.17J-0.63  ;
N637 G3X637.77Y222.5I1.45J1.45  ;
N638 G65 P9104 A101 B02  ;
N639 G0X777.65Y223.9  ;
N640 G65 P9102 A101 B02  ;
N641 G1X776.48Y223.59  ;
N642 G3X776.19Y222.5I0.17J-0.63  ;
N643 G3X776.19Y222.5I1.45J1.45  ;
N644 G65 P9104 A101 B02  ;
N645 G0X777.65Y183.9  ;
N646 G65 P9102 A101 B02  ;
N647 G1X776.48Y183.59  ;
N648 G3X776.19Y182.5I0.17J-0.63  ;
N649 G3X776.19Y182.5I1.45J1.45  ;
N650 G65 P9104 A101 B01  ;
N651 G0X787.64Y176.4  ;
N652 G65 P9102 A101 B01  ;
N653 G1X782.64Y176.4  ;
N654 G1X634.17Y176.4  ;
N655 G1X634.17Y231.5  ;
N656 G1X782.69Y231.5  ;
N657 G1X782.69Y176.9  ;
N658 G65 P9104 A101 B02  ;
N659 M98 P9103  ;
(P10:ID2:W56240414)  ;
N660 M98 P9101  ;
N661 G0X719.25Y158.41  ;
N662 G65 P9102 A101 B02  ;
N663 G1X718.94Y159.58  ;
N664 G3X717.85Y159.88I-0.63J-0.16  ;
N665 G3X717.85Y159.88I1.45J-1.45  ;
N666 G65 P9104 A101 B02  ;
N667 G0X679.25Y158.41  ;
N668 G65 P9102 A101 B02  ;
N669 G1X678.94Y159.58  ;
N670 G3X677.85Y159.88I-0.63J-0.16  ;
N671 G3X677.85Y159.88I1.45J-1.45  ;
N672 G65 P9104 A101 B02  ;
N673 G0X679.25Y20  ;
N674 G65 P9102 A101 B02  ;
N675 G1X678.94Y21.17  ;
N676 G3X677.85Y21.46I-0.63J-0.17  ;
N677 G3X677.85Y21.46I1.45J-1.45  ;
N678 G65 P9104 A101 B02  ;
N679 G0X719.25Y20  ;
N680 G65 P9102 A101 B02  ;
N681 G1X718.94Y21.17  ;
N682 G3X717.85Y21.46I-0.63J-0.17  ;
N683 G3X717.85Y21.46I1.45J-1.45  ;
N684 G65 P9104 A101 B01  ;
N685 G0X671.75Y10.01  ;
N686 G65 P9102 A101 B01  ;
N687 G1X671.75Y15.01  ;
N688 G1X671.75Y163.48  ;
N689 G1X726.85Y163.48  ;
N690 G1X726.85Y14.96  ;
N691 G1X672.25Y14.96  ;
N692 G65 P9104 A101 B02  ;
N693 M98 P9103  ;
(P11:ID2:W56240414)  ;
N694 M98 P9101  ;
N695 G0X742.35Y20  ;
N696 G65 P9102 A101 B02  ;
N697 G1X742.04Y21.17  ;
N698 G3X740.95Y21.46I-0.63J-0.17  ;
N699 G3X740.95Y21.46I1.45J-1.45  ;
N700 G65 P9104 A101 B02  ;
N701 G0X782.35Y20  ;
N702 G65 P9102 A101 B02  ;
N703 G1X782.04Y21.17  ;
N704 G3X780.95Y21.46I-0.63J-0.17  ;
N705 G3X780.95Y21.46I1.45J-1.45  ;
N706 G65 P9104 A101 B02  ;
N707 G0X782.35Y158.41  ;
N708 G65 P9102 A101 B02  ;
N709 G1X782.04Y159.58  ;
N710 G3X780.95Y159.88I-0.63J-0.16  ;
N711 G3X780.95Y159.88I1.45J-1.45  ;
N712 G65 P9104 A101 B02  ;
N713 G0X742.35Y158.41  ;
N714 G65 P9102 A101 B02  ;
N715 G1X742.04Y159.58  ;
N716 G3X740.95Y159.88I-0.63J-0.16  ;
N717 G3X740.95Y159.88I1.45J-1.45  ;
N718 G65 P9104 A101 B01  ;
N719 G0X734.85Y10.01  ;
N720 G65 P9102 A101 B01  ;
N721 G1X734.85Y15.01  ;
N722 G1X734.85Y163.48  ;
N723 G1X789.95Y163.48  ;
N724 G1X789.95Y14.96  ;
N725 G1X735.35Y14.96  ;
N726 G65 P9104 A101 B02  ;
N727 M98 P9103  ;
(P12:ID2:W56240414)  ;
N728 M98 P9101  ;
N729 G0X805.45Y20  ;
N730 G65 P9102 A101 B02  ;
N731 G1X805.14Y21.17  ;
N732 G3X804.05Y21.46I-0.63J-0.17  ;
N733 G3X804.05Y21.46I1.45J-1.45  ;
N734 G65 P9104 A101 B02  ;
N735 G0X845.45Y20  ;
N736 G65 P9102 A101 B02  ;
N737 G1X845.14Y21.17  ;
N738 G3X844.05Y21.46I-0.63J-0.17  ;
N739 G3X844.05Y21.46I1.45J-1.45  ;
N740 G65 P9104 A101 B02  ;
N741 G0X845.45Y158.41  ;
N742 G65 P9102 A101 B02  ;
N743 G1X845.14Y159.58  ;
N744 G3X844.05Y159.88I-0.63J-0.16  ;
N745 G3X844.05Y159.88I1.45J-1.45  ;
N746 G65 P9104 A101 B02  ;
N747 G0X805.45Y158.41  ;
N748 G65 P9102 A101 B02  ;
N749 G1X805.14Y159.58  ;
N750 G3X804.05Y159.88I-0.63J-0.16  ;
N751 G3X804.05Y159.88I1.45J-1.45  ;
N752 G65 P9104 A101 B01  ;
N753 G0X797.95Y10.01  ;
N754 G65 P9102 A101 B01  ;
N755 G1X797.95Y15.01  ;
N756 G1X797.95Y163.48  ;
N757 G1X853.05Y163.48  ;
N758 G1X853.05Y14.96  ;
N759 G1X798.45Y14.96  ;
N760 G65 P9104 A101 B02  ;
N761 M98 P9103  ;
(P13:ID2:W56240414)  ;
N762 M98 P9101  ;
N763 G0X869.25Y20  ;
N764 G65 P9102 A101 B02  ;
N765 G1X868.94Y21.17  ;
N766 G3X867.85Y21.46I-0.63J-0.17  ;
N767 G3X867.85Y21.46I1.45J-1.45  ;
N768 G65 P9104 A101 B02  ;
N769 G0X909.25Y20  ;
N770 G65 P9102 A101 B02  ;
N771 G1X908.94Y21.17  ;
N772 G3X907.85Y21.46I-0.63J-0.17  ;
N773 G3X907.85Y21.46I1.45J-1.45  ;
N774 G65 P9104 A101 B02  ;
N775 G0X909.25Y158.41  ;
N776 G65 P9102 A101 B02  ;
N777 G1X908.94Y159.58  ;
N778 G3X907.85Y159.88I-0.63J-0.16  ;
N779 G3X907.85Y159.88I1.45J-1.45  ;
N780 G65 P9104 A101 B02  ;
N781 G0X869.25Y158.41  ;
N782 G65 P9102 A101 B02  ;
N783 G1X868.94Y159.58  ;
N784 G3X867.85Y159.88I-0.63J-0.16  ;
N785 G3X867.85Y159.88I1.45J-1.45  ;
N786 G65 P9104 A101 B01  ;
N787 G0X861.75Y10.01  ;
N788 G65 P9102 A101 B01  ;
N789 G1X861.75Y15.01  ;
N790 G1X861.75Y163.48  ;
N791 G1X916.85Y163.48  ;
N792 G1X916.85Y14.96  ;
N793 G1X862.25Y14.96  ;
N794 G65 P9104 A101 B02  ;
N795 M98 P9103  ;
(P14:ID2:W56240414)  ;
N796 M98 P9101  ;
N797 G0X932.35Y20  ;
N798 G65 P9102 A101 B02  ;
N799 G1X932.04Y21.17  ;
N800 G3X930.95Y21.46I-0.63J-0.17  ;
N801 G3X930.95Y21.46I1.45J-1.45  ;
N802 G65 P9104 A101 B02  ;
N803 G0X972.35Y20  ;
N804 G65 P9102 A101 B02  ;
N805 G1X972.04Y21.17  ;
N806 G3X970.95Y21.46I-0.63J-0.17  ;
N807 G3X970.95Y21.46I1.45J-1.45  ;
N808 G65 P9104 A101 B02  ;
N809 G0X972.35Y158.41  ;
N810 G65 P9102 A101 B02  ;
N811 G1X972.04Y159.58  ;
N812 G3X970.95Y159.88I-0.63J-0.16  ;
N813 G3X970.95Y159.88I1.45J-1.45  ;
N814 G65 P9104 A101 B02  ;
N815 G0X932.35Y158.41  ;
N816 G65 P9102 A101 B02  ;
N817 G1X932.04Y159.58  ;
N818 G3X930.95Y159.88I-0.63J-0.16  ;
N819 G3X930.95Y159.88I1.45J-1.45  ;
N820 G65 P9104 A101 B01  ;
N821 G0X924.85Y10.01  ;
N822 G65 P9102 A101 B01  ;
N823 G1X924.85Y15.01  ;
N824 G1X924.85Y163.48  ;
N825 G1X979.95Y163.48  ;
N826 G1X979.95Y14.96  ;
N827 G1X925.35Y14.96  ;
N828 G65 P9104 A101 B02  ;
N829 M98 P9103  ;
(P15:ID2:W56240414)  ;
N830 M98 P9101  ;
N831 G0X996.35Y20  ;
N832 G65 P9102 A101 B02  ;
N833 G1X996.04Y21.17  ;
N834 G3X994.95Y21.46I-0.63J-0.17  ;
N835 G3X994.95Y21.46I1.45J-1.45  ;
N836 G65 P9104 A101 B02  ;
N837 G0X1036.35Y20  ;
N838 G65 P9102 A101 B02  ;
N839 G1X1036.04Y21.17  ;
N840 G3X1034.95Y21.46I-0.63J-0.17  ;
N841 G3X1034.95Y21.46I1.45J-1.45  ;
N842 G65 P9104 A101 B02  ;
N843 G0X1036.35Y158.41  ;
N844 G65 P9102 A101 B02  ;
N845 G1X1036.04Y159.58  ;
N846 G3X1034.95Y159.88I-0.63J-0.16  ;
N847 G3X1034.95Y159.88I1.45J-1.45  ;
N848 G65 P9104 A101 B02  ;
N849 G0X996.35Y158.41  ;
N850 G65 P9102 A101 B02  ;
N851 G1X996.04Y159.58  ;
N852 G3X994.95Y159.88I-0.63J-0.16  ;
N853 G3X994.95Y159.88I1.45J-1.45  ;
N854 G65 P9104 A101 B01  ;
N855 G0X988.85Y10.01  ;
N856 G65 P9102 A101 B01  ;
N857 G1X988.85Y15.01  ;
N858 G1X988.85Y163.48  ;
N859 G1X1043.95Y163.48  ;
N860 G1X1043.95Y14.96  ;
N861 G1X989.35Y14.96  ;
N862 G65 P9104 A101 B02  ;
N863 M98 P9103  ;
(P16:ID2:W56240414)  ;
N864 M98 P9101  ;
N865 G0X1059.45Y20  ;
N866 G65 P9102 A101 B02  ;
N867 G1X1059.14Y21.17  ;
N868 G3X1058.05Y21.46I-0.63J-0.17  ;
N869 G3X1058.05Y21.46I1.45J-1.45  ;
N870 G65 P9104 A101 B02  ;
N871 G0X1099.45Y20  ;
N872 G65 P9102 A101 B02  ;
N873 G1X1099.14Y21.17  ;
N874 G3X1098.05Y21.46I-0.63J-0.17  ;
N875 G3X1098.05Y21.46I1.45J-1.45  ;
N876 G65 P9104 A101 B02  ;
N877 G0X1099.45Y158.41  ;
N878 G65 P9102 A101 B02  ;
N879 G1X1099.14Y159.58  ;
N880 G3X1098.05Y159.88I-0.63J-0.16  ;
N881 G3X1098.05Y159.88I1.45J-1.45  ;
N882 G65 P9104 A101 B02  ;
N883 G0X1059.45Y158.41  ;
N884 G65 P9102 A101 B02  ;
N885 G1X1059.14Y159.58  ;
N886 G3X1058.05Y159.88I-0.63J-0.16  ;
N887 G3X1058.05Y159.88I1.45J-1.45  ;
N888 G65 P9104 A101 B01  ;
N889 G0X1051.95Y10.01  ;
N890 G65 P9102 A101 B01  ;
N891 G1X1051.95Y15.01  ;
N892 G1X1051.95Y163.48  ;
N893 G1X1107.05Y163.48  ;
N894 G1X1107.05Y14.96  ;
N895 G1X1052.45Y14.96  ;
N896 G65 P9104 A101 B02  ;
N897 M98 P9103  ;
(P17:ID2:W56240414)  ;
N898 M98 P9101  ;
N899 G0X1123.45Y20  ;
N900 G65 P9102 A101 B02  ;
N901 G1X1123.14Y21.17  ;
N902 G3X1122.05Y21.46I-0.63J-0.17  ;
N903 G3X1122.05Y21.46I1.45J-1.45  ;
N904 G65 P9104 A101 B02  ;
N905 G0X1163.45Y20  ;
N906 G65 P9102 A101 B02  ;
N907 G1X1163.14Y21.17  ;
N908 G3X1162.05Y21.46I-0.63J-0.17  ;
N909 G3X1162.05Y21.46I1.45J-1.45  ;
N910 G65 P9104 A101 B02  ;
N911 G0X1163.45Y158.41  ;
N912 G65 P9102 A101 B02  ;
N913 G1X1163.14Y159.58  ;
N914 G3X1162.05Y159.88I-0.63J-0.16  ;
N915 G3X1162.05Y159.88I1.45J-1.45  ;
N916 G65 P9104 A101 B02  ;
N917 G0X1123.45Y158.41  ;
N918 G65 P9102 A101 B02  ;
N919 G1X1123.14Y159.58  ;
N920 G3X1122.05Y159.88I-0.63J-0.16  ;
N921 G3X1122.05Y159.88I1.45J-1.45  ;
N922 G65 P9104 A101 B01  ;
N923 G0X1115.95Y10.01  ;
N924 G65 P9102 A101 B01  ;
N925 G1X1115.95Y15.01  ;
N926 G1X1115.95Y163.48  ;
N927 G1X1171.05Y163.48  ;
N928 G1X1171.05Y14.96  ;
N929 G1X1116.45Y14.96  ;
N930 G65 P9104 A101 B02  ;
N931 M98 P9103  ;
(P18:ID2:W56240414)  ;
N932 M98 P9101  ;
N933 G0X1187.45Y20  ;
N934 G65 P9102 A101 B02  ;
N935 G1X1187.14Y21.17  ;
N936 G3X1186.05Y21.46I-0.63J-0.17  ;
N937 G3X1186.05Y21.46I1.45J-1.45  ;
N938 G65 P9104 A101 B02  ;
N939 G0X1227.45Y20  ;
N940 G65 P9102 A101 B02  ;
N941 G1X1227.14Y21.17  ;
N942 G3X1226.05Y21.46I-0.63J-0.17  ;
N943 G3X1226.05Y21.46I1.45J-1.45  ;
N944 G65 P9104 A101 B02  ;
N945 G0X1227.45Y158.41  ;
N946 G65 P9102 A101 B02  ;
N947 G1X1227.14Y159.58  ;
N948 G3X1226.05Y159.88I-0.63J-0.16  ;
N949 G3X1226.05Y159.88I1.45J-1.45  ;
N950 G65 P9104 A101 B02  ;
N951 G0X1187.45Y158.41  ;
N952 G65 P9102 A101 B02  ;
N953 G1X1187.14Y159.58  ;
N954 G3X1186.05Y159.88I-0.63J-0.16  ;
N955 G3X1186.05Y159.88I1.45J-1.45  ;
N956 G65 P9104 A101 B01  ;
N957 G0X1179.95Y10.01  ;
N958 G65 P9102 A101 B01  ;
N959 G1X1179.95Y15.01  ;
N960 G1X1179.95Y163.48  ;
N961 G1X1235.05Y163.48  ;
N962 G1X1235.05Y14.96  ;
N963 G1X1180.45Y14.96  ;
N964 G65 P9104 A101 B02  ;
N965 M98 P9103  ;
(P19:ID2:W56240414)  ;
N966 M98 P9101  ;
N967 G0X1031.99Y172.36  ;
N968 G65 P9102 A101 B02  ;
N969 G1X1031.68Y173.53  ;
N970 G3X1030.59Y173.82I-0.63J-0.17  ;
N971 G3X1030.59Y173.82I1.45J-1.45  ;
N972 G65 P9104 A101 B02  ;
N973 G0X991.99Y172.36  ;
N974 G65 P9102 A101 B02  ;
N975 G1X991.68Y173.53  ;
N976 G3X990.59Y173.82I-0.63J-0.17  ;
N977 G3X990.59Y173.82I1.45J-1.45  ;
N978 G65 P9104 A101 B02  ;
N979 G0X991.99Y310.78  ;
N980 G65 P9102 A101 B02  ;
N981 G1X991.68Y311.95  ;
N982 G3X990.59Y312.24I-0.63J-0.17  ;
N983 G3X990.59Y312.24I1.45J-1.45  ;
N984 G65 P9104 A101 B02  ;
N985 G0X1031.99Y310.78  ;
N986 G65 P9102 A101 B02  ;
N987 G1X1031.68Y311.95  ;
N988 G3X1030.59Y312.24I-0.63J-0.17  ;
N989 G3X1030.59Y312.24I1.45J-1.45  ;
N990 G65 P9104 A101 B01  ;
N991 G0X984.49Y162.37  ;
N992 G65 P9102 A101 B01  ;
N993 G1X984.49Y167.37  ;
N994 G1X984.49Y315.84  ;
N995 G1X1039.59Y315.84  ;
N996 G1X1039.59Y167.32  ;
N997 G1X984.99Y167.32  ;
N998 G65 P9104 A101 B02  ;
N999 M98 P9103  ;
(P20:ID1:W56240409)  ;
N1000 M98 P9101  ;
N1001 G0X61.84Y343.86  ;
N1002 G65 P9102 A101 B02  ;
N1003 G1X62.84Y342.13  ;
N1004 G2X62.31Y340.15I-1.25J-0.72  ;
N1005 G1X59.51Y338.53  ;
N1006 G1X53.91Y341.77  ;
N1007 G1X53.91Y348.23  ;
N1008 G1X59.51Y351.47  ;
N1009 G1X65.11Y348.23  ;
N1010 G1X65.11Y341.77  ;
N1011 G1X62.31Y340.15  ;
N1012 G65 P9104 A101 B01  ;
N1013 G0X59.59Y235.11  ;
N1014 G65 P9102 A101 B01  ;
N1015 G1X58.59Y231.24  ;
N1016 G3X59.51Y230.05I0.92J-0.24  ;
N1017 G3X64.46Y235I0J4.95  ;
N1018 G1X64.46Y325  ;
N1019 G3X54.56Y325I-4.95J0  ;
N1020 G1X54.56Y235  ;
N1021 G3X59.51Y230.05I4.95J0  ;
N1022 G65 P9104 A101 B02  ;
N1023 G0X61.84Y213.86  ;
N1024 G65 P9102 A101 B02  ;
N1025 G1X62.84Y212.13  ;
N1026 G2X62.31Y210.15I-1.25J-0.72  ;
N1027 G1X59.51Y208.53  ;
N1028 G1X53.91Y211.77  ;
N1029 G1X53.91Y218.23  ;
N1030 G1X59.51Y221.47  ;
N1031 G1X65.11Y218.23  ;
N1032 G1X65.11Y211.77  ;
N1033 G1X62.31Y210.15  ;
N1034 G65 P9104 A101 B01  ;
N1035 G0X10.01Y342.31  ;
N1036 G65 P9102 A101 B01  ;
N1037 G1X14.96Y342.31  ;
N1038 G1X14.96Y336.95  ;
N1039 G1X18.46Y336.95  ;
N1040 G1X18.46Y329.95  ;
N1041 G1X31.51Y329.95  ;
N1042 G2X36.46Y325I0J-4.95  ;
N1043 G1X36.46Y235  ;
N1044 G2X31.51Y230.05I-4.95J0  ;
N1045 G1X18.46Y230.05  ;
N1046 G1X18.46Y223.05  ;
N1047 G1X14.96Y223.05  ;
N1048 G1X14.96Y212.95  ;
N1049 G1X18.46Y212.95  ;
N1050 G1X18.46Y204.95  ;
N1051 G1X100.56Y204.95  ;
N1052 G1X100.56Y230.05  ;
N1053 G1X87.51Y230.05  ;
N1054 G2X82.56Y235I0J4.95  ;
N1055 G1X82.56Y325  ;
N1056 G2X87.51Y329.95I4.95J0  ;
N1057 G1X100.56Y329.95  ;
N1058 G1X100.56Y355.05  ;
N1059 G1X18.46Y355.05  ;
N1060 G1X18.46Y347.05  ;
N1061 G1X14.96Y347.05  ;
N1062 G1X14.96Y342.81  ;
N1063 G65 P9104 A101 B02  ;
N1064 M98 P9103  ;
(P21:ID1:W56240409)  ;
N1065 M98 P9101  ;
N1066 G0X55.9Y381.24  ;
N1067 G65 P9102 A101 B02  ;
N1068 G1X56.9Y379.5  ;
N1069 G2X56.37Y377.52I-1.26J-0.72  ;
N1070 G1X53.57Y375.91  ;
N1071 G1X47.97Y379.14  ;
N1072 G1X47.97Y385.61  ;
N1073 G1X53.57Y388.84  ;
N1074 G1X59.17Y385.61  ;
N1075 G1X59.17Y379.14  ;
N1076 G1X56.37Y377.52  ;
N1077 G65 P9104 A101 B01  ;
N1078 G0X53.65Y402.48  ;
N1079 G65 P9102 A101 B01  ;
N1080 G1X52.65Y398.61  ;
N1081 G3X53.57Y397.42I0.92J-0.24  ;
N1082 G3X58.52Y402.37I0J4.95  ;
N1083 G1X58.52Y492.37  ;
N1084 G3X48.62Y492.37I-4.95J0  ;
N1085 G1X48.62Y402.37  ;
N1086 G3X53.57Y397.42I4.95J0  ;
N1087 G65 P9104 A101 B02  ;
N1088 G0X55.9Y511.24  ;
N1089 G65 P9102 A101 B02  ;
N1090 G1X56.9Y509.5  ;
N1091 G2X56.37Y507.52I-1.26J-0.72  ;
N1092 G1X53.57Y505.91  ;
N1093 G1X47.97Y509.14  ;
N1094 G1X47.97Y515.61  ;
N1095 G1X53.57Y518.84  ;
N1096 G1X59.17Y515.61  ;
N1097 G1X59.17Y509.14  ;
N1098 G1X56.37Y507.52  ;
N1099 G65 P9104 A101 B01  ;
N1100 G0X4.07Y509.68  ;
N1101 G65 P9102 A101 B01  ;
N1102 G1X9.02Y509.68  ;
N1103 G1X9.02Y504.32  ;
N1104 G1X12.52Y504.32  ;
N1105 G1X12.52Y497.32  ;
N1106 G1X25.57Y497.32  ;
N1107 G2X30.52Y492.37I0J-4.95  ;
N1108 G1X30.52Y402.37  ;
N1109 G2X25.57Y397.42I-4.95J0  ;
N1110 G1X12.52Y397.42  ;
N1111 G1X12.52Y390.42  ;
N1112 G1X9.02Y390.42  ;
N1113 G1X9.02Y380.32  ;
N1114 G1X12.52Y380.32  ;
N1115 G1X12.52Y372.32  ;
N1116 G1X94.62Y372.32  ;
N1117 G1X94.62Y397.42  ;
N1118 G1X81.57Y397.42  ;
N1119 G2X76.62Y402.37I0J4.95  ;
N1120 G1X76.62Y492.37  ;
N1121 G2X81.57Y497.32I4.95J0  ;
N1122 G1X94.62Y497.32  ;
N1123 G1X94.62Y522.42  ;
N1124 G1X12.52Y522.42  ;
N1125 G1X12.52Y514.42  ;
N1126 G1X9.02Y514.42  ;
N1127 G1X9.02Y510.18  ;
N1128 G65 P9104 A101 B01  ;
N1129 M98 P9103  ;
(P22:ID3:W56240410)  ;
N1130 M98 P9101  ;
N1131 G0X1043.95Y176.51  ;
N1132 G65 P9102 A101 B01  ;
N1133 G1X1043.95Y181.51  ;
N1134 G1X1043.95Y245.06  ;
N1135 G1X1059.72Y245.06  ;
N1136 G1X1059.72Y248.7  ;
N1137 G1X1043.95Y248.7  ;
N1138 G1X1043.95Y435.3  ;
N1139 G1X1135.82Y435.3  ;
N1140 G1X1135.82Y184.51  ;
N1141 G2X1132.77Y181.46I-3.05J0  ;
N1142 G1X1044.45Y181.46  ;
N1143 G65 P9104 A101 B01  ;
N1144 M98 P9103  ;
(P23:ID3:W56240410)  ;
N1145 M98 P9101  ;
N1146 G0X1143.95Y176.51  ;
N1147 G65 P9102 A101 B01  ;
N1148 G1X1143.95Y181.51  ;
N1149 G1X1143.95Y245.06  ;
N1150 G1X1159.72Y245.06  ;
N1151 G1X1159.72Y248.7  ;
N1152 G1X1143.95Y248.7  ;
N1153 G1X1143.95Y435.3  ;
N1154 G1X1235.82Y435.3  ;
N1155 G1X1235.82Y184.51  ;
N1156 G2X1232.77Y181.46I-3.05J0  ;
N1157 G1X1144.45Y181.46  ;
N1158 G65 P9104 A101 B02  ;
N1159 M98 P9103  ;
(P24:ID4:W56240413)  ;
N1160 M98 P9101  ;
N1161 G0X912.09Y250.35  ;
N1162 G65 P9102 A101 B02  ;
N1163 G1X912.4Y249.17  ;
N1164 G3X913.49Y248.88I0.63J0.17  ;
N1165 G3X913.49Y248.88I-1.45J1.45  ;
N1166 G65 P9104 A101 B02  ;
N1167 G0X877.25Y230.7  ;
N1168 G65 P9102 A101 B02  ;
N1169 G1X877.56Y229.52  ;
N1170 G3X878.65Y229.23I0.63J0.17  ;
N1171 G3X878.65Y229.23I-1.45J1.45  ;
N1172 G65 P9104 A101 B02  ;
N1173 G0X912.09Y529.56  ;
N1174 G65 P9102 A101 B02  ;
N1175 G1X912.4Y528.39  ;
N1176 G3X913.49Y528.1I0.63J0.16  ;
N1177 G3X913.49Y528.1I-1.45J1.44  ;
N1178 G65 P9104 A101 B02  ;
N1179 G0X877.25Y549.21  ;
N1180 G65 P9102 A101 B02  ;
N1181 G1X877.56Y548.04  ;
N1182 G3X878.65Y547.74I0.63J0.16  ;
N1183 G3X878.65Y547.74I-1.45J1.45  ;
N1184 G65 P9104 A101 B01  ;
N1185 G0X691.22Y467.6  ;
N1186 G65 P9102 A101 B01  ;
N1187 G1X695.99Y468.93  ;
N1188 G1X696.85Y465.86  ;
N1189 G3X698.14Y465.13I1.01J0.28  ;
N1190 G1X700.02Y465.65  ;
N1191 G1X704.04Y451.26  ;
N1192 G1X704.04Y328.62  ;
N1193 G1X700.02Y314.23  ;
N1194 G1X698.14Y314.75  ;
N1195 G3X696.85Y314.02I-0.28J-1.01  ;
N1196 G1X694.7Y306.32  ;
N1197 G3X695.43Y305.02I1.01J-0.29  ;
N1198 G1X697.31Y304.5  ;
N1199 G1X689Y274.69  ;
N1200 G3X691.81Y269.7I3.9J-1.09  ;
N1201 G1X873.13Y219.15  ;
N1202 G1X924.29Y248  ;
N1203 G1X925.76Y253.27  ;
N1204 G1X960.44Y243.6  ;
N1205 G1X984.14Y328.61  ;
N1206 G1X984.14Y451.27  ;
N1207 G1X960.44Y536.28  ;
N1208 G1X925.76Y526.61  ;
N1209 G1X924.29Y531.88  ;
N1210 G1X873.13Y560.73  ;
N1211 G1X691.81Y510.18  ;
N1212 G3X689Y505.19I1.09J-3.9  ;
N1213 G1X697.31Y475.38  ;
N1214 G1X695.43Y474.86  ;
N1215 G3X694.7Y473.56I0.28J-1.02  ;
N1216 G1X695.86Y469.42  ;
N1217 G65 P9104 A101 B02  ;
N1218 M98 P9103  ;
(P25:ID4:W56240413)  ;
N1219 M98 P9101  ;
N1220 G0X619.19Y529.56  ;
N1221 G65 P9102 A101 B02  ;
N1222 G1X619.5Y528.39  ;
N1223 G3X620.59Y528.1I0.63J0.16  ;
N1224 G3X620.59Y528.1I-1.45J1.44  ;
N1225 G65 P9104 A101 B02  ;
N1226 G0X584.35Y549.21  ;
N1227 G65 P9102 A101 B02  ;
N1228 G1X584.66Y548.04  ;
N1229 G3X585.75Y547.74I0.63J0.16  ;
N1230 G3X585.75Y547.74I-1.45J1.45  ;
N1231 G65 P9104 A101 B02  ;
N1232 G0X619.19Y250.35  ;
N1233 G65 P9102 A101 B02  ;
N1234 G1X619.5Y249.17  ;
N1235 G3X620.59Y248.88I0.63J0.17  ;
N1236 G3X620.59Y248.88I-1.45J1.45  ;
N1237 G65 P9104 A101 B02  ;
N1238 G0X584.35Y230.7  ;
N1239 G65 P9102 A101 B02  ;
N1240 G1X584.66Y229.52  ;
N1241 G3X585.75Y229.23I0.63J0.17  ;
N1242 G3X585.75Y229.23I-1.45J1.45  ;
N1243 G65 P9104 A101 B01  ;
N1244 G0X398.32Y467.6  ;
N1245 G65 P9102 A101 B01  ;
N1246 G1X403.09Y468.93  ;
N1247 G1X403.95Y465.86  ;
N1248 G3X405.24Y465.13I1.01J0.28  ;
N1249 G1X407.12Y465.65  ;
N1250 G1X411.14Y451.26  ;
N1251 G1X411.14Y328.62  ;
N1252 G1X407.12Y314.23  ;
N1253 G1X405.24Y314.75  ;
N1254 G3X403.95Y314.02I-0.28J-1.01  ;
N1255 G1X401.8Y306.32  ;
N1256 G3X402.53Y305.02I1.01J-0.29  ;
N1257 G1X404.41Y304.5  ;
N1258 G1X396.1Y274.69  ;
N1259 G3X398.91Y269.7I3.9J-1.09  ;
N1260 G1X580.23Y219.15  ;
N1261 G1X631.39Y248  ;
N1262 G1X632.86Y253.27  ;
N1263 G1X667.54Y243.6  ;
N1264 G1X691.24Y328.61  ;
N1265 G1X691.24Y451.27  ;
N1266 G1X667.54Y536.28  ;
N1267 G1X632.86Y526.61  ;
N1268 G1X631.39Y531.88  ;
N1269 G1X580.23Y560.73  ;
N1270 G1X398.91Y510.18  ;
N1271 G3X396.1Y505.19I1.09J-3.9  ;
N1272 G1X404.41Y475.38  ;
N1273 G1X402.53Y474.86  ;
N1274 G3X401.8Y473.56I0.28J-1.02  ;
N1275 G1X402.96Y469.42  ;
N1276 G65 P9104 A101 B02  ;
N1277 M98 P9103  ;
(P26:ID4:W56240413)  ;
N1278 M98 P9101  ;
N1279 G0X325.19Y529.58  ;
N1280 G65 P9102 A101 B02  ;
N1281 G1X325.5Y528.41  ;
N1282 G3X326.59Y528.12I0.63J0.17  ;
N1283 G3X326.59Y528.12I-1.45J1.45  ;
N1284 G65 P9104 A101 B02  ;
N1285 G0X290.35Y549.23  ;
N1286 G65 P9102 A101 B02  ;
N1287 G1X290.66Y548.06  ;
N1288 G3X291.75Y547.77I0.63J0.17  ;
N1289 G3X291.75Y547.77I-1.45J1.45  ;
N1290 G65 P9104 A101 B02  ;
N1291 G0X325.19Y250.37  ;
N1292 G65 P9102 A101 B02  ;
N1293 G1X325.5Y249.2  ;
N1294 G3X326.59Y248.91I0.63J0.17  ;
N1295 G3X326.59Y248.91I-1.45J1.45  ;
N1296 G65 P9104 A101 B02  ;
N1297 G0X290.35Y230.72  ;
N1298 G65 P9102 A101 B02  ;
N1299 G1X290.66Y229.55  ;
N1300 G3X291.75Y229.26I0.63J0.17  ;
N1301 G3X291.75Y229.26I-1.45J1.45  ;
N1302 G65 P9104 A101 B01  ;
N1303 G0X104.32Y467.63  ;
N1304 G65 P9102 A101 B01  ;
N1305 G1X109.09Y468.96  ;
N1306 G1X109.95Y465.88  ;
N1307 G3X111.24Y465.15I1.01J0.28  ;
N1308 G1X113.12Y465.67  ;
N1309 G1X117.14Y451.28  ;
N1310 G1X117.14Y328.64  ;
N1311 G1X113.12Y314.25  ;
N1312 G1X111.24Y314.77  ;
N1313 G3X109.95Y314.04I-0.28J-1.01  ;
N1314 G1X107.8Y306.34  ;
N1315 G3X108.53Y305.04I1.01J-0.28  ;
N1316 G1X110.41Y304.52  ;
N1317 G1X102.1Y274.71  ;
N1318 G3X104.91Y269.72I3.9J-1.09  ;
N1319 G1X286.23Y219.17  ;
N1320 G1X337.39Y248.02  ;
N1321 G1X338.86Y253.29  ;
N1322 G1X373.54Y243.62  ;
N1323 G1X397.24Y328.63  ;
N1324 G1X397.24Y451.29  ;
N1325 G1X373.54Y536.3  ;
N1326 G1X338.86Y526.63  ;
N1327 G1X337.39Y531.9  ;
N1328 G1X286.23Y560.75  ;
N1329 G1X104.91Y510.2  ;
N1330 G3X102.1Y505.21I1.09J-3.9  ;
N1331 G1X110.41Y475.4  ;
N1332 G1X108.53Y474.88  ;
N1333 G3X107.8Y473.58I0.28J-1.01  ;
N1334 G1X108.96Y469.44  ;
N1335 G65 P9104 A101 B01  ;
N1336 M98 P9103  ;
(P27:ID3:W56240410)  ;
N1337 M98 P9101  ;
N1338 G0X1043.95Y439.21  ;
N1339 G65 P9102 A101 B01  ;
N1340 G1X1043.95Y444.21  ;
N1341 G1X1043.95Y507.76  ;
N1342 G1X1059.72Y507.76  ;
N1343 G1X1059.72Y511.4  ;
N1344 G1X1043.95Y511.4  ;
N1345 G1X1043.95Y698  ;
N1346 G1X1135.82Y698  ;
N1347 G1X1135.82Y447.21  ;
N1348 G2X1132.77Y444.16I-3.05J0  ;
N1349 G1X1044.45Y444.16  ;
N1350 G65 P9104 A101 B01  ;
N1351 M98 P9103  ;
(P28:ID3:W56240410)  ;
N1352 M98 P9101  ;
N1353 G0X1143.95Y439.21  ;
N1354 G65 P9102 A101 B01  ;
N1355 G1X1143.95Y444.21  ;
N1356 G1X1143.95Y507.76  ;
N1357 G1X1159.72Y507.76  ;
N1358 G1X1159.72Y511.4  ;
N1359 G1X1143.95Y511.4  ;
N1360 G1X1143.95Y698  ;
N1361 G1X1235.82Y698  ;
N1362 G1X1235.82Y447.21  ;
N1363 G2X1232.77Y444.16I-3.05J0  ;
N1364 G1X1144.45Y444.16  ;
N1365 G65 P9104 A101 B01  ;
N1366 M98 P9103  ;
(P29:ID3:W56240410)  ;
N1367 M98 P9101  ;
N1368 G0X943.95Y587.71  ;
N1369 G65 P9102 A101 B01  ;
N1370 G1X943.95Y592.71  ;
N1371 G1X943.95Y656.26  ;
N1372 G1X959.72Y656.26  ;
N1373 G1X959.72Y659.9  ;
N1374 G1X943.95Y659.9  ;
N1375 G1X943.95Y846.5  ;
N1376 G1X1035.82Y846.5  ;
N1377 G1X1035.82Y595.71  ;
N1378 G2X1032.77Y592.66I-3.05J0  ;
N1379 G1X944.45Y592.66  ;
N1380 G65 P9104 A101 B02  ;
N1381 M98 P9103  ;
(P30:ID4:W56240413)  ;
N1382 M98 P9101  ;
N1383 G0X706.64Y536.07  ;
N1384 G65 P9102 A101 B02  ;
N1385 G1X706.32Y537.24  ;
N1386 G3X705.23Y537.53I-0.63J-0.17  ;
N1387 G3X705.23Y537.53I1.45J-1.45  ;
N1388 G65 P9104 A101 B02  ;
N1389 G0X671.79Y555.72  ;
N1390 G65 P9102 A101 B02  ;
N1391 G1X671.48Y556.89  ;
N1392 G3X670.39Y557.18I-0.63J-0.17  ;
N1393 G3X670.39Y557.18I1.45J-1.45  ;
N1394 G65 P9104 A101 B02  ;
N1395 G0X671.79Y834.93  ;
N1396 G65 P9102 A101 B02  ;
N1397 G1X671.48Y836.1  ;
N1398 G3X670.39Y836.39I-0.63J-0.17  ;
N1399 G3X670.39Y836.39I1.45J-1.45  ;
N1400 G65 P9104 A101 B02  ;
N1401 G0X706.64Y854.58  ;
N1402 G65 P9102 A101 B02  ;
N1403 G1X706.32Y855.75  ;
N1404 G3X705.23Y856.04I-0.63J-0.17  ;
N1405 G3X705.23Y856.04I1.45J-1.45  ;
N1406 G65 P9104 A101 B01  ;
N1407 G0X892.66Y617.67  ;
N1408 G65 P9102 A101 B01  ;
N1409 G1X887.89Y616.34  ;
N1410 G1X887.03Y619.42  ;
N1411 G3X885.74Y620.15I-1.01J-0.28  ;
N1412 G1X883.86Y619.63  ;
N1413 G1X879.85Y634.02  ;
N1414 G1X879.85Y756.66  ;
N1415 G1X883.86Y771.05  ;
N1416 G1X885.74Y770.53  ;
N1417 G3X887.03Y771.26I0.28J1.01  ;
N1418 G1X889.18Y778.96  ;
N1419 G3X888.45Y780.26I-1.01J0.28  ;
N1420 G1X886.58Y780.78  ;
N1421 G1X894.89Y810.59  ;
N1422 G3X892.07Y815.58I-3.9J1.09  ;
N1423 G1X710.75Y866.13  ;
N1424 G1X659.6Y837.28  ;
N1425 G1X658.13Y832.01  ;
N1426 G1X623.45Y841.68  ;
N1427 G1X599.75Y756.67  ;
N1428 G1X599.75Y634.01  ;
N1429 G1X623.45Y549  ;
N1430 G1X658.13Y558.67  ;
N1431 G1X659.6Y553.4  ;
N1432 G1X710.75Y524.55  ;
N1433 G1X892.07Y575.1  ;
N1434 G3X894.89Y580.09I-1.08J3.9  ;
N1435 G1X886.58Y609.9  ;
N1436 G1X888.45Y610.42  ;
N1437 G3X889.18Y611.72I-0.28J1.01  ;
N1438 G1X888.03Y615.86  ;
N1439 G65 P9104 A101 B02  ;
N1440 M98 P9103  ;
(P31:ID4:W56240413)  ;
N1441 M98 P9101  ;
N1442 G0X413.74Y536.07  ;
N1443 G65 P9102 A101 B02  ;
N1444 G1X413.42Y537.24  ;
N1445 G3X412.33Y537.53I-0.63J-0.17  ;
N1446 G3X412.33Y537.53I1.45J-1.45  ;
N1447 G65 P9104 A101 B02  ;
N1448 G0X378.89Y555.72  ;
N1449 G65 P9102 A101 B02  ;
N1450 G1X378.58Y556.89  ;
N1451 G3X377.49Y557.18I-0.63J-0.17  ;
N1452 G3X377.49Y557.18I1.45J-1.45  ;
N1453 G65 P9104 A101 B02  ;
N1454 G0X378.89Y834.93  ;
N1455 G65 P9102 A101 B02  ;
N1456 G1X378.58Y836.1  ;
N1457 G3X377.49Y836.39I-0.63J-0.17  ;
N1458 G3X377.49Y836.39I1.45J-1.45  ;
N1459 G65 P9104 A101 B02  ;
N1460 G0X413.74Y854.58  ;
N1461 G65 P9102 A101 B02  ;
N1462 G1X413.42Y855.75  ;
N1463 G3X412.33Y856.04I-0.63J-0.17  ;
N1464 G3X412.33Y856.04I1.45J-1.45  ;
N1465 G65 P9104 A101 B01  ;
N1466 G0X599.76Y617.67  ;
N1467 G65 P9102 A101 B01  ;
N1468 G1X594.99Y616.34  ;
N1469 G1X594.13Y619.42  ;
N1470 G3X592.84Y620.15I-1.01J-0.28  ;
N1471 G1X590.96Y619.63  ;
N1472 G1X586.95Y634.02  ;
N1473 G1X586.95Y756.66  ;
N1474 G1X590.96Y771.05  ;
N1475 G1X592.84Y770.53  ;
N1476 G3X594.13Y771.26I0.28J1.01  ;
N1477 G1X596.28Y778.96  ;
N1478 G3X595.55Y780.26I-1.01J0.28  ;
N1479 G1X593.68Y780.78  ;
N1480 G1X601.99Y810.59  ;
N1481 G3X599.17Y815.58I-3.9J1.09  ;
N1482 G1X417.85Y866.13  ;
N1483 G1X366.7Y837.28  ;
N1484 G1X365.23Y832.01  ;
N1485 G1X330.55Y841.68  ;
N1486 G1X306.85Y756.67  ;
N1487 G1X306.85Y634.01  ;
N1488 G1X330.55Y549  ;
N1489 G1X365.23Y558.67  ;
N1490 G1X366.7Y553.4  ;
N1491 G1X417.85Y524.55  ;
N1492 G1X599.17Y575.1  ;
N1493 G3X601.99Y580.09I-1.08J3.9  ;
N1494 G1X593.68Y609.9  ;
N1495 G1X595.55Y610.42  ;
N1496 G3X596.28Y611.72I-0.28J1.01  ;
N1497 G1X595.13Y615.86  ;
N1498 G65 P9104 A101 B02  ;
N1499 M98 P9103  ;
(P32:ID4:W56240413)  ;
N1500 M98 P9101  ;
N1501 G0X120.84Y536.07  ;
N1502 G65 P9102 A101 B02  ;
N1503 G1X120.52Y537.24  ;
N1504 G3X119.43Y537.53I-0.63J-0.17  ;
N1505 G3X119.43Y537.53I1.45J-1.45  ;
N1506 G65 P9104 A101 B02  ;
N1507 G0X85.99Y555.72  ;
N1508 G65 P9102 A101 B02  ;
N1509 G1X85.68Y556.89  ;
N1510 G3X84.59Y557.18I-0.63J-0.17  ;
N1511 G3X84.59Y557.18I1.45J-1.45  ;
N1512 G65 P9104 A101 B02  ;
N1513 G0X85.99Y834.93  ;
N1514 G65 P9102 A101 B02  ;
N1515 G1X85.68Y836.1  ;
N1516 G3X84.59Y836.39I-0.63J-0.17  ;
N1517 G3X84.59Y836.39I1.45J-1.45  ;
N1518 G65 P9104 A101 B02  ;
N1519 G0X120.84Y854.58  ;
N1520 G65 P9102 A101 B02  ;
N1521 G1X120.52Y855.75  ;
N1522 G3X119.43Y856.04I-0.63J-0.17  ;
N1523 G3X119.43Y856.04I1.45J-1.45  ;
N1524 G65 P9104 A101 B01  ;
N1525 G0X306.86Y617.67  ;
N1526 G65 P9102 A101 B01  ;
N1527 G1X302.09Y616.34  ;
N1528 G1X301.23Y619.42  ;
N1529 G3X299.94Y620.15I-1.01J-0.28  ;
N1530 G1X298.06Y619.63  ;
N1531 G1X294.05Y634.02  ;
N1532 G1X294.05Y756.66  ;
N1533 G1X298.06Y771.05  ;
N1534 G1X299.94Y770.53  ;
N1535 G3X301.23Y771.26I0.28J1.01  ;
N1536 G1X303.38Y778.96  ;
N1537 G3X302.65Y780.26I-1.01J0.28  ;
N1538 G1X300.78Y780.78  ;
N1539 G1X309.09Y810.59  ;
N1540 G3X306.27Y815.58I-3.9J1.09  ;
N1541 G1X124.95Y866.13  ;
N1542 G1X73.8Y837.28  ;
N1543 G1X72.33Y832.01  ;
N1544 G1X37.65Y841.68  ;
N1545 G1X13.95Y756.67  ;
N1546 G1X13.95Y634.01  ;
N1547 G1X37.65Y549  ;
N1548 G1X72.33Y558.67  ;
N1549 G1X73.8Y553.4  ;
N1550 G1X124.95Y524.55  ;
N1551 G1X306.27Y575.1  ;
N1552 G3X309.09Y580.09I-1.08J3.9  ;
N1553 G1X300.78Y609.9  ;
N1554 G1X302.65Y610.42  ;
N1555 G3X303.38Y611.72I-0.28J1.01  ;
N1556 G1X302.23Y615.86  ;
N1557 G65 P9104 A101 B02  ;
N1558 M98 P9103  ;
(P33:ID1:W56240409)  ;
N1559 M98 P9101  ;
N1560 G0X48.57Y864.46  ;
N1561 G65 P9102 A101 B02  ;
N1562 G1X47.57Y866.19  ;
N1563 G2X48.1Y868.17I1.26J0.73  ;
N1564 G1X50.9Y869.79  ;
N1565 G1X56.5Y866.56  ;
N1566 G1X56.5Y860.09  ;
N1567 G1X50.9Y856.86  ;
N1568 G1X45.3Y860.09  ;
N1569 G1X45.3Y866.56  ;
N1570 G1X48.1Y868.17  ;
N1571 G65 P9104 A101 B01  ;
N1572 G0X50.82Y973.21  ;
N1573 G65 P9102 A101 B01  ;
N1574 G1X51.82Y977.09  ;
N1575 G3X50.9Y978.27I-0.92J0.23  ;
N1576 G3X45.95Y973.32I0J-4.95  ;
N1577 G1X45.95Y883.32  ;
N1578 G3X55.85Y883.32I4.95J0  ;
N1579 G1X55.85Y973.32  ;
N1580 G3X50.9Y978.27I-4.95J0  ;
N1581 G65 P9104 A101 B02  ;
N1582 G0X48.57Y994.46  ;
N1583 G65 P9102 A101 B02  ;
N1584 G1X47.57Y996.19  ;
N1585 G2X48.1Y998.17I1.26J0.73  ;
N1586 G1X50.9Y999.79  ;
N1587 G1X56.5Y996.56  ;
N1588 G1X56.5Y990.09  ;
N1589 G1X50.9Y986.86  ;
N1590 G1X45.3Y990.09  ;
N1591 G1X45.3Y996.56  ;
N1592 G1X48.1Y998.17  ;
N1593 G65 P9104 A101 B01  ;
N1594 G0X100.4Y866.02  ;
N1595 G65 P9102 A101 B01  ;
N1596 G1X95.45Y866.02  ;
N1597 G1X95.45Y871.37  ;
N1598 G1X91.95Y871.37  ;
N1599 G1X91.95Y878.37  ;
N1600 G1X78.9Y878.37  ;
N1601 G2X73.95Y883.32I0J4.95  ;
N1602 G1X73.95Y973.32  ;
N1603 G2X78.9Y978.27I4.95J0  ;
N1604 G1X91.95Y978.27  ;
N1605 G1X91.95Y985.27  ;
N1606 G1X95.45Y985.27  ;
N1607 G1X95.45Y995.37  ;
N1608 G1X91.95Y995.37  ;
N1609 G1X91.95Y1003.37  ;
N1610 G1X9.85Y1003.37  ;
N1611 G1X9.85Y978.27  ;
N1612 G1X22.9Y978.27  ;
N1613 G2X27.85Y973.32I0J-4.95  ;
N1614 G1X27.85Y883.32  ;
N1615 G2X22.9Y878.37I-4.95J0  ;
N1616 G1X9.85Y878.37  ;
N1617 G1X9.85Y853.27  ;
N1618 G1X91.95Y853.27  ;
N1619 G1X91.95Y861.27  ;
N1620 G1X95.45Y861.27  ;
N1621 G1X95.45Y865.52  ;
N1622 G65 P9104 A101 B01  ;
N1623 M98 P9103  ;
(P34:ID3:W56240410)  ;
N1624 M98 P9101  ;
N1625 G0X1043.95Y701.91  ;
N1626 G65 P9102 A101 B01  ;
N1627 G1X1043.95Y706.91  ;
N1628 G1X1043.95Y770.46  ;
N1629 G1X1059.72Y770.46  ;
N1630 G1X1059.72Y774.1  ;
N1631 G1X1043.95Y774.1  ;
N1632 G1X1043.95Y960.7  ;
N1633 G1X1135.82Y960.7  ;
N1634 G1X1135.82Y709.91  ;
N1635 G2X1132.77Y706.86I-3.05J0  ;
N1636 G1X1044.45Y706.86  ;
N1637 G65 P9104 A101 B01  ;
N1638 M98 P9103  ;
(P35:ID3:W56240410)  ;
N1639 M98 P9101  ;
N1640 G0X1143.95Y701.91  ;
N1641 G65 P9102 A101 B01  ;
N1642 G1X1143.95Y706.91  ;
N1643 G1X1143.95Y770.46  ;
N1644 G1X1159.72Y770.46  ;
N1645 G1X1159.72Y774.1  ;
N1646 G1X1143.95Y774.1  ;
N1647 G1X1143.95Y960.7  ;
N1648 G1X1235.82Y960.7  ;
N1649 G1X1235.82Y709.91  ;
N1650 G2X1232.77Y706.86I-3.05J0  ;
N1651 G1X1144.45Y706.86  ;
N1652 G65 P9104 A101 B01  ;
N1653 M98 P9103  ;
(P36:ID3:W56240410)  ;
N1654 M98 P9101  ;
N1655 G0X1143.95Y964.61  ;
N1656 G65 P9102 A101 B01  ;
N1657 G1X1143.95Y969.61  ;
N1658 G1X1143.95Y1033.16  ;
N1659 G1X1159.72Y1033.16  ;
N1660 G1X1159.72Y1036.8  ;
N1661 G1X1143.95Y1036.8  ;
N1662 G1X1143.95Y1223.4  ;
N1663 G1X1235.82Y1223.4  ;
N1664 G1X1235.82Y972.61  ;
N1665 G2X1232.77Y969.56I-3.05J0  ;
N1666 G1X1144.45Y969.56  ;
N1667 G65 P9104 A101 B01  ;
N1668 M98 P9103  ;
(P37:ID3:W56240410)  ;
N1669 M98 P9101  ;
N1670 G0X1043.95Y964.61  ;
N1671 G65 P9102 A101 B01  ;
N1672 G1X1043.95Y969.61  ;
N1673 G1X1043.95Y1033.16  ;
N1674 G1X1059.72Y1033.16  ;
N1675 G1X1059.72Y1036.8  ;
N1676 G1X1043.95Y1036.8  ;
N1677 G1X1043.95Y1223.4  ;
N1678 G1X1135.82Y1223.4  ;
N1679 G1X1135.82Y972.61  ;
N1680 G2X1132.77Y969.56I-3.05J0  ;
N1681 G1X1044.45Y969.56  ;
N1682 G65 P9104 A101 B02  ;
N1683 M98 P9103  ;
(P38:ID2:W56240414)  ;
N1684 M98 P9101  ;
N1685 G0X1030.92Y1085.54  ;
N1686 G65 P9102 A101 B02  ;
N1687 G1X1030.37Y1086.62  ;
N1688 G3X1029.25Y1086.68I-0.58J-0.3  ;
N1689 G3X1029.25Y1086.68I1.72J-1.12  ;
N1690 G65 P9104 A101 B02  ;
N1691 G0X991.8Y1077.22  ;
N1692 G65 P9102 A101 B02  ;
N1693 G1X991.25Y1078.3  ;
N1694 G3X990.12Y1078.36I-0.58J-0.29  ;
N1695 G3X990.12Y1078.36I1.72J-1.11  ;
N1696 G65 P9104 A101 B02  ;
N1697 G0X963.02Y1212.61  ;
N1698 G65 P9102 A101 B02  ;
N1699 G1X962.47Y1213.69  ;
N1700 G3X961.34Y1213.75I-0.58J-0.29  ;
N1701 G3X961.34Y1213.75I1.72J-1.11  ;
N1702 G65 P9104 A101 B02  ;
N1703 G0X1002.14Y1220.93  ;
N1704 G65 P9102 A101 B02  ;
N1705 G1X1001.59Y1222.01  ;
N1706 G3X1000.47Y1222.07I-0.57J-0.29  ;
N1707 G3X1003.91Y1219.84I1.72J-1.12  ;
N1708 G3X1000.47Y1222.07I-1.72J1.11  ;
N1709 G65 P9104 A101 B01  ;
N1710 G0X986.54Y1065.89  ;
N1711 G65 P9102 A101 B01  ;
N1712 G1X985.5Y1070.78  ;
N1713 G1X954.63Y1216.01  ;
N1714 G1X1008.52Y1227.46  ;
N1715 G1X1039.4Y1082.19  ;
N1716 G1X986Y1070.84  ;
N1717 G65 P9104 A101 B02  ;
N1718 M98 P9103  ;
(P39:ID4:W56240413)  ;
N1719 M98 P9101  ;
N1720 G0X912.09Y1140.36  ;
N1721 G65 P9102 A101 B02  ;
N1722 G1X912.4Y1139.19  ;
N1723 G3X913.49Y1138.9I0.63J0.16  ;
N1724 G3X913.49Y1138.9I-1.45J1.44  ;
N1725 G65 P9104 A101 B02  ;
N1726 G0X877.25Y1160.01  ;
N1727 G65 P9102 A101 B02  ;
N1728 G1X877.56Y1158.84  ;
N1729 G3X878.65Y1158.54I0.63J0.16  ;
N1730 G3X878.65Y1158.54I-1.45J1.45  ;
N1731 G65 P9104 A101 B02  ;
N1732 G0X912.09Y861.15  ;
N1733 G65 P9102 A101 B02  ;
N1734 G1X912.4Y859.97  ;
N1735 G3X913.49Y859.68I0.63J0.17  ;
N1736 G3X913.49Y859.68I-1.45J1.45  ;
N1737 G65 P9104 A101 B02  ;
N1738 G0X877.25Y841.5  ;
N1739 G65 P9102 A101 B02  ;
N1740 G1X877.56Y840.32  ;
N1741 G3X878.65Y840.03I0.63J0.17  ;
N1742 G3X878.65Y840.03I-1.45J1.45  ;
N1743 G65 P9104 A101 B01  ;
N1744 G0X691.22Y1078.4  ;
N1745 G65 P9102 A101 B01  ;
N1746 G1X695.99Y1079.73  ;
N1747 G1X696.85Y1076.66  ;
N1748 G3X698.14Y1075.93I1.01J0.28  ;
N1749 G1X700.02Y1076.45  ;
N1750 G1X704.04Y1062.06  ;
N1751 G1X704.04Y939.42  ;
N1752 G1X700.02Y925.03  ;
N1753 G1X698.14Y925.55  ;
N1754 G3X696.85Y924.82I-0.28J-1.01  ;
N1755 G1X694.7Y917.12  ;
N1756 G3X695.43Y915.82I1.01J-0.29  ;
N1757 G1X697.31Y915.3  ;
N1758 G1X689Y885.49  ;
N1759 G3X691.81Y880.5I3.9J-1.09  ;
N1760 G1X873.13Y829.95  ;
N1761 G1X924.29Y858.8  ;
N1762 G1X925.76Y864.07  ;
N1763 G1X960.44Y854.4  ;
N1764 G1X984.14Y939.41  ;
N1765 G1X984.14Y1062.07  ;
N1766 G1X960.44Y1147.08  ;
N1767 G1X925.76Y1137.41  ;
N1768 G1X924.29Y1142.68  ;
N1769 G1X873.13Y1171.53  ;
N1770 G1X691.81Y1120.98  ;
N1771 G3X689Y1115.99I1.09J-3.9  ;
N1772 G1X697.31Y1086.18  ;
N1773 G1X695.43Y1085.66  ;
N1774 G3X694.7Y1084.36I0.28J-1.02  ;
N1775 G1X695.86Y1080.22  ;
N1776 G65 P9104 A101 B02  ;
N1777 M98 P9103  ;
(P40:ID4:W56240413)  ;
N1778 M98 P9101  ;
N1779 G0X619.19Y1140.36  ;
N1780 G65 P9102 A101 B02  ;
N1781 G1X619.5Y1139.19  ;
N1782 G3X620.59Y1138.9I0.63J0.16  ;
N1783 G3X620.59Y1138.9I-1.45J1.44  ;
N1784 G65 P9104 A101 B02  ;
N1785 G0X584.35Y1160.01  ;
N1786 G65 P9102 A101 B02  ;
N1787 G1X584.66Y1158.84  ;
N1788 G3X585.75Y1158.54I0.63J0.16  ;
N1789 G3X585.75Y1158.54I-1.45J1.45  ;
N1790 G65 P9104 A101 B02  ;
N1791 G0X619.19Y861.15  ;
N1792 G65 P9102 A101 B02  ;
N1793 G1X619.5Y859.97  ;
N1794 G3X620.59Y859.68I0.63J0.17  ;
N1795 G3X620.59Y859.68I-1.45J1.45  ;
N1796 G65 P9104 A101 B02  ;
N1797 G0X584.35Y841.5  ;
N1798 G65 P9102 A101 B02  ;
N1799 G1X584.66Y840.32  ;
N1800 G3X585.75Y840.03I0.63J0.17  ;
N1801 G3X585.75Y840.03I-1.45J1.45  ;
N1802 G65 P9104 A101 B01  ;
N1803 G0X398.32Y1078.4  ;
N1804 G65 P9102 A101 B01  ;
N1805 G1X403.09Y1079.73  ;
N1806 G1X403.95Y1076.66  ;
N1807 G3X405.24Y1075.93I1.01J0.28  ;
N1808 G1X407.12Y1076.45  ;
N1809 G1X411.14Y1062.06  ;
N1810 G1X411.14Y939.42  ;
N1811 G1X407.12Y925.03  ;
N1812 G1X405.24Y925.55  ;
N1813 G3X403.95Y924.82I-0.28J-1.01  ;
N1814 G1X401.8Y917.12  ;
N1815 G3X402.53Y915.82I1.01J-0.29  ;
N1816 G1X404.41Y915.3  ;
N1817 G1X396.1Y885.49  ;
N1818 G3X398.91Y880.5I3.9J-1.09  ;
N1819 G1X580.23Y829.95  ;
N1820 G1X631.39Y858.8  ;
N1821 G1X632.86Y864.07  ;
N1822 G1X667.54Y854.4  ;
N1823 G1X691.24Y939.41  ;
N1824 G1X691.24Y1062.07  ;
N1825 G1X667.54Y1147.08  ;
N1826 G1X632.86Y1137.41  ;
N1827 G1X631.39Y1142.68  ;
N1828 G1X580.23Y1171.53  ;
N1829 G1X398.91Y1120.98  ;
N1830 G3X396.1Y1115.99I1.09J-3.9  ;
N1831 G1X404.41Y1086.18  ;
N1832 G1X402.53Y1085.66  ;
N1833 G3X401.8Y1084.36I0.28J-1.02  ;
N1834 G1X402.96Y1080.22  ;
N1835 G65 P9104 A101 B02  ;
N1836 M98 P9103  ;
(P41:ID4:W56240413)  ;
N1837 M98 P9101  ;
N1838 G0X325.19Y1140.38  ;
N1839 G65 P9102 A101 B02  ;
N1840 G1X325.5Y1139.21  ;
N1841 G3X326.59Y1138.92I0.63J0.17  ;
N1842 G3X326.59Y1138.92I-1.45J1.45  ;
N1843 G65 P9104 A101 B02  ;
N1844 G0X290.35Y1160.03  ;
N1845 G65 P9102 A101 B02  ;
N1846 G1X290.66Y1158.86  ;
N1847 G3X291.75Y1158.57I0.63J0.17  ;
N1848 G3X291.75Y1158.57I-1.45J1.45  ;
N1849 G65 P9104 A101 B02  ;
N1850 G0X325.19Y861.17  ;
N1851 G65 P9102 A101 B02  ;
N1852 G1X325.5Y860  ;
N1853 G3X326.59Y859.71I0.63J0.17  ;
N1854 G3X326.59Y859.71I-1.45J1.45  ;
N1855 G65 P9104 A101 B02  ;
N1856 G0X290.35Y841.52  ;
N1857 G65 P9102 A101 B02  ;
N1858 G1X290.66Y840.35  ;
N1859 G3X291.75Y840.06I0.63J0.17  ;
N1860 G3X291.75Y840.06I-1.45J1.45  ;
N1861 G65 P9104 A101 B01  ;
N1862 G0X104.32Y1078.43  ;
N1863 G65 P9102 A101 B01  ;
N1864 G1X109.09Y1079.76  ;
N1865 G1X109.95Y1076.68  ;
N1866 G3X111.24Y1075.95I1.01J0.28  ;
N1867 G1X113.12Y1076.47  ;
N1868 G1X117.14Y1062.08  ;
N1869 G1X117.14Y939.44  ;
N1870 G1X113.12Y925.05  ;
N1871 G1X111.24Y925.57  ;
N1872 G3X109.95Y924.84I-0.28J-1.01  ;
N1873 G1X107.8Y917.14  ;
N1874 G3X108.53Y915.84I1.01J-0.28  ;
N1875 G1X110.41Y915.32  ;
N1876 G1X102.1Y885.51  ;
N1877 G3X104.91Y880.52I3.9J-1.09  ;
N1878 G1X286.23Y829.97  ;
N1879 G1X337.39Y858.82  ;
N1880 G1X338.86Y864.09  ;
N1881 G1X373.54Y854.42  ;
N1882 G1X397.24Y939.43  ;
N1883 G1X397.24Y1062.09  ;
N1884 G1X373.54Y1147.1  ;
N1885 G1X338.86Y1137.43  ;
N1886 G1X337.39Y1142.7  ;
N1887 G1X286.23Y1171.55  ;
N1888 G1X104.91Y1121  ;
N1889 G3X102.1Y1116.01I1.09J-3.9  ;
N1890 G1X110.41Y1086.2  ;
N1891 G1X108.53Y1085.68  ;
N1892 G3X107.8Y1084.38I0.28J-1.01  ;
N1893 G1X108.96Y1080.24  ;
N1894 G65 P9104 A101 B02  ;
N1895 M98 P9103  ;
(P42:ID1:W56240409)  ;
N1896 M98 P9101  ;
N1897 G0X49.53Y1022.45  ;
N1898 G65 P9102 A101 B02  ;
N1899 G1X48.53Y1024.18  ;
N1900 G2X49.06Y1026.16I1.25J0.72  ;
N1901 G1X51.86Y1027.77  ;
N1902 G1X57.46Y1024.54  ;
N1903 G1X57.46Y1018.07  ;
N1904 G1X51.86Y1014.84  ;
N1905 G1X46.26Y1018.07  ;
N1906 G1X46.26Y1024.54  ;
N1907 G1X49.06Y1026.16  ;
N1908 G65 P9104 A101 B01  ;
N1909 G0X51.78Y1131.2  ;
N1910 G65 P9102 A101 B01  ;
N1911 G1X52.78Y1135.07  ;
N1912 G3X51.86Y1136.26I-0.92J0.24  ;
N1913 G3X46.91Y1131.31I0J-4.95  ;
N1914 G1X46.91Y1041.31  ;
N1915 G3X56.81Y1041.31I4.95J0  ;
N1916 G1X56.81Y1131.31  ;
N1917 G3X51.86Y1136.26I-4.95J0  ;
N1918 G65 P9104 A101 B02  ;
N1919 G0X49.53Y1152.45  ;
N1920 G65 P9102 A101 B02  ;
N1921 G1X48.53Y1154.18  ;
N1922 G2X49.06Y1156.16I1.25J0.72  ;
N1923 G1X51.86Y1157.77  ;
N1924 G1X57.46Y1154.54  ;
N1925 G1X57.46Y1148.07  ;
N1926 G1X51.86Y1144.84  ;
N1927 G1X46.26Y1148.07  ;
N1928 G1X46.26Y1154.54  ;
N1929 G1X49.06Y1156.16  ;
N1930 G65 P9104 A101 B01  ;
N1931 G0X101.36Y1024  ;
N1932 G65 P9102 A101 B01  ;
N1933 G1X96.41Y1024  ;
N1934 G1X96.41Y1029.36  ;
N1935 G1X92.91Y1029.36  ;
N1936 G1X92.91Y1036.36  ;
N1937 G1X79.86Y1036.36  ;
N1938 G2X74.91Y1041.31I0J4.95  ;
N1939 G1X74.91Y1131.31  ;
N1940 G2X79.86Y1136.26I4.95J0  ;
N1941 G1X92.91Y1136.26  ;
N1942 G1X92.91Y1143.26  ;
N1943 G1X96.41Y1143.26  ;
N1944 G1X96.41Y1153.36  ;
N1945 G1X92.91Y1153.36  ;
N1946 G1X92.91Y1161.36  ;
N1947 G1X10.81Y1161.36  ;
N1948 G1X10.81Y1136.26  ;
N1949 G1X23.86Y1136.26  ;
N1950 G2X28.81Y1131.31I0J-4.95  ;
N1951 G1X28.81Y1041.31  ;
N1952 G2X23.86Y1036.36I-4.95J0  ;
N1953 G1X10.81Y1036.36  ;
N1954 G1X10.81Y1011.26  ;
N1955 G1X92.91Y1011.26  ;
N1956 G1X92.91Y1019.26  ;
N1957 G1X96.41Y1019.26  ;
N1958 G1X96.41Y1023.5  ;
N1959 G65 P9104 A101 B02  ;
N1960 M98 P9103  ;
(P43:ID4:W56240413)  ;
N1961 M98 P9101  ;
N1962 G0X152.84Y1156.07  ;
N1963 G65 P9102 A101 B02  ;
N1964 G1X152.52Y1157.24  ;
N1965 G3X151.43Y1157.53I-0.63J-0.17  ;
N1966 G3X151.43Y1157.53I1.45J-1.45  ;
N1967 G65 P9104 A101 B02  ;
N1968 G0X117.99Y1175.72  ;
N1969 G65 P9102 A101 B02  ;
N1970 G1X117.68Y1176.89  ;
N1971 G3X116.59Y1177.18I-0.63J-0.17  ;
N1972 G3X116.59Y1177.18I1.45J-1.45  ;
N1973 G65 P9104 A101 B02  ;
N1974 G0X117.99Y1454.93  ;
N1975 G65 P9102 A101 B02  ;
N1976 G1X117.68Y1456.1  ;
N1977 G3X116.59Y1456.39I-0.63J-0.17  ;
N1978 G3X116.59Y1456.39I1.45J-1.45  ;
N1979 G65 P9104 A101 B02  ;
N1980 G0X152.84Y1474.58  ;
N1981 G65 P9102 A101 B02  ;
N1982 G1X152.52Y1475.75  ;
N1983 G3X151.43Y1476.04I-0.63J-0.17  ;
N1984 G3X151.43Y1476.04I1.45J-1.45  ;
N1985 G65 P9104 A101 B01  ;
N1986 G0X338.86Y1237.67  ;
N1987 G65 P9102 A101 B01  ;
N1988 G1X334.09Y1236.34  ;
N1989 G1X333.23Y1239.42  ;
N1990 G3X331.94Y1240.15I-1.01J-0.28  ;
N1991 G1X330.06Y1239.63  ;
N1992 G1X326.05Y1254.02  ;
N1993 G1X326.05Y1376.66  ;
N1994 G1X330.06Y1391.05  ;
N1995 G1X331.94Y1390.53  ;
N1996 G3X333.23Y1391.26I0.28J1.01  ;
N1997 G1X335.38Y1398.96  ;
N1998 G3X334.65Y1400.26I-1.01J0.28  ;
N1999 G1X332.78Y1400.78  ;
N2000 G1X341.09Y1430.59  ;
N2001 G3X338.27Y1435.58I-3.9J1.09  ;
N2002 G1X156.95Y1486.13  ;
N2003 G1X105.8Y1457.28  ;
N2004 G1X104.33Y1452.01  ;
N2005 G1X69.65Y1461.68  ;
N2006 G1X45.95Y1376.67  ;
N2007 G1X45.95Y1254.01  ;
N2008 G1X69.65Y1169  ;
N2009 G1X104.33Y1178.67  ;
N2010 G1X105.8Y1173.4  ;
N2011 G1X156.95Y1144.55  ;
N2012 G1X338.27Y1195.1  ;
N2013 G3X341.09Y1200.09I-1.08J3.9  ;
N2014 G1X332.78Y1229.9  ;
N2015 G1X334.65Y1230.42  ;
N2016 G3X335.38Y1231.72I-0.28J1.01  ;
N2017 G1X334.23Y1235.86  ;
N2018 G65 P9104 A101 B02  ;
N2019 M98 P9103  ;
(P44:ID4:W56240413)  ;
N2020 M98 P9101  ;
N2021 G0X410.89Y1175.72  ;
N2022 G65 P9102 A101 B02  ;
N2023 G1X410.58Y1176.89  ;
N2024 G3X409.49Y1177.18I-0.63J-0.17  ;
N2025 G3X409.49Y1177.18I1.45J-1.45  ;
N2026 G65 P9104 A101 B02  ;
N2027 G0X445.74Y1156.07  ;
N2028 G65 P9102 A101 B02  ;
N2029 G1X445.42Y1157.24  ;
N2030 G3X444.33Y1157.53I-0.63J-0.17  ;
N2031 G3X444.33Y1157.53I1.45J-1.45  ;
N2032 G65 P9104 A101 B02  ;
N2033 G0X410.89Y1454.93  ;
N2034 G65 P9102 A101 B02  ;
N2035 G1X410.58Y1456.1  ;
N2036 G3X409.49Y1456.39I-0.63J-0.17  ;
N2037 G3X409.49Y1456.39I1.45J-1.45  ;
N2038 G65 P9104 A101 B02  ;
N2039 G0X445.74Y1474.58  ;
N2040 G65 P9102 A101 B02  ;
N2041 G1X445.42Y1475.75  ;
N2042 G3X444.33Y1476.04I-0.63J-0.17  ;
N2043 G3X444.33Y1476.04I1.45J-1.45  ;
N2044 G65 P9104 A101 B01  ;
N2045 G0X631.76Y1237.67  ;
N2046 G65 P9102 A101 B01  ;
N2047 G1X626.99Y1236.34  ;
N2048 G1X626.13Y1239.42  ;
N2049 G3X624.84Y1240.15I-1.01J-0.28  ;
N2050 G1X622.96Y1239.63  ;
N2051 G1X618.95Y1254.02  ;
N2052 G1X618.95Y1376.66  ;
N2053 G1X622.96Y1391.05  ;
N2054 G1X624.84Y1390.53  ;
N2055 G3X626.13Y1391.26I0.28J1.01  ;
N2056 G1X628.28Y1398.96  ;
N2057 G3X627.55Y1400.26I-1.01J0.28  ;
N2058 G1X625.68Y1400.78  ;
N2059 G1X633.99Y1430.59  ;
N2060 G3X631.17Y1435.58I-3.9J1.09  ;
N2061 G1X449.85Y1486.13  ;
N2062 G1X398.7Y1457.28  ;
N2063 G1X397.23Y1452.01  ;
N2064 G1X362.55Y1461.68  ;
N2065 G1X338.85Y1376.67  ;
N2066 G1X338.85Y1254.01  ;
N2067 G1X362.55Y1169  ;
N2068 G1X397.23Y1178.67  ;
N2069 G1X398.7Y1173.4  ;
N2070 G1X449.85Y1144.55  ;
N2071 G1X631.17Y1195.1  ;
N2072 G3X633.99Y1200.09I-1.08J3.9  ;
N2073 G1X625.68Y1229.9  ;
N2074 G1X627.55Y1230.42  ;
N2075 G3X628.28Y1231.72I-0.28J1.01  ;
N2076 G1X627.13Y1235.86  ;
N2077 G65 P9104 A101 B02  ;
N2078 M98 P9103  ;
(P45:ID4:W56240413)  ;
N2079 M98 P9101  ;
N2080 G0X703.79Y1175.72  ;
N2081 G65 P9102 A101 B02  ;
N2082 G1X703.48Y1176.89  ;
N2083 G3X702.39Y1177.18I-0.63J-0.17  ;
N2084 G3X702.39Y1177.18I1.45J-1.45  ;
N2085 G65 P9104 A101 B02  ;
N2086 G0X738.64Y1156.07  ;
N2087 G65 P9102 A101 B02  ;
N2088 G1X738.32Y1157.24  ;
N2089 G3X737.23Y1157.53I-0.63J-0.17  ;
N2090 G3X737.23Y1157.53I1.45J-1.45  ;
N2091 G65 P9104 A101 B02  ;
N2092 G0X703.79Y1454.93  ;
N2093 G65 P9102 A101 B02  ;
N2094 G1X703.48Y1456.1  ;
N2095 G3X702.39Y1456.39I-0.63J-0.17  ;
N2096 G3X702.39Y1456.39I1.45J-1.45  ;
N2097 G65 P9104 A101 B02  ;
N2098 G0X738.64Y1474.58  ;
N2099 G65 P9102 A101 B02  ;
N2100 G1X738.32Y1475.75  ;
N2101 G3X737.23Y1476.04I-0.63J-0.17  ;
N2102 G3X737.23Y1476.04I1.45J-1.45  ;
N2103 G65 P9104 A101 B01  ;
N2104 G0X924.66Y1237.67  ;
N2105 G65 P9102 A101 B01  ;
N2106 G1X919.89Y1236.34  ;
N2107 G1X919.03Y1239.42  ;
N2108 G3X917.74Y1240.15I-1.01J-0.28  ;
N2109 G1X915.86Y1239.63  ;
N2110 G1X911.85Y1254.02  ;
N2111 G1X911.85Y1376.66  ;
N2112 G1X915.86Y1391.05  ;
N2113 G1X917.74Y1390.53  ;
N2114 G3X919.03Y1391.26I0.28J1.01  ;
N2115 G1X921.18Y1398.96  ;
N2116 G3X920.45Y1400.26I-1.01J0.28  ;
N2117 G1X918.58Y1400.78  ;
N2118 G1X926.89Y1430.59  ;
N2119 G3X924.07Y1435.58I-3.9J1.09  ;
N2120 G1X742.75Y1486.13  ;
N2121 G1X691.6Y1457.28  ;
N2122 G1X690.13Y1452.01  ;
N2123 G1X655.45Y1461.68  ;
N2124 G1X631.75Y1376.67  ;
N2125 G1X631.75Y1254.01  ;
N2126 G1X655.45Y1169  ;
N2127 G1X690.13Y1178.67  ;
N2128 G1X691.6Y1173.4  ;
N2129 G1X742.75Y1144.55  ;
N2130 G1X924.07Y1195.1  ;
N2131 G3X926.89Y1200.09I-1.08J3.9  ;
N2132 G1X918.58Y1229.9  ;
N2133 G1X920.45Y1230.42  ;
N2134 G3X921.18Y1231.72I-0.28J1.01  ;
N2135 G1X920.03Y1235.86  ;
N2136 G65 P9104 A101 B01  ;
N2137 M98 P9103  ;
(P46:ID3:W56240410)  ;
N2138 M98 P9101  ;
N2139 G0X943.95Y1227.31  ;
N2140 G65 P9102 A101 B01  ;
N2141 G1X943.95Y1232.31  ;
N2142 G1X943.95Y1295.86  ;
N2143 G1X959.72Y1295.86  ;
N2144 G1X959.72Y1299.5  ;
N2145 G1X943.95Y1299.5  ;
N2146 G1X943.95Y1486.1  ;
N2147 G1X1035.82Y1486.1  ;
N2148 G1X1035.82Y1235.31  ;
N2149 G2X1032.77Y1232.26I-3.05J0  ;
N2150 G1X944.45Y1232.26  ;
N2151 G65 P9104 A101 B01  ;
N2152 M98 P9103  ;
(P47:ID3:W56240410)  ;
N2153 M98 P9101  ;
N2154 G0X1043.95Y1227.31  ;
N2155 G65 P9102 A101 B01  ;
N2156 G1X1043.95Y1232.31  ;
N2157 G1X1043.95Y1295.86  ;
N2158 G1X1059.72Y1295.86  ;
N2159 G1X1059.72Y1299.5  ;
N2160 G1X1043.95Y1299.5  ;
N2161 G1X1043.95Y1486.1  ;
N2162 G1X1135.82Y1486.1  ;
N2163 G1X1135.82Y1235.31  ;
N2164 G2X1132.77Y1232.26I-3.05J0  ;
N2165 G1X1044.45Y1232.26  ;
N2166 G65 P9104 A101 B01  ;
N2167 M98 P9103  ;
(P48:ID3:W56240410)  ;
N2168 M98 P9101  ;
N2169 G0X1143.95Y1227.31  ;
N2170 G65 P9102 A101 B01  ;
N2171 G1X1143.95Y1232.31  ;
N2172 G1X1143.95Y1295.86  ;
N2173 G1X1159.72Y1295.86  ;
N2174 G1X1159.72Y1299.5  ;
N2175 G1X1143.95Y1299.5  ;
N2176 G1X1143.95Y1486.1  ;
N2177 G1X1235.82Y1486.1  ;
N2178 G1X1235.82Y1235.31  ;
N2179 G2X1232.77Y1232.26I-3.05J0  ;
N2180 G1X1144.45Y1232.26  ;
N2181 M98 P9104  ;
N2182 M98 P9103  ;
(FOOTER)
N2183 M98 P9110  ;
N2184 M30  ;
%
