O0099  ;
( MACHINE : TCI Laser )  ;
( MATERIAL : Acero al carbono N2 )  ;
( THICKNESS : 3 )  ;
( REPETITIONS : 2 )  ;
( SIMULATION TIME : 00:22:27 )  ;
( FORMAT : 1500x3000 )  ;
( JOB NUMBER : VARS5630\K563372s30-3000 )  ;
( PROGRAM NUMBER : 10408 )  ;
( TYPE : 0 )  ;
( NUMBER OF SHEETS : 1 )  ;
( CUTTING HEADS : 1 )  ;
#516= 1  ;
#517= 1  ;
N105 G65 P9100 A103 B01  ;
(P1:ID1:W56197506)  ;
N106 M98 P9101  ;
N107 G0X156.19Y238.66  ;
N108 G65 P9102 A101 B01  ;
N109 G1X156.19Y243.51  ;
N110 G1X171.85Y243.51  ;
N111 G1X171.85Y223.66  ;
N112 G3X177Y218.51I5.15J0  ;
N113 G1X186.85Y218.51  ;
N114 G1X186.85Y123.81  ;
N115 G1X167Y123.81  ;
N116 G3X161.85Y118.66I0J-5.15  ;
N117 G1X161.85Y98.81  ;
N118 G1X117.1Y98.81  ;
N119 G1X86.81Y168.65  ;
N120 G2X87.75Y175.65I6.29J2.72  ;
N121 G1X142.07Y243.51  ;
N122 G1X155.29Y243.51  ;
N123 G65 P9104 A101 B01  ;
N124 G0X315.58Y238.66  ;
N125 G65 P9102 A101 B01  ;
N126 G1X315.58Y243.51  ;
N127 G1X302.07Y243.51  ;
N128 G1X247.75Y175.65  ;
N129 G3X246.81Y168.65I5.35J-4.28  ;
N130 G1X277.1Y98.81  ;
N131 G1X321.85Y98.81  ;
N132 G1X321.85Y118.66  ;
N133 G2X327Y123.81I5.15J0  ;
N134 G1X346.85Y123.81  ;
N135 G1X346.85Y218.51  ;
N136 G1X337Y218.51  ;
N137 G2X331.85Y223.66I0J5.15  ;
N138 G1X331.85Y243.51  ;
N139 G1X316.48Y243.51  ;
N140 G65 P9104 A101 B01  ;
N141 G0X452.34Y238.66  ;
N142 G65 P9102 A101 B01  ;
N143 G1X452.34Y243.51  ;
N144 G1X438.15Y243.51  ;
N145 G1X438.15Y223.66  ;
N146 G2X433Y218.51I-5.15J0  ;
N147 G1X423.15Y218.51  ;
N148 G1X423.15Y123.81  ;
N149 G1X443Y123.81  ;
N150 G2X448.15Y118.66I0J-5.15  ;
N151 G1X448.15Y98.81  ;
N152 G1X492.9Y98.81  ;
N153 G1X523.19Y168.65  ;
N154 G3X522.25Y175.65I-6.29J2.72  ;
N155 G1X467.93Y243.51  ;
N156 G1X453.24Y243.51  ;
N157 G65 P9104 A101 B01  ;
N158 G0X610.39Y238.66  ;
N159 G65 P9102 A101 B01  ;
N160 G1X610.39Y243.51  ;
N161 G1X598.15Y243.51  ;
N162 G1X598.15Y223.66  ;
N163 G2X593Y218.51I-5.15J0  ;
N164 G1X583.15Y218.51  ;
N165 G1X583.15Y123.81  ;
N166 G1X603Y123.81  ;
N167 G2X608.15Y118.66I0J-5.15  ;
N168 G1X608.15Y98.81  ;
N169 G1X652.9Y98.81  ;
N170 G1X683.19Y168.65  ;
N171 G3X682.25Y175.65I-6.29J2.72  ;
N172 G1X627.93Y243.51  ;
N173 G1X611.29Y243.51  ;
N174 G65 P9104 A101 B01  ;
N175 G0X633.85Y939.91  ;
N176 G65 P9102 A101 B01  ;
N177 G1X633.85Y943.76  ;
N178 G3X634Y943.76I0.15J-60.1  ;
N179 G65 P9104 A101 B01  ;
N180 G0X628.36Y1151.66  ;
N181 G65 P9102 A101 B01  ;
N182 G1X628.36Y1156.51  ;
N183 G1X608.15Y1156.51  ;
N184 G1X608.15Y1136.66  ;
N185 G2X603Y1131.51I-5.15J0  ;
N186 G1X583.15Y1131.51  ;
N187 G1X583.15Y1036.81  ;
N188 G1X593Y1036.81  ;
N189 G2X598.15Y1031.66I0J-5.15  ;
N190 G1X598.15Y1011.81  ;
N191 G1X627.93Y1011.81  ;
N192 G1X682.25Y1079.66  ;
N193 G3X683.19Y1086.67I-5.35J4.28  ;
N194 G1X652.9Y1156.51  ;
N195 G1X629.26Y1156.51  ;
N196 G65 P9104 A101 B01  ;
N197 G0X467.39Y1151.66  ;
N198 G65 P9102 A101 B01  ;
N199 G1X467.39Y1156.51  ;
N200 G1X448.15Y1156.51  ;
N201 G1X448.15Y1136.66  ;
N202 G2X443Y1131.51I-5.15J0  ;
N203 G1X423.15Y1131.51  ;
N204 G1X423.15Y1036.81  ;
N205 G1X433Y1036.81  ;
N206 G2X438.15Y1031.66I0J-5.15  ;
N207 G1X438.15Y1011.81  ;
N208 G1X467.93Y1011.81  ;
N209 G1X522.25Y1079.66  ;
N210 G3X523.19Y1086.67I-5.35J4.28  ;
N211 G1X492.9Y1156.51  ;
N212 G1X468.29Y1156.51  ;
N213 G65 P9104 A101 B01  ;
N214 G0X302.12Y1151.66  ;
N215 G65 P9102 A101 B01  ;
N216 G1X302.12Y1156.51  ;
N217 G1X321.85Y1156.51  ;
N218 G1X321.85Y1136.66  ;
N219 G3X327Y1131.51I5.15J0  ;
N220 G1X346.85Y1131.51  ;
N221 G1X346.85Y1036.81  ;
N222 G1X337Y1036.81  ;
N223 G3X331.85Y1031.66I0J-5.15  ;
N224 G1X331.85Y1011.81  ;
N225 G1X302.07Y1011.81  ;
N226 G1X247.75Y1079.66  ;
N227 G2X246.81Y1086.67I5.35J4.28  ;
N228 G1X277.1Y1156.51  ;
N229 G1X301.22Y1156.51  ;
N230 G65 P9104 A101 B01  ;
N231 G0X138.62Y1151.66  ;
N232 G65 P9102 A101 B01  ;
N233 G1X138.62Y1156.51  ;
N234 G1X161.85Y1156.51  ;
N235 G1X161.85Y1136.66  ;
N236 G3X167Y1131.51I5.15J0  ;
N237 G1X186.85Y1131.51  ;
N238 G1X186.85Y1036.81  ;
N239 G1X177Y1036.81  ;
N240 G3X171.85Y1031.66I0J-5.15  ;
N241 G1X171.85Y1011.81  ;
N242 G1X142.07Y1011.81  ;
N243 G1X87.75Y1079.66  ;
N244 G2X86.81Y1086.67I5.35J4.28  ;
N245 G1X117.1Y1156.51  ;
N246 G1X137.72Y1156.51  ;
N247 G65 P9104 A101 B01  ;
N248 G0X742Y11.85  ;
N249 G65 P9102 A101 B01  ;
N250 G1X738Y11.85  ;
N251 G1X31.85Y11.85  ;
N252 G1X31.85Y270.81  ;
N253 G1X36.14Y270.81  ;
N254 G1X34.85Y272.09  ;
N255 G1X34.85Y983.22  ;
N256 G1X36.14Y984.51  ;
N257 G1X31.85Y984.51  ;
N258 G1X31.85Y1243.46  ;
N259 G1X738.15Y1243.46  ;
N260 G1X738.15Y984.51  ;
N261 G1X733.86Y984.51  ;
N262 G1X735.15Y983.22  ;
N263 G1X735.15Y272.09  ;
N264 G1X733.86Y270.81  ;
N265 G1X738.15Y270.81  ;
N266 G1X738.15Y12  ;
N267 G65 P9104 A101 B01  ;
N268 M98 P9103  ;
(P2:ID1:W56197506)  ;
N269 M98 P9101  ;
N270 G0X882.19Y238.66  ;
N271 G65 P9102 A101 B01  ;
N272 G1X882.19Y243.51  ;
N273 G1X897.85Y243.51  ;
N274 G1X897.85Y223.66  ;
N275 G3X903Y218.51I5.15J0  ;
N276 G1X912.85Y218.51  ;
N277 G1X912.85Y123.81  ;
N278 G1X893Y123.81  ;
N279 G3X887.85Y118.66I0J-5.15  ;
N280 G1X887.85Y98.81  ;
N281 G1X843.1Y98.81  ;
N282 G1X812.81Y168.65  ;
N283 G2X813.75Y175.65I6.29J2.72  ;
N284 G1X868.07Y243.51  ;
N285 G1X881.29Y243.51  ;
N286 G65 P9104 A101 B01  ;
N287 G0X1041.58Y238.66  ;
N288 G65 P9102 A101 B01  ;
N289 G1X1041.58Y243.51  ;
N290 G1X1028.07Y243.51  ;
N291 G1X973.75Y175.65  ;
N292 G3X972.81Y168.65I5.35J-4.28  ;
N293 G1X1003.1Y98.81  ;
N294 G1X1047.85Y98.81  ;
N295 G1X1047.85Y118.66  ;
N296 G2X1053Y123.81I5.15J0  ;
N297 G1X1072.85Y123.81  ;
N298 G1X1072.85Y218.51  ;
N299 G1X1063Y218.51  ;
N300 G2X1057.85Y223.66I0J5.15  ;
N301 G1X1057.85Y243.51  ;
N302 G1X1042.48Y243.51  ;
N303 G65 P9104 A101 B01  ;
N304 G0X1178.34Y238.66  ;
N305 G65 P9102 A101 B01  ;
N306 G1X1178.34Y243.51  ;
N307 G1X1164.15Y243.51  ;
N308 G1X1164.15Y223.66  ;
N309 G2X1159Y218.51I-5.15J0  ;
N310 G1X1149.15Y218.51  ;
N311 G1X1149.15Y123.81  ;
N312 G1X1169Y123.81  ;
N313 G2X1174.15Y118.66I0J-5.15  ;
N314 G1X1174.15Y98.81  ;
N315 G1X1218.9Y98.81  ;
N316 G1X1249.19Y168.65  ;
N317 G3X1248.25Y175.65I-6.29J2.72  ;
N318 G1X1193.93Y243.51  ;
N319 G1X1179.24Y243.51  ;
N320 G65 P9104 A101 B01  ;
N321 G0X1336.39Y238.66  ;
N322 G65 P9102 A101 B01  ;
N323 G1X1336.39Y243.51  ;
N324 G1X1324.15Y243.51  ;
N325 G1X1324.15Y223.66  ;
N326 G2X1319Y218.51I-5.15J0  ;
N327 G1X1309.15Y218.51  ;
N328 G1X1309.15Y123.81  ;
N329 G1X1329Y123.81  ;
N330 G2X1334.15Y118.66I0J-5.15  ;
N331 G1X1334.15Y98.81  ;
N332 G1X1378.9Y98.81  ;
N333 G1X1409.19Y168.65  ;
N334 G3X1408.25Y175.65I-6.29J2.72  ;
N335 G1X1353.93Y243.51  ;
N336 G1X1337.29Y243.51  ;
N337 G65 P9104 A101 B01  ;
N338 G0X1359.85Y939.91  ;
N339 G65 P9102 A101 B01  ;
N340 G1X1359.85Y943.76  ;
N341 G3X1360Y943.76I0.15J-60.1  ;
N342 G65 P9104 A101 B01  ;
N343 G0X1354.36Y1151.66  ;
N344 G65 P9102 A101 B01  ;
N345 G1X1354.36Y1156.51  ;
N346 G1X1334.15Y1156.51  ;
N347 G1X1334.15Y1136.66  ;
N348 G2X1329Y1131.51I-5.15J0  ;
N349 G1X1309.15Y1131.51  ;
N350 G1X1309.15Y1036.81  ;
N351 G1X1319Y1036.81  ;
N352 G2X1324.15Y1031.66I0J-5.15  ;
N353 G1X1324.15Y1011.81  ;
N354 G1X1353.93Y1011.81  ;
N355 G1X1408.25Y1079.66  ;
N356 G3X1409.19Y1086.67I-5.35J4.28  ;
N357 G1X1378.9Y1156.51  ;
N358 G1X1355.26Y1156.51  ;
N359 G65 P9104 A101 B01  ;
N360 G0X1193.39Y1151.66  ;
N361 G65 P9102 A101 B01  ;
N362 G1X1193.39Y1156.51  ;
N363 G1X1174.15Y1156.51  ;
N364 G1X1174.15Y1136.66  ;
N365 G2X1169Y1131.51I-5.15J0  ;
N366 G1X1149.15Y1131.51  ;
N367 G1X1149.15Y1036.81  ;
N368 G1X1159Y1036.81  ;
N369 G2X1164.15Y1031.66I0J-5.15  ;
N370 G1X1164.15Y1011.81  ;
N371 G1X1193.93Y1011.81  ;
N372 G1X1248.25Y1079.66  ;
N373 G3X1249.19Y1086.67I-5.35J4.28  ;
N374 G1X1218.9Y1156.51  ;
N375 G1X1194.29Y1156.51  ;
N376 G65 P9104 A101 B01  ;
N377 G0X1028.12Y1151.66  ;
N378 G65 P9102 A101 B01  ;
N379 G1X1028.12Y1156.51  ;
N380 G1X1047.85Y1156.51  ;
N381 G1X1047.85Y1136.66  ;
N382 G3X1053Y1131.51I5.15J0  ;
N383 G1X1072.85Y1131.51  ;
N384 G1X1072.85Y1036.81  ;
N385 G1X1063Y1036.81  ;
N386 G3X1057.85Y1031.66I0J-5.15  ;
N387 G1X1057.85Y1011.81  ;
N388 G1X1028.07Y1011.81  ;
N389 G1X973.75Y1079.66  ;
N390 G2X972.81Y1086.67I5.35J4.28  ;
N391 G1X1003.1Y1156.51  ;
N392 G1X1027.22Y1156.51  ;
N393 G65 P9104 A101 B01  ;
N394 G0X864.62Y1151.66  ;
N395 G65 P9102 A101 B01  ;
N396 G1X864.62Y1156.51  ;
N397 G1X887.85Y1156.51  ;
N398 G1X887.85Y1136.66  ;
N399 G3X893Y1131.51I5.15J0  ;
N400 G1X912.85Y1131.51  ;
N401 G1X912.85Y1036.81  ;
N402 G1X903Y1036.81  ;
N403 G3X897.85Y1031.66I0J-5.15  ;
N404 G1X897.85Y1011.81  ;
N405 G1X868.07Y1011.81  ;
N406 G1X813.75Y1079.66  ;
N407 G2X812.81Y1086.67I5.35J4.28  ;
N408 G1X843.1Y1156.51  ;
N409 G1X863.72Y1156.51  ;
N410 G65 P9104 A101 B01  ;
N411 G0X1468Y11.85  ;
N412 G65 P9102 A101 B01  ;
N413 G1X1464Y11.85  ;
N414 G1X757.85Y11.85  ;
N415 G1X757.85Y270.81  ;
N416 G1X762.14Y270.81  ;
N417 G1X760.85Y272.09  ;
N418 G1X760.85Y983.22  ;
N419 G1X762.14Y984.51  ;
N420 G1X757.85Y984.51  ;
N421 G1X757.85Y1243.46  ;
N422 G1X1464.15Y1243.46  ;
N423 G1X1464.15Y984.51  ;
N424 G1X1459.86Y984.51  ;
N425 G1X1461.15Y983.22  ;
N426 G1X1461.15Y272.09  ;
N427 G1X1459.86Y270.81  ;
N428 G1X1464.15Y270.81  ;
N429 G1X1464.15Y12  ;
N430 G65 P9104 A101 B02  ;
N431 M98 P9103  ;
(P3:ID2:W56337205)  ;
N432 M98 P9101  ;
N433 G0X1322.91Y1270  ;
N434 G65 P9102 A101 B02  ;
N435 G1X1319.44Y1268  ;
N436 G2X1319.24Y1268.05I-0.07J0.12  ;
N437 G1X1317.65Y1270.8  ;
N438 G1X1320.82Y1276.3  ;
N439 G1X1327.18Y1276.3  ;
N440 G1X1330.35Y1270.8  ;
N441 G1X1327.18Y1265.3  ;
N442 G1X1320.82Y1265.3  ;
N443 G1X1319.24Y1268.05  ;
N444 G65 P9104 A101 B02  ;
N445 G0X1304.75Y1303.78  ;
N446 G65 P9102 A101 B02  ;
N447 G1X1300.9Y1303.78  ;
N448 G1X1300.9Y1304.73  ;
N449 G1X1311.1Y1304.73  ;
N450 G1X1311.1Y1302.53  ;
N451 G1X1300.9Y1302.53  ;
N452 G1X1300.9Y1303.63  ;
N453 G65 P9104 A101 B02  ;
N454 G0X1214.75Y1303.78  ;
N455 G65 P9102 A101 B02  ;
N456 G1X1210.9Y1303.78  ;
N457 G1X1210.9Y1304.73  ;
N458 G1X1221.1Y1304.73  ;
N459 G1X1221.1Y1302.53  ;
N460 G1X1210.9Y1302.53  ;
N461 G1X1210.9Y1303.63  ;
N462 G65 P9104 A101 B02  ;
N463 G0X912.75Y1303.48  ;
N464 G65 P9102 A101 B02  ;
N465 G1X908.9Y1303.48  ;
N466 G1X908.9Y1302.53  ;
N467 G1X919.1Y1302.53  ;
N468 G1X919.1Y1304.73  ;
N469 G1X908.9Y1304.73  ;
N470 G1X908.9Y1303.63  ;
N471 G65 P9104 A101 B02  ;
N472 G0X822.75Y1303.78  ;
N473 G65 P9102 A101 B02  ;
N474 G1X818.9Y1303.78  ;
N475 G1X818.9Y1304.73  ;
N476 G1X829.1Y1304.73  ;
N477 G1X829.1Y1302.53  ;
N478 G1X818.9Y1302.53  ;
N479 G1X818.9Y1303.63  ;
N480 G65 P9104 A101 B02  ;
N481 G0X804.91Y1270  ;
N482 G65 P9102 A101 B02  ;
N483 G1X801.44Y1268  ;
N484 G2X801.24Y1268.05I-0.07J0.12  ;
N485 G1X799.65Y1270.8  ;
N486 G1X802.82Y1276.3  ;
N487 G1X809.18Y1276.3  ;
N488 G1X812.35Y1270.8  ;
N489 G1X809.18Y1265.3  ;
N490 G1X802.82Y1265.3  ;
N491 G1X801.24Y1268.05  ;
N492 G65 P9104 A101 B01  ;
N493 G0X1421Y1827.92  ;
N494 G65 P9102 A101 B01  ;
N495 G1X1417Y1827.92  ;
N496 G1X1415.65Y1827.92  ;
N497 G1X1415.65Y1828.92  ;
N498 G1X714.35Y1828.92  ;
N499 G1X714.35Y1827.92  ;
N500 G1X712.85Y1827.92  ;
N501 G1X712.85Y1826.42  ;
N502 G1X711.85Y1826.42  ;
N503 G1X711.85Y1570.46  ;
N504 G1X714.85Y1570.46  ;
N505 G1X714.85Y1558.13  ;
N506 G1X715.85Y1558.13  ;
N507 G1X715.85Y1557.43  ;
N508 G1X714.85Y1557.43  ;
N509 G1X714.85Y1476.46  ;
N510 G2X709Y1470.61I-5.85J0  ;
N511 G1X650Y1470.61  ;
N512 G3X643.85Y1464.46I0J-6.15  ;
N513 G1X643.85Y1350.31  ;
N514 G1X664Y1350.31  ;
N515 G2X668.85Y1345.46I0J-4.85  ;
N516 G1X668.85Y1325.81  ;
N517 G1X685.5Y1325.81  ;
N518 G2X690.35Y1320.96I0J-4.85  ;
N519 G1X690.35Y1300.31  ;
N520 G1X695.35Y1300.31  ;
N521 G1X695.35Y1275.95  ;
N522 G1X690.35Y1275.95  ;
N523 G1X690.35Y1260.65  ;
N524 G1X1439.65Y1260.65  ;
N525 G1X1439.65Y1275.95  ;
N526 G1X1434.65Y1275.95  ;
N527 G1X1434.65Y1300.31  ;
N528 G1X1439.65Y1300.31  ;
N529 G1X1439.65Y1320.96  ;
N530 G2X1444.5Y1325.81I4.85J0  ;
N531 G1X1476.15Y1325.81  ;
N532 G1X1476.15Y1330.96  ;
N533 G2X1481Y1335.81I4.85J0  ;
N534 G1X1486.15Y1335.81  ;
N535 G1X1486.15Y1464.46  ;
N536 G3X1480Y1470.61I-6.15J0  ;
N537 G1X1421Y1470.61  ;
N538 G2X1415.15Y1476.46I0J5.85  ;
N539 G1X1415.15Y1557.43  ;
N540 G1X1414.15Y1557.43  ;
N541 G1X1414.15Y1558.13  ;
N542 G1X1415.15Y1558.13  ;
N543 G1X1415.15Y1570.46  ;
N544 G1X1418.15Y1570.46  ;
N545 G1X1418.15Y1826.42  ;
N546 G1X1417.15Y1826.42  ;
N547 G1X1417.15Y1827.77  ;
N548 G65 P9104 A101 B02  ;
N549 M98 P9103  ;
(P4:ID2:W56337205)  ;
N550 M98 P9101  ;
N551 G0X58.18Y1864.25  ;
N552 G65 P9102 A101 B02  ;
N553 G1X58.18Y1868.1  ;
N554 G1X57.23Y1868.1  ;
N555 G1X57.23Y1857.9  ;
N556 G1X59.43Y1857.9  ;
N557 G1X59.43Y1868.1  ;
N558 G1X58.33Y1868.1  ;
N559 G65 P9104 A101 B02  ;
N560 G0X58.48Y1954.25  ;
N561 G65 P9102 A101 B02  ;
N562 G1X58.48Y1958.1  ;
N563 G1X59.43Y1958.1  ;
N564 G1X59.43Y1947.9  ;
N565 G1X57.23Y1947.9  ;
N566 G1X57.23Y1958.1  ;
N567 G1X58.33Y1958.1  ;
N568 G65 P9104 A101 B02  ;
N569 G0X24.7Y1972.09  ;
N570 G65 P9102 A101 B02  ;
N571 G1X22.7Y1975.56  ;
N572 G2X22.75Y1975.76I0.12J0.07  ;
N573 G1X25.5Y1977.35  ;
N574 G1X31Y1974.18  ;
N575 G1X31Y1967.82  ;
N576 G1X25.5Y1964.65  ;
N577 G1X20Y1967.82  ;
N578 G1X20Y1974.18  ;
N579 G1X22.75Y1975.76  ;
N580 G65 P9104 A101 B02  ;
N581 G0X58.48Y1562.25  ;
N582 G65 P9102 A101 B02  ;
N583 G1X58.48Y1566.1  ;
N584 G1X59.43Y1566.1  ;
N585 G1X59.43Y1555.9  ;
N586 G1X57.23Y1555.9  ;
N587 G1X57.23Y1566.1  ;
N588 G1X58.33Y1566.1  ;
N589 G65 P9104 A101 B02  ;
N590 G0X58.48Y1472.25  ;
N591 G65 P9102 A101 B02  ;
N592 G1X58.48Y1476.1  ;
N593 G1X59.43Y1476.1  ;
N594 G1X59.43Y1465.9  ;
N595 G1X57.23Y1465.9  ;
N596 G1X57.23Y1476.1  ;
N597 G1X58.33Y1476.1  ;
N598 G65 P9104 A101 B02  ;
N599 G0X24.7Y1454.09  ;
N600 G65 P9102 A101 B02  ;
N601 G1X22.7Y1457.56  ;
N602 G2X22.75Y1457.76I0.12J0.07  ;
N603 G1X25.5Y1459.35  ;
N604 G1X31Y1456.18  ;
N605 G1X31Y1449.82  ;
N606 G1X25.5Y1446.65  ;
N607 G1X20Y1449.82  ;
N608 G1X20Y1456.18  ;
N609 G1X22.75Y1457.76  ;
N610 G65 P9104 A101 B01  ;
N611 G0X582.62Y1356  ;
N612 G65 P9102 A101 B01  ;
N613 G1X582.62Y1360  ;
N614 G1X582.62Y1361.35  ;
N615 G1X583.62Y1361.35  ;
N616 G1X583.62Y2062.65  ;
N617 G1X582.62Y2062.65  ;
N618 G1X582.62Y2064.15  ;
N619 G1X581.12Y2064.15  ;
N620 G1X581.12Y2065.15  ;
N621 G1X325.16Y2065.15  ;
N622 G1X325.16Y2062.15  ;
N623 G1X312.83Y2062.15  ;
N624 G1X312.83Y2061.15  ;
N625 G1X312.13Y2061.15  ;
N626 G1X312.13Y2062.15  ;
N627 G1X231.16Y2062.15  ;
N628 G2X225.31Y2068I0J5.85  ;
N629 G1X225.31Y2127  ;
N630 G3X219.16Y2133.15I-6.15J0  ;
N631 G1X105.01Y2133.15  ;
N632 G1X105.01Y2113  ;
N633 G2X100.16Y2108.15I-4.85J0  ;
N634 G1X80.51Y2108.15  ;
N635 G1X80.51Y2091.5  ;
N636 G2X75.66Y2086.65I-4.85J0  ;
N637 G1X55.01Y2086.65  ;
N638 G1X55.01Y2081.65  ;
N639 G1X30.65Y2081.65  ;
N640 G1X30.65Y2086.65  ;
N641 G1X15.35Y2086.65  ;
N642 G1X15.35Y1337.35  ;
N643 G1X30.65Y1337.35  ;
N644 G1X30.65Y1342.35  ;
N645 G1X55.01Y1342.35  ;
N646 G1X55.01Y1337.35  ;
N647 G1X75.66Y1337.35  ;
N648 G2X80.51Y1332.5I0J-4.85  ;
N649 G1X80.51Y1300.85  ;
N650 G1X85.66Y1300.85  ;
N651 G2X90.51Y1296I0J-4.85  ;
N652 G1X90.51Y1290.85  ;
N653 G1X219.16Y1290.85  ;
N654 G3X225.31Y1297I0J6.15  ;
N655 G1X225.31Y1356  ;
N656 G2X231.16Y1361.85I5.85J0  ;
N657 G1X312.13Y1361.85  ;
N658 G1X312.13Y1362.85  ;
N659 G1X312.83Y1362.85  ;
N660 G1X312.83Y1361.85  ;
N661 G1X325.16Y1361.85  ;
N662 G1X325.16Y1358.85  ;
N663 G1X581.12Y1358.85  ;
N664 G1X581.12Y1359.85  ;
N665 G1X582.47Y1359.85  ;
N666 G65 P9104 A101 B02  ;
N667 M98 P9103  ;
(P5:ID2:W56337205)  ;
N668 M98 P9101  ;
N669 G0X782.91Y1847.9  ;
N670 G65 P9102 A101 B02  ;
N671 G1X779.44Y1845.9  ;
N672 G2X779.24Y1845.95I-0.07J0.12  ;
N673 G1X777.65Y1848.7  ;
N674 G1X780.82Y1854.2  ;
N675 G1X787.18Y1854.2  ;
N676 G1X790.35Y1848.7  ;
N677 G1X787.18Y1843.2  ;
N678 G1X780.82Y1843.2  ;
N679 G1X779.24Y1845.95  ;
N680 G65 P9104 A101 B02  ;
N681 G0X800.75Y1881.68  ;
N682 G65 P9102 A101 B02  ;
N683 G1X796.9Y1881.68  ;
N684 G1X796.9Y1882.63  ;
N685 G1X807.1Y1882.63  ;
N686 G1X807.1Y1880.43  ;
N687 G1X796.9Y1880.43  ;
N688 G1X796.9Y1881.53  ;
N689 G65 P9104 A101 B02  ;
N690 G0X890.75Y1881.38  ;
N691 G65 P9102 A101 B02  ;
N692 G1X886.9Y1881.38  ;
N693 G1X886.9Y1880.43  ;
N694 G1X897.1Y1880.43  ;
N695 G1X897.1Y1882.63  ;
N696 G1X886.9Y1882.63  ;
N697 G1X886.9Y1881.53  ;
N698 G65 P9104 A101 B02  ;
N699 G0X1192.75Y1881.68  ;
N700 G65 P9102 A101 B02  ;
N701 G1X1188.9Y1881.68  ;
N702 G1X1188.9Y1882.63  ;
N703 G1X1199.1Y1882.63  ;
N704 G1X1199.1Y1880.43  ;
N705 G1X1188.9Y1880.43  ;
N706 G1X1188.9Y1881.53  ;
N707 G65 P9104 A101 B02  ;
N708 G0X1282.75Y1881.68  ;
N709 G65 P9102 A101 B02  ;
N710 G1X1278.9Y1881.68  ;
N711 G1X1278.9Y1882.63  ;
N712 G1X1289.1Y1882.63  ;
N713 G1X1289.1Y1880.43  ;
N714 G1X1278.9Y1880.43  ;
N715 G1X1278.9Y1881.53  ;
N716 G65 P9104 A101 B02  ;
N717 G0X1300.91Y1847.9  ;
N718 G65 P9102 A101 B02  ;
N719 G1X1297.44Y1845.9  ;
N720 G2X1297.24Y1845.95I-0.07J0.12  ;
N721 G1X1295.65Y1848.7  ;
N722 G1X1298.82Y1854.2  ;
N723 G1X1305.18Y1854.2  ;
N724 G1X1308.35Y1848.7  ;
N725 G1X1305.18Y1843.2  ;
N726 G1X1298.82Y1843.2  ;
N727 G1X1297.24Y1845.95  ;
N728 G65 P9104 A101 B01  ;
N729 G0X1399Y2405.82  ;
N730 G65 P9102 A101 B01  ;
N731 G1X1395Y2405.82  ;
N732 G1X1393.65Y2405.82  ;
N733 G1X1393.65Y2406.82  ;
N734 G1X692.35Y2406.82  ;
N735 G1X692.35Y2405.82  ;
N736 G1X690.85Y2405.82  ;
N737 G1X690.85Y2404.32  ;
N738 G1X689.85Y2404.32  ;
N739 G1X689.85Y2148.36  ;
N740 G1X692.85Y2148.36  ;
N741 G1X692.85Y2136.03  ;
N742 G1X693.85Y2136.03  ;
N743 G1X693.85Y2135.33  ;
N744 G1X692.85Y2135.33  ;
N745 G1X692.85Y2054.36  ;
N746 G2X687Y2048.51I-5.85J0  ;
N747 G1X628Y2048.51  ;
N748 G3X621.85Y2042.36I0J-6.15  ;
N749 G1X621.85Y1928.21  ;
N750 G1X642Y1928.21  ;
N751 G2X646.85Y1923.36I0J-4.85  ;
N752 G1X646.85Y1903.71  ;
N753 G1X663.5Y1903.71  ;
N754 G2X668.35Y1898.86I0J-4.85  ;
N755 G1X668.35Y1878.21  ;
N756 G1X673.35Y1878.21  ;
N757 G1X673.35Y1853.85  ;
N758 G1X668.35Y1853.85  ;
N759 G1X668.35Y1838.55  ;
N760 G1X1417.65Y1838.55  ;
N761 G1X1417.65Y1853.85  ;
N762 G1X1412.65Y1853.85  ;
N763 G1X1412.65Y1878.21  ;
N764 G1X1417.65Y1878.21  ;
N765 G1X1417.65Y1898.86  ;
N766 G2X1422.5Y1903.71I4.85J0  ;
N767 G1X1454.15Y1903.71  ;
N768 G1X1454.15Y1908.86  ;
N769 G2X1459Y1913.71I4.85J0  ;
N770 G1X1464.15Y1913.71  ;
N771 G1X1464.15Y2042.36  ;
N772 G3X1458Y2048.51I-6.15J0  ;
N773 G1X1399Y2048.51  ;
N774 G2X1393.15Y2054.36I0J5.85  ;
N775 G1X1393.15Y2135.33  ;
N776 G1X1392.15Y2135.33  ;
N777 G1X1392.15Y2136.03  ;
N778 G1X1393.15Y2136.03  ;
N779 G1X1393.15Y2148.36  ;
N780 G1X1396.15Y2148.36  ;
N781 G1X1396.15Y2404.32  ;
N782 G1X1395.15Y2404.32  ;
N783 G1X1395.15Y2405.67  ;
N784 G65 P9104 A101 B02  ;
N785 M98 P9103  ;
(P6:ID2:W56337205)  ;
N786 M98 P9101  ;
N787 G0X54.98Y2417.25  ;
N788 G65 P9102 A101 B02  ;
N789 G1X54.98Y2421.1  ;
N790 G1X55.93Y2421.1  ;
N791 G1X55.93Y2410.9  ;
N792 G1X53.73Y2410.9  ;
N793 G1X53.73Y2421.1  ;
N794 G1X54.83Y2421.1  ;
N795 G65 P9104 A101 B02  ;
N796 G0X54.98Y2327.25  ;
N797 G65 P9102 A101 B02  ;
N798 G1X54.98Y2331.1  ;
N799 G1X55.93Y2331.1  ;
N800 G1X55.93Y2320.9  ;
N801 G1X53.73Y2320.9  ;
N802 G1X53.73Y2331.1  ;
N803 G1X54.83Y2331.1  ;
N804 G65 P9104 A101 B02  ;
N805 G0X21.2Y2309.09  ;
N806 G65 P9102 A101 B02  ;
N807 G1X19.2Y2312.56  ;
N808 G2X19.25Y2312.76I0.12J0.07  ;
N809 G1X22Y2314.35  ;
N810 G1X27.5Y2311.18  ;
N811 G1X27.5Y2304.82  ;
N812 G1X22Y2301.65  ;
N813 G1X16.5Y2304.82  ;
N814 G1X16.5Y2311.18  ;
N815 G1X19.25Y2312.76  ;
N816 G65 P9104 A101 B02  ;
N817 G0X54.68Y2719.25  ;
N818 G65 P9102 A101 B02  ;
N819 G1X54.68Y2723.1  ;
N820 G1X53.73Y2723.1  ;
N821 G1X53.73Y2712.9  ;
N822 G1X55.93Y2712.9  ;
N823 G1X55.93Y2723.1  ;
N824 G1X54.83Y2723.1  ;
N825 G65 P9104 A101 B02  ;
N826 G0X54.98Y2809.25  ;
N827 G65 P9102 A101 B02  ;
N828 G1X54.98Y2813.1  ;
N829 G1X55.93Y2813.1  ;
N830 G1X55.93Y2802.9  ;
N831 G1X53.73Y2802.9  ;
N832 G1X53.73Y2813.1  ;
N833 G1X54.83Y2813.1  ;
N834 G65 P9104 A101 B02  ;
N835 G0X21.2Y2827.09  ;
N836 G65 P9102 A101 B02  ;
N837 G1X19.2Y2830.56  ;
N838 G2X19.25Y2830.76I0.12J0.07  ;
N839 G1X22Y2832.35  ;
N840 G1X27.5Y2829.18  ;
N841 G1X27.5Y2822.82  ;
N842 G1X22Y2819.65  ;
N843 G1X16.5Y2822.82  ;
N844 G1X16.5Y2829.18  ;
N845 G1X19.25Y2830.76  ;
N846 G65 P9104 A101 B01  ;
N847 G0X579.12Y2211  ;
N848 G65 P9102 A101 B01  ;
N849 G1X579.12Y2215  ;
N850 G1X579.12Y2216.35  ;
N851 G1X580.12Y2216.35  ;
N852 G1X580.12Y2917.65  ;
N853 G1X579.12Y2917.65  ;
N854 G1X579.12Y2919.15  ;
N855 G1X577.62Y2919.15  ;
N856 G1X577.62Y2920.15  ;
N857 G1X321.66Y2920.15  ;
N858 G1X321.66Y2917.15  ;
N859 G1X309.33Y2917.15  ;
N860 G1X309.33Y2916.15  ;
N861 G1X308.63Y2916.15  ;
N862 G1X308.63Y2917.15  ;
N863 G1X227.66Y2917.15  ;
N864 G2X221.81Y2923I0J5.85  ;
N865 G1X221.81Y2982  ;
N866 G3X215.66Y2988.15I-6.15J0  ;
N867 G1X101.51Y2988.15  ;
N868 G1X101.51Y2968  ;
N869 G2X96.66Y2963.15I-4.85J0  ;
N870 G1X77.01Y2963.15  ;
N871 G1X77.01Y2946.5  ;
N872 G2X72.16Y2941.65I-4.85J0  ;
N873 G1X51.51Y2941.65  ;
N874 G1X51.51Y2936.65  ;
N875 G1X27.15Y2936.65  ;
N876 G1X27.15Y2941.65  ;
N877 G1X11.85Y2941.65  ;
N878 G1X11.85Y2192.35  ;
N879 G1X27.15Y2192.35  ;
N880 G1X27.15Y2197.35  ;
N881 G1X51.51Y2197.35  ;
N882 G1X51.51Y2192.35  ;
N883 G1X72.16Y2192.35  ;
N884 G2X77.01Y2187.5I0J-4.85  ;
N885 G1X77.01Y2155.85  ;
N886 G1X82.16Y2155.85  ;
N887 G2X87.01Y2151I0J-4.85  ;
N888 G1X87.01Y2145.85  ;
N889 G1X215.66Y2145.85  ;
N890 G3X221.81Y2152I0J6.15  ;
N891 G1X221.81Y2211  ;
N892 G2X227.66Y2216.85I5.85J0  ;
N893 G1X308.63Y2216.85  ;
N894 G1X308.63Y2217.85  ;
N895 G1X309.33Y2217.85  ;
N896 G1X309.33Y2216.85  ;
N897 G1X321.66Y2216.85  ;
N898 G1X321.66Y2213.85  ;
N899 G1X577.62Y2213.85  ;
N900 G1X577.62Y2214.85  ;
N901 G1X578.97Y2214.85  ;
N902 G65 P9104 A101 B02  ;
N903 M98 P9103  ;
(P7:ID2:W56337205)  ;
N904 M98 P9101  ;
N905 G0X779.41Y2425.8  ;
N906 G65 P9102 A101 B02  ;
N907 G1X775.94Y2423.8  ;
N908 G2X775.74Y2423.85I-0.07J0.12  ;
N909 G1X774.15Y2426.6  ;
N910 G1X777.32Y2432.1  ;
N911 G1X783.68Y2432.1  ;
N912 G1X786.85Y2426.6  ;
N913 G1X783.68Y2421.1  ;
N914 G1X777.32Y2421.1  ;
N915 G1X775.74Y2423.85  ;
N916 G65 P9104 A101 B02  ;
N917 G0X797.25Y2459.58  ;
N918 G65 P9102 A101 B02  ;
N919 G1X793.4Y2459.58  ;
N920 G1X793.4Y2460.53  ;
N921 G1X803.6Y2460.53  ;
N922 G1X803.6Y2458.33  ;
N923 G1X793.4Y2458.33  ;
N924 G1X793.4Y2459.43  ;
N925 G65 P9104 A101 B02  ;
N926 G0X887.25Y2459.28  ;
N927 G65 P9102 A101 B02  ;
N928 G1X883.4Y2459.28  ;
N929 G1X883.4Y2458.33  ;
N930 G1X893.6Y2458.33  ;
N931 G1X893.6Y2460.53  ;
N932 G1X883.4Y2460.53  ;
N933 G1X883.4Y2459.43  ;
N934 G65 P9104 A101 B02  ;
N935 G0X1189.25Y2459.58  ;
N936 G65 P9102 A101 B02  ;
N937 G1X1185.4Y2459.58  ;
N938 G1X1185.4Y2460.53  ;
N939 G1X1195.6Y2460.53  ;
N940 G1X1195.6Y2458.33  ;
N941 G1X1185.4Y2458.33  ;
N942 G1X1185.4Y2459.43  ;
N943 G65 P9104 A101 B02  ;
N944 G0X1279.25Y2459.58  ;
N945 G65 P9102 A101 B02  ;
N946 G1X1275.4Y2459.58  ;
N947 G1X1275.4Y2460.53  ;
N948 G1X1285.6Y2460.53  ;
N949 G1X1285.6Y2458.33  ;
N950 G1X1275.4Y2458.33  ;
N951 G1X1275.4Y2459.43  ;
N952 G65 P9104 A101 B02  ;
N953 G0X1297.41Y2425.8  ;
N954 G65 P9102 A101 B02  ;
N955 G1X1293.94Y2423.8  ;
N956 G2X1293.74Y2423.85I-0.07J0.12  ;
N957 G1X1292.15Y2426.6  ;
N958 G1X1295.32Y2432.1  ;
N959 G1X1301.68Y2432.1  ;
N960 G1X1304.85Y2426.6  ;
N961 G1X1301.68Y2421.1  ;
N962 G1X1295.32Y2421.1  ;
N963 G1X1293.74Y2423.85  ;
N964 G65 P9104 A101 B01  ;
N965 G0X1395.5Y2983.72  ;
N966 G65 P9102 A101 B01  ;
N967 G1X1391.5Y2983.72  ;
N968 G1X1390.15Y2983.72  ;
N969 G1X1390.15Y2984.72  ;
N970 G1X688.85Y2984.72  ;
N971 G1X688.85Y2983.72  ;
N972 G1X687.35Y2983.72  ;
N973 G1X687.35Y2982.22  ;
N974 G1X686.35Y2982.22  ;
N975 G1X686.35Y2726.26  ;
N976 G1X689.35Y2726.26  ;
N977 G1X689.35Y2713.93  ;
N978 G1X690.35Y2713.93  ;
N979 G1X690.35Y2713.23  ;
N980 G1X689.35Y2713.23  ;
N981 G1X689.35Y2632.26  ;
N982 G2X683.5Y2626.41I-5.85J0  ;
N983 G1X624.5Y2626.41  ;
N984 G3X618.35Y2620.26I0J-6.15  ;
N985 G1X618.35Y2506.11  ;
N986 G1X638.5Y2506.11  ;
N987 G2X643.35Y2501.26I0J-4.85  ;
N988 G1X643.35Y2481.61  ;
N989 G1X660Y2481.61  ;
N990 G2X664.85Y2476.76I0J-4.85  ;
N991 G1X664.85Y2456.11  ;
N992 G1X669.85Y2456.11  ;
N993 G1X669.85Y2431.75  ;
N994 G1X664.85Y2431.75  ;
N995 G1X664.85Y2416.45  ;
N996 G1X1414.15Y2416.45  ;
N997 G1X1414.15Y2431.75  ;
N998 G1X1409.15Y2431.75  ;
N999 G1X1409.15Y2456.11  ;
N1000 G1X1414.15Y2456.11  ;
N1001 G1X1414.15Y2476.76  ;
N1002 G2X1419Y2481.61I4.85J0  ;
N1003 G1X1450.65Y2481.61  ;
N1004 G1X1450.65Y2486.76  ;
N1005 G2X1455.5Y2491.61I4.85J0  ;
N1006 G1X1460.65Y2491.61  ;
N1007 G1X1460.65Y2620.26  ;
N1008 G3X1454.5Y2626.41I-6.15J0  ;
N1009 G1X1395.5Y2626.41  ;
N1010 G2X1389.65Y2632.26I0J5.85  ;
N1011 G1X1389.65Y2713.23  ;
N1012 G1X1388.65Y2713.23  ;
N1013 G1X1388.65Y2713.93  ;
N1014 G1X1389.65Y2713.93  ;
N1015 G1X1389.65Y2726.26  ;
N1016 G1X1392.65Y2726.26  ;
N1017 G1X1392.65Y2982.22  ;
N1018 G1X1391.65Y2982.22  ;
N1019 G1X1391.65Y2983.57  ;
N1020 M98 P9104  ;
N1021 M98 P9103  ;
(FOOTER)
N1022 M98 P9110  ;
N1023 M30  ;
%
