O0099  ;
( MACHINE : TCI Laser )  ;
( MATERIAL : Acero al carbono N2 )  ;
( THICKNESS : 3 )  ;
( REPETITIONS : 1 )  ;
( SIMULATION TIME : 00:06:28 )  ;
( FORMAT : 1250x2500 )  ;
( JOB NUMBER : VARS5630\K563372s30 )  ;
( PROGRAM NUMBER : 1050 )  ;
( TYPE : 0 )  ;
( NUMBER OF SHEETS : 1 )  ;
( CUTTING HEADS : 1 )  ;
#516= 1  ;
#517= 1  ;
N105 G65 P9100 A103 B02  ;
(P1:ID1:W56197504)  ;
N106 M98 P9101  ;
N107 G0X988.7Y152.04  ;
N108 G65 P9102 A101 B02  ;
N109 G1X989.89Y150.85  ;
N110 G3X989.85Y150.8I-1.23J1.15  ;
N111 G65 P9104 A101 B02  ;
N112 G0X988.7Y243.04  ;
N113 G65 P9102 A101 B02  ;
N114 G1X989.89Y241.85  ;
N115 G3X989.85Y241.8I-1.23J1.15  ;
N116 G65 P9104 A101 B02  ;
N117 G0X1089.7Y243.04  ;
N118 G65 P9102 A101 B02  ;
N119 G1X1090.89Y241.85  ;
N120 G3X1090.85Y241.8I-1.23J1.15  ;
N121 G65 P9104 A101 B02  ;
N122 G0X1089.7Y152.04  ;
N123 G65 P9102 A101 B02  ;
N124 G1X1090.89Y150.85  ;
N125 G3X1090.85Y150.8I-1.23J1.15  ;
N126 G65 P9104 A101 B02  ;
N127 G0X1181.7Y111.95  ;
N128 G65 P9102 A101 B02  ;
N129 G1X1183.7Y108.49  ;
N130 G2X1183.61Y108.16I-0.21J-0.12  ;
N131 G1X1180.81Y106.55  ;
N132 G1X1175.22Y109.77  ;
N133 G1X1175.22Y116.23  ;
N134 G1X1180.81Y119.45  ;
N135 G1X1186.4Y116.23  ;
N136 G1X1186.4Y109.77  ;
N137 G1X1183.61Y108.16  ;
N138 G65 P9104 A101 B02  ;
N139 G0X1184.39Y78.51  ;
N140 G65 P9102 A101 B02  ;
N141 G1X1187.88Y75.01  ;
N142 G3X1187.84Y74.97I-7.07J6.99  ;
N143 G65 P9104 A101 B02  ;
N144 G0X1181.7Y751.95  ;
N145 G65 P9102 A101 B02  ;
N146 G1X1183.7Y748.49  ;
N147 G2X1183.61Y748.16I-0.21J-0.12  ;
N148 G1X1180.81Y746.55  ;
N149 G1X1175.22Y749.77  ;
N150 G1X1175.22Y756.23  ;
N151 G1X1180.81Y759.45  ;
N152 G1X1186.4Y756.23  ;
N153 G1X1186.4Y749.77  ;
N154 G1X1183.61Y748.16  ;
N155 G65 P9104 A101 B01  ;
N156 G0X643.13Y749.21  ;
N157 G65 P9102 A101 B01  ;
N158 G1X645.96Y752.04  ;
N159 G1X675.98Y782.06  ;
N160 G1X1006.16Y782.06  ;
N161 G3X1012.1Y788I0J5.94  ;
N162 G1X1012.1Y848  ;
N163 G2X1018.16Y854.06I6.06J0  ;
N164 G1X1151.66Y854.06  ;
N165 G2X1157.72Y848I0J-6.06  ;
N166 G1X1157.72Y807.94  ;
N167 G1X1154.72Y807.94  ;
N168 G1X1154.72Y807.06  ;
N169 G1X1164.72Y807.06  ;
N170 G1X1164.72Y806.56  ;
N171 G1X1194.6Y806.56  ;
N172 G1X1194.6Y807.06  ;
N173 G1X1240.03Y807.06  ;
N174 G1X1240.03Y56.94  ;
N175 G1X1194.6Y56.94  ;
N176 G1X1194.6Y57.44  ;
N177 G1X1164.72Y57.44  ;
N178 G1X1164.72Y56.94  ;
N179 G1X1154.72Y56.94  ;
N180 G1X1154.72Y56.06  ;
N181 G1X1157.72Y56.06  ;
N182 G1X1157.72Y16  ;
N183 G2X1151.66Y9.94I-6.06J0  ;
N184 G1X1018.16Y9.94  ;
N185 G2X1012.1Y16I0J6.06  ;
N186 G1X1012.1Y76  ;
N187 G3X1006.16Y81.94I-5.94J0  ;
N188 G1X675.98Y81.94  ;
N189 G1X645.94Y111.98  ;
N190 G1X645.94Y752  ;
N191 G65 P9104 A101 B01  ;
N192 M98 P9103  ;
(P2:ID2:W56197514)  ;
N193 M98 P9101  ;
N194 G0X626.24Y871.4  ;
N195 G65 P9102 A101 B01  ;
N196 G1X626.24Y867.4  ;
N197 G2X626Y867.16I-0.24J0  ;
N198 G1X620.5Y867.16  ;
N199 G2X617.56Y870.1I0J2.94  ;
N200 G1X617.56Y889.1  ;
N201 G2X620.5Y892.04I2.94J0  ;
N202 G1X631.5Y892.04  ;
N203 G2X634.44Y889.1I0J-2.94  ;
N204 G1X634.44Y870.1  ;
N205 G2X631.5Y867.16I-2.94J0  ;
N206 G1X626Y867.16  ;
N207 G65 P9104 A101 B01  ;
N208 G0X631.51Y958.1  ;
N209 G65 P9102 A101 B01  ;
N210 G1X631.51Y953.16  ;
N211 G1X634.56Y953.16  ;
N212 G1X634.56Y950.66  ;
N213 G1X641.52Y950.66  ;
N214 G1X649.56Y942.62  ;
N215 G1X649.56Y771.58  ;
N216 G1X641.52Y763.54  ;
N217 G1X604.45Y763.54  ;
N218 G1X597.19Y802.99  ;
N219 G3X592.34Y807.04I-4.85J-0.89  ;
N220 G1X584.44Y807.04  ;
N221 G1X584.44Y850.54  ;
N222 G1X581.94Y850.54  ;
N223 G1X581.94Y860.66  ;
N224 G1X584.44Y860.66  ;
N225 G1X584.44Y907.16  ;
N226 G1X592.34Y907.16  ;
N227 G3X597.19Y911.21I0J4.94  ;
N228 G1X604.45Y950.66  ;
N229 G1X624.44Y950.66  ;
N230 G1X624.44Y953.16  ;
N231 G1X630.7Y953.16  ;
N232 G65 P9104 A101 B01  ;
N233 M98 P9103  ;
(P3:ID2:W56197514)  ;
N234 M98 P9101  ;
N235 G0X638.24Y1070.9  ;
N236 G65 P9102 A101 B01  ;
N237 G1X638.24Y1066.9  ;
N238 G2X638Y1066.66I-0.24J0  ;
N239 G1X632.5Y1066.66  ;
N240 G2X629.56Y1069.6I0J2.94  ;
N241 G1X629.56Y1088.6  ;
N242 G2X632.5Y1091.54I2.94J0  ;
N243 G1X643.5Y1091.54  ;
N244 G2X646.44Y1088.6I0J-2.94  ;
N245 G1X646.44Y1069.6  ;
N246 G2X643.5Y1066.66I-2.94J0  ;
N247 G1X638Y1066.66  ;
N248 G65 P9104 A101 B01  ;
N249 G0X643.51Y1157.6  ;
N250 G65 P9102 A101 B01  ;
N251 G1X643.51Y1152.66  ;
N252 G1X646.56Y1152.66  ;
N253 G1X646.56Y1150.16  ;
N254 G1X653.52Y1150.16  ;
N255 G1X661.56Y1142.12  ;
N256 G1X661.56Y971.08  ;
N257 G1X653.52Y963.04  ;
N258 G1X616.45Y963.04  ;
N259 G1X609.19Y1002.49  ;
N260 G3X604.34Y1006.54I-4.85J-0.89  ;
N261 G1X596.44Y1006.54  ;
N262 G1X596.44Y1050.04  ;
N263 G1X593.94Y1050.04  ;
N264 G1X593.94Y1060.16  ;
N265 G1X596.44Y1060.16  ;
N266 G1X596.44Y1106.66  ;
N267 G1X604.34Y1106.66  ;
N268 G3X609.19Y1110.71I0J4.94  ;
N269 G1X616.45Y1150.16  ;
N270 G1X636.44Y1150.16  ;
N271 G1X636.44Y1152.66  ;
N272 G1X642.7Y1152.66  ;
N273 G65 P9104 A101 B01  ;
N274 M98 P9103  ;
(P4:ID2:W56197514)  ;
N275 M98 P9101  ;
N276 G0X638.24Y1270.4  ;
N277 G65 P9102 A101 B01  ;
N278 G1X638.24Y1266.4  ;
N279 G2X638Y1266.16I-0.24J0  ;
N280 G1X632.5Y1266.16  ;
N281 G2X629.56Y1269.1I0J2.94  ;
N282 G1X629.56Y1288.1  ;
N283 G2X632.5Y1291.04I2.94J0  ;
N284 G1X643.5Y1291.04  ;
N285 G2X646.44Y1288.1I0J-2.94  ;
N286 G1X646.44Y1269.1  ;
N287 G2X643.5Y1266.16I-2.94J0  ;
N288 G1X638Y1266.16  ;
N289 G65 P9104 A101 B01  ;
N290 G0X643.51Y1357.1  ;
N291 G65 P9102 A101 B01  ;
N292 G1X643.51Y1352.16  ;
N293 G1X646.56Y1352.16  ;
N294 G1X646.56Y1349.66  ;
N295 G1X653.52Y1349.66  ;
N296 G1X661.56Y1341.62  ;
N297 G1X661.56Y1170.58  ;
N298 G1X653.52Y1162.54  ;
N299 G1X616.45Y1162.54  ;
N300 G1X609.19Y1201.99  ;
N301 G3X604.34Y1206.04I-4.85J-0.89  ;
N302 G1X596.44Y1206.04  ;
N303 G1X596.44Y1249.54  ;
N304 G1X593.94Y1249.54  ;
N305 G1X593.94Y1259.66  ;
N306 G1X596.44Y1259.66  ;
N307 G1X596.44Y1306.16  ;
N308 G1X604.34Y1306.16  ;
N309 G3X609.19Y1310.21I0J4.94  ;
N310 G1X616.45Y1349.66  ;
N311 G1X636.44Y1349.66  ;
N312 G1X636.44Y1352.16  ;
N313 G1X642.7Y1352.16  ;
N314 G65 P9104 A101 B01  ;
N315 M98 P9103  ;
(P5:ID2:W56197514)  ;
N316 M98 P9101  ;
N317 G0X624.74Y1469.9  ;
N318 G65 P9102 A101 B01  ;
N319 G1X624.74Y1465.9  ;
N320 G2X624.5Y1465.66I-0.24J0  ;
N321 G1X619Y1465.66  ;
N322 G2X616.06Y1468.6I0J2.94  ;
N323 G1X616.06Y1487.6  ;
N324 G2X619Y1490.54I2.94J0  ;
N325 G1X630Y1490.54  ;
N326 G2X632.94Y1487.6I0J-2.94  ;
N327 G1X632.94Y1468.6  ;
N328 G2X630Y1465.66I-2.94J0  ;
N329 G1X624.5Y1465.66  ;
N330 G65 P9104 A101 B01  ;
N331 G0X630.01Y1556.6  ;
N332 G65 P9102 A101 B01  ;
N333 G1X630.01Y1551.66  ;
N334 G1X633.06Y1551.66  ;
N335 G1X633.06Y1549.16  ;
N336 G1X640.02Y1549.16  ;
N337 G1X648.06Y1541.12  ;
N338 G1X648.06Y1370.08  ;
N339 G1X640.02Y1362.04  ;
N340 G1X602.95Y1362.04  ;
N341 G1X595.69Y1401.49  ;
N342 G3X590.84Y1405.54I-4.85J-0.89  ;
N343 G1X582.94Y1405.54  ;
N344 G1X582.94Y1449.04  ;
N345 G1X580.44Y1449.04  ;
N346 G1X580.44Y1459.16  ;
N347 G1X582.94Y1459.16  ;
N348 G1X582.94Y1505.66  ;
N349 G1X590.84Y1505.66  ;
N350 G3X595.69Y1509.71I0J4.94  ;
N351 G1X602.95Y1549.16  ;
N352 G1X622.94Y1549.16  ;
N353 G1X622.94Y1551.66  ;
N354 G1X629.2Y1551.66  ;
N355 G65 P9104 A101 B02  ;
N356 M98 P9103  ;
(P6:ID3:W56337205)  ;
N357 M98 P9101  ;
N358 G0X681.12Y1477.05  ;
N359 G65 P9102 A101 B02  ;
N360 G1X679.12Y1480.51  ;
N361 G2X679.2Y1480.84I0.2J0.12  ;
N362 G1X682Y1482.45  ;
N363 G1X687.59Y1479.23  ;
N364 G1X687.59Y1472.77  ;
N365 G1X682Y1469.55  ;
N366 G1X676.41Y1472.77  ;
N367 G1X676.41Y1479.23  ;
N368 G1X679.21Y1480.84  ;
N369 G65 P9104 A101 B02  ;
N370 G0X714.89Y1459.25  ;
N371 G65 P9102 A101 B02  ;
N372 G1X714.89Y1463.19  ;
N373 G1X716.02Y1463.19  ;
N374 G1X716.02Y1452.81  ;
N375 G1X713.64Y1452.81  ;
N376 G1X713.64Y1463.19  ;
N377 G1X714.83Y1463.19  ;
N378 G65 P9104 A101 B02  ;
N379 G0X714.77Y1369.25  ;
N380 G65 P9102 A101 B02  ;
N381 G1X714.77Y1373.19  ;
N382 G1X713.64Y1373.19  ;
N383 G1X713.64Y1362.81  ;
N384 G1X716.02Y1362.81  ;
N385 G1X716.02Y1373.19  ;
N386 G1X714.83Y1373.19  ;
N387 G65 P9104 A101 B02  ;
N388 G0X714.89Y1067.25  ;
N389 G65 P9102 A101 B02  ;
N390 G1X714.89Y1071.19  ;
N391 G1X716.02Y1071.19  ;
N392 G1X716.02Y1060.81  ;
N393 G1X713.64Y1060.81  ;
N394 G1X713.64Y1071.19  ;
N395 G1X714.83Y1071.19  ;
N396 G65 P9104 A101 B02  ;
N397 G0X714.89Y977.25  ;
N398 G65 P9102 A101 B02  ;
N399 G1X714.89Y981.19  ;
N400 G1X716.02Y981.19  ;
N401 G1X716.02Y970.81  ;
N402 G1X713.64Y970.81  ;
N403 G1X713.64Y981.19  ;
N404 G1X714.83Y981.19  ;
N405 G65 P9104 A101 B02  ;
N406 G0X681.12Y959.05  ;
N407 G65 P9102 A101 B02  ;
N408 G1X679.12Y962.51  ;
N409 G2X679.2Y962.84I0.2J0.12  ;
N410 G1X682Y964.45  ;
N411 G1X687.59Y961.23  ;
N412 G1X687.59Y954.77  ;
N413 G1X682Y951.55  ;
N414 G1X676.41Y954.77  ;
N415 G1X676.41Y961.23  ;
N416 G1X679.21Y962.84  ;
N417 G65 P9104 A101 B01  ;
N418 G0X1239.03Y861  ;
N419 G65 P9102 A101 B01  ;
N420 G1X1239.03Y865  ;
N421 G1X1239.03Y866.44  ;
N422 G1X1240.03Y866.44  ;
N423 G1X1240.03Y1567.56  ;
N424 G1X1239.03Y1567.56  ;
N425 G1X1239.03Y1569.06  ;
N426 G1X1237.53Y1569.06  ;
N427 G1X1237.53Y1570.06  ;
N428 G1X981.75Y1570.06  ;
N429 G1X981.75Y1567.06  ;
N430 G1X969.42Y1567.06  ;
N431 G1X969.42Y1566.06  ;
N432 G1X968.54Y1566.06  ;
N433 G1X968.54Y1567.06  ;
N434 G1X887.66Y1567.06  ;
N435 G2X881.72Y1573I0J5.94  ;
N436 G1X881.72Y1632  ;
N437 G3X875.66Y1638.06I-6.06J0  ;
N438 G1X761.6Y1638.06  ;
N439 G1X761.6Y1618  ;
N440 G2X756.66Y1613.06I-4.94J0  ;
N441 G1X737.1Y1613.06  ;
N442 G1X737.1Y1596.5  ;
N443 G2X732.16Y1591.56I-4.94J0  ;
N444 G1X711.6Y1591.56  ;
N445 G1X711.6Y1586.56  ;
N446 G1X687.06Y1586.56  ;
N447 G1X687.06Y1591.56  ;
N448 G1X671.94Y1591.56  ;
N449 G1X671.94Y842.44  ;
N450 G1X687.06Y842.44  ;
N451 G1X687.06Y847.44  ;
N452 G1X711.6Y847.44  ;
N453 G1X711.6Y842.44  ;
N454 G1X732.16Y842.44  ;
N455 G2X737.1Y837.5I0J-4.94  ;
N456 G1X737.1Y805.94  ;
N457 G1X742.16Y805.94  ;
N458 G2X747.1Y801I0J-4.94  ;
N459 G1X747.1Y795.94  ;
N460 G1X875.66Y795.94  ;
N461 G3X881.72Y802I0J6.06  ;
N462 G1X881.72Y861  ;
N463 G2X887.66Y866.94I5.94J0  ;
N464 G1X968.54Y866.94  ;
N465 G1X968.54Y867.94  ;
N466 G1X969.42Y867.94  ;
N467 G1X969.42Y866.94  ;
N468 G1X981.75Y866.94  ;
N469 G1X981.75Y863.94  ;
N470 G1X1237.53Y863.94  ;
N471 G1X1237.53Y864.94  ;
N472 G1X1238.97Y864.94  ;
N473 G65 P9104 A102 B04  ;
N474 M98 P9103  ;
(P7:ID4:W56197513S)  ;
N475 M98 P9101  ;
N476 G0X637.5Y1659.75  ;
N477 G65 P9102 A102 B04  ;
N478 G1X644Y1655.99  ;
N479 G1X650.5Y1659.75  ;
N480 G1X650.5Y1667.25  ;
N481 G1X644Y1671.01  ;
N482 G1X637.5Y1667.25  ;
N483 G1X637.5Y1659.75  ;
N484 G65 P9104 A102 B04  ;
N485 G0X697.5Y1637.25  ;
N486 G65 P9102 A102 B04  ;
N487 G1X697.5Y1629.75  ;
N488 G1X704Y1625.99  ;
N489 G1X710.5Y1629.75  ;
N490 G1X710.5Y1637.25  ;
N491 G1X704Y1641.01  ;
N492 G1X697.5Y1637.25  ;
N493 G65 P9104 A101 B02  ;
N494 G0X704.13Y1633.72  ;
N495 G65 P9102 A101 B02  ;
N496 G1X707.63Y1637.21  ;
N497 G3X707.67Y1637.17I-3.63J-3.71  ;
N498 G65 P9104 A101 B02  ;
N499 G0X676.23Y1648.48  ;
N500 G65 P9102 A101 B02  ;
N501 G1X677.65Y1649.08  ;
N502 G1X675.7Y1653.67  ;
N503 G1X672.87Y1652.47  ;
N504 G1X676.81Y1643.19  ;
N505 G1X679.64Y1644.39  ;
N506 G1X677.67Y1649.03  ;
N507 G65 P9104 A101 B02  ;
N508 G0X644.13Y1663.72  ;
N509 G65 P9102 A101 B02  ;
N510 G1X647.63Y1667.21  ;
N511 G3X647.67Y1667.17I-3.63J-3.71  ;
N512 G65 P9104 A101 B01  ;
N513 G0X573Y1641.8  ;
N514 G65 P9102 A101 B01  ;
N515 G1X577.94Y1641.8  ;
N516 G1X577.94Y1643.56  ;
N517 G1X578.94Y1643.56  ;
N518 G1X578.94Y1669  ;
N519 G1X627.63Y1689.67  ;
N520 G1X628.85Y1686.82  ;
N521 G1X638.4Y1690.87  ;
N522 G1X637.19Y1693.72  ;
N523 G1X648.98Y1698.73  ;
N524 G2X656.14Y1697.75I2.76J-6.5  ;
N525 G1X724.06Y1643.53  ;
N526 G1X724.06Y1613.44  ;
N527 G1X704Y1613.44  ;
N528 G3X699.06Y1608.5I0J-4.94  ;
N529 G1X699.06Y1598.44  ;
N530 G1X603.94Y1598.44  ;
N531 G1X603.94Y1618.5  ;
N532 G3X599Y1623.44I-4.94J0  ;
N533 G1X578.94Y1623.44  ;
N534 G1X578.94Y1638.44  ;
N535 G1X577.94Y1638.44  ;
N536 G1X577.94Y1640.99  ;
N537 G65 P9104 A102 B04  ;
N538 M98 P9103  ;
(P8:ID5:W56244402)  ;
N539 M98 P9101  ;
N540 G0X163.96Y1563.8  ;
N541 G65 P9102 A102 B04  ;
N542 G3X163.96Y1563.8I-11J0  ;
N543 G65 P9104 A101 B02  ;
N544 G0X180.38Y1615.34  ;
N545 G65 P9102 A101 B02  ;
N546 G1X184.32Y1615.34  ;
N547 G1X184.32Y1613.86  ;
N548 G1X173.44Y1613.86  ;
N549 G1X173.44Y1616.94  ;
N550 G1X184.32Y1616.94  ;
N551 G1X184.32Y1615.4  ;
N552 G65 P9104 A101 B02  ;
N553 G0X164.06Y1662.63  ;
N554 G65 P9102 A101 B02  ;
N555 G1X167.55Y1659.14  ;
N556 G3X167.51Y1659.09I-4.95J4.86  ;
N557 G65 P9104 A101 B02  ;
N558 G0X114.06Y1662.63  ;
N559 G65 P9102 A101 B02  ;
N560 G1X117.55Y1659.14  ;
N561 G3X117.51Y1659.09I-4.95J4.86  ;
N562 G65 P9104 A101 B01  ;
N563 G0X110.09Y1699.88  ;
N564 G65 P9102 A101 B01  ;
N565 G1X106.52Y1696.47  ;
N566 G2X106.97Y1731.28I18.08J17.17  ;
N567 G1X142.32Y1766.64  ;
N568 G2X177.59Y1731.36I17.64J-17.64  ;
N569 G1X142.24Y1696.01  ;
N570 G2X106.91Y1696.07I-17.64J17.63  ;
N571 G65 P9104 A101 B02  ;
N572 G0X40.08Y1615.46  ;
N573 G65 P9102 A101 B02  ;
N574 G1X44.02Y1615.46  ;
N575 G1X44.02Y1616.94  ;
N576 G1X30.14Y1616.94  ;
N577 G1X30.14Y1613.86  ;
N578 G1X44.02Y1613.86  ;
N579 G1X44.02Y1615.4  ;
N580 G65 P9104 A101 B01  ;
N581 G0X40.06Y1490  ;
N582 G65 P9102 A101 B01  ;
N583 G1X40.06Y1486.06  ;
N584 G3X40Y1486.06I-0.06J10.94  ;
N585 G65 P9104 A101 B02  ;
N586 G0X118.18Y1473.37  ;
N587 G65 P9102 A101 B02  ;
N588 G1X121.67Y1469.87  ;
N589 G3X121.63Y1469.83I-3.71J3.63  ;
N590 G65 P9104 A101 B02  ;
N591 G0X252.9Y1454.8  ;
N592 G65 P9102 A101 B02  ;
N593 G1X252.9Y1453.86  ;
N594 G1X252.02Y1453.86  ;
N595 G1X252.02Y1464.14  ;
N596 G1X253.9Y1464.14  ;
N597 G1X253.9Y1453.86  ;
N598 G1X252.96Y1453.86  ;
N599 G65 P9104 A101 B01  ;
N600 G0X325.45Y1468.3  ;
N601 G65 P9102 A101 B01  ;
N602 G1X325.45Y1464.3  ;
N603 G2X325.21Y1464.06I-0.24J0  ;
N604 G1X294.91Y1464.06  ;
N605 G2X289.97Y1469I0J4.94  ;
N606 G1X289.97Y1579  ;
N607 G2X294.91Y1583.94I4.94J0  ;
N608 G1X355.51Y1583.94  ;
N609 G2X360.45Y1579I0J-4.94  ;
N610 G1X360.45Y1469  ;
N611 G2X355.51Y1464.06I-4.94J0  ;
N612 G1X325.21Y1464.06  ;
N613 G65 P9104 A101 B02  ;
N614 G0X298.49Y1364.56  ;
N615 G65 P9102 A101 B02  ;
N616 G1X301.93Y1364.56  ;
N617 G1X301.93Y1363.06  ;
N618 G1X295.05Y1363.06  ;
N619 G1X295.05Y1366.19  ;
N620 G1X301.93Y1366.19  ;
N621 G1X301.93Y1364.62  ;
N622 G65 P9104 A101 B02  ;
N623 G0X438.07Y1394.37  ;
N624 G65 P9102 A101 B02  ;
N625 G1X441.56Y1390.87  ;
N626 G3X441.52Y1390.83I-3.71J3.63  ;
N627 G65 P9104 A101 B02  ;
N628 G0X438.07Y1272.37  ;
N629 G65 P9102 A101 B02  ;
N630 G1X441.56Y1268.87  ;
N631 G3X441.52Y1268.83I-3.71J3.63  ;
N632 G65 P9104 A101 B02  ;
N633 G0X298.49Y1211.31  ;
N634 G65 P9102 A101 B02  ;
N635 G1X301.93Y1211.31  ;
N636 G1X301.93Y1209.81  ;
N637 G1X295.05Y1209.81  ;
N638 G1X295.05Y1212.94  ;
N639 G1X301.93Y1212.94  ;
N640 G1X301.93Y1211.37  ;
N641 G65 P9104 A101 B01  ;
N642 G0X151.7Y1257.8  ;
N643 G65 P9102 A101 B01  ;
N644 G1X151.7Y1253.8  ;
N645 G2X151.46Y1253.56I-0.24J0  ;
N646 G1X120.02Y1253.56  ;
N647 G1X120.02Y1446.5  ;
N648 G2X126.96Y1453.44I6.94J0  ;
N649 G1X189.9Y1453.44  ;
N650 G1X189.9Y1260.5  ;
N651 G2X182.96Y1253.56I-6.94J0  ;
N652 G1X151.46Y1253.56  ;
N653 G65 P9104 A101 B02  ;
N654 G0X180.38Y1095.34  ;
N655 G65 P9102 A101 B02  ;
N656 G1X184.32Y1095.34  ;
N657 G1X184.32Y1093.86  ;
N658 G1X173.44Y1093.86  ;
N659 G1X173.44Y1096.94  ;
N660 G1X184.32Y1096.94  ;
N661 G1X184.32Y1095.4  ;
N662 G65 P9104 A101 B02  ;
N663 G0X296.53Y1051.5  ;
N664 G65 P9102 A101 B02  ;
N665 G1X296.53Y1048.56  ;
N666 G1X295.05Y1048.56  ;
N667 G1X295.05Y1054.44  ;
N668 G1X298.13Y1054.44  ;
N669 G1X298.13Y1048.56  ;
N670 G1X296.59Y1048.56  ;
N671 G65 P9104 A101 B02  ;
N672 G0X296.53Y896.5  ;
N673 G65 P9102 A101 B02  ;
N674 G1X296.53Y893.56  ;
N675 G1X295.05Y893.56  ;
N676 G1X295.05Y899.44  ;
N677 G1X298.13Y899.44  ;
N678 G1X298.13Y893.56  ;
N679 G1X296.59Y893.56  ;
N680 G65 P9104 A101 B01  ;
N681 G0X301.22Y778.8  ;
N682 G65 P9102 A101 B01  ;
N683 G1X301.17Y774.8  ;
N684 G3X301.41Y774.56I0.24J0  ;
N685 G3X309.57Y775.8I0J27.43  ;
N686 G3X316.93Y779.4I-7.99J25.66  ;
N687 G3X322.79Y785.02I-14.83J21.32  ;
N688 G3X326.55Y792.12I-19.98J15.16  ;
N689 G3X326.55Y807.88I-23.22J7.88  ;
N690 G3X322.79Y814.98I-23.74J-8.06  ;
N691 G3X316.93Y820.6I-20.69J-15.7  ;
N692 G3X309.57Y824.2I-15.35J-22.06  ;
N693 G3X293.26Y824.2I-8.16J-26.19  ;
N694 G3X285.9Y820.6I7.99J-25.66  ;
N695 G3X280.04Y814.98I14.83J-21.32  ;
N696 G3X276.27Y807.88I19.98J-15.16  ;
N697 G3X276.27Y792.12I23.23J-7.88  ;
N698 G3X280.04Y785.02I23.75J8.06  ;
N699 G3X285.9Y779.4I20.69J15.7  ;
N700 G3X293.26Y775.8I15.35J22.06  ;
N701 G3X301.41Y774.56I8.15J26.19  ;
N702 G65 P9104 A101 B02  ;
N703 G0X298.49Y748.06  ;
N704 G65 P9102 A101 B02  ;
N705 G1X301.93Y748.06  ;
N706 G1X301.93Y746.56  ;
N707 G1X295.05Y746.56  ;
N708 G1X295.05Y749.69  ;
N709 G1X301.93Y749.69  ;
N710 G1X301.93Y748.12  ;
N711 G65 P9104 A101 B02  ;
N712 G0X180.38Y698.54  ;
N713 G65 P9102 A101 B02  ;
N714 G1X184.32Y698.54  ;
N715 G1X184.32Y697.06  ;
N716 G1X173.44Y697.06  ;
N717 G1X173.44Y700.14  ;
N718 G1X184.32Y700.14  ;
N719 G1X184.32Y698.6  ;
N720 G65 P9104 A101 B01  ;
N721 G0X180.02Y841.75  ;
N722 G65 P9102 A101 B01  ;
N723 G1X180.02Y837.81  ;
N724 G3X179.96Y837.81I-0.06J60.19  ;
N725 G65 P9104 A101 B02  ;
N726 G0X40.08Y698.54  ;
N727 G65 P9102 A101 B02  ;
N728 G1X44.02Y698.54  ;
N729 G1X44.02Y697.06  ;
N730 G1X30.14Y697.06  ;
N731 G1X30.14Y700.14  ;
N732 G1X44.02Y700.14  ;
N733 G1X44.02Y698.6  ;
N734 G65 P9104 A101 B02  ;
N735 G0X298.49Y594.82  ;
N736 G65 P9102 A101 B02  ;
N737 G1X301.93Y594.82  ;
N738 G1X301.93Y593.31  ;
N739 G1X295.05Y593.31  ;
N740 G1X295.05Y596.44  ;
N741 G1X301.93Y596.44  ;
N742 G1X301.93Y594.87  ;
N743 G65 P9104 A101 B02  ;
N744 G0X288.34Y502.53  ;
N745 G65 P9102 A101 B02  ;
N746 G1X291.8Y500.53  ;
N747 G2X291.89Y500.21I-0.12J-0.21  ;
N748 G1X290.56Y497.91  ;
N749 G1X285.26Y497.91  ;
N750 G1X282.61Y502.5  ;
N751 G1X285.26Y507.09  ;
N752 G1X290.56Y507.09  ;
N753 G1X293.21Y502.5  ;
N754 G1X291.89Y500.2  ;
N755 G65 P9104 A101 B02  ;
N756 G0X328.34Y502.53  ;
N757 G65 P9102 A101 B02  ;
N758 G1X331.8Y500.53  ;
N759 G2X331.89Y500.21I-0.12J-0.21  ;
N760 G1X330.56Y497.91  ;
N761 G1X325.26Y497.91  ;
N762 G1X322.61Y502.5  ;
N763 G1X325.26Y507.09  ;
N764 G1X330.56Y507.09  ;
N765 G1X333.21Y502.5  ;
N766 G1X331.89Y500.2  ;
N767 G65 P9104 A101 B01  ;
N768 G0X307.67Y447.8  ;
N769 G65 P9102 A101 B01  ;
N770 G1X307.67Y443.8  ;
N771 G3X307.91Y443.56I0.24J0  ;
N772 G1X328.91Y443.56  ;
N773 G3X331.85Y446.5I0J2.94  ;
N774 G1X331.85Y490.5  ;
N775 G3X328.91Y493.44I-2.94J0  ;
N776 G1X286.91Y493.44  ;
N777 G3X283.97Y490.5I0J-2.94  ;
N778 G1X283.97Y446.5  ;
N779 G3X286.91Y443.56I2.94J0  ;
N780 G1X307.91Y443.56  ;
N781 G65 P9104 A101 B02  ;
N782 G0X307.34Y433.53  ;
N783 G65 P9102 A101 B02  ;
N784 G1X310.8Y431.53  ;
N785 G2X310.89Y431.21I-0.12J-0.21  ;
N786 G1X309.56Y428.91  ;
N787 G1X304.26Y428.91  ;
N788 G1X301.61Y433.5  ;
N789 G1X304.26Y438.09  ;
N790 G1X309.56Y438.09  ;
N791 G1X312.21Y433.5  ;
N792 G1X310.89Y431.2  ;
N793 G65 P9104 A101 B01  ;
N794 G0X307.67Y377.8  ;
N795 G65 P9102 A101 B01  ;
N796 G1X307.67Y373.8  ;
N797 G3X307.91Y373.56I0.24J0  ;
N798 G1X328.91Y373.56  ;
N799 G3X331.85Y376.5I0J2.94  ;
N800 G1X331.85Y420.5  ;
N801 G3X328.91Y423.44I-2.94J0  ;
N802 G1X286.91Y423.44  ;
N803 G3X283.97Y420.5I0J-2.94  ;
N804 G1X283.97Y376.5  ;
N805 G3X286.91Y373.56I2.94J0  ;
N806 G1X307.91Y373.56  ;
N807 G65 P9104 A101 B02  ;
N808 G0X288.34Y364.53  ;
N809 G65 P9102 A101 B02  ;
N810 G1X291.8Y362.53  ;
N811 G2X291.89Y362.21I-0.12J-0.21  ;
N812 G1X290.56Y359.91  ;
N813 G1X285.26Y359.91  ;
N814 G1X282.61Y364.5  ;
N815 G1X285.26Y369.09  ;
N816 G1X290.56Y369.09  ;
N817 G1X293.21Y364.5  ;
N818 G1X291.89Y362.2  ;
N819 G65 P9104 A101 B02  ;
N820 G0X328.34Y364.53  ;
N821 G65 P9102 A101 B02  ;
N822 G1X331.8Y362.53  ;
N823 G2X331.89Y362.21I-0.12J-0.21  ;
N824 G1X330.56Y359.91  ;
N825 G1X325.26Y359.91  ;
N826 G1X322.61Y364.5  ;
N827 G1X325.26Y369.09  ;
N828 G1X330.56Y369.09  ;
N829 G1X333.21Y364.5  ;
N830 G1X331.89Y362.2  ;
N831 G65 P9104 A101 B02  ;
N832 G0X438.07Y379.37  ;
N833 G65 P9102 A101 B02  ;
N834 G1X441.56Y375.87  ;
N835 G3X441.52Y375.83I-3.71J3.63  ;
N836 G65 P9104 A101 B02  ;
N837 G0X438.07Y501.37  ;
N838 G65 P9102 A101 B02  ;
N839 G1X441.56Y497.87  ;
N840 G3X441.52Y497.83I-3.71J3.63  ;
N841 G65 P9104 A101 B02  ;
N842 G0X513.12Y272.53  ;
N843 G65 P9102 A101 B02  ;
N844 G1X516.58Y270.53  ;
N845 G2X516.67Y270.2I-0.12J-0.21  ;
N846 G1X515.05Y267.41  ;
N847 G1X508.6Y267.41  ;
N848 G1X505.37Y273  ;
N849 G1X508.6Y278.59  ;
N850 G1X515.05Y278.59  ;
N851 G1X518.28Y273  ;
N852 G1X516.67Y270.2  ;
N853 G65 P9104 A101 B02  ;
N854 G0X180.38Y178.54  ;
N855 G65 P9102 A101 B02  ;
N856 G1X184.32Y178.54  ;
N857 G1X184.32Y177.06  ;
N858 G1X173.44Y177.06  ;
N859 G1X173.44Y180.14  ;
N860 G1X184.32Y180.14  ;
N861 G1X184.32Y178.6  ;
N862 G65 P9104 A101 B02  ;
N863 G0X164.06Y128.63  ;
N864 G65 P9102 A101 B02  ;
N865 G1X167.55Y125.14  ;
N866 G3X167.51Y125.09I-4.95J4.86  ;
N867 G65 P9104 A101 B02  ;
N868 G0X114.06Y128.63  ;
N869 G65 P9102 A101 B02  ;
N870 G1X117.55Y125.14  ;
N871 G3X117.51Y125.09I-4.95J4.86  ;
N872 G65 P9104 A101 B01  ;
N873 G0X110.56Y94.6  ;
N874 G65 P9102 A101 B01  ;
N875 G1X107.08Y98.11  ;
N876 G2X142.24Y97.99I17.52J-17.75  ;
N877 G1X177.59Y62.64  ;
N878 G2X142.32Y27.36I-17.63J-17.64  ;
N879 G1X106.97Y62.72  ;
N880 G2X106.69Y97.71I17.63J17.64  ;
N881 G65 P9104 A101 B02  ;
N882 G0X40.08Y178.54  ;
N883 G65 P9102 A101 B02  ;
N884 G1X44.02Y178.54  ;
N885 G1X44.02Y177.06  ;
N886 G1X30.14Y177.06  ;
N887 G1X30.14Y180.14  ;
N888 G1X44.02Y180.14  ;
N889 G1X44.02Y178.6  ;
N890 G65 P9104 A101 B01  ;
N891 G0X40.06Y290  ;
N892 G65 P9102 A101 B01  ;
N893 G1X40.06Y286.06  ;
N894 G3X40Y286.06I-0.06J10.94  ;
N895 G65 P9104 A101 B01  ;
N896 G0X158.7Y344.8  ;
N897 G65 P9102 A101 B01  ;
N898 G1X158.7Y340.8  ;
N899 G2X158.46Y340.56I-0.24J0  ;
N900 G1X126.96Y340.56  ;
N901 G2X120.02Y347.5I0J6.94  ;
N902 G1X120.02Y540.44  ;
N903 G1X182.96Y540.44  ;
N904 G2X189.9Y533.5I0J-6.94  ;
N905 G1X189.9Y340.56  ;
N906 G1X158.46Y340.56  ;
N907 G65 P9104 A101 B02  ;
N908 G0X207.64Y33.04  ;
N909 G65 P9102 A101 B02  ;
N910 G1X210.96Y29.73  ;
N911 G3X210.92Y29.68I-3.36J3.27  ;
N912 G65 P9104 A101 B02  ;
N913 G0X40.08Y1095.34  ;
N914 G65 P9102 A101 B02  ;
N915 G1X44.02Y1095.34  ;
N916 G1X44.02Y1093.86  ;
N917 G1X30.14Y1093.86  ;
N918 G1X30.14Y1096.94  ;
N919 G1X44.02Y1096.94  ;
N920 G1X44.02Y1095.4  ;
N921 G65 P9104 A101 B02  ;
N922 G0X513.12Y1078.53  ;
N923 G65 P9102 A101 B02  ;
N924 G1X516.58Y1076.53  ;
N925 G2X516.67Y1076.2I-0.12J-0.21  ;
N926 G1X515.05Y1073.41  ;
N927 G1X508.6Y1073.41  ;
N928 G1X505.37Y1079  ;
N929 G1X508.6Y1084.59  ;
N930 G1X515.05Y1084.59  ;
N931 G1X518.28Y1079  ;
N932 G1X516.67Y1076.2  ;
N933 G65 P9104 A101 B02  ;
N934 G0X252.9Y1578.8  ;
N935 G65 P9102 A101 B02  ;
N936 G1X252.9Y1577.86  ;
N937 G1X252.02Y1577.86  ;
N938 G1X252.02Y1588.14  ;
N939 G1X253.9Y1588.14  ;
N940 G1X253.9Y1577.86  ;
N941 G1X252.96Y1577.86  ;
N942 G65 P9104 A101 B02  ;
N943 G0X207.64Y1761.04  ;
N944 G65 P9102 A101 B02  ;
N945 G1X210.96Y1757.73  ;
N946 G3X210.92Y1757.68I-3.36J3.27  ;
N947 G65 P9104 A101 B01  ;
N948 G0X9.94Y1740.2  ;
N949 G65 P9102 A101 B01  ;
N950 G1X9.94Y1736.2  ;
N951 G1X9.94Y57.74  ;
N952 G1X77.49Y57.74  ;
N953 G1X81.83Y58.78  ;
N954 G2X82.82Y58.4I0.21J-0.91  ;
N955 G1X85.81Y54.07  ;
N956 G1X127.57Y12.3  ;
N957 G3X133.27Y9.94I5.7J5.7  ;
N958 G1X258.96Y9.94  ;
N959 G3X263.02Y14I0J4.06  ;
N960 G1X263.02Y49.94  ;
N961 G1X536.09Y49.94  ;
N962 G1X536.09Y55.06  ;
N963 G1X535.59Y55.06  ;
N964 G1X535.59Y84.94  ;
N965 G1X536.09Y84.94  ;
N966 G1X536.09Y94.06  ;
N967 G1X529.39Y94.06  ;
N968 G1X529.39Y96.94  ;
N969 G1X570.64Y96.94  ;
N970 G1X570.64Y1697.06  ;
N971 G1X531.86Y1697.06  ;
N972 G1X531.86Y1697.69  ;
N973 G1X536.09Y1697.69  ;
N974 G1X536.09Y1709.06  ;
N975 G1X535.59Y1709.06  ;
N976 G1X535.59Y1738.94  ;
N977 G1X536.09Y1738.94  ;
N978 G1X536.09Y1744.06  ;
N979 G1X263.02Y1744.06  ;
N980 G1X263.02Y1780  ;
N981 G3X258.96Y1784.06I-4.06J0  ;
N982 G1X133.27Y1784.06  ;
N983 G3X127.57Y1781.7I0J-8.06  ;
N984 G1X85.81Y1739.93  ;
N985 G1X82.82Y1735.6  ;
N986 G2X81.83Y1735.22I-0.78J0.53  ;
N987 G1X77.49Y1736.26  ;
N988 G1X10Y1736.26  ;
N989 G65 P9104 A102 B04  ;
N990 M98 P9103  ;
(P9:ID6:W56197510)  ;
N991 M98 P9101  ;
N992 G0X33Y1871.19  ;
N993 G65 P9102 A102 B04  ;
N994 G1X26.5Y1874.95  ;
N995 G1X26.5Y1882.45  ;
N996 G1X33Y1886.21  ;
N997 G1X39.5Y1882.45  ;
N998 G1X39.5Y1874.95  ;
N999 G1X33Y1871.19  ;
N1000 G65 P9104 A102 B04  ;
N1001 G0X136.5Y1874.95  ;
N1002 G65 P9102 A102 B04  ;
N1003 G1X136.5Y1882.45  ;
N1004 G1X143Y1886.21  ;
N1005 G1X149.5Y1882.45  ;
N1006 G1X149.5Y1874.95  ;
N1007 G1X143Y1871.19  ;
N1008 G1X136.5Y1874.95  ;
N1009 G65 P9104 A101 B02  ;
N1010 G0X143.13Y1878.92  ;
N1011 G65 P9102 A101 B02  ;
N1012 G1X146.63Y1882.41  ;
N1013 G3X146.67Y1882.37I-3.63J-3.71  ;
N1014 G65 P9104 A101 B01  ;
N1015 G0X104Y1878.76  ;
N1016 G65 P9102 A101 B01  ;
N1017 G1X107.94Y1878.76  ;
N1018 G3X107.94Y1878.7I-19.94J-0.06  ;
N1019 G65 P9104 A101 B02  ;
N1020 G0X33.13Y1878.92  ;
N1021 G65 P9102 A101 B02  ;
N1022 G1X36.63Y1882.41  ;
N1023 G3X36.67Y1882.37I-3.63J-3.71  ;
N1024 G65 P9104 A101 B01  ;
N1025 G0X12.94Y1790  ;
N1026 G65 P9102 A101 B01  ;
N1027 G1X12.94Y1794  ;
N1028 G1X12.94Y1808.94  ;
N1029 G1X9.94Y1808.94  ;
N1030 G1X9.94Y1819.06  ;
N1031 G1X12.94Y1819.06  ;
N1032 G1X12.94Y1824.06  ;
N1033 G1X16Y1824.06  ;
N1034 G3X17.94Y1826I0J1.94  ;
N1035 G1X17.94Y1846.2  ;
N1036 G3X16Y1848.14I-1.94J0  ;
N1037 G1X12.94Y1848.14  ;
N1038 G1X12.94Y1885.14  ;
N1039 G1X9.94Y1885.14  ;
N1040 G1X9.94Y1895.26  ;
N1041 G1X12.94Y1895.26  ;
N1042 G1X12.94Y1933.22  ;
N1043 G1X22.98Y1943.26  ;
N1044 G1X153.02Y1943.26  ;
N1045 G1X163.06Y1933.22  ;
N1046 G1X163.06Y1895.26  ;
N1047 G1X166.06Y1895.26  ;
N1048 G1X166.06Y1885.14  ;
N1049 G1X163.06Y1885.14  ;
N1050 G1X163.06Y1848.14  ;
N1051 G1X160Y1848.14  ;
N1052 G3X158.06Y1846.2I0J-1.94  ;
N1053 G1X158.06Y1826  ;
N1054 G3X160Y1824.06I1.94J0  ;
N1055 G1X163.06Y1824.06  ;
N1056 G1X163.06Y1819.06  ;
N1057 G1X166.06Y1819.06  ;
N1058 G1X166.06Y1808.94  ;
N1059 G1X163.06Y1808.94  ;
N1060 G1X163.06Y1793.94  ;
N1061 G1X13Y1793.94  ;
N1062 G65 P9104 A102 B04  ;
N1063 M98 P9103  ;
(P10:ID7:W56197513)  ;
N1064 M98 P9101  ;
N1065 G0X202.07Y1815.31  ;
N1066 G65 P9102 A102 B04  ;
N1067 G1X194.57Y1815.31  ;
N1068 G1X190.81Y1821.81  ;
N1069 G1X194.57Y1828.31  ;
N1070 G1X202.07Y1828.31  ;
N1071 G1X205.83Y1821.81  ;
N1072 G1X202.07Y1815.31  ;
N1073 G65 P9104 A102 B04  ;
N1074 G0X231.53Y1871.29  ;
N1075 G65 P9102 A102 B04  ;
N1076 G1X227.78Y1877.79  ;
N1077 G1X231.53Y1884.29  ;
N1078 G1X239.03Y1884.29  ;
N1079 G1X242.79Y1877.79  ;
N1080 G1X239.03Y1871.29  ;
N1081 G1X231.53Y1871.29  ;
N1082 G65 P9104 A101 B02  ;
N1083 G0X235.29Y1878.05  ;
N1084 G65 P9102 A101 B02  ;
N1085 G1X236.57Y1882.82  ;
N1086 G3X236.63Y1882.8I-1.29J-5.03  ;
N1087 G65 P9104 A101 B02  ;
N1088 G0X214.81Y1849.71  ;
N1089 G65 P9102 A101 B02  ;
N1090 G1X214.33Y1853.62  ;
N1091 G1X215.8Y1853.8  ;
N1092 G1X217.03Y1843.8  ;
N1093 G1X213.97Y1843.42  ;
N1094 G1X212.74Y1853.43  ;
N1095 G1X214.27Y1853.61  ;
N1096 G65 P9104 A101 B02  ;
N1097 G0X198.33Y1822.07  ;
N1098 G65 P9102 A101 B02  ;
N1099 G1X199.61Y1826.84  ;
N1100 G3X199.66Y1826.82I-1.29J-5.03  ;
N1101 G65 P9104 A101 B01  ;
N1102 G0X307.72Y1894.33  ;
N1103 G65 P9102 A101 B01  ;
N1104 G1X303.44Y1891.86  ;
N1105 G1X302.46Y1893.55  ;
N1106 G1X301.6Y1893.05  ;
N1107 G1X288.88Y1915.08  ;
N1108 G1X236.37Y1908.64  ;
N1109 G1X236.75Y1905.56  ;
N1110 G1X226.45Y1904.3  ;
N1111 G1X226.07Y1907.37  ;
N1112 G1X213.36Y1905.81  ;
N1113 G3X207.64Y1901.38I0.86J-7.01  ;
N1114 G1X175.93Y1820.47  ;
N1115 G1X190.98Y1794.41  ;
N1116 G1X208.35Y1804.44  ;
N1117 G2X215.1Y1802.63I2.47J-4.28  ;
N1118 G1X220.13Y1793.92  ;
N1119 G1X302.51Y1841.48  ;
N1120 G1X292.48Y1858.85  ;
N1121 G2X294.28Y1865.6I4.27J2.47  ;
N1122 G1X311.66Y1875.63  ;
N1123 G1X304.16Y1888.62  ;
N1124 G1X305.02Y1889.12  ;
N1125 G1X303.85Y1891.15  ;
N1126 G65 P9104 A101 B02  ;
N1127 M98 P9103  ;
(P11:ID8:W56197520)  ;
N1128 M98 P9101  ;
N1129 G0X268.71Y1954.57  ;
N1130 G65 P9102 A101 B02  ;
N1131 G1X265.25Y1956.57  ;
N1132 G2X265.16Y1956.9I0.12J0.2  ;
N1133 G1X266.77Y1959.69  ;
N1134 G1X273.23Y1959.69  ;
N1135 G1X276.45Y1954.1  ;
N1136 G1X273.23Y1948.51  ;
N1137 G1X266.77Y1948.51  ;
N1138 G1X263.55Y1954.1  ;
N1139 G1X265.16Y1956.9  ;
N1140 G65 P9104 A101 B02  ;
N1141 G0X238.71Y1954.57  ;
N1142 G65 P9102 A101 B02  ;
N1143 G1X235.25Y1956.57  ;
N1144 G2X235.16Y1956.9I0.12J0.2  ;
N1145 G1X236.77Y1959.69  ;
N1146 G1X243.23Y1959.69  ;
N1147 G1X246.45Y1954.1  ;
N1148 G1X243.23Y1948.51  ;
N1149 G1X236.77Y1948.51  ;
N1150 G1X233.55Y1954.1  ;
N1151 G1X235.16Y1956.9  ;
N1152 G65 P9104 A101 B01  ;
N1153 G0X250.16Y2122.3  ;
N1154 G65 P9102 A101 B01  ;
N1155 G1X250.24Y2126.3  ;
N1156 G3X250Y2126.54I-0.24J0  ;
N1157 G3X235.06Y2111.6I0J-14.94  ;
N1158 G1X235.06Y2011.6  ;
N1159 G3X264.94Y2011.6I14.94J0  ;
N1160 G1X264.94Y2111.6  ;
N1161 G3X250Y2126.54I-14.94J0  ;
N1162 G65 P9104 A101 B02  ;
N1163 G0X238.71Y2154.57  ;
N1164 G65 P9102 A101 B02  ;
N1165 G1X235.25Y2156.57  ;
N1166 G2X235.16Y2156.9I0.12J0.2  ;
N1167 G1X236.77Y2159.69  ;
N1168 G1X243.23Y2159.69  ;
N1169 G1X246.45Y2154.1  ;
N1170 G1X243.23Y2148.51  ;
N1171 G1X236.77Y2148.51  ;
N1172 G1X233.55Y2154.1  ;
N1173 G1X235.16Y2156.9  ;
N1174 G65 P9104 A101 B02  ;
N1175 G0X268.71Y2154.57  ;
N1176 G65 P9102 A101 B02  ;
N1177 G1X265.25Y2156.57  ;
N1178 G2X265.16Y2156.9I0.12J0.2  ;
N1179 G1X266.77Y2159.69  ;
N1180 G1X273.23Y2159.69  ;
N1181 G1X276.45Y2154.1  ;
N1182 G1X273.23Y2148.51  ;
N1183 G1X266.77Y2148.51  ;
N1184 G1X263.55Y2154.1  ;
N1185 G1X265.16Y2156.9  ;
N1186 G65 P9104 A101 B01  ;
N1187 G0X319.2Y1936.54  ;
N1188 G65 P9102 A101 B01  ;
N1189 G1X315.2Y1936.54  ;
N1190 G1X234Y1936.54  ;
N1191 G2X228.94Y1941.6I0J5.06  ;
N1192 G1X228.94Y1964.6  ;
N1193 G3X224Y1969.54I-4.94J0  ;
N1194 G1X207.94Y1969.54  ;
N1195 G1X207.94Y1973.56  ;
N1196 G1X210.56Y1973.56  ;
N1197 G3X210.94Y1973.94I0.44J-0.06  ;
N1198 G1X210.94Y2167.26  ;
N1199 G3X210.56Y2167.64I0.06J0.44  ;
N1200 G1X207.94Y2167.64  ;
N1201 G1X207.94Y2171.66  ;
N1202 G1X315.26Y2171.66  ;
N1203 G1X315.26Y1936.6  ;
N1204 G65 P9104 A102 B04  ;
N1205 M98 P9103  ;
(P12:ID6:W56197510)  ;
N1206 M98 P9101  ;
N1207 G0X33Y2030.39  ;
N1208 G65 P9102 A102 B04  ;
N1209 G1X26.5Y2034.15  ;
N1210 G1X26.5Y2041.65  ;
N1211 G1X33Y2045.41  ;
N1212 G1X39.5Y2041.65  ;
N1213 G1X39.5Y2034.15  ;
N1214 G1X33Y2030.39  ;
N1215 G65 P9104 A102 B04  ;
N1216 G0X136.5Y2034.15  ;
N1217 G65 P9102 A102 B04  ;
N1218 G1X136.5Y2041.65  ;
N1219 G1X143Y2045.41  ;
N1220 G1X149.5Y2041.65  ;
N1221 G1X149.5Y2034.15  ;
N1222 G1X143Y2030.39  ;
N1223 G1X136.5Y2034.15  ;
N1224 G65 P9104 A101 B02  ;
N1225 G0X143.13Y2038.12  ;
N1226 G65 P9102 A101 B02  ;
N1227 G1X146.63Y2041.61  ;
N1228 G3X146.67Y2041.57I-3.63J-3.71  ;
N1229 G65 P9104 A101 B01  ;
N1230 G0X104Y2037.96  ;
N1231 G65 P9102 A101 B01  ;
N1232 G1X107.94Y2037.96  ;
N1233 G3X107.94Y2037.9I-19.94J-0.06  ;
N1234 G65 P9104 A101 B02  ;
N1235 G0X33.13Y2038.12  ;
N1236 G65 P9102 A101 B02  ;
N1237 G1X36.63Y2041.61  ;
N1238 G3X36.67Y2041.57I-3.63J-3.71  ;
N1239 G65 P9104 A101 B01  ;
N1240 G0X12.94Y1949.2  ;
N1241 G65 P9102 A101 B01  ;
N1242 G1X12.94Y1953.2  ;
N1243 G1X12.94Y1968.14  ;
N1244 G1X9.94Y1968.14  ;
N1245 G1X9.94Y1978.26  ;
N1246 G1X12.94Y1978.26  ;
N1247 G1X12.94Y1983.26  ;
N1248 G1X16Y1983.26  ;
N1249 G3X17.94Y1985.2I0J1.94  ;
N1250 G1X17.94Y2005.4  ;
N1251 G3X16Y2007.34I-1.94J0  ;
N1252 G1X12.94Y2007.34  ;
N1253 G1X12.94Y2044.34  ;
N1254 G1X9.94Y2044.34  ;
N1255 G1X9.94Y2054.46  ;
N1256 G1X12.94Y2054.46  ;
N1257 G1X12.94Y2092.42  ;
N1258 G1X22.98Y2102.46  ;
N1259 G1X153.02Y2102.46  ;
N1260 G1X163.06Y2092.42  ;
N1261 G1X163.06Y2054.46  ;
N1262 G1X166.06Y2054.46  ;
N1263 G1X166.06Y2044.34  ;
N1264 G1X163.06Y2044.34  ;
N1265 G1X163.06Y2007.34  ;
N1266 G1X160Y2007.34  ;
N1267 G3X158.06Y2005.4I0J-1.94  ;
N1268 G1X158.06Y1985.2  ;
N1269 G3X160Y1983.26I1.94J0  ;
N1270 G1X163.06Y1983.26  ;
N1271 G1X163.06Y1978.26  ;
N1272 G1X166.06Y1978.26  ;
N1273 G1X166.06Y1968.14  ;
N1274 G1X163.06Y1968.14  ;
N1275 G1X163.06Y1953.14  ;
N1276 G1X13Y1953.14  ;
N1277 G65 P9104 A102 B04  ;
N1278 M98 P9103  ;
(P13:ID9:W56197519)  ;
N1279 M98 P9101  ;
N1280 G0X42.61Y2299.9  ;
N1281 G65 P9102 A102 B04  ;
N1282 G1X51.39Y2299.9  ;
N1283 G1X55.78Y2307.5  ;
N1284 G1X51.39Y2315.1  ;
N1285 G1X42.61Y2315.1  ;
N1286 G1X38.22Y2307.5  ;
N1287 G1X42.61Y2299.9  ;
N1288 G65 P9104 A102 B04  ;
N1289 G0X143.22Y2291  ;
N1290 G65 P9102 A102 B04  ;
N1291 G1X147.61Y2283.4  ;
N1292 G1X156.39Y2283.4  ;
N1293 G1X160.78Y2291  ;
N1294 G1X156.39Y2298.6  ;
N1295 G1X147.61Y2298.6  ;
N1296 G1X143.22Y2291  ;
N1297 G65 P9104 A101 B02  ;
N1298 G0X152.84Y2291.93  ;
N1299 G65 P9102 A101 B02  ;
N1300 G1X156.33Y2295.42  ;
N1301 G3X156.38Y2295.38I-4.33J-4.42  ;
N1302 G65 P9104 A101 B01  ;
N1303 G0X92.18Y2303.2  ;
N1304 G65 P9102 A101 B01  ;
N1305 G1X92.24Y2307.2  ;
N1306 G3X92Y2307.44I-0.24J0  ;
N1307 G3X72.06Y2287.5I0J-19.94  ;
N1308 G1X72.06Y2227.5  ;
N1309 G3X111.94Y2227.5I19.94J0  ;
N1310 G1X111.94Y2287.5  ;
N1311 G3X92Y2307.44I-19.94J0  ;
N1312 G65 P9104 A101 B02  ;
N1313 G0X47.84Y2308.43  ;
N1314 G65 P9102 A101 B02  ;
N1315 G1X51.33Y2311.92  ;
N1316 G3X51.38Y2311.88I-4.33J-4.42  ;
N1317 G65 P9104 A101 B01  ;
N1318 G0X11.94Y2177  ;
N1319 G65 P9102 A101 B01  ;
N1320 G1X11.94Y2181  ;
N1321 G1X11.94Y2330.56  ;
N1322 G1X172.06Y2330.56  ;
N1323 G1X172.06Y2180.94  ;
N1324 G1X167.19Y2180.94  ;
N1325 G1X167.19Y2183.94  ;
N1326 G1X16.81Y2183.94  ;
N1327 G1X16.81Y2180.94  ;
N1328 G1X12Y2180.94  ;
N1329 G65 P9104 A102 B04  ;
N1330 M98 P9103  ;
(P14:ID6:W56197510)  ;
N1331 M98 P9101  ;
N1332 G0X205Y2258.79  ;
N1333 G65 P9102 A102 B04  ;
N1334 G1X198.5Y2262.55  ;
N1335 G1X198.5Y2270.05  ;
N1336 G1X205Y2273.81  ;
N1337 G1X211.5Y2270.05  ;
N1338 G1X211.5Y2262.55  ;
N1339 G1X205Y2258.79  ;
N1340 G65 P9104 A102 B04  ;
N1341 G0X308.5Y2262.55  ;
N1342 G65 P9102 A102 B04  ;
N1343 G1X308.5Y2270.05  ;
N1344 G1X315Y2273.81  ;
N1345 G1X321.5Y2270.05  ;
N1346 G1X321.5Y2262.55  ;
N1347 G1X315Y2258.79  ;
N1348 G1X308.5Y2262.55  ;
N1349 G65 P9104 A101 B02  ;
N1350 G0X315.13Y2266.52  ;
N1351 G65 P9102 A101 B02  ;
N1352 G1X318.63Y2270.01  ;
N1353 G3X318.67Y2269.97I-3.63J-3.71  ;
N1354 G65 P9104 A101 B01  ;
N1355 G0X276Y2266.36  ;
N1356 G65 P9102 A101 B01  ;
N1357 G1X279.94Y2266.36  ;
N1358 G3X279.94Y2266.3I-19.94J-0.06  ;
N1359 G65 P9104 A101 B02  ;
N1360 G0X205.13Y2266.52  ;
N1361 G65 P9102 A101 B02  ;
N1362 G1X208.63Y2270.01  ;
N1363 G3X208.67Y2269.97I-3.63J-3.71  ;
N1364 G65 P9104 A101 B01  ;
N1365 G0X184.94Y2177.6  ;
N1366 G65 P9102 A101 B01  ;
N1367 G1X184.94Y2181.6  ;
N1368 G1X184.94Y2196.54  ;
N1369 G1X181.94Y2196.54  ;
N1370 G1X181.94Y2206.66  ;
N1371 G1X184.94Y2206.66  ;
N1372 G1X184.94Y2211.66  ;
N1373 G1X188Y2211.66  ;
N1374 G3X189.94Y2213.6I0J1.94  ;
N1375 G1X189.94Y2233.8  ;
N1376 G3X188Y2235.74I-1.94J0  ;
N1377 G1X184.94Y2235.74  ;
N1378 G1X184.94Y2272.74  ;
N1379 G1X181.94Y2272.74  ;
N1380 G1X181.94Y2282.86  ;
N1381 G1X184.94Y2282.86  ;
N1382 G1X184.94Y2320.82  ;
N1383 G1X194.98Y2330.86  ;
N1384 G1X325.02Y2330.86  ;
N1385 G1X335.06Y2320.82  ;
N1386 G1X335.06Y2282.86  ;
N1387 G1X338.06Y2282.86  ;
N1388 G1X338.06Y2272.74  ;
N1389 G1X335.06Y2272.74  ;
N1390 G1X335.06Y2235.74  ;
N1391 G1X332Y2235.74  ;
N1392 G3X330.06Y2233.8I0J-1.94  ;
N1393 G1X330.06Y2213.6  ;
N1394 G3X332Y2211.66I1.94J0  ;
N1395 G1X335.06Y2211.66  ;
N1396 G1X335.06Y2206.66  ;
N1397 G1X338.06Y2206.66  ;
N1398 G1X338.06Y2196.54  ;
N1399 G1X335.06Y2196.54  ;
N1400 G1X335.06Y2181.54  ;
N1401 G1X185Y2181.54  ;
N1402 G65 P9104 A102 B04  ;
N1403 M98 P9103  ;
(P15:ID10:W56244401)  ;
N1404 M98 P9101  ;
N1405 G0X1188.51Y2101  ;
N1406 G65 P9102 A102 B04  ;
N1407 G1X1192.48Y2106.68  ;
N1408 G1X1199.39Y2106.07  ;
N1409 G1X1202.31Y2099.79  ;
N1410 G1X1198.34Y2094.12  ;
N1411 G1X1191.44Y2094.72  ;
N1412 G1X1188.51Y2101  ;
N1413 G65 P9104 A102 B04  ;
N1414 G0X1183.77Y2007.06  ;
N1415 G65 P9102 A102 B04  ;
N1416 G1X1190.67Y2006.45  ;
N1417 G1X1193.6Y2000.17  ;
N1418 G1X1189.62Y1994.5  ;
N1419 G1X1182.72Y1995.1  ;
N1420 G1X1179.79Y2001.38  ;
N1421 G1X1183.77Y2007.06  ;
N1422 G65 P9104 A102 B04  ;
N1423 G0X1177.23Y1932.34  ;
N1424 G65 P9102 A102 B04  ;
N1425 G1X1184.13Y1931.74  ;
N1426 G1X1187.06Y1925.46  ;
N1427 G1X1183.09Y1919.78  ;
N1428 G1X1176.19Y1920.39  ;
N1429 G1X1173.26Y1926.67  ;
N1430 G1X1177.23Y1932.34  ;
N1431 G65 P9104 A101 B02  ;
N1432 G0X1180.37Y1925.91  ;
N1433 G65 P9102 A101 B02  ;
N1434 G1X1183.54Y1922.13  ;
N1435 G3X1183.5Y1922.09I-3.38J3.93  ;
N1436 G65 P9104 A101 B02  ;
N1437 G0X1133.88Y1893.51  ;
N1438 G65 P9102 A101 B02  ;
N1439 G1X1137.15Y1891.21  ;
N1440 G2X1137.21Y1890.88I-0.13J-0.2  ;
N1441 G1X1135.36Y1888.23  ;
N1442 G1X1128.93Y1888.8  ;
N1443 G1X1126.2Y1894.65  ;
N1444 G1X1129.91Y1899.93  ;
N1445 G1X1136.34Y1899.37  ;
N1446 G1X1139.06Y1893.52  ;
N1447 G1X1137.21Y1890.88  ;
N1448 G65 P9104 A101 B02  ;
N1449 G0X1186.9Y2000.62  ;
N1450 G65 P9102 A101 B02  ;
N1451 G1X1190.08Y1996.84  ;
N1452 G3X1190.03Y1996.8I-3.38J3.94  ;
N1453 G65 P9104 A101 B02  ;
N1454 G0X1195.62Y2100.24  ;
N1455 G65 P9102 A101 B02  ;
N1456 G1X1198.79Y2096.46  ;
N1457 G3X1198.75Y2096.42I-3.38J3.94  ;
N1458 G65 P9104 A101 B02  ;
N1459 G0X1153.52Y2155.3  ;
N1460 G65 P9102 A101 B02  ;
N1461 G1X1156.7Y2151.52  ;
N1462 G3X1156.65Y2151.48I-3.22J3.74  ;
N1463 G65 P9104 A101 B02  ;
N1464 G0X1157.88Y2205.11  ;
N1465 G65 P9102 A101 B02  ;
N1466 G1X1161.06Y2201.33  ;
N1467 G3X1161.01Y2201.29I-3.23J3.74  ;
N1468 G65 P9104 A101 B02  ;
N1469 G0X1176.67Y2382.64  ;
N1470 G65 P9102 A101 B02  ;
N1471 G1X1179.95Y2380.34  ;
N1472 G2X1180.01Y2380.01I-0.14J-0.19  ;
N1473 G1X1178.16Y2377.37  ;
N1474 G1X1171.73Y2377.93  ;
N1475 G1X1169Y2383.78  ;
N1476 G1X1172.7Y2389.07  ;
N1477 G1X1179.13Y2388.5  ;
N1478 G1X1181.86Y2382.65  ;
N1479 G1X1180.01Y2380.01  ;
N1480 G65 P9104 A101 B01  ;
N1481 G0X376.51Y2480.21  ;
N1482 G65 P9102 A101 B01  ;
N1483 G1X376.16Y2476.23  ;
N1484 G1X376.04Y2474.8  ;
N1485 G1X375.04Y2474.88  ;
N1486 G1X313.93Y1776.43  ;
N1487 G1X314.93Y1776.34  ;
N1488 G1X314.8Y1774.85  ;
N1489 G1X316.29Y1774.72  ;
N1490 G1X316.21Y1773.72  ;
N1491 G1X571.11Y1751.42  ;
N1492 G1X571.37Y1754.41  ;
N1493 G1X942.15Y1721.97  ;
N1494 G2X947.55Y1715.54I-0.52J-5.92  ;
N1495 G1X942.32Y1655.76  ;
N1496 G3X947.83Y1649.2I6.04J-0.52  ;
N1497 G1X1080.82Y1637.56  ;
N1498 G3X1087.39Y1643.07I0.53J6.04  ;
N1499 G1X1090.88Y1682.98  ;
N1500 G1X1087.89Y1683.24  ;
N1501 G1X1087.97Y1684.12  ;
N1502 G1X1098.03Y1683.24  ;
N1503 G1X1098.07Y1683.74  ;
N1504 G1X1127.84Y1681.13  ;
N1505 G1X1127.8Y1680.63  ;
N1506 G1X1173.45Y1676.64  ;
N1507 G1X1238.83Y2423.9  ;
N1508 G1X1193.17Y2427.9  ;
N1509 G1X1193.13Y2427.4  ;
N1510 G1X1163.36Y2430  ;
N1511 G1X1163.41Y2430.5  ;
N1512 G1X1153.35Y2431.38  ;
N1513 G1X1153.42Y2432.26  ;
N1514 G1X1156.41Y2432  ;
N1515 G1X1159.9Y2471.91  ;
N1516 G3X1154.39Y2478.47I-6.03J0.52  ;
N1517 G1X1021.4Y2490.11  ;
N1518 G3X1014.84Y2484.6I-0.53J-6.04  ;
N1519 G1X1009.09Y2418.91  ;
N1520 G1X632.39Y2451.87  ;
N1521 G1X632.65Y2454.85  ;
N1522 G1X377.75Y2477.15  ;
N1523 G1X377.66Y2476.16  ;
N1524 G1X376.23Y2476.28  ;
N1525 G65 P9104 A102 B04  ;
N1526 M98 P9103  ;
(P16:ID6:W56197510)  ;
N1527 M98 P9101  ;
N1528 G0X205Y2417.99  ;
N1529 G65 P9102 A102 B04  ;
N1530 G1X198.5Y2421.75  ;
N1531 G1X198.5Y2429.25  ;
N1532 G1X205Y2433.01  ;
N1533 G1X211.5Y2429.25  ;
N1534 G1X211.5Y2421.75  ;
N1535 G1X205Y2417.99  ;
N1536 G65 P9104 A102 B04  ;
N1537 G0X308.5Y2421.75  ;
N1538 G65 P9102 A102 B04  ;
N1539 G1X308.5Y2429.25  ;
N1540 G1X315Y2433.01  ;
N1541 G1X321.5Y2429.25  ;
N1542 G1X321.5Y2421.75  ;
N1543 G1X315Y2417.99  ;
N1544 G1X308.5Y2421.75  ;
N1545 G65 P9104 A101 B02  ;
N1546 G0X315.13Y2425.72  ;
N1547 G65 P9102 A101 B02  ;
N1548 G1X318.63Y2429.21  ;
N1549 G3X318.67Y2429.17I-3.63J-3.71  ;
N1550 G65 P9104 A101 B01  ;
N1551 G0X276Y2425.56  ;
N1552 G65 P9102 A101 B01  ;
N1553 G1X279.94Y2425.56  ;
N1554 G3X279.94Y2425.5I-19.94J-0.06  ;
N1555 G65 P9104 A101 B02  ;
N1556 G0X205.13Y2425.72  ;
N1557 G65 P9102 A101 B02  ;
N1558 G1X208.63Y2429.21  ;
N1559 G3X208.67Y2429.17I-3.63J-3.71  ;
N1560 G65 P9104 A101 B01  ;
N1561 G0X184.94Y2336.8  ;
N1562 G65 P9102 A101 B01  ;
N1563 G1X184.94Y2340.8  ;
N1564 G1X184.94Y2355.74  ;
N1565 G1X181.94Y2355.74  ;
N1566 G1X181.94Y2365.86  ;
N1567 G1X184.94Y2365.86  ;
N1568 G1X184.94Y2370.86  ;
N1569 G1X188Y2370.86  ;
N1570 G3X189.94Y2372.8I0J1.94  ;
N1571 G1X189.94Y2393  ;
N1572 G3X188Y2394.94I-1.94J0  ;
N1573 G1X184.94Y2394.94  ;
N1574 G1X184.94Y2431.94  ;
N1575 G1X181.94Y2431.94  ;
N1576 G1X181.94Y2442.06  ;
N1577 G1X184.94Y2442.06  ;
N1578 G1X184.94Y2480.02  ;
N1579 G1X194.98Y2490.06  ;
N1580 G1X325.02Y2490.06  ;
N1581 G1X335.06Y2480.02  ;
N1582 G1X335.06Y2442.06  ;
N1583 G1X338.06Y2442.06  ;
N1584 G1X338.06Y2431.94  ;
N1585 G1X335.06Y2431.94  ;
N1586 G1X335.06Y2394.94  ;
N1587 G1X332Y2394.94  ;
N1588 G3X330.06Y2393I0J-1.94  ;
N1589 G1X330.06Y2372.8  ;
N1590 G3X332Y2370.86I1.94J0  ;
N1591 G1X335.06Y2370.86  ;
N1592 G1X335.06Y2365.86  ;
N1593 G1X338.06Y2365.86  ;
N1594 G1X338.06Y2355.74  ;
N1595 G1X335.06Y2355.74  ;
N1596 G1X335.06Y2340.74  ;
N1597 G1X185Y2340.74  ;
N1598 G65 P9104 A102 B04  ;
N1599 M98 P9103  ;
(P17:ID9:W56197519)  ;
N1600 M98 P9101  ;
N1601 G0X42.61Y2459.4  ;
N1602 G65 P9102 A102 B04  ;
N1603 G1X51.39Y2459.4  ;
N1604 G1X55.78Y2467  ;
N1605 G1X51.39Y2474.6  ;
N1606 G1X42.61Y2474.6  ;
N1607 G1X38.22Y2467  ;
N1608 G1X42.61Y2459.4  ;
N1609 G65 P9104 A102 B04  ;
N1610 G0X143.22Y2450.5  ;
N1611 G65 P9102 A102 B04  ;
N1612 G1X147.61Y2442.9  ;
N1613 G1X156.39Y2442.9  ;
N1614 G1X160.78Y2450.5  ;
N1615 G1X156.39Y2458.1  ;
N1616 G1X147.61Y2458.1  ;
N1617 G1X143.22Y2450.5  ;
N1618 G65 P9104 A101 B02  ;
N1619 G0X152.84Y2451.43  ;
N1620 G65 P9102 A101 B02  ;
N1621 G1X156.33Y2454.92  ;
N1622 G3X156.38Y2454.88I-4.33J-4.42  ;
N1623 G65 P9104 A101 B01  ;
N1624 G0X92.18Y2462.7  ;
N1625 G65 P9102 A101 B01  ;
N1626 G1X92.24Y2466.7  ;
N1627 G3X92Y2466.94I-0.24J0  ;
N1628 G3X72.06Y2447I0J-19.94  ;
N1629 G1X72.06Y2387  ;
N1630 G3X111.94Y2387I19.94J0  ;
N1631 G1X111.94Y2447  ;
N1632 G3X92Y2466.94I-19.94J0  ;
N1633 G65 P9104 A101 B02  ;
N1634 G0X47.84Y2467.93  ;
N1635 G65 P9102 A101 B02  ;
N1636 G1X51.33Y2471.42  ;
N1637 G3X51.38Y2471.38I-4.33J-4.42  ;
N1638 G65 P9104 A101 B01  ;
N1639 G0X11.94Y2336.5  ;
N1640 G65 P9102 A101 B01  ;
N1641 G1X11.94Y2340.5  ;
N1642 G1X11.94Y2490.06  ;
N1643 G1X172.06Y2490.06  ;
N1644 G1X172.06Y2340.44  ;
N1645 G1X167.19Y2340.44  ;
N1646 G1X167.19Y2343.44  ;
N1647 G1X16.81Y2343.44  ;
N1648 G1X16.81Y2340.44  ;
N1649 G1X12Y2340.44  ;
N1650 M98 P9104  ;
N1651 M98 P9103  ;
(FOOTER)
N1652 M98 P9110  ;
N1653 M30  ;
%
