O0099  ;
( MACHINE : TCI Laser )  ;
( MATERIAL : Acero al carbono N2 )  ;
( THICKNESS : 3 )  ;
( REPETITIONS : 1 )  ;
( SIMULATION TIME : 00:19:18 )  ;
( FORMAT : 1000x1500 )  ;
( JOB NUMBER : VARS5640\K564121s30 )  ;
( PROGRAM NUMBER : 12098 )  ;
( TYPE : 0 )  ;
( NUMBER OF SHEETS : 1 )  ;
( CUTTING HEADS : 1 )  ;
#516= 1  ;
#517= 1  ;
N105 G65 P9100 A103 B02  ;
(P1:ID1:W56402105)  ;
N106 M98 P9101  ;
N107 G0X487.85Y36.58  ;
N108 G65 P9102 A101 B02  ;
N109 G1X485.77Y38.66  ;
N110 G3X485.8Y38.7I5.23J-5.16  ;
N111 G65 P9104 A101 B02  ;
N112 G0X487.85Y146.58  ;
N113 G65 P9102 A101 B02  ;
N114 G1X485.77Y148.66  ;
N115 G3X485.8Y148.7I5.23J-5.16  ;
N116 G65 P9104 A101 B01  ;
N117 G0X564.5Y17.59  ;
N118 G65 P9102 A101 B01  ;
N119 G1X559.55Y17.59  ;
N120 G1X559.55Y14  ;
N121 G2X559Y13.45I-0.55J0  ;
N122 G1X489Y13.45  ;
N123 G2X480.95Y21.5I0J8.05  ;
N124 G1X480.95Y60.55  ;
N125 G1X485.45Y60.55  ;
N126 G1X485.45Y63.45  ;
N127 G1X445.45Y63.45  ;
N128 G1X445.45Y113.55  ;
N129 G1X485.45Y113.55  ;
N130 G1X485.45Y116.45  ;
N131 G1X480.95Y116.45  ;
N132 G1X480.95Y155.5  ;
N133 G2X489Y163.55I8.05J0  ;
N134 G1X559Y163.55  ;
N135 G2X559.55Y163I0J-0.55  ;
N136 G1X559.55Y154  ;
N137 G2X559Y153.45I-0.55J0  ;
N138 G1X556.69Y153.45  ;
N139 G3X556.55Y153.31I-0.19J0.05  ;
N140 G1X556.55Y23.69  ;
N141 G3X556.69Y23.55I-0.05J-0.19  ;
N142 G1X559Y23.55  ;
N143 G2X559.55Y23I0J-0.55  ;
N144 G1X559.55Y18.29  ;
N145 G65 P9104 A101 B01  ;
N146 M98 P9103  ;
(P2:ID2:W56397735)  ;
N147 M98 P9101  ;
N148 G0X565.5Y13.45  ;
N149 G65 P9102 A101 B01  ;
N150 G1X568.5Y13.45  ;
N151 G1X982.86Y13.45  ;
N152 G1X982.86Y43.45  ;
N153 G1X985.86Y43.45  ;
N154 G1X985.86Y47.5  ;
N155 G3X984.81Y48.55I-1.05J0  ;
N156 G1X982.86Y48.55  ;
N157 G1X982.86Y198.73  ;
N158 G1X938.14Y190.9  ;
N159 G1X938.14Y237.16  ;
N160 G1X613.18Y237.16  ;
N161 G1X613.18Y190.9  ;
N162 G1X568.45Y198.73  ;
N163 G1X568.45Y48.55  ;
N164 G1X566.5Y48.55  ;
N165 G3X565.45Y47.5I0J-1.05  ;
N166 G1X565.45Y43.45  ;
N167 G1X568.45Y43.45  ;
N168 G1X568.45Y13.5  ;
N169 G65 P9104 A101 B02  ;
N170 M98 P9103  ;
(P3:ID1:W56402105)  ;
N171 M98 P9101  ;
N172 G0X487.85Y193.58  ;
N173 G65 P9102 A101 B02  ;
N174 G1X485.77Y195.66  ;
N175 G3X485.8Y195.7I5.23J-5.16  ;
N176 G65 P9104 A101 B02  ;
N177 G0X487.85Y303.58  ;
N178 G65 P9102 A101 B02  ;
N179 G1X485.77Y305.66  ;
N180 G3X485.8Y305.7I5.23J-5.16  ;
N181 G65 P9104 A101 B01  ;
N182 G0X564.5Y174.59  ;
N183 G65 P9102 A101 B01  ;
N184 G1X559.55Y174.59  ;
N185 G1X559.55Y171  ;
N186 G2X559Y170.45I-0.55J0  ;
N187 G1X489Y170.45  ;
N188 G2X480.95Y178.5I0J8.05  ;
N189 G1X480.95Y217.55  ;
N190 G1X485.45Y217.55  ;
N191 G1X485.45Y220.45  ;
N192 G1X445.45Y220.45  ;
N193 G1X445.45Y270.55  ;
N194 G1X485.45Y270.55  ;
N195 G1X485.45Y273.45  ;
N196 G1X480.95Y273.45  ;
N197 G1X480.95Y312.5  ;
N198 G2X489Y320.55I8.05J0  ;
N199 G1X559Y320.55  ;
N200 G2X559.55Y320I0J-0.55  ;
N201 G1X559.55Y311  ;
N202 G2X559Y310.45I-0.55J0  ;
N203 G1X556.69Y310.45  ;
N204 G3X556.55Y310.31I-0.19J0.05  ;
N205 G1X556.55Y180.69  ;
N206 G3X556.69Y180.55I-0.05J-0.19  ;
N207 G1X559Y180.55  ;
N208 G2X559.55Y180I0J-0.55  ;
N209 G1X559.55Y175.29  ;
N210 G65 P9104 A101 B02  ;
N211 M98 P9103  ;
(P4:ID3:W56402104)  ;
N212 M98 P9101  ;
N213 G0X370.77Y285.16  ;
N214 G65 P9102 A101 B02  ;
N215 G1X367.27Y288.66  ;
N216 G3X367.3Y288.7I5.23J-5.16  ;
N217 G65 P9104 A101 B02  ;
N218 G0X370.77Y45.16  ;
N219 G65 P9102 A101 B02  ;
N220 G1X367.27Y48.66  ;
N221 G3X367.3Y48.7I5.23J-5.16  ;
N222 G65 P9104 A101 B01  ;
N223 G0X440Y18.43  ;
N224 G65 P9102 A101 B01  ;
N225 G1X435.05Y18.43  ;
N226 G1X435.05Y14  ;
N227 G2X434.5Y13.45I-0.55J0  ;
N228 G1X370.5Y13.45  ;
N229 G2X362.45Y21.5I0J8.05  ;
N230 G1X362.45Y80.55  ;
N231 G1X366.95Y80.55  ;
N232 G1X366.95Y83.45  ;
N233 G1X332.95Y83.45  ;
N234 G1X332.95Y243.55  ;
N235 G1X366.95Y243.55  ;
N236 G1X366.95Y246.45  ;
N237 G1X362.45Y246.45  ;
N238 G1X362.45Y305.5  ;
N239 G2X370.5Y313.55I8.05J0  ;
N240 G1X434.5Y313.55  ;
N241 G2X435.05Y313I0J-0.55  ;
N242 G1X435.05Y304  ;
N243 G2X434.5Y303.45I-0.55J0  ;
N244 G1X432.19Y303.45  ;
N245 G3X432.05Y303.31I-0.19J0.05  ;
N246 G1X432.05Y23.69  ;
N247 G3X432.19Y23.55I-0.05J-0.19  ;
N248 G1X434.5Y23.55  ;
N249 G2X435.05Y23I0J-0.55  ;
N250 G1X435.05Y19.08  ;
N251 G65 P9104 A101 B02  ;
N252 M98 P9103  ;
(P5:ID3:W56402104)  ;
N253 M98 P9101  ;
N254 G0X264.27Y45.16  ;
N255 G65 P9102 A101 B02  ;
N256 G1X260.77Y48.66  ;
N257 G3X260.8Y48.7I5.23J-5.16  ;
N258 G65 P9104 A101 B02  ;
N259 G0X264.27Y285.16  ;
N260 G65 P9102 A101 B02  ;
N261 G1X260.77Y288.66  ;
N262 G3X260.8Y288.7I5.23J-5.16  ;
N263 G65 P9104 A101 B01  ;
N264 G0X333.5Y18.43  ;
N265 G65 P9102 A101 B01  ;
N266 G1X328.55Y18.43  ;
N267 G1X328.55Y14  ;
N268 G2X328Y13.45I-0.55J0  ;
N269 G1X264Y13.45  ;
N270 G2X255.95Y21.5I0J8.05  ;
N271 G1X255.95Y80.55  ;
N272 G1X260.45Y80.55  ;
N273 G1X260.45Y83.45  ;
N274 G1X226.45Y83.45  ;
N275 G1X226.45Y243.55  ;
N276 G1X260.45Y243.55  ;
N277 G1X260.45Y246.45  ;
N278 G1X255.95Y246.45  ;
N279 G1X255.95Y305.5  ;
N280 G2X264Y313.55I8.05J0  ;
N281 G1X328Y313.55  ;
N282 G2X328.55Y313I0J-0.55  ;
N283 G1X328.55Y304  ;
N284 G2X328Y303.45I-0.55J0  ;
N285 G1X325.69Y303.45  ;
N286 G3X325.55Y303.31I-0.19J0.05  ;
N287 G1X325.55Y23.69  ;
N288 G3X325.69Y23.55I-0.05J-0.19  ;
N289 G1X328Y23.55  ;
N290 G2X328.55Y23I0J-0.55  ;
N291 G1X328.55Y19.08  ;
N292 G65 P9104 A101 B02  ;
N293 M98 P9103  ;
(P6:ID3:W56402104)  ;
N294 M98 P9101  ;
N295 G0X157.77Y45.16  ;
N296 G65 P9102 A101 B02  ;
N297 G1X154.27Y48.66  ;
N298 G3X154.3Y48.7I5.23J-5.16  ;
N299 G65 P9104 A101 B02  ;
N300 G0X157.77Y285.16  ;
N301 G65 P9102 A101 B02  ;
N302 G1X154.27Y288.66  ;
N303 G3X154.3Y288.7I5.23J-5.16  ;
N304 G65 P9104 A101 B01  ;
N305 G0X227Y18.43  ;
N306 G65 P9102 A101 B01  ;
N307 G1X222.05Y18.43  ;
N308 G1X222.05Y14  ;
N309 G2X221.5Y13.45I-0.55J0  ;
N310 G1X157.5Y13.45  ;
N311 G2X149.45Y21.5I0J8.05  ;
N312 G1X149.45Y80.55  ;
N313 G1X153.95Y80.55  ;
N314 G1X153.95Y83.45  ;
N315 G1X119.95Y83.45  ;
N316 G1X119.95Y243.55  ;
N317 G1X153.95Y243.55  ;
N318 G1X153.95Y246.45  ;
N319 G1X149.45Y246.45  ;
N320 G1X149.45Y305.5  ;
N321 G2X157.5Y313.55I8.05J0  ;
N322 G1X221.5Y313.55  ;
N323 G2X222.05Y313I0J-0.55  ;
N324 G1X222.05Y304  ;
N325 G2X221.5Y303.45I-0.55J0  ;
N326 G1X219.19Y303.45  ;
N327 G3X219.05Y303.31I-0.19J0.05  ;
N328 G1X219.05Y23.69  ;
N329 G3X219.19Y23.55I-0.05J-0.19  ;
N330 G1X221.5Y23.55  ;
N331 G2X222.05Y23I0J-0.55  ;
N332 G1X222.05Y19.08  ;
N333 G65 P9104 A101 B02  ;
N334 M98 P9103  ;
(P7:ID3:W56402104)  ;
N335 M98 P9101  ;
N336 G0X51.27Y45.16  ;
N337 G65 P9102 A101 B02  ;
N338 G1X47.77Y48.66  ;
N339 G3X47.8Y48.7I5.23J-5.16  ;
N340 G65 P9104 A101 B02  ;
N341 G0X51.27Y285.16  ;
N342 G65 P9102 A101 B02  ;
N343 G1X47.77Y288.66  ;
N344 G3X47.8Y288.7I5.23J-5.16  ;
N345 G65 P9104 A101 B01  ;
N346 G0X120.5Y18.43  ;
N347 G65 P9102 A101 B01  ;
N348 G1X115.55Y18.43  ;
N349 G1X115.55Y14  ;
N350 G2X115Y13.45I-0.55J0  ;
N351 G1X51Y13.45  ;
N352 G2X42.95Y21.5I0J8.05  ;
N353 G1X42.95Y80.55  ;
N354 G1X47.45Y80.55  ;
N355 G1X47.45Y83.45  ;
N356 G1X13.45Y83.45  ;
N357 G1X13.45Y243.55  ;
N358 G1X47.45Y243.55  ;
N359 G1X47.45Y246.45  ;
N360 G1X42.95Y246.45  ;
N361 G1X42.95Y305.5  ;
N362 G2X51Y313.55I8.05J0  ;
N363 G1X115Y313.55  ;
N364 G2X115.55Y313I0J-0.55  ;
N365 G1X115.55Y304  ;
N366 G2X115Y303.45I-0.55J0  ;
N367 G1X112.69Y303.45  ;
N368 G3X112.55Y303.31I-0.19J0.05  ;
N369 G1X112.55Y23.69  ;
N370 G3X112.69Y23.55I-0.05J-0.19  ;
N371 G1X115Y23.55  ;
N372 G2X115.55Y23I0J-0.55  ;
N373 G1X115.55Y19.08  ;
N374 G65 P9104 A101 B02  ;
N375 M98 P9103  ;
(P8:ID1:W56402105)  ;
N376 M98 P9101  ;
N377 G0X487.85Y350.58  ;
N378 G65 P9102 A101 B02  ;
N379 G1X485.77Y352.66  ;
N380 G3X485.8Y352.7I5.23J-5.16  ;
N381 G65 P9104 A101 B02  ;
N382 G0X487.85Y460.58  ;
N383 G65 P9102 A101 B02  ;
N384 G1X485.77Y462.66  ;
N385 G3X485.8Y462.7I5.23J-5.16  ;
N386 G65 P9104 A101 B01  ;
N387 G0X564.5Y331.59  ;
N388 G65 P9102 A101 B01  ;
N389 G1X559.55Y331.59  ;
N390 G1X559.55Y328  ;
N391 G2X559Y327.45I-0.55J0  ;
N392 G1X489Y327.45  ;
N393 G2X480.95Y335.5I0J8.05  ;
N394 G1X480.95Y374.55  ;
N395 G1X485.45Y374.55  ;
N396 G1X485.45Y377.45  ;
N397 G1X445.45Y377.45  ;
N398 G1X445.45Y427.55  ;
N399 G1X485.45Y427.55  ;
N400 G1X485.45Y430.45  ;
N401 G1X480.95Y430.45  ;
N402 G1X480.95Y469.5  ;
N403 G2X489Y477.55I8.05J0  ;
N404 G1X559Y477.55  ;
N405 G2X559.55Y477I0J-0.55  ;
N406 G1X559.55Y468  ;
N407 G2X559Y467.45I-0.55J0  ;
N408 G1X556.69Y467.45  ;
N409 G3X556.55Y467.31I-0.19J0.05  ;
N410 G1X556.55Y337.69  ;
N411 G3X556.69Y337.55I-0.05J-0.19  ;
N412 G1X559Y337.55  ;
N413 G2X559.55Y337I0J-0.55  ;
N414 G1X559.55Y332.29  ;
N415 G65 P9104 A101 B01  ;
N416 M98 P9103  ;
(P9:ID2:W56397735)  ;
N417 M98 P9101  ;
N418 G0X565.5Y244.05  ;
N419 G65 P9102 A101 B01  ;
N420 G1X568.5Y244.05  ;
N421 G1X982.86Y244.05  ;
N422 G1X982.86Y274.05  ;
N423 G1X985.86Y274.05  ;
N424 G1X985.86Y278.1  ;
N425 G3X984.81Y279.15I-1.05J0  ;
N426 G1X982.86Y279.15  ;
N427 G1X982.86Y429.33  ;
N428 G1X938.14Y421.5  ;
N429 G1X938.14Y467.76  ;
N430 G1X613.18Y467.76  ;
N431 G1X613.18Y421.5  ;
N432 G1X568.45Y429.33  ;
N433 G1X568.45Y279.15  ;
N434 G1X566.5Y279.15  ;
N435 G3X565.45Y278.1I0J-1.05  ;
N436 G1X565.45Y274.05  ;
N437 G1X568.45Y274.05  ;
N438 G1X568.45Y244.1  ;
N439 G65 P9104 A101 B01  ;
N440 M98 P9103  ;
(P10:ID2:W56397735)  ;
N441 M98 P9101  ;
N442 G0X565.5Y474.65  ;
N443 G65 P9102 A101 B01  ;
N444 G1X568.5Y474.65  ;
N445 G1X982.86Y474.65  ;
N446 G1X982.86Y504.65  ;
N447 G1X985.86Y504.65  ;
N448 G1X985.86Y508.7  ;
N449 G3X984.81Y509.75I-1.05J0  ;
N450 G1X982.86Y509.75  ;
N451 G1X982.86Y659.93  ;
N452 G1X938.14Y652.1  ;
N453 G1X938.14Y698.36  ;
N454 G1X613.18Y698.36  ;
N455 G1X613.18Y652.1  ;
N456 G1X568.45Y659.93  ;
N457 G1X568.45Y509.75  ;
N458 G1X566.5Y509.75  ;
N459 G3X565.45Y508.7I0J-1.05  ;
N460 G1X565.45Y504.65  ;
N461 G1X568.45Y504.65  ;
N462 G1X568.45Y474.7  ;
N463 G65 P9104 A101 B02  ;
N464 M98 P9103  ;
(P11:ID1:W56402105)  ;
N465 M98 P9101  ;
N466 G0X487.85Y507.58  ;
N467 G65 P9102 A101 B02  ;
N468 G1X485.77Y509.66  ;
N469 G3X485.8Y509.7I5.23J-5.16  ;
N470 G65 P9104 A101 B02  ;
N471 G0X487.85Y617.58  ;
N472 G65 P9102 A101 B02  ;
N473 G1X485.77Y619.66  ;
N474 G3X485.8Y619.7I5.23J-5.16  ;
N475 G65 P9104 A101 B01  ;
N476 G0X564.5Y488.59  ;
N477 G65 P9102 A101 B01  ;
N478 G1X559.55Y488.59  ;
N479 G1X559.55Y485  ;
N480 G2X559Y484.45I-0.55J0  ;
N481 G1X489Y484.45  ;
N482 G2X480.95Y492.5I0J8.05  ;
N483 G1X480.95Y531.55  ;
N484 G1X485.45Y531.55  ;
N485 G1X485.45Y534.45  ;
N486 G1X445.45Y534.45  ;
N487 G1X445.45Y584.55  ;
N488 G1X485.45Y584.55  ;
N489 G1X485.45Y587.45  ;
N490 G1X480.95Y587.45  ;
N491 G1X480.95Y626.5  ;
N492 G2X489Y634.55I8.05J0  ;
N493 G1X559Y634.55  ;
N494 G2X559.55Y634I0J-0.55  ;
N495 G1X559.55Y625  ;
N496 G2X559Y624.45I-0.55J0  ;
N497 G1X556.69Y624.45  ;
N498 G3X556.55Y624.31I-0.19J0.05  ;
N499 G1X556.55Y494.69  ;
N500 G3X556.69Y494.55I-0.05J-0.19  ;
N501 G1X559Y494.55  ;
N502 G2X559.55Y494I0J-0.55  ;
N503 G1X559.55Y489.29  ;
N504 G65 P9104 A101 B02  ;
N505 M98 P9103  ;
(P12:ID3:W56402104)  ;
N506 M98 P9101  ;
N507 G0X370.77Y592.16  ;
N508 G65 P9102 A101 B02  ;
N509 G1X367.27Y595.66  ;
N510 G3X367.3Y595.7I5.23J-5.16  ;
N511 G65 P9104 A101 B02  ;
N512 G0X370.77Y352.16  ;
N513 G65 P9102 A101 B02  ;
N514 G1X367.27Y355.66  ;
N515 G3X367.3Y355.7I5.23J-5.16  ;
N516 G65 P9104 A101 B01  ;
N517 G0X440Y325.43  ;
N518 G65 P9102 A101 B01  ;
N519 G1X435.05Y325.43  ;
N520 G1X435.05Y321  ;
N521 G2X434.5Y320.45I-0.55J0  ;
N522 G1X370.5Y320.45  ;
N523 G2X362.45Y328.5I0J8.05  ;
N524 G1X362.45Y387.55  ;
N525 G1X366.95Y387.55  ;
N526 G1X366.95Y390.45  ;
N527 G1X332.95Y390.45  ;
N528 G1X332.95Y550.55  ;
N529 G1X366.95Y550.55  ;
N530 G1X366.95Y553.45  ;
N531 G1X362.45Y553.45  ;
N532 G1X362.45Y612.5  ;
N533 G2X370.5Y620.55I8.05J0  ;
N534 G1X434.5Y620.55  ;
N535 G2X435.05Y620I0J-0.55  ;
N536 G1X435.05Y611  ;
N537 G2X434.5Y610.45I-0.55J0  ;
N538 G1X432.19Y610.45  ;
N539 G3X432.05Y610.31I-0.19J0.05  ;
N540 G1X432.05Y330.69  ;
N541 G3X432.19Y330.55I-0.05J-0.19  ;
N542 G1X434.5Y330.55  ;
N543 G2X435.05Y330I0J-0.55  ;
N544 G1X435.05Y326.08  ;
N545 G65 P9104 A101 B02  ;
N546 M98 P9103  ;
(P13:ID3:W56402104)  ;
N547 M98 P9101  ;
N548 G0X264.27Y352.16  ;
N549 G65 P9102 A101 B02  ;
N550 G1X260.77Y355.66  ;
N551 G3X260.8Y355.7I5.23J-5.16  ;
N552 G65 P9104 A101 B02  ;
N553 G0X264.27Y592.16  ;
N554 G65 P9102 A101 B02  ;
N555 G1X260.77Y595.66  ;
N556 G3X260.8Y595.7I5.23J-5.16  ;
N557 G65 P9104 A101 B01  ;
N558 G0X333.5Y325.43  ;
N559 G65 P9102 A101 B01  ;
N560 G1X328.55Y325.43  ;
N561 G1X328.55Y321  ;
N562 G2X328Y320.45I-0.55J0  ;
N563 G1X264Y320.45  ;
N564 G2X255.95Y328.5I0J8.05  ;
N565 G1X255.95Y387.55  ;
N566 G1X260.45Y387.55  ;
N567 G1X260.45Y390.45  ;
N568 G1X226.45Y390.45  ;
N569 G1X226.45Y550.55  ;
N570 G1X260.45Y550.55  ;
N571 G1X260.45Y553.45  ;
N572 G1X255.95Y553.45  ;
N573 G1X255.95Y612.5  ;
N574 G2X264Y620.55I8.05J0  ;
N575 G1X328Y620.55  ;
N576 G2X328.55Y620I0J-0.55  ;
N577 G1X328.55Y611  ;
N578 G2X328Y610.45I-0.55J0  ;
N579 G1X325.69Y610.45  ;
N580 G3X325.55Y610.31I-0.19J0.05  ;
N581 G1X325.55Y330.69  ;
N582 G3X325.69Y330.55I-0.05J-0.19  ;
N583 G1X328Y330.55  ;
N584 G2X328.55Y330I0J-0.55  ;
N585 G1X328.55Y326.08  ;
N586 G65 P9104 A101 B02  ;
N587 M98 P9103  ;
(P14:ID3:W56402104)  ;
N588 M98 P9101  ;
N589 G0X157.77Y352.16  ;
N590 G65 P9102 A101 B02  ;
N591 G1X154.27Y355.66  ;
N592 G3X154.3Y355.7I5.23J-5.16  ;
N593 G65 P9104 A101 B02  ;
N594 G0X157.77Y592.16  ;
N595 G65 P9102 A101 B02  ;
N596 G1X154.27Y595.66  ;
N597 G3X154.3Y595.7I5.23J-5.16  ;
N598 G65 P9104 A101 B01  ;
N599 G0X227Y325.43  ;
N600 G65 P9102 A101 B01  ;
N601 G1X222.05Y325.43  ;
N602 G1X222.05Y321  ;
N603 G2X221.5Y320.45I-0.55J0  ;
N604 G1X157.5Y320.45  ;
N605 G2X149.45Y328.5I0J8.05  ;
N606 G1X149.45Y387.55  ;
N607 G1X153.95Y387.55  ;
N608 G1X153.95Y390.45  ;
N609 G1X119.95Y390.45  ;
N610 G1X119.95Y550.55  ;
N611 G1X153.95Y550.55  ;
N612 G1X153.95Y553.45  ;
N613 G1X149.45Y553.45  ;
N614 G1X149.45Y612.5  ;
N615 G2X157.5Y620.55I8.05J0  ;
N616 G1X221.5Y620.55  ;
N617 G2X222.05Y620I0J-0.55  ;
N618 G1X222.05Y611  ;
N619 G2X221.5Y610.45I-0.55J0  ;
N620 G1X219.19Y610.45  ;
N621 G3X219.05Y610.31I-0.19J0.05  ;
N622 G1X219.05Y330.69  ;
N623 G3X219.19Y330.55I-0.05J-0.19  ;
N624 G1X221.5Y330.55  ;
N625 G2X222.05Y330I0J-0.55  ;
N626 G1X222.05Y326.08  ;
N627 G65 P9104 A101 B02  ;
N628 M98 P9103  ;
(P15:ID3:W56402104)  ;
N629 M98 P9101  ;
N630 G0X51.27Y352.16  ;
N631 G65 P9102 A101 B02  ;
N632 G1X47.77Y355.66  ;
N633 G3X47.8Y355.7I5.23J-5.16  ;
N634 G65 P9104 A101 B02  ;
N635 G0X51.27Y592.16  ;
N636 G65 P9102 A101 B02  ;
N637 G1X47.77Y595.66  ;
N638 G3X47.8Y595.7I5.23J-5.16  ;
N639 G65 P9104 A101 B01  ;
N640 G0X120.5Y325.43  ;
N641 G65 P9102 A101 B01  ;
N642 G1X115.55Y325.43  ;
N643 G1X115.55Y321  ;
N644 G2X115Y320.45I-0.55J0  ;
N645 G1X51Y320.45  ;
N646 G2X42.95Y328.5I0J8.05  ;
N647 G1X42.95Y387.55  ;
N648 G1X47.45Y387.55  ;
N649 G1X47.45Y390.45  ;
N650 G1X13.45Y390.45  ;
N651 G1X13.45Y550.55  ;
N652 G1X47.45Y550.55  ;
N653 G1X47.45Y553.45  ;
N654 G1X42.95Y553.45  ;
N655 G1X42.95Y612.5  ;
N656 G2X51Y620.55I8.05J0  ;
N657 G1X115Y620.55  ;
N658 G2X115.55Y620I0J-0.55  ;
N659 G1X115.55Y611  ;
N660 G2X115Y610.45I-0.55J0  ;
N661 G1X112.69Y610.45  ;
N662 G3X112.55Y610.31I-0.19J0.05  ;
N663 G1X112.55Y330.69  ;
N664 G3X112.69Y330.55I-0.05J-0.19  ;
N665 G1X115Y330.55  ;
N666 G2X115.55Y330I0J-0.55  ;
N667 G1X115.55Y326.08  ;
N668 G65 P9104 A101 B02  ;
N669 M98 P9103  ;
(P16:ID3:W56402104)  ;
N670 M98 P9101  ;
N671 G0X495.27Y673.16  ;
N672 G65 P9102 A101 B02  ;
N673 G1X491.77Y676.66  ;
N674 G3X491.8Y676.7I5.23J-5.16  ;
N675 G65 P9104 A101 B02  ;
N676 G0X495.27Y913.16  ;
N677 G65 P9102 A101 B02  ;
N678 G1X491.77Y916.66  ;
N679 G3X491.8Y916.7I5.23J-5.16  ;
N680 G65 P9104 A101 B01  ;
N681 G0X564.5Y646.43  ;
N682 G65 P9102 A101 B01  ;
N683 G1X559.55Y646.43  ;
N684 G1X559.55Y642  ;
N685 G2X559Y641.45I-0.55J0  ;
N686 G1X495Y641.45  ;
N687 G2X486.95Y649.5I0J8.05  ;
N688 G1X486.95Y708.55  ;
N689 G1X491.45Y708.55  ;
N690 G1X491.45Y711.45  ;
N691 G1X457.45Y711.45  ;
N692 G1X457.45Y871.55  ;
N693 G1X491.45Y871.55  ;
N694 G1X491.45Y874.45  ;
N695 G1X486.95Y874.45  ;
N696 G1X486.95Y933.5  ;
N697 G2X495Y941.55I8.05J0  ;
N698 G1X559Y941.55  ;
N699 G2X559.55Y941I0J-0.55  ;
N700 G1X559.55Y932  ;
N701 G2X559Y931.45I-0.55J0  ;
N702 G1X556.69Y931.45  ;
N703 G3X556.55Y931.31I-0.19J0.05  ;
N704 G1X556.55Y651.69  ;
N705 G3X556.69Y651.55I-0.05J-0.19  ;
N706 G1X559Y651.55  ;
N707 G2X559.55Y651I0J-0.55  ;
N708 G1X559.55Y647.08  ;
N709 G65 P9104 A101 B01  ;
N710 M98 P9103  ;
(P17:ID2:W56397735)  ;
N711 M98 P9101  ;
N712 G0X565.5Y705.25  ;
N713 G65 P9102 A101 B01  ;
N714 G1X568.5Y705.25  ;
N715 G1X982.86Y705.25  ;
N716 G1X982.86Y735.25  ;
N717 G1X985.86Y735.25  ;
N718 G1X985.86Y739.3  ;
N719 G3X984.81Y740.35I-1.05J0  ;
N720 G1X982.86Y740.35  ;
N721 G1X982.86Y890.53  ;
N722 G1X938.14Y882.7  ;
N723 G1X938.14Y928.96  ;
N724 G1X613.18Y928.96  ;
N725 G1X613.18Y882.7  ;
N726 G1X568.45Y890.53  ;
N727 G1X568.45Y740.35  ;
N728 G1X566.5Y740.35  ;
N729 G3X565.45Y739.3I0J-1.05  ;
N730 G1X565.45Y735.25  ;
N731 G1X568.45Y735.25  ;
N732 G1X568.45Y705.3  ;
N733 G65 P9104 A101 B01  ;
N734 M98 P9103  ;
(P18:ID2:W56397735)  ;
N735 M98 P9101  ;
N736 G0X565.5Y935.85  ;
N737 G65 P9102 A101 B01  ;
N738 G1X568.5Y935.85  ;
N739 G1X982.86Y935.85  ;
N740 G1X982.86Y965.85  ;
N741 G1X985.86Y965.85  ;
N742 G1X985.86Y969.9  ;
N743 G3X984.81Y970.95I-1.05J0  ;
N744 G1X982.86Y970.95  ;
N745 G1X982.86Y1121.13  ;
N746 G1X938.14Y1113.3  ;
N747 G1X938.14Y1159.56  ;
N748 G1X613.18Y1159.56  ;
N749 G1X613.18Y1113.3  ;
N750 G1X568.45Y1121.13  ;
N751 G1X568.45Y970.95  ;
N752 G1X566.5Y970.95  ;
N753 G3X565.45Y969.9I0J-1.05  ;
N754 G1X565.45Y965.85  ;
N755 G1X568.45Y965.85  ;
N756 G1X568.45Y935.9  ;
N757 G65 P9104 A101 B02  ;
N758 M98 P9103  ;
(P19:ID3:W56402104)  ;
N759 M98 P9101  ;
N760 G0X495.27Y980.16  ;
N761 G65 P9102 A101 B02  ;
N762 G1X491.77Y983.66  ;
N763 G3X491.8Y983.7I5.23J-5.16  ;
N764 G65 P9104 A101 B02  ;
N765 G0X495.27Y1220.16  ;
N766 G65 P9102 A101 B02  ;
N767 G1X491.77Y1223.66  ;
N768 G3X491.8Y1223.7I5.23J-5.16  ;
N769 G65 P9104 A101 B01  ;
N770 G0X564.5Y953.43  ;
N771 G65 P9102 A101 B01  ;
N772 G1X559.55Y953.43  ;
N773 G1X559.55Y949  ;
N774 G2X559Y948.45I-0.55J0  ;
N775 G1X495Y948.45  ;
N776 G2X486.95Y956.5I0J8.05  ;
N777 G1X486.95Y1015.55  ;
N778 G1X491.45Y1015.55  ;
N779 G1X491.45Y1018.45  ;
N780 G1X457.45Y1018.45  ;
N781 G1X457.45Y1178.55  ;
N782 G1X491.45Y1178.55  ;
N783 G1X491.45Y1181.45  ;
N784 G1X486.95Y1181.45  ;
N785 G1X486.95Y1240.5  ;
N786 G2X495Y1248.55I8.05J0  ;
N787 G1X559Y1248.55  ;
N788 G2X559.55Y1248I0J-0.55  ;
N789 G1X559.55Y1239  ;
N790 G2X559Y1238.45I-0.55J0  ;
N791 G1X556.69Y1238.45  ;
N792 G3X556.55Y1238.31I-0.19J0.05  ;
N793 G1X556.55Y958.69  ;
N794 G3X556.69Y958.55I-0.05J-0.19  ;
N795 G1X559Y958.55  ;
N796 G2X559.55Y958I0J-0.55  ;
N797 G1X559.55Y954.08  ;
N798 G65 P9104 A102 B04  ;
N799 M98 P9103  ;
(P20:ID4:W56397725)  ;
N800 M98 P9101  ;
N801 G0X353.5Y997.5  ;
N802 G65 P9102 A102 B04  ;
N803 G1X348.5Y997.5  ;
N804 G1X348.5Y1097  ;
N805 G1X353.5Y1097  ;
N806 G1X353.5Y997.5  ;
N807 G65 P9104 A101 B01  ;
N808 M98 P9103  ;
N809 G0X439.71Y624.64  ;
N810 G65 P9102 A101 B01  ;
N811 G1X442.54Y627.46  ;
N812 G1X448.55Y633.48  ;
N813 G1X448.55Y1292.05  ;
N814 G1X187.55Y1292.05  ;
N815 G1X187.55Y1346.02  ;
N816 G1X181.52Y1352.05  ;
N817 G1X13.45Y1352.05  ;
N818 G1X13.45Y625.5  ;
N819 G3X14.5Y624.45I1.05J0  ;
N820 G1X20.5Y624.45  ;
N821 G3X21.55Y625.5I0J1.05  ;
N822 G1X21.55Y627.45  ;
N823 G1X442.5Y627.45  ;
N824 G65 P9104 A101 B01  ;
N825 M98 P9103  ;
(P21:ID2:W56397735)  ;
N826 M98 P9101  ;
N827 G0X565.5Y1166.45  ;
N828 G65 P9102 A101 B01  ;
N829 G1X568.5Y1166.45  ;
N830 G1X982.86Y1166.45  ;
N831 G1X982.86Y1196.45  ;
N832 G1X985.86Y1196.45  ;
N833 G1X985.86Y1200.5  ;
N834 G3X984.81Y1201.55I-1.05J0  ;
N835 G1X982.86Y1201.55  ;
N836 G1X982.86Y1351.73  ;
N837 G1X938.14Y1343.9  ;
N838 G1X938.14Y1390.16  ;
N839 G1X613.18Y1390.16  ;
N840 G1X613.18Y1343.9  ;
N841 G1X568.45Y1351.73  ;
N842 G1X568.45Y1201.55  ;
N843 G1X566.5Y1201.55  ;
N844 G3X565.45Y1200.5I0J-1.05  ;
N845 G1X565.45Y1196.45  ;
N846 G1X568.45Y1196.45  ;
N847 G1X568.45Y1166.5  ;
N848 G65 P9104 A101 B02  ;
N849 M98 P9103  ;
(P22:ID1:W56402105)  ;
N850 M98 P9101  ;
N851 G0X484.85Y1359.58  ;
N852 G65 P9102 A101 B02  ;
N853 G1X482.77Y1361.66  ;
N854 G3X482.8Y1361.7I5.23J-5.16  ;
N855 G65 P9104 A101 B02  ;
N856 G0X484.85Y1469.58  ;
N857 G65 P9102 A101 B02  ;
N858 G1X482.77Y1471.66  ;
N859 G3X482.8Y1471.7I5.23J-5.16  ;
N860 G65 P9104 A101 B01  ;
N861 G0X561.5Y1340.59  ;
N862 G65 P9102 A101 B01  ;
N863 G1X556.55Y1340.59  ;
N864 G1X556.55Y1337  ;
N865 G2X556Y1336.45I-0.55J0  ;
N866 G1X486Y1336.45  ;
N867 G2X477.95Y1344.5I0J8.05  ;
N868 G1X477.95Y1383.55  ;
N869 G1X482.45Y1383.55  ;
N870 G1X482.45Y1386.45  ;
N871 G1X442.45Y1386.45  ;
N872 G1X442.45Y1436.55  ;
N873 G1X482.45Y1436.55  ;
N874 G1X482.45Y1439.45  ;
N875 G1X477.95Y1439.45  ;
N876 G1X477.95Y1478.5  ;
N877 G2X486Y1486.55I8.05J0  ;
N878 G1X556Y1486.55  ;
N879 G2X556.55Y1486I0J-0.55  ;
N880 G1X556.55Y1477  ;
N881 G2X556Y1476.45I-0.55J0  ;
N882 G1X553.69Y1476.45  ;
N883 G3X553.55Y1476.31I-0.19J0.05  ;
N884 G1X553.55Y1346.69  ;
N885 G3X553.69Y1346.55I-0.05J-0.19  ;
N886 G1X556Y1346.55  ;
N887 G2X556.55Y1346I0J-0.55  ;
N888 G1X556.55Y1341.29  ;
N889 G65 P9104 A101 B02  ;
N890 M98 P9103  ;
(P23:ID5:W56397732)  ;
N891 M98 P9101  ;
N892 G0X382.49Y1394.93  ;
N893 G65 P9102 A101 B02  ;
N894 G1X380.99Y1397.53  ;
N895 G2X381.33Y1398.83I0.82J0.48  ;
N896 G1X384.12Y1400.44  ;
N897 G1X389.7Y1397.22  ;
N898 G1X389.7Y1390.78  ;
N899 G1X384.12Y1387.56  ;
N900 G1X378.55Y1390.78  ;
N901 G1X378.55Y1397.22  ;
N902 G1X381.33Y1398.83  ;
N903 G65 P9104 A101 B02  ;
N904 G0X382.49Y1459.93  ;
N905 G65 P9102 A101 B02  ;
N906 G1X380.99Y1462.53  ;
N907 G2X381.33Y1463.83I0.82J0.48  ;
N908 G1X384.12Y1465.44  ;
N909 G1X389.7Y1462.22  ;
N910 G1X389.7Y1455.78  ;
N911 G1X384.12Y1452.56  ;
N912 G1X378.55Y1455.78  ;
N913 G1X378.55Y1462.22  ;
N914 G1X381.33Y1463.83  ;
N915 G65 P9104 A101 B01  ;
N916 G0X336.02Y1368.63  ;
N917 G65 P9102 A101 B01  ;
N918 G1X340.97Y1368.63  ;
N919 G1X340.97Y1367.5  ;
N920 G3X342.02Y1366.45I1.05J0  ;
N921 G1X416.96Y1366.45  ;
N922 G1X416.96Y1486.55  ;
N923 G1X342.02Y1486.55  ;
N924 G3X340.97Y1485.5I0J-1.05  ;
N925 G1X340.97Y1482.2  ;
N926 G3X342.02Y1481.15I1.05J0  ;
N927 G1X344.07Y1481.15  ;
N928 G1X344.07Y1371.85  ;
N929 G1X342.02Y1371.85  ;
N930 G3X340.97Y1370.8I0J-1.05  ;
N931 G1X340.97Y1369.33  ;
N932 G65 P9104 A101 B02  ;
N933 M98 P9103  ;
(P24:ID5:W56397732)  ;
N934 M98 P9101  ;
N935 G0X268.49Y1394.93  ;
N936 G65 P9102 A101 B02  ;
N937 G1X266.99Y1397.53  ;
N938 G2X267.33Y1398.83I0.82J0.48  ;
N939 G1X270.12Y1400.44  ;
N940 G1X275.7Y1397.22  ;
N941 G1X275.7Y1390.78  ;
N942 G1X270.12Y1387.56  ;
N943 G1X264.55Y1390.78  ;
N944 G1X264.55Y1397.22  ;
N945 G1X267.33Y1398.83  ;
N946 G65 P9104 A101 B02  ;
N947 G0X268.49Y1459.93  ;
N948 G65 P9102 A101 B02  ;
N949 G1X266.99Y1462.53  ;
N950 G2X267.33Y1463.83I0.82J0.48  ;
N951 G1X270.12Y1465.44  ;
N952 G1X275.7Y1462.22  ;
N953 G1X275.7Y1455.78  ;
N954 G1X270.12Y1452.56  ;
N955 G1X264.55Y1455.78  ;
N956 G1X264.55Y1462.22  ;
N957 G1X267.33Y1463.83  ;
N958 G65 P9104 A101 B01  ;
N959 G0X222.02Y1368.63  ;
N960 G65 P9102 A101 B01  ;
N961 G1X226.97Y1368.63  ;
N962 G1X226.97Y1367.5  ;
N963 G3X228.02Y1366.45I1.05J0  ;
N964 G1X302.96Y1366.45  ;
N965 G1X302.96Y1486.55  ;
N966 G1X228.02Y1486.55  ;
N967 G3X226.97Y1485.5I0J-1.05  ;
N968 G1X226.97Y1482.2  ;
N969 G3X228.02Y1481.15I1.05J0  ;
N970 G1X230.07Y1481.15  ;
N971 G1X230.07Y1371.85  ;
N972 G1X228.02Y1371.85  ;
N973 G3X226.97Y1370.8I0J-1.05  ;
N974 G1X226.97Y1369.33  ;
N975 M98 P9104  ;
N976 M98 P9103  ;
(FOOTER)
N977 M98 P9110  ;
N978 M30  ;
%
