O0099  ;
( MACHINE : TCI Laser )  ;
( MATERIAL : Acero al carbono N2 )  ;
( THICKNESS : 3 )  ;
( REPETITIONS : 1 )  ;
( SIMULATION TIME : 00:20:16 )  ;
( FORMAT : 1000x1500 )  ;
( JOB NUMBER : VARS5640\K564123s30 )  ;
( PROGRAM NUMBER : 12104 )  ;
( TYPE : 0 )  ;
( NUMBER OF SHEETS : 1 )  ;
( CUTTING HEADS : 1 )  ;
#516= 1  ;
#517= 1  ;
N105 G65 P9100 A103 B01  ;
(P1:ID1:W56397735)  ;
N106 M98 P9101  ;
N107 G0X244.12Y14.59  ;
N108 G65 P9102 A101 B01  ;
N109 G1X244.07Y17.59  ;
N110 G1X236.84Y431.89  ;
N111 G1X206.84Y431.37  ;
N112 G1X206.79Y434.37  ;
N113 G1X202.74Y434.3  ;
N114 G3X201.71Y433.23I0.02J-1.05  ;
N115 G1X201.75Y431.28  ;
N116 G1X51.59Y428.66  ;
N117 G1X60.2Y384.08  ;
N118 G1X13.95Y383.27  ;
N119 G1X19.62Y58.36  ;
N120 G1X65.87Y59.17  ;
N121 G1X58.82Y14.31  ;
N122 G1X208.98Y16.93  ;
N123 G1X209.01Y14.98  ;
N124 G3X210.08Y13.95I1.05J0.02  ;
N125 G1X214.13Y14.02  ;
N126 G1X214.08Y17.02  ;
N127 G1X244.02Y17.54  ;
N128 G65 P9104 A101 B01  ;
N129 M98 P9103  ;
(P2:ID1:W56397735)  ;
N130 M98 P9101  ;
N131 G0X482.15Y14.59  ;
N132 G65 P9102 A101 B01  ;
N133 G1X482.09Y17.59  ;
N134 G1X474.86Y431.89  ;
N135 G1X444.87Y431.37  ;
N136 G1X444.81Y434.37  ;
N137 G1X440.76Y434.3  ;
N138 G3X439.73Y433.23I0.02J-1.05  ;
N139 G1X439.77Y431.28  ;
N140 G1X289.61Y428.66  ;
N141 G1X298.22Y384.08  ;
N142 G1X251.97Y383.27  ;
N143 G1X257.64Y58.36  ;
N144 G1X303.9Y59.17  ;
N145 G1X296.84Y14.31  ;
N146 G1X447Y16.93  ;
N147 G1X447.03Y14.98  ;
N148 G3X448.1Y13.95I1.05J0.02  ;
N149 G1X452.15Y14.02  ;
N150 G1X452.1Y17.02  ;
N151 G1X482.04Y17.54  ;
N152 G65 P9104 A101 B01  ;
N153 M98 P9103  ;
(P3:ID1:W56397735)  ;
N154 M98 P9101  ;
N155 G0X720.17Y14.59  ;
N156 G65 P9102 A101 B01  ;
N157 G1X720.11Y17.59  ;
N158 G1X712.88Y431.89  ;
N159 G1X682.89Y431.37  ;
N160 G1X682.83Y434.37  ;
N161 G1X678.79Y434.3  ;
N162 G3X677.75Y433.23I0.01J-1.05  ;
N163 G1X677.79Y431.28  ;
N164 G1X527.63Y428.66  ;
N165 G1X536.24Y384.08  ;
N166 G1X489.99Y383.27  ;
N167 G1X495.66Y58.36  ;
N168 G1X541.92Y59.17  ;
N169 G1X534.86Y14.31  ;
N170 G1X685.02Y16.93  ;
N171 G1X685.05Y14.98  ;
N172 G3X686.12Y13.95I1.05J0.02  ;
N173 G1X690.17Y14.02  ;
N174 G1X690.12Y17.02  ;
N175 G1X720.06Y17.54  ;
N176 G65 P9104 A101 B01  ;
N177 M98 P9103  ;
(P4:ID1:W56397735)  ;
N178 M98 P9101  ;
N179 G0X958.19Y14.59  ;
N180 G65 P9102 A101 B01  ;
N181 G1X958.13Y17.59  ;
N182 G1X950.9Y431.89  ;
N183 G1X920.91Y431.37  ;
N184 G1X920.86Y434.37  ;
N185 G1X916.81Y434.3  ;
N186 G3X915.77Y433.23I0.01J-1.05  ;
N187 G1X915.81Y431.28  ;
N188 G1X765.65Y428.66  ;
N189 G1X774.27Y384.08  ;
N190 G1X728.01Y383.27  ;
N191 G1X733.68Y58.36  ;
N192 G1X779.94Y59.17  ;
N193 G1X772.89Y14.31  ;
N194 G1X923.04Y16.93  ;
N195 G1X923.08Y14.98  ;
N196 G3X924.14Y13.95I1.04J0.02  ;
N197 G1X928.19Y14.02  ;
N198 G1X928.14Y17.02  ;
N199 G1X958.09Y17.54  ;
N200 G65 P9104 A101 B02  ;
N201 M98 P9103  ;
(P5:ID2:W56402104)  ;
N202 M98 P9101  ;
N203 G0X931.85Y470.74  ;
N204 G65 P9102 A101 B02  ;
N205 G1X935.35Y467.24  ;
N206 G3X935.32Y467.2I-5.23J5.16  ;
N207 G65 P9104 A101 B02  ;
N208 G0X931.85Y710.74  ;
N209 G65 P9102 A101 B02  ;
N210 G1X935.35Y707.24  ;
N211 G3X935.32Y707.2I-5.23J5.16  ;
N212 G65 P9104 A101 B01  ;
N213 G0X862.62Y737.47  ;
N214 G65 P9102 A101 B01  ;
N215 G1X867.57Y737.47  ;
N216 G1X867.57Y741.9  ;
N217 G2X868.12Y742.45I0.55J0  ;
N218 G1X932.12Y742.45  ;
N219 G2X940.17Y734.4I0J-8.05  ;
N220 G1X940.17Y675.35  ;
N221 G1X935.67Y675.35  ;
N222 G1X935.67Y672.45  ;
N223 G1X969.67Y672.45  ;
N224 G1X969.67Y512.35  ;
N225 G1X935.67Y512.35  ;
N226 G1X935.67Y509.45  ;
N227 G1X940.17Y509.45  ;
N228 G1X940.17Y450.4  ;
N229 G2X932.12Y442.35I-8.05J0  ;
N230 G1X868.12Y442.35  ;
N231 G2X867.57Y442.9I0J0.55  ;
N232 G1X867.57Y451.9  ;
N233 G2X868.12Y452.45I0.55J0  ;
N234 G1X870.42Y452.45  ;
N235 G3X870.57Y452.59I0.2J-0.05  ;
N236 G1X870.57Y732.21  ;
N237 G3X870.42Y732.35I0.05J0.19  ;
N238 G1X868.12Y732.35  ;
N239 G2X867.57Y732.9I0J0.55  ;
N240 G1X867.57Y736.82  ;
N241 G65 P9104 A101 B01  ;
N242 M98 P9103  ;
(P6:ID1:W56397735)  ;
N243 M98 P9101  ;
N244 G0X442.31Y442.27  ;
N245 G65 P9102 A101 B01  ;
N246 G1X445.31Y442.27  ;
N247 G1X859.68Y442.27  ;
N248 G1X859.68Y472.27  ;
N249 G1X862.68Y472.27  ;
N250 G1X862.68Y476.32  ;
N251 G3X861.63Y477.37I-1.05J0  ;
N252 G1X859.68Y477.37  ;
N253 G1X859.68Y627.55  ;
N254 G1X814.95Y619.71  ;
N255 G1X814.95Y665.97  ;
N256 G1X489.99Y665.97  ;
N257 G1X489.99Y619.71  ;
N258 G1X445.26Y627.55  ;
N259 G1X445.26Y477.37  ;
N260 G1X443.31Y477.37  ;
N261 G3X442.26Y476.32I0J-1.05  ;
N262 G1X442.26Y472.27  ;
N263 G1X445.26Y472.27  ;
N264 G1X445.26Y442.32  ;
N265 G65 P9104 A101 B01  ;
N266 M98 P9103  ;
(P7:ID1:W56397735)  ;
N267 M98 P9101  ;
N268 G0X14Y442.27  ;
N269 G65 P9102 A101 B01  ;
N270 G1X17Y442.27  ;
N271 G1X431.36Y442.27  ;
N272 G1X431.36Y472.27  ;
N273 G1X434.36Y472.27  ;
N274 G1X434.36Y476.32  ;
N275 G3X433.31Y477.37I-1.05J0  ;
N276 G1X431.36Y477.37  ;
N277 G1X431.36Y627.55  ;
N278 G1X386.64Y619.71  ;
N279 G1X386.64Y665.97  ;
N280 G1X61.68Y665.97  ;
N281 G1X61.68Y619.71  ;
N282 G1X16.95Y627.55  ;
N283 G1X16.95Y477.37  ;
N284 G1X15Y477.37  ;
N285 G3X13.95Y476.32I0J-1.05  ;
N286 G1X13.95Y472.27  ;
N287 G1X16.95Y472.27  ;
N288 G1X16.95Y442.32  ;
N289 G65 P9104 A102 B04  ;
N290 M98 P9103  ;
(P8:ID3:W56410217)  ;
N291 M98 P9101  ;
N292 G0X385.76Y783.92  ;
N293 G65 P9102 A102 B04  ;
N294 G1X485.76Y783.92  ;
N295 G1X485.76Y788.92  ;
N296 G1X385.76Y788.92  ;
N297 G1X385.76Y783.92  ;
N298 G65 P9104 A101 B01  ;
N299 M98 P9103  ;
N300 G0X16.95Y676.92  ;
N301 G65 P9102 A101 B01  ;
N302 G1X16.95Y679.92  ;
N303 G1X16.95Y845.87  ;
N304 G1X15Y845.87  ;
N305 G2X13.95Y846.92I0J1.05  ;
N306 G1X13.95Y852.92  ;
N307 G2X15Y853.97I1.05J0  ;
N308 G1X737.57Y853.97  ;
N309 G1X737.57Y685.9  ;
N310 G1X731.54Y679.87  ;
N311 G1X674.57Y679.87  ;
N312 G1X674.57Y673.87  ;
N313 G1X22.98Y673.87  ;
N314 G1X16.96Y679.89  ;
N315 G65 P9104 A101 B02  ;
N316 M98 P9103  ;
(P9:ID2:W56402104)  ;
N317 M98 P9101  ;
N318 G0X920.75Y778.74  ;
N319 G65 P9102 A101 B02  ;
N320 G1X924.25Y775.24  ;
N321 G3X924.22Y775.2I-5.23J5.16  ;
N322 G65 P9104 A101 B02  ;
N323 G0X920.75Y1018.74  ;
N324 G65 P9102 A101 B02  ;
N325 G1X924.25Y1015.24  ;
N326 G3X924.22Y1015.2I-5.23J5.16  ;
N327 G65 P9104 A101 B01  ;
N328 G0X851.52Y1045.47  ;
N329 G65 P9102 A101 B01  ;
N330 G1X856.47Y1045.47  ;
N331 G1X856.47Y1049.9  ;
N332 G2X857.02Y1050.45I0.55J0  ;
N333 G1X921.02Y1050.45  ;
N334 G2X929.07Y1042.4I0J-8.05  ;
N335 G1X929.07Y983.35  ;
N336 G1X924.57Y983.35  ;
N337 G1X924.57Y980.45  ;
N338 G1X958.57Y980.45  ;
N339 G1X958.57Y820.35  ;
N340 G1X924.57Y820.35  ;
N341 G1X924.57Y817.45  ;
N342 G1X929.07Y817.45  ;
N343 G1X929.07Y758.4  ;
N344 G2X921.02Y750.35I-8.05J0  ;
N345 G1X857.02Y750.35  ;
N346 G2X856.47Y750.9I0J0.55  ;
N347 G1X856.47Y759.9  ;
N348 G2X857.02Y760.45I0.55J0  ;
N349 G1X859.32Y760.45  ;
N350 G3X859.47Y760.59I0.2J-0.05  ;
N351 G1X859.47Y1040.21  ;
N352 G3X859.32Y1040.35I0.05J0.19  ;
N353 G1X857.02Y1040.35  ;
N354 G2X856.47Y1040.9I0J0.55  ;
N355 G1X856.47Y1044.82  ;
N356 G65 P9104 A101 B02  ;
N357 M98 P9103  ;
(P10:ID2:W56402104)  ;
N358 M98 P9101  ;
N359 G0X810.75Y942.34  ;
N360 G65 P9102 A101 B02  ;
N361 G1X814.25Y938.84  ;
N362 G3X814.22Y938.8I-5.23J5.16  ;
N363 G65 P9104 A101 B02  ;
N364 G0X810.75Y702.34  ;
N365 G65 P9102 A101 B02  ;
N366 G1X814.25Y698.84  ;
N367 G3X814.22Y698.8I-5.23J5.16  ;
N368 G65 P9104 A101 B01  ;
N369 G0X741.52Y969.07  ;
N370 G65 P9102 A101 B01  ;
N371 G1X746.47Y969.07  ;
N372 G1X746.47Y973.5  ;
N373 G2X747.02Y974.05I0.55J0  ;
N374 G1X811.02Y974.05  ;
N375 G2X819.07Y966I0J-8.05  ;
N376 G1X819.07Y906.95  ;
N377 G1X814.57Y906.95  ;
N378 G1X814.57Y904.05  ;
N379 G1X848.57Y904.05  ;
N380 G1X848.57Y743.95  ;
N381 G1X814.57Y743.95  ;
N382 G1X814.57Y741.05  ;
N383 G1X819.07Y741.05  ;
N384 G1X819.07Y682  ;
N385 G2X811.02Y673.95I-8.05J0  ;
N386 G1X747.02Y673.95  ;
N387 G2X746.47Y674.5I0J0.55  ;
N388 G1X746.47Y683.5  ;
N389 G2X747.02Y684.05I0.55J0  ;
N390 G1X749.32Y684.05  ;
N391 G3X749.47Y684.19I0.2J-0.05  ;
N392 G1X749.47Y963.81  ;
N393 G3X749.32Y963.95I0.05J0.19  ;
N394 G1X747.02Y963.95  ;
N395 G2X746.47Y964.5I0J0.55  ;
N396 G1X746.47Y968.42  ;
N397 G65 P9104 A102 B04  ;
N398 M98 P9103  ;
(P11:ID3:W56410217)  ;
N399 M98 P9101  ;
N400 G0X385.76Y971.92  ;
N401 G65 P9102 A102 B04  ;
N402 G1X485.76Y971.92  ;
N403 G1X485.76Y976.92  ;
N404 G1X385.76Y976.92  ;
N405 G1X385.76Y971.92  ;
N406 G65 P9104 A101 B01  ;
N407 M98 P9103  ;
N408 G0X16.95Y864.92  ;
N409 G65 P9102 A101 B01  ;
N410 G1X16.95Y867.92  ;
N411 G1X16.95Y1033.87  ;
N412 G1X15Y1033.87  ;
N413 G2X13.95Y1034.92I0J1.05  ;
N414 G1X13.95Y1040.92  ;
N415 G2X15Y1041.97I1.05J0  ;
N416 G1X737.57Y1041.97  ;
N417 G1X737.57Y873.9  ;
N418 G1X731.54Y867.87  ;
N419 G1X674.57Y867.87  ;
N420 G1X674.57Y861.87  ;
N421 G1X22.98Y861.87  ;
N422 G1X16.96Y867.89  ;
N423 G65 P9104 A102 B04  ;
N424 M98 P9103  ;
(P12:ID3:W56410217)  ;
N425 M98 P9101  ;
N426 G0X385.76Y1159.92  ;
N427 G65 P9102 A102 B04  ;
N428 G1X485.76Y1159.92  ;
N429 G1X485.76Y1164.92  ;
N430 G1X385.76Y1164.92  ;
N431 G1X385.76Y1159.92  ;
N432 G65 P9104 A101 B01  ;
N433 M98 P9103  ;
N434 G0X16.95Y1052.92  ;
N435 G65 P9102 A101 B01  ;
N436 G1X16.95Y1055.92  ;
N437 G1X16.95Y1221.87  ;
N438 G1X15Y1221.87  ;
N439 G2X13.95Y1222.92I0J1.05  ;
N440 G1X13.95Y1228.92  ;
N441 G2X15Y1229.97I1.05J0  ;
N442 G1X737.57Y1229.97  ;
N443 G1X737.57Y1061.9  ;
N444 G1X731.54Y1055.87  ;
N445 G1X674.57Y1055.87  ;
N446 G1X674.57Y1049.87  ;
N447 G1X22.98Y1049.87  ;
N448 G1X16.96Y1055.89  ;
N449 G65 P9104 A101 B02  ;
N450 M98 P9103  ;
(P13:ID2:W56402104)  ;
N451 M98 P9101  ;
N452 G0X809.75Y1010.34  ;
N453 G65 P9102 A101 B02  ;
N454 G1X813.25Y1006.84  ;
N455 G3X813.22Y1006.8I-5.23J5.16  ;
N456 G65 P9104 A101 B02  ;
N457 G0X809.75Y1250.34  ;
N458 G65 P9102 A101 B02  ;
N459 G1X813.25Y1246.84  ;
N460 G3X813.22Y1246.8I-5.23J5.16  ;
N461 G65 P9104 A101 B01  ;
N462 G0X740.52Y1277.07  ;
N463 G65 P9102 A101 B01  ;
N464 G1X745.47Y1277.07  ;
N465 G1X745.47Y1281.5  ;
N466 G2X746.02Y1282.05I0.55J0  ;
N467 G1X810.02Y1282.05  ;
N468 G2X818.07Y1274I0J-8.05  ;
N469 G1X818.07Y1214.95  ;
N470 G1X813.57Y1214.95  ;
N471 G1X813.57Y1212.05  ;
N472 G1X847.57Y1212.05  ;
N473 G1X847.57Y1051.95  ;
N474 G1X813.57Y1051.95  ;
N475 G1X813.57Y1049.05  ;
N476 G1X818.07Y1049.05  ;
N477 G1X818.07Y990  ;
N478 G2X810.02Y981.95I-8.05J0  ;
N479 G1X746.02Y981.95  ;
N480 G2X745.47Y982.5I0J0.55  ;
N481 G1X745.47Y991.5  ;
N482 G2X746.02Y992.05I0.55J0  ;
N483 G1X748.32Y992.05  ;
N484 G3X748.47Y992.19I0.2J-0.05  ;
N485 G1X748.47Y1271.81  ;
N486 G3X748.32Y1271.95I0.05J0.19  ;
N487 G1X746.02Y1271.95  ;
N488 G2X745.47Y1272.5I0J0.55  ;
N489 G1X745.47Y1276.42  ;
N490 G65 P9104 A101 B02  ;
N491 M98 P9103  ;
(P14:ID2:W56402104)  ;
N492 M98 P9101  ;
N493 G0X919.75Y1326.74  ;
N494 G65 P9102 A101 B02  ;
N495 G1X923.25Y1323.24  ;
N496 G3X923.22Y1323.2I-5.23J5.16  ;
N497 G65 P9104 A101 B02  ;
N498 G0X919.75Y1086.74  ;
N499 G65 P9102 A101 B02  ;
N500 G1X923.25Y1083.24  ;
N501 G3X923.22Y1083.2I-5.23J5.16  ;
N502 G65 P9104 A101 B01  ;
N503 G0X850.52Y1353.47  ;
N504 G65 P9102 A101 B01  ;
N505 G1X855.47Y1353.47  ;
N506 G1X855.47Y1357.9  ;
N507 G2X856.02Y1358.45I0.55J0  ;
N508 G1X920.02Y1358.45  ;
N509 G2X928.07Y1350.4I0J-8.05  ;
N510 G1X928.07Y1291.35  ;
N511 G1X923.57Y1291.35  ;
N512 G1X923.57Y1288.45  ;
N513 G1X957.57Y1288.45  ;
N514 G1X957.57Y1128.35  ;
N515 G1X923.57Y1128.35  ;
N516 G1X923.57Y1125.45  ;
N517 G1X928.07Y1125.45  ;
N518 G1X928.07Y1066.4  ;
N519 G2X920.02Y1058.35I-8.05J0  ;
N520 G1X856.02Y1058.35  ;
N521 G2X855.47Y1058.9I0J0.55  ;
N522 G1X855.47Y1067.9  ;
N523 G2X856.02Y1068.45I0.55J0  ;
N524 G1X858.32Y1068.45  ;
N525 G3X858.47Y1068.59I0.2J-0.05  ;
N526 G1X858.47Y1348.21  ;
N527 G3X858.32Y1348.35I0.05J0.19  ;
N528 G1X856.02Y1348.35  ;
N529 G2X855.47Y1348.9I0J0.55  ;
N530 G1X855.47Y1352.82  ;
N531 G65 P9104 A101 B02  ;
N532 M98 P9103  ;
(P15:ID4:W56402105)  ;
N533 M98 P9101  ;
N534 G0X687.67Y1364.92  ;
N535 G65 P9102 A101 B02  ;
N536 G1X689.75Y1362.84  ;
N537 G3X689.72Y1362.8I-5.23J5.16  ;
N538 G65 P9104 A101 B02  ;
N539 G0X687.67Y1254.92  ;
N540 G65 P9102 A101 B02  ;
N541 G1X689.75Y1252.84  ;
N542 G3X689.72Y1252.8I-5.23J5.16  ;
N543 G65 P9104 A101 B01  ;
N544 G0X611.02Y1383.91  ;
N545 G65 P9102 A101 B01  ;
N546 G1X615.97Y1383.91  ;
N547 G1X615.97Y1387.5  ;
N548 G2X616.52Y1388.05I0.55J0  ;
N549 G1X686.52Y1388.05  ;
N550 G2X694.57Y1380I0J-8.05  ;
N551 G1X694.57Y1340.95  ;
N552 G1X690.07Y1340.95  ;
N553 G1X690.07Y1338.05  ;
N554 G1X730.07Y1338.05  ;
N555 G1X730.07Y1287.95  ;
N556 G1X690.07Y1287.95  ;
N557 G1X690.07Y1285.05  ;
N558 G1X694.57Y1285.05  ;
N559 G1X694.57Y1246  ;
N560 G2X686.52Y1237.95I-8.05J0  ;
N561 G1X616.52Y1237.95  ;
N562 G2X615.97Y1238.5I0J0.55  ;
N563 G1X615.97Y1247.5  ;
N564 G2X616.52Y1248.05I0.55J0  ;
N565 G1X618.83Y1248.05  ;
N566 G3X618.97Y1248.19I0.19J-0.05  ;
N567 G1X618.97Y1377.81  ;
N568 G3X618.83Y1377.95I0.05J0.19  ;
N569 G1X616.52Y1377.95  ;
N570 G2X615.97Y1378.5I0J0.55  ;
N571 G1X615.97Y1383.21  ;
N572 G65 P9104 A101 B02  ;
N573 M98 P9103  ;
(P16:ID2:W56402104)  ;
N574 M98 P9101  ;
N575 G0X285.66Y1303.23  ;
N576 G65 P9102 A101 B02  ;
N577 G1X289.16Y1306.73  ;
N578 G3X289.2Y1306.7I-5.16J-5.23  ;
N579 G65 P9104 A101 B02  ;
N580 G0X45.66Y1303.23  ;
N581 G65 P9102 A101 B02  ;
N582 G1X49.16Y1306.73  ;
N583 G3X49.2Y1306.7I-5.16J-5.23  ;
N584 G65 P9104 A101 B01  ;
N585 G0X18.93Y1234  ;
N586 G65 P9102 A101 B01  ;
N587 G1X18.93Y1238.95  ;
N588 G1X14.5Y1238.95  ;
N589 G2X13.95Y1239.5I0J0.55  ;
N590 G1X13.95Y1303.5  ;
N591 G2X22Y1311.55I8.05J0  ;
N592 G1X81.05Y1311.55  ;
N593 G1X81.05Y1307.05  ;
N594 G1X83.95Y1307.05  ;
N595 G1X83.95Y1341.05  ;
N596 G1X244.05Y1341.05  ;
N597 G1X244.05Y1307.05  ;
N598 G1X246.95Y1307.05  ;
N599 G1X246.95Y1311.55  ;
N600 G1X306Y1311.55  ;
N601 G2X314.05Y1303.5I0J-8.05  ;
N602 G1X314.05Y1239.5  ;
N603 G2X313.5Y1238.95I-0.55J0  ;
N604 G1X304.5Y1238.95  ;
N605 G2X303.95Y1239.5I0J0.55  ;
N606 G1X303.95Y1241.81  ;
N607 G3X303.81Y1241.95I0.05J0.19  ;
N608 G1X24.19Y1241.95  ;
N609 G3X24.05Y1241.81I-0.19J0.05  ;
N610 G1X24.05Y1239.5  ;
N611 G2X23.5Y1238.95I-0.55J0  ;
N612 G1X19.58Y1238.95  ;
N613 G65 P9104 A101 B02  ;
N614 M98 P9103  ;
(P17:ID5:W56397732)  ;
N615 M98 P9101  ;
N616 G0X200.43Y1383.41  ;
N617 G65 P9102 A101 B02  ;
N618 G1X203.03Y1384.91  ;
N619 G2X204.33Y1384.57I0.48J-0.82  ;
N620 G1X205.94Y1381.78  ;
N621 G1X202.72Y1376.2  ;
N622 G1X196.28Y1376.2  ;
N623 G1X193.06Y1381.78  ;
N624 G1X196.28Y1387.35  ;
N625 G1X202.72Y1387.35  ;
N626 G1X204.33Y1384.57  ;
N627 G65 P9104 A101 B02  ;
N628 G0X265.43Y1383.41  ;
N629 G65 P9102 A101 B02  ;
N630 G1X268.03Y1384.91  ;
N631 G2X269.33Y1384.57I0.48J-0.82  ;
N632 G1X270.94Y1381.78  ;
N633 G1X267.72Y1376.2  ;
N634 G1X261.28Y1376.2  ;
N635 G1X258.06Y1381.78  ;
N636 G1X261.28Y1387.35  ;
N637 G1X267.72Y1387.35  ;
N638 G1X269.33Y1384.57  ;
N639 G65 P9104 A101 B01  ;
N640 G0X174.13Y1429.88  ;
N641 G65 P9102 A101 B01  ;
N642 G1X174.13Y1424.93  ;
N643 G1X173Y1424.93  ;
N644 G3X171.95Y1423.88I0J-1.05  ;
N645 G1X171.95Y1348.94  ;
N646 G1X292.05Y1348.94  ;
N647 G1X292.05Y1423.88  ;
N648 G3X291Y1424.93I-1.05J0  ;
N649 G1X287.7Y1424.93  ;
N650 G3X286.65Y1423.88I0J-1.05  ;
N651 G1X286.65Y1421.83  ;
N652 G1X177.35Y1421.83  ;
N653 G1X177.35Y1423.88  ;
N654 G3X176.3Y1424.93I-1.05J0  ;
N655 G1X174.83Y1424.93  ;
N656 G65 P9104 A101 B02  ;
N657 M98 P9103  ;
(P18:ID4:W56402105)  ;
N658 M98 P9101  ;
N659 G0X147.08Y1420.65  ;
N660 G65 P9102 A101 B02  ;
N661 G1X149.16Y1422.73  ;
N662 G3X149.2Y1422.7I-5.16J-5.23  ;
N663 G65 P9104 A101 B02  ;
N664 G0X37.08Y1420.65  ;
N665 G65 P9102 A101 B02  ;
N666 G1X39.16Y1422.73  ;
N667 G3X39.2Y1422.7I-5.16J-5.23  ;
N668 G65 P9104 A101 B01  ;
N669 G0X18.09Y1344  ;
N670 G65 P9102 A101 B01  ;
N671 G1X18.09Y1348.95  ;
N672 G1X14.5Y1348.95  ;
N673 G2X13.95Y1349.5I0J0.55  ;
N674 G1X13.95Y1419.5  ;
N675 G2X22Y1427.55I8.05J0  ;
N676 G1X61.05Y1427.55  ;
N677 G1X61.05Y1423.05  ;
N678 G1X63.95Y1423.05  ;
N679 G1X63.95Y1463.05  ;
N680 G1X114.05Y1463.05  ;
N681 G1X114.05Y1423.05  ;
N682 G1X116.95Y1423.05  ;
N683 G1X116.95Y1427.55  ;
N684 G1X156Y1427.55  ;
N685 G2X164.05Y1419.5I0J-8.05  ;
N686 G1X164.05Y1349.5  ;
N687 G2X163.5Y1348.95I-0.55J0  ;
N688 G1X154.5Y1348.95  ;
N689 G2X153.95Y1349.5I0J0.55  ;
N690 G1X153.95Y1351.81  ;
N691 G3X153.81Y1351.95I0.05J0.19  ;
N692 G1X24.19Y1351.95  ;
N693 G3X24.05Y1351.81I-0.19J0.05  ;
N694 G1X24.05Y1349.5  ;
N695 G2X23.5Y1348.95I-0.55J0  ;
N696 G1X18.79Y1348.95  ;
N697 G65 P9104 A101 B02  ;
N698 M98 P9103  ;
(P19:ID6:W56402107)  ;
N699 M98 P9101  ;
N700 G0X343.63Y1292.02  ;
N701 G65 P9102 A101 B02  ;
N702 G1X345.71Y1289.94  ;
N703 G3X345.68Y1289.9I-3.71J3.64  ;
N704 G65 P9104 A101 B02  ;
N705 G0X393.63Y1292.02  ;
N706 G65 P9102 A101 B02  ;
N707 G1X395.71Y1289.94  ;
N708 G3X395.68Y1289.9I-3.71J3.64  ;
N709 G65 P9104 A101 B02  ;
N710 G0X393.63Y1424.02  ;
N711 G65 P9102 A101 B02  ;
N712 G1X395.71Y1421.94  ;
N713 G3X395.68Y1421.9I-3.71J3.64  ;
N714 G65 P9104 A101 B02  ;
N715 G0X343.63Y1424.02  ;
N716 G65 P9102 A101 B02  ;
N717 G1X345.71Y1421.94  ;
N718 G3X345.68Y1421.9I-3.71J3.64  ;
N719 G65 P9104 A101 B01  ;
N720 G0X365.82Y1486.18  ;
N721 G65 P9102 A101 B01  ;
N722 G1X365.82Y1481.23  ;
N723 G1X365.1Y1481.23  ;
N724 G3X364.05Y1480.18I0J-1.05  ;
N725 G1X364.05Y1478.13  ;
N726 G1X330Y1478.13  ;
N727 G3X321.95Y1470.08I0J-8.05  ;
N728 G1X321.95Y1397.55  ;
N729 G3X329.5Y1389.51I8.05J0  ;
N730 G2X336.95Y1381.58I-0.5J-7.93  ;
N731 G1X336.95Y1337.55  ;
N732 G2X329.5Y1329.61I-7.95J0  ;
N733 G3X321.95Y1321.58I0.5J-8.03  ;
N734 G1X321.95Y1249.08  ;
N735 G3X330Y1241.03I8.05J0  ;
N736 G1X364.05Y1241.03  ;
N737 G1X364.05Y1238.98  ;
N738 G3X365.1Y1237.93I1.05J0  ;
N739 G1X368.9Y1237.93  ;
N740 G3X369.95Y1238.98I0J1.05  ;
N741 G1X369.95Y1241.03  ;
N742 G1X404Y1241.03  ;
N743 G3X412.05Y1249.08I0J8.05  ;
N744 G1X412.05Y1321.61  ;
N745 G3X404.5Y1329.64I-8.05J0  ;
N746 G2X397.05Y1337.58I0.5J7.94  ;
N747 G1X397.05Y1381.58  ;
N748 G2X404.5Y1389.51I7.95J0  ;
N749 G3X412.05Y1397.55I-0.5J8.04  ;
N750 G1X412.05Y1470.08  ;
N751 G3X404Y1478.13I-8.05J0  ;
N752 G1X369.95Y1478.13  ;
N753 G1X369.95Y1480.18  ;
N754 G3X368.9Y1481.23I-1.05J0  ;
N755 G1X366.52Y1481.23  ;
N756 G65 P9104 A101 B02  ;
N757 M98 P9103  ;
(P20:ID6:W56402107)  ;
N758 M98 P9101  ;
N759 G0X441.63Y1424.02  ;
N760 G65 P9102 A101 B02  ;
N761 G1X443.71Y1421.94  ;
N762 G3X443.68Y1421.9I-3.71J3.64  ;
N763 G65 P9104 A101 B02  ;
N764 G0X491.63Y1424.02  ;
N765 G65 P9102 A101 B02  ;
N766 G1X493.71Y1421.94  ;
N767 G3X493.68Y1421.9I-3.71J3.64  ;
N768 G65 P9104 A101 B02  ;
N769 G0X491.63Y1292.02  ;
N770 G65 P9102 A101 B02  ;
N771 G1X493.71Y1289.94  ;
N772 G3X493.68Y1289.9I-3.71J3.64  ;
N773 G65 P9104 A101 B02  ;
N774 G0X441.63Y1292.02  ;
N775 G65 P9102 A101 B02  ;
N776 G1X443.71Y1289.94  ;
N777 G3X443.68Y1289.9I-3.71J3.64  ;
N778 G65 P9104 A101 B01  ;
N779 G0X463.82Y1486.18  ;
N780 G65 P9102 A101 B01  ;
N781 G1X463.82Y1481.23  ;
N782 G1X463.1Y1481.23  ;
N783 G3X462.05Y1480.18I0J-1.05  ;
N784 G1X462.05Y1478.13  ;
N785 G1X428Y1478.13  ;
N786 G3X419.95Y1470.08I0J-8.05  ;
N787 G1X419.95Y1397.55  ;
N788 G3X427.5Y1389.51I8.05J0  ;
N789 G2X434.95Y1381.58I-0.5J-7.93  ;
N790 G1X434.95Y1337.55  ;
N791 G2X427.5Y1329.61I-7.95J0  ;
N792 G3X419.95Y1321.58I0.5J-8.03  ;
N793 G1X419.95Y1249.08  ;
N794 G3X428Y1241.03I8.05J0  ;
N795 G1X462.05Y1241.03  ;
N796 G1X462.05Y1238.98  ;
N797 G3X463.1Y1237.93I1.05J0  ;
N798 G1X466.9Y1237.93  ;
N799 G3X467.95Y1238.98I0J1.05  ;
N800 G1X467.95Y1241.03  ;
N801 G1X502Y1241.03  ;
N802 G3X510.05Y1249.08I0J8.05  ;
N803 G1X510.05Y1321.61  ;
N804 G3X502.5Y1329.64I-8.05J0  ;
N805 G2X495.05Y1337.58I0.5J7.94  ;
N806 G1X495.05Y1381.58  ;
N807 G2X502.5Y1389.51I7.95J0  ;
N808 G3X510.05Y1397.55I-0.5J8.04  ;
N809 G1X510.05Y1470.08  ;
N810 G3X502Y1478.13I-8.05J0  ;
N811 G1X467.95Y1478.13  ;
N812 G1X467.95Y1480.18  ;
N813 G3X466.9Y1481.23I-1.05J0  ;
N814 G1X464.52Y1481.23  ;
N815 G65 P9104 A101 B02  ;
N816 M98 P9103  ;
(P21:ID6:W56402107)  ;
N817 M98 P9101  ;
N818 G0X539.63Y1424.02  ;
N819 G65 P9102 A101 B02  ;
N820 G1X541.71Y1421.94  ;
N821 G3X541.68Y1421.9I-3.71J3.64  ;
N822 G65 P9104 A101 B02  ;
N823 G0X589.63Y1424.02  ;
N824 G65 P9102 A101 B02  ;
N825 G1X591.71Y1421.94  ;
N826 G3X591.68Y1421.9I-3.71J3.64  ;
N827 G65 P9104 A101 B02  ;
N828 G0X589.63Y1292.02  ;
N829 G65 P9102 A101 B02  ;
N830 G1X591.71Y1289.94  ;
N831 G3X591.68Y1289.9I-3.71J3.64  ;
N832 G65 P9104 A101 B02  ;
N833 G0X539.63Y1292.02  ;
N834 G65 P9102 A101 B02  ;
N835 G1X541.71Y1289.94  ;
N836 G3X541.68Y1289.9I-3.71J3.64  ;
N837 G65 P9104 A101 B01  ;
N838 G0X561.82Y1486.18  ;
N839 G65 P9102 A101 B01  ;
N840 G1X561.82Y1481.23  ;
N841 G1X561.1Y1481.23  ;
N842 G3X560.05Y1480.18I0J-1.05  ;
N843 G1X560.05Y1478.13  ;
N844 G1X526Y1478.13  ;
N845 G3X517.95Y1470.08I0J-8.05  ;
N846 G1X517.95Y1397.55  ;
N847 G3X525.5Y1389.51I8.05J0  ;
N848 G2X532.95Y1381.58I-0.5J-7.93  ;
N849 G1X532.95Y1337.55  ;
N850 G2X525.5Y1329.61I-7.95J0  ;
N851 G3X517.95Y1321.58I0.5J-8.03  ;
N852 G1X517.95Y1249.08  ;
N853 G3X526Y1241.03I8.05J0  ;
N854 G1X560.05Y1241.03  ;
N855 G1X560.05Y1238.98  ;
N856 G3X561.1Y1237.93I1.05J0  ;
N857 G1X564.9Y1237.93  ;
N858 G3X565.95Y1238.98I0J1.05  ;
N859 G1X565.95Y1241.03  ;
N860 G1X600Y1241.03  ;
N861 G3X608.05Y1249.08I0J8.05  ;
N862 G1X608.05Y1321.61  ;
N863 G3X600.5Y1329.64I-8.05J0  ;
N864 G2X593.05Y1337.58I0.5J7.94  ;
N865 G1X593.05Y1381.58  ;
N866 G2X600.5Y1389.51I7.95J0  ;
N867 G3X608.05Y1397.55I-0.5J8.04  ;
N868 G1X608.05Y1470.08  ;
N869 G3X600Y1478.13I-8.05J0  ;
N870 G1X565.95Y1478.13  ;
N871 G1X565.95Y1480.18  ;
N872 G3X564.9Y1481.23I-1.05J0  ;
N873 G1X562.52Y1481.23  ;
N874 G65 P9104 A101 B02  ;
N875 M98 P9103  ;
(P22:ID5:W56397732)  ;
N876 M98 P9101  ;
N877 G0X644.43Y1438.81  ;
N878 G65 P9102 A101 B02  ;
N879 G1X647.03Y1440.31  ;
N880 G2X648.33Y1439.97I0.48J-0.82  ;
N881 G1X649.94Y1437.18  ;
N882 G1X646.72Y1431.6  ;
N883 G1X640.28Y1431.6  ;
N884 G1X637.06Y1437.18  ;
N885 G1X640.28Y1442.75  ;
N886 G1X646.72Y1442.75  ;
N887 G1X648.33Y1439.97  ;
N888 G65 P9104 A101 B02  ;
N889 G0X709.43Y1438.81  ;
N890 G65 P9102 A101 B02  ;
N891 G1X712.03Y1440.31  ;
N892 G2X713.33Y1439.97I0.48J-0.82  ;
N893 G1X714.94Y1437.18  ;
N894 G1X711.72Y1431.6  ;
N895 G1X705.28Y1431.6  ;
N896 G1X702.06Y1437.18  ;
N897 G1X705.28Y1442.75  ;
N898 G1X711.72Y1442.75  ;
N899 G1X713.33Y1439.97  ;
N900 G65 P9104 A101 B01  ;
N901 G0X618.13Y1485.28  ;
N902 G65 P9102 A101 B01  ;
N903 G1X618.13Y1480.33  ;
N904 G1X617Y1480.33  ;
N905 G3X615.95Y1479.28I0J-1.05  ;
N906 G1X615.95Y1404.34  ;
N907 G1X736.05Y1404.34  ;
N908 G1X736.05Y1479.28  ;
N909 G3X735Y1480.33I-1.05J0  ;
N910 G1X731.7Y1480.33  ;
N911 G3X730.65Y1479.28I0J-1.05  ;
N912 G1X730.65Y1477.23  ;
N913 G1X621.35Y1477.23  ;
N914 G1X621.35Y1479.28  ;
N915 G3X620.3Y1480.33I-1.05J0  ;
N916 G1X618.83Y1480.33  ;
N917 G65 P9104 A101 B02  ;
N918 M98 P9103  ;
(P23:ID4:W56402105)  ;
N919 M98 P9101  ;
N920 G0X776.25Y1428.98  ;
N921 G65 P9102 A101 B02  ;
N922 G1X774.17Y1431.06  ;
N923 G3X774.2Y1431.1I5.23J-5.16  ;
N924 G65 P9104 A101 B02  ;
N925 G0X776.25Y1318.98  ;
N926 G65 P9102 A101 B02  ;
N927 G1X774.17Y1321.06  ;
N928 G3X774.2Y1321.1I5.23J-5.16  ;
N929 G65 P9104 A101 B01  ;
N930 G0X852.9Y1299.99  ;
N931 G65 P9102 A101 B01  ;
N932 G1X847.95Y1299.99  ;
N933 G1X847.95Y1296.4  ;
N934 G2X847.4Y1295.85I-0.55J0  ;
N935 G1X777.4Y1295.85  ;
N936 G2X769.35Y1303.9I0J8.05  ;
N937 G1X769.35Y1342.95  ;
N938 G1X773.85Y1342.95  ;
N939 G1X773.85Y1345.85  ;
N940 G1X733.85Y1345.85  ;
N941 G1X733.85Y1395.95  ;
N942 G1X773.85Y1395.95  ;
N943 G1X773.85Y1398.85  ;
N944 G1X769.35Y1398.85  ;
N945 G1X769.35Y1437.9  ;
N946 G2X777.4Y1445.95I8.05J0  ;
N947 G1X847.4Y1445.95  ;
N948 G2X847.95Y1445.4I0J-0.55  ;
N949 G1X847.95Y1436.4  ;
N950 G2X847.4Y1435.85I-0.55J0  ;
N951 G1X845.09Y1435.85  ;
N952 G3X844.95Y1435.71I-0.19J0.05  ;
N953 G1X844.95Y1306.09  ;
N954 G3X845.09Y1305.95I-0.05J-0.19  ;
N955 G1X847.4Y1305.95  ;
N956 G2X847.95Y1305.4I0J-0.55  ;
N957 G1X847.95Y1300.69  ;
N958 G65 P9104 A101 B02  ;
N959 M98 P9103  ;
(P24:ID5:W56397732)  ;
N960 M98 P9101  ;
N961 G0X884.33Y1400.81  ;
N962 G65 P9102 A101 B02  ;
N963 G1X886.93Y1402.31  ;
N964 G2X888.23Y1401.97I0.48J-0.82  ;
N965 G1X889.84Y1399.18  ;
N966 G1X886.62Y1393.6  ;
N967 G1X880.18Y1393.6  ;
N968 G1X876.96Y1399.18  ;
N969 G1X880.18Y1404.75  ;
N970 G1X886.62Y1404.75  ;
N971 G1X888.23Y1401.97  ;
N972 G65 P9104 A101 B02  ;
N973 G0X949.33Y1400.81  ;
N974 G65 P9102 A101 B02  ;
N975 G1X951.93Y1402.31  ;
N976 G2X953.23Y1401.97I0.48J-0.82  ;
N977 G1X954.84Y1399.18  ;
N978 G1X951.62Y1393.6  ;
N979 G1X945.18Y1393.6  ;
N980 G1X941.96Y1399.18  ;
N981 G1X945.18Y1404.75  ;
N982 G1X951.62Y1404.75  ;
N983 G1X953.23Y1401.97  ;
N984 G65 P9104 A101 B01  ;
N985 G0X858.03Y1447.28  ;
N986 G65 P9102 A101 B01  ;
N987 G1X858.03Y1442.33  ;
N988 G1X856.9Y1442.33  ;
N989 G3X855.85Y1441.28I0J-1.05  ;
N990 G1X855.85Y1366.34  ;
N991 G1X975.95Y1366.34  ;
N992 G1X975.95Y1441.28  ;
N993 G3X974.9Y1442.33I-1.05J0  ;
N994 G1X971.6Y1442.33  ;
N995 G3X970.55Y1441.28I0J-1.05  ;
N996 G1X970.55Y1439.23  ;
N997 G1X861.25Y1439.23  ;
N998 G1X861.25Y1441.28  ;
N999 G3X860.2Y1442.33I-1.05J0  ;
N1000 G1X858.73Y1442.33  ;
N1001 M98 P9104  ;
N1002 M98 P9103  ;
(FOOTER)
N1003 M98 P9110  ;
N1004 M30  ;
%
