O0099  ;
( MACHINE : TCI Laser )  ;
( MATERIAL : Acero al carbono N2 )  ;
( THICKNESS : 4 )  ;
( REPETITIONS : 1 )  ;
( SIMULATION TIME : 00:38:20 )  ;
( FORMAT : 1500x3000 )  ;
( JOB NUMBER : VARS5640\K564121s40 )  ;
( PROGRAM NUMBER : 12100 )  ;
( TYPE : 0 )  ;
( NUMBER OF SHEETS : 1 )  ;
( CUTTING HEADS : 1 )  ;
#516= 1  ;
#517= 1  ;
N105 G65 P9100 A103 B01  ;
(P1:ID1:W56397706)  ;
N106 M98 P9101  ;
N107 G0X34.02Y13.45  ;
N108 G65 P9102 A101 B01  ;
N109 G1X39.02Y13.45  ;
N110 G1X96.57Y13.45  ;
N111 G1X96.57Y676.54  ;
N112 G1X38.97Y676.54  ;
N113 G1X38.97Y14.15  ;
N114 G65 P9104 A101 B01  ;
N115 M98 P9103  ;
(P2:ID1:W56397706)  ;
N116 M98 P9101  ;
N117 G0X112.02Y13.45  ;
N118 G65 P9102 A101 B01  ;
N119 G1X117.02Y13.45  ;
N120 G1X174.57Y13.45  ;
N121 G1X174.57Y676.54  ;
N122 G1X116.97Y676.54  ;
N123 G1X116.97Y14.15  ;
N124 G65 P9104 A101 B01  ;
N125 M98 P9103  ;
(P3:ID1:W56397706)  ;
N126 M98 P9101  ;
N127 G0X202.02Y13.45  ;
N128 G65 P9102 A101 B01  ;
N129 G1X207.02Y13.45  ;
N130 G1X264.57Y13.45  ;
N131 G1X264.57Y676.54  ;
N132 G1X206.97Y676.54  ;
N133 G1X206.97Y14.15  ;
N134 G65 P9104 A101 B01  ;
N135 M98 P9103  ;
(P4:ID1:W56397706)  ;
N136 M98 P9101  ;
N137 G0X290.02Y13.45  ;
N138 G65 P9102 A101 B01  ;
N139 G1X295.02Y13.45  ;
N140 G1X352.57Y13.45  ;
N141 G1X352.57Y676.54  ;
N142 G1X294.97Y676.54  ;
N143 G1X294.97Y14.15  ;
N144 G65 P9104 A101 B02  ;
N145 M98 P9103  ;
(P5:ID2:w56397705)  ;
N146 M98 P9101  ;
N147 G0X453.83Y286.27  ;
N148 G65 P9102 A101 B02  ;
N149 G1X454.43Y289.21  ;
N150 G3X453.5Y290.35I-0.93J0.19  ;
N151 G3X447.55Y284.4I0J-5.95  ;
N152 G1X447.55Y282.4  ;
N153 G3X459.45Y282.4I5.95J0  ;
N154 G1X459.45Y284.4  ;
N155 G3X453.5Y290.35I-5.95J0  ;
N156 G65 P9104 A101 B02  ;
N157 G0X453.83Y446.27  ;
N158 G65 P9102 A101 B02  ;
N159 G1X454.43Y449.21  ;
N160 G3X453.5Y450.35I-0.93J0.19  ;
N161 G3X447.55Y444.4I0J-5.95  ;
N162 G1X447.55Y442.4  ;
N163 G3X459.45Y442.4I5.95J0  ;
N164 G1X459.45Y444.4  ;
N165 G3X453.5Y450.35I-5.95J0  ;
N166 G65 P9104 A101 B01  ;
N167 G0X814.5Y362.45  ;
N168 G65 P9102 A101 B01  ;
N169 G1X817.5Y362.45  ;
N170 G3X818.45Y363.4I0J0.95  ;
N171 G1X818.45Y448.4  ;
N172 G3X798.5Y468.35I-19.95J0  ;
N173 G1X538.5Y468.35  ;
N174 G3X518.55Y448.4I0J-19.95  ;
N175 G1X518.55Y278.4  ;
N176 G3X538.5Y258.45I19.95J0  ;
N177 G1X798.5Y258.45  ;
N178 G3X818.45Y278.4I0J19.95  ;
N179 G1X818.45Y363.4  ;
N180 G65 P9104 A101 B02  ;
N181 G0X1433.83Y446.27  ;
N182 G65 P9102 A101 B02  ;
N183 G1X1434.43Y449.21  ;
N184 G3X1433.5Y450.35I-0.93J0.19  ;
N185 G3X1427.55Y444.4I0J-5.95  ;
N186 G1X1427.55Y442.4  ;
N187 G3X1439.45Y442.4I5.95J0  ;
N188 G1X1439.45Y444.4  ;
N189 G3X1433.5Y450.35I-5.95J0  ;
N190 G65 P9104 A101 B01  ;
N191 G0X1364.5Y362.45  ;
N192 G65 P9102 A101 B01  ;
N193 G1X1367.5Y362.45  ;
N194 G3X1368.45Y363.4I0J0.95  ;
N195 G1X1368.45Y448.4  ;
N196 G3X1348.5Y468.35I-19.95J0  ;
N197 G1X1088.5Y468.35  ;
N198 G3X1068.55Y448.4I0J-19.95  ;
N199 G1X1068.55Y278.4  ;
N200 G3X1088.5Y258.45I19.95J0  ;
N201 G1X1348.5Y258.45  ;
N202 G3X1368.45Y278.4I0J19.95  ;
N203 G1X1368.45Y363.4  ;
N204 G65 P9104 A101 B02  ;
N205 G0X1433.83Y286.27  ;
N206 G65 P9102 A101 B02  ;
N207 G1X1434.43Y289.21  ;
N208 G3X1433.5Y290.35I-0.93J0.19  ;
N209 G3X1427.55Y284.4I0J-5.95  ;
N210 G1X1427.55Y282.4  ;
N211 G3X1439.45Y282.4I5.95J0  ;
N212 G1X1439.45Y284.4  ;
N213 G3X1433.5Y290.35I-5.95J0  ;
N214 G65 P9104 A101 B01  ;
N215 G0X423Y102.1  ;
N216 G65 P9102 A101 B01  ;
N217 G1X421.54Y104.73  ;
N218 G3X420.25Y105.1I-0.83J-0.46  ;
N219 G1X417.98Y103.83  ;
N220 G2X413.45Y106.5I-1.48J2.67  ;
N221 G1X413.45Y620.3  ;
N222 G2X417.98Y622.97I3.05J0  ;
N223 G1X422.51Y620.45  ;
N224 G1X1464.49Y620.45  ;
N225 G1X1469.02Y622.97  ;
N226 G2X1473.55Y620.3I1.48J-2.67  ;
N227 G1X1473.55Y106.5  ;
N228 G2X1469.02Y103.83I-3.05J0  ;
N229 G1X1464.49Y106.35  ;
N230 G1X422.51Y106.35  ;
N231 G1X420.25Y105.1  ;
N232 G65 P9104 A101 B02  ;
N233 M98 P9103  ;
(P6:ID2:w56397705)  ;
N234 M98 P9101  ;
N235 G0X465.83Y810.17  ;
N236 G65 P9102 A101 B02  ;
N237 G1X466.43Y813.11  ;
N238 G3X465.5Y814.25I-0.93J0.19  ;
N239 G3X459.55Y808.3I0J-5.95  ;
N240 G1X459.55Y806.3  ;
N241 G3X471.45Y806.3I5.95J0  ;
N242 G1X471.45Y808.3  ;
N243 G3X465.5Y814.25I-5.95J0  ;
N244 G65 P9104 A101 B02  ;
N245 G0X465.83Y970.17  ;
N246 G65 P9102 A101 B02  ;
N247 G1X466.43Y973.11  ;
N248 G3X465.5Y974.25I-0.93J0.19  ;
N249 G3X459.55Y968.3I0J-5.95  ;
N250 G1X459.55Y966.3  ;
N251 G3X471.45Y966.3I5.95J0  ;
N252 G1X471.45Y968.3  ;
N253 G3X465.5Y974.25I-5.95J0  ;
N254 G65 P9104 A101 B01  ;
N255 G0X826.5Y886.35  ;
N256 G65 P9102 A101 B01  ;
N257 G1X829.5Y886.35  ;
N258 G3X830.45Y887.3I0J0.95  ;
N259 G1X830.45Y972.3  ;
N260 G3X810.5Y992.25I-19.95J0  ;
N261 G1X550.5Y992.25  ;
N262 G3X530.55Y972.3I0J-19.95  ;
N263 G1X530.55Y802.3  ;
N264 G3X550.5Y782.35I19.95J0  ;
N265 G1X810.5Y782.35  ;
N266 G3X830.45Y802.3I0J19.95  ;
N267 G1X830.45Y887.3  ;
N268 G65 P9104 A101 B02  ;
N269 G0X1445.83Y970.17  ;
N270 G65 P9102 A101 B02  ;
N271 G1X1446.43Y973.11  ;
N272 G3X1445.5Y974.25I-0.93J0.19  ;
N273 G3X1439.55Y968.3I0J-5.95  ;
N274 G1X1439.55Y966.3  ;
N275 G3X1451.45Y966.3I5.95J0  ;
N276 G1X1451.45Y968.3  ;
N277 G3X1445.5Y974.25I-5.95J0  ;
N278 G65 P9104 A101 B01  ;
N279 G0X1376.5Y886.35  ;
N280 G65 P9102 A101 B01  ;
N281 G1X1379.5Y886.35  ;
N282 G3X1380.45Y887.3I0J0.95  ;
N283 G1X1380.45Y972.3  ;
N284 G3X1360.5Y992.25I-19.95J0  ;
N285 G1X1100.5Y992.25  ;
N286 G3X1080.55Y972.3I0J-19.95  ;
N287 G1X1080.55Y802.3  ;
N288 G3X1100.5Y782.35I19.95J0  ;
N289 G1X1360.5Y782.35  ;
N290 G3X1380.45Y802.3I0J19.95  ;
N291 G1X1380.45Y887.3  ;
N292 G65 P9104 A101 B02  ;
N293 G0X1445.83Y810.17  ;
N294 G65 P9102 A101 B02  ;
N295 G1X1446.43Y813.11  ;
N296 G3X1445.5Y814.25I-0.93J0.19  ;
N297 G3X1439.55Y808.3I0J-5.95  ;
N298 G1X1439.55Y806.3  ;
N299 G3X1451.45Y806.3I5.95J0  ;
N300 G1X1451.45Y808.3  ;
N301 G3X1445.5Y814.25I-5.95J0  ;
N302 G65 P9104 A101 B01  ;
N303 G0X435Y626  ;
N304 G65 P9102 A101 B01  ;
N305 G1X433.54Y628.63  ;
N306 G3X432.25Y629I-0.83J-0.46  ;
N307 G1X429.98Y627.73  ;
N308 G2X425.45Y630.4I-1.48J2.67  ;
N309 G1X425.45Y1144.2  ;
N310 G2X429.98Y1146.87I3.05J0  ;
N311 G1X434.51Y1144.35  ;
N312 G1X1476.49Y1144.35  ;
N313 G1X1481.02Y1146.87  ;
N314 G2X1485.55Y1144.2I1.48J-2.67  ;
N315 G1X1485.55Y630.4  ;
N316 G2X1481.02Y627.73I-3.05J0  ;
N317 G1X1476.49Y630.25  ;
N318 G1X434.51Y630.25  ;
N319 G1X432.25Y629  ;
N320 G65 P9104 A101 B01  ;
N321 M98 P9103  ;
(P7:ID1:W56397706)  ;
N322 M98 P9101  ;
N323 G0X210.02Y683.35  ;
N324 G65 P9102 A101 B01  ;
N325 G1X215.02Y683.35  ;
N326 G1X272.57Y683.35  ;
N327 G1X272.57Y1346.44  ;
N328 G1X214.97Y1346.44  ;
N329 G1X214.97Y684.05  ;
N330 G65 P9104 A101 B01  ;
N331 M98 P9103  ;
(P8:ID1:W56397706)  ;
N332 M98 P9101  ;
N333 G0X294.02Y683.35  ;
N334 G65 P9102 A101 B01  ;
N335 G1X299.02Y683.35  ;
N336 G1X356.57Y683.35  ;
N337 G1X356.57Y1346.44  ;
N338 G1X298.97Y1346.44  ;
N339 G1X298.97Y684.05  ;
N340 G65 P9104 A101 B02  ;
N341 M98 P9103  ;
(P9:ID2:w56397705)  ;
N342 M98 P9101  ;
N343 G0X453.83Y1334.07  ;
N344 G65 P9102 A101 B02  ;
N345 G1X454.43Y1337.01  ;
N346 G3X453.5Y1338.15I-0.93J0.19  ;
N347 G3X447.55Y1332.2I0J-5.95  ;
N348 G1X447.55Y1330.2  ;
N349 G3X459.45Y1330.2I5.95J0  ;
N350 G1X459.45Y1332.2  ;
N351 G3X453.5Y1338.15I-5.95J0  ;
N352 G65 P9104 A101 B02  ;
N353 G0X453.83Y1494.07  ;
N354 G65 P9102 A101 B02  ;
N355 G1X454.43Y1497.01  ;
N356 G3X453.5Y1498.15I-0.93J0.19  ;
N357 G3X447.55Y1492.2I0J-5.95  ;
N358 G1X447.55Y1490.2  ;
N359 G3X459.45Y1490.2I5.95J0  ;
N360 G1X459.45Y1492.2  ;
N361 G3X453.5Y1498.15I-5.95J0  ;
N362 G65 P9104 A101 B01  ;
N363 G0X814.5Y1410.25  ;
N364 G65 P9102 A101 B01  ;
N365 G1X817.5Y1410.25  ;
N366 G3X818.45Y1411.2I0J0.95  ;
N367 G1X818.45Y1496.2  ;
N368 G3X798.5Y1516.15I-19.95J0  ;
N369 G1X538.5Y1516.15  ;
N370 G3X518.55Y1496.2I0J-19.95  ;
N371 G1X518.55Y1326.2  ;
N372 G3X538.5Y1306.25I19.95J0  ;
N373 G1X798.5Y1306.25  ;
N374 G3X818.45Y1326.2I0J19.95  ;
N375 G1X818.45Y1411.2  ;
N376 G65 P9104 A101 B02  ;
N377 G0X1433.83Y1494.07  ;
N378 G65 P9102 A101 B02  ;
N379 G1X1434.43Y1497.01  ;
N380 G3X1433.5Y1498.15I-0.93J0.19  ;
N381 G3X1427.55Y1492.2I0J-5.95  ;
N382 G1X1427.55Y1490.2  ;
N383 G3X1439.45Y1490.2I5.95J0  ;
N384 G1X1439.45Y1492.2  ;
N385 G3X1433.5Y1498.15I-5.95J0  ;
N386 G65 P9104 A101 B01  ;
N387 G0X1364.5Y1410.25  ;
N388 G65 P9102 A101 B01  ;
N389 G1X1367.5Y1410.25  ;
N390 G3X1368.45Y1411.2I0J0.95  ;
N391 G1X1368.45Y1496.2  ;
N392 G3X1348.5Y1516.15I-19.95J0  ;
N393 G1X1088.5Y1516.15  ;
N394 G3X1068.55Y1496.2I0J-19.95  ;
N395 G1X1068.55Y1326.2  ;
N396 G3X1088.5Y1306.25I19.95J0  ;
N397 G1X1348.5Y1306.25  ;
N398 G3X1368.45Y1326.2I0J19.95  ;
N399 G1X1368.45Y1411.2  ;
N400 G65 P9104 A101 B02  ;
N401 G0X1433.83Y1334.07  ;
N402 G65 P9102 A101 B02  ;
N403 G1X1434.43Y1337.01  ;
N404 G3X1433.5Y1338.15I-0.93J0.19  ;
N405 G3X1427.55Y1332.2I0J-5.95  ;
N406 G1X1427.55Y1330.2  ;
N407 G3X1439.45Y1330.2I5.95J0  ;
N408 G1X1439.45Y1332.2  ;
N409 G3X1433.5Y1338.15I-5.95J0  ;
N410 G65 P9104 A101 B01  ;
N411 G0X423Y1149.9  ;
N412 G65 P9102 A101 B01  ;
N413 G1X421.54Y1152.53  ;
N414 G3X420.25Y1152.9I-0.83J-0.46  ;
N415 G1X417.98Y1151.63  ;
N416 G2X413.45Y1154.3I-1.48J2.67  ;
N417 G1X413.45Y1668.1  ;
N418 G2X417.98Y1670.77I3.05J0  ;
N419 G1X422.51Y1668.25  ;
N420 G1X1464.49Y1668.25  ;
N421 G1X1469.02Y1670.77  ;
N422 G2X1473.55Y1668.1I1.48J-2.67  ;
N423 G1X1473.55Y1154.3  ;
N424 G2X1469.02Y1151.63I-3.05J0  ;
N425 G1X1464.49Y1154.15  ;
N426 G1X422.51Y1154.15  ;
N427 G1X420.25Y1152.9  ;
N428 G65 P9104 A101 B02  ;
N429 M98 P9103  ;
(P10:ID3:W56402108)  ;
N430 M98 P9101  ;
N431 G0X163Y1197.95  ;
N432 G65 P9102 A101 B02  ;
N433 G1X158.05Y1197.96  ;
N434 G3X163.5Y1192.55I5.45J0.04  ;
N435 G1X187.5Y1192.55  ;
N436 G3X187.5Y1203.45I0J5.45  ;
N437 G1X163.5Y1203.45  ;
N438 G3X158.09Y1198.66I0J-5.45  ;
N439 G65 P9104 A101 B01  ;
N440 G0X206.5Y694.95  ;
N441 G65 P9102 A101 B01  ;
N442 G1X201.5Y694.95  ;
N443 G1X149.45Y694.95  ;
N444 G1X149.45Y1701.05  ;
N445 G1X201.55Y1701.05  ;
N446 G1X201.55Y695.65  ;
N447 G65 P9104 A101 B02  ;
N448 M98 P9103  ;
(P11:ID3:W56402108)  ;
N449 M98 P9101  ;
N450 G0X104Y1192.15  ;
N451 G65 P9102 A101 B02  ;
N452 G1X99.05Y1192.16  ;
N453 G3X104.5Y1186.75I5.45J0.04  ;
N454 G1X128.5Y1186.75  ;
N455 G3X128.5Y1197.65I0J5.45  ;
N456 G1X104.5Y1197.65  ;
N457 G3X99.09Y1192.86I0J-5.45  ;
N458 G65 P9104 A101 B01  ;
N459 G0X147.5Y689.15  ;
N460 G65 P9102 A101 B01  ;
N461 G1X142.5Y689.15  ;
N462 G1X90.45Y689.15  ;
N463 G1X90.45Y1695.25  ;
N464 G1X142.55Y1695.25  ;
N465 G1X142.55Y689.85  ;
N466 G65 P9104 A101 B02  ;
N467 M98 P9103  ;
(P12:ID3:W56402108)  ;
N468 M98 P9101  ;
N469 G0X45Y1186.35  ;
N470 G65 P9102 A101 B02  ;
N471 G1X40.05Y1186.36  ;
N472 G3X45.5Y1180.95I5.45J0.04  ;
N473 G1X69.5Y1180.95  ;
N474 G3X69.5Y1191.85I0J5.45  ;
N475 G1X45.5Y1191.85  ;
N476 G3X40.09Y1187.06I0J-5.45  ;
N477 G65 P9104 A101 B01  ;
N478 G0X88.5Y683.35  ;
N479 G65 P9102 A101 B01  ;
N480 G1X83.5Y683.35  ;
N481 G1X31.45Y683.35  ;
N482 G1X31.45Y1689.45  ;
N483 G1X83.55Y1689.45  ;
N484 G1X83.55Y684.05  ;
N485 G65 P9104 A101 B01  ;
N486 M98 P9103  ;
(P13:ID4:W56397733)  ;
N487 M98 P9101  ;
N488 G0X93Y1709.25  ;
N489 G65 P9102 A101 B01  ;
N490 G1X89Y1709.25  ;
N491 G1X84.05Y1709.25  ;
N492 G1X84.05Y1706.8  ;
N493 G2X83.5Y1706.25I-0.55J0  ;
N494 G1X74.5Y1706.25  ;
N495 G2X73.95Y1706.8I0J0.55  ;
N496 G1X73.95Y1709.25  ;
N497 G1X63.95Y1709.25  ;
N498 G3X38.95Y1734.25I-24.95J0.05  ;
N499 G1X38.95Y1779.35  ;
N500 G1X49Y1779.35  ;
N501 G3X58.95Y1789.3I0J9.95  ;
N502 G1X58.95Y1850.8  ;
N503 G3X49Y1860.75I-9.95J0  ;
N504 G1X38.95Y1860.75  ;
N505 G1X38.95Y1905.85  ;
N506 G1X49Y1905.85  ;
N507 G3X58.95Y1915.8I0J9.95  ;
N508 G1X58.95Y1977.3  ;
N509 G3X49Y1987.25I-9.95J0  ;
N510 G1X38.95Y1987.25  ;
N511 G1X38.95Y1992.25  ;
N512 G1X37Y1992.25  ;
N513 G2X35.95Y1993.3I0J1.05  ;
N514 G1X35.95Y2001.3  ;
N515 G2X37Y2002.35I1.05J0  ;
N516 G1X38.95Y2002.35  ;
N517 G1X38.95Y2032.35  ;
N518 G3X63.95Y2057.35I0.05J24.95  ;
N519 G1X89.02Y2057.35  ;
N520 G1X94.05Y2052.32  ;
N521 G1X94.05Y1714.28  ;
N522 G1X89.04Y1709.26  ;
N523 G65 P9104 A101 B01  ;
N524 M98 P9103  ;
(P14:ID1:W56397706)  ;
N525 M98 P9101  ;
N526 G0X214.02Y1353.25  ;
N527 G65 P9102 A101 B01  ;
N528 G1X219.02Y1353.25  ;
N529 G1X276.57Y1353.25  ;
N530 G1X276.57Y2016.34  ;
N531 G1X218.97Y2016.34  ;
N532 G1X218.97Y1353.95  ;
N533 G65 P9104 A101 B01  ;
N534 M98 P9103  ;
(P15:ID1:W56397706)  ;
N535 M98 P9101  ;
N536 G0X298.02Y1353.25  ;
N537 G65 P9102 A101 B01  ;
N538 G1X303.02Y1353.25  ;
N539 G1X360.57Y1353.25  ;
N540 G1X360.57Y2016.34  ;
N541 G1X302.97Y2016.34  ;
N542 G1X302.97Y1353.95  ;
N543 G65 P9104 A101 B02  ;
N544 M98 P9103  ;
(P16:ID2:w56397705)  ;
N545 M98 P9101  ;
N546 G0X465.83Y1857.97  ;
N547 G65 P9102 A101 B02  ;
N548 G1X466.43Y1860.91  ;
N549 G3X465.5Y1862.05I-0.93J0.19  ;
N550 G3X459.55Y1856.1I0J-5.95  ;
N551 G1X459.55Y1854.1  ;
N552 G3X471.45Y1854.1I5.95J0  ;
N553 G1X471.45Y1856.1  ;
N554 G3X465.5Y1862.05I-5.95J0  ;
N555 G65 P9104 A101 B02  ;
N556 G0X465.83Y2017.97  ;
N557 G65 P9102 A101 B02  ;
N558 G1X466.43Y2020.91  ;
N559 G3X465.5Y2022.05I-0.93J0.19  ;
N560 G3X459.55Y2016.1I0J-5.95  ;
N561 G1X459.55Y2014.1  ;
N562 G3X471.45Y2014.1I5.95J0  ;
N563 G1X471.45Y2016.1  ;
N564 G3X465.5Y2022.05I-5.95J0  ;
N565 G65 P9104 A101 B01  ;
N566 G0X826.5Y1934.15  ;
N567 G65 P9102 A101 B01  ;
N568 G1X829.5Y1934.15  ;
N569 G3X830.45Y1935.1I0J0.95  ;
N570 G1X830.45Y2020.1  ;
N571 G3X810.5Y2040.05I-19.95J0  ;
N572 G1X550.5Y2040.05  ;
N573 G3X530.55Y2020.1I0J-19.95  ;
N574 G1X530.55Y1850.1  ;
N575 G3X550.5Y1830.15I19.95J0  ;
N576 G1X810.5Y1830.15  ;
N577 G3X830.45Y1850.1I0J19.95  ;
N578 G1X830.45Y1935.1  ;
N579 G65 P9104 A101 B02  ;
N580 G0X1445.83Y2017.97  ;
N581 G65 P9102 A101 B02  ;
N582 G1X1446.43Y2020.91  ;
N583 G3X1445.5Y2022.05I-0.93J0.19  ;
N584 G3X1439.55Y2016.1I0J-5.95  ;
N585 G1X1439.55Y2014.1  ;
N586 G3X1451.45Y2014.1I5.95J0  ;
N587 G1X1451.45Y2016.1  ;
N588 G3X1445.5Y2022.05I-5.95J0  ;
N589 G65 P9104 A101 B01  ;
N590 G0X1376.5Y1934.15  ;
N591 G65 P9102 A101 B01  ;
N592 G1X1379.5Y1934.15  ;
N593 G3X1380.45Y1935.1I0J0.95  ;
N594 G1X1380.45Y2020.1  ;
N595 G3X1360.5Y2040.05I-19.95J0  ;
N596 G1X1100.5Y2040.05  ;
N597 G3X1080.55Y2020.1I0J-19.95  ;
N598 G1X1080.55Y1850.1  ;
N599 G3X1100.5Y1830.15I19.95J0  ;
N600 G1X1360.5Y1830.15  ;
N601 G3X1380.45Y1850.1I0J19.95  ;
N602 G1X1380.45Y1935.1  ;
N603 G65 P9104 A101 B02  ;
N604 G0X1445.83Y1857.97  ;
N605 G65 P9102 A101 B02  ;
N606 G1X1446.43Y1860.91  ;
N607 G3X1445.5Y1862.05I-0.93J0.19  ;
N608 G3X1439.55Y1856.1I0J-5.95  ;
N609 G1X1439.55Y1854.1  ;
N610 G3X1451.45Y1854.1I5.95J0  ;
N611 G1X1451.45Y1856.1  ;
N612 G3X1445.5Y1862.05I-5.95J0  ;
N613 G65 P9104 A101 B01  ;
N614 G0X435Y1673.8  ;
N615 G65 P9102 A101 B01  ;
N616 G1X433.54Y1676.43  ;
N617 G3X432.25Y1676.8I-0.83J-0.46  ;
N618 G1X429.98Y1675.53  ;
N619 G2X425.45Y1678.2I-1.48J2.67  ;
N620 G1X425.45Y2192  ;
N621 G2X429.98Y2194.67I3.05J0  ;
N622 G1X434.51Y2192.15  ;
N623 G1X1476.49Y2192.15  ;
N624 G1X1481.02Y2194.67  ;
N625 G2X1485.55Y2192I1.48J-2.67  ;
N626 G1X1485.55Y1678.2  ;
N627 G2X1481.02Y1675.53I-3.05J0  ;
N628 G1X1476.49Y1678.05  ;
N629 G1X434.51Y1678.05  ;
N630 G1X432.25Y1676.8  ;
N631 G65 P9104 A101 B01  ;
N632 M98 P9103  ;
(P17:ID4:W56397733)  ;
N633 M98 P9101  ;
N634 G0X163.5Y1775.35  ;
N635 G65 P9102 A101 B01  ;
N636 G1X159.5Y1775.35  ;
N637 G1X154.55Y1775.35  ;
N638 G1X154.55Y1772.9  ;
N639 G2X154Y1772.35I-0.55J0  ;
N640 G1X145Y1772.35  ;
N641 G2X144.45Y1772.9I0J0.55  ;
N642 G1X144.45Y1775.35  ;
N643 G1X134.45Y1775.35  ;
N644 G3X109.45Y1800.35I-24.95J0.05  ;
N645 G1X109.45Y1845.45  ;
N646 G1X119.5Y1845.45  ;
N647 G3X129.45Y1855.4I0J9.95  ;
N648 G1X129.45Y1916.9  ;
N649 G3X119.5Y1926.85I-9.95J0  ;
N650 G1X109.45Y1926.85  ;
N651 G1X109.45Y1971.95  ;
N652 G1X119.5Y1971.95  ;
N653 G3X129.45Y1981.9I0J9.95  ;
N654 G1X129.45Y2043.4  ;
N655 G3X119.5Y2053.35I-9.95J0  ;
N656 G1X109.45Y2053.35  ;
N657 G1X109.45Y2058.35  ;
N658 G1X107.5Y2058.35  ;
N659 G2X106.45Y2059.4I0J1.05  ;
N660 G1X106.45Y2067.4  ;
N661 G2X107.5Y2068.45I1.05J0  ;
N662 G1X109.45Y2068.45  ;
N663 G1X109.45Y2098.45  ;
N664 G3X134.45Y2123.45I0.05J24.95  ;
N665 G1X159.52Y2123.45  ;
N666 G1X164.55Y2118.42  ;
N667 G1X164.55Y1780.38  ;
N668 G1X159.54Y1775.36  ;
N669 G65 P9104 A101 B01  ;
N670 M98 P9103  ;
(P18:ID4:W56397733)  ;
N671 M98 P9101  ;
N672 G0X130Y2134.15  ;
N673 G65 P9102 A101 B01  ;
N674 G1X126Y2134.15  ;
N675 G1X121.05Y2134.15  ;
N676 G1X121.05Y2131.7  ;
N677 G2X120.5Y2131.15I-0.55J0  ;
N678 G1X111.5Y2131.15  ;
N679 G2X110.95Y2131.7I0J0.55  ;
N680 G1X110.95Y2134.15  ;
N681 G1X100.95Y2134.15  ;
N682 G3X75.95Y2159.15I-24.95J0.05  ;
N683 G1X75.95Y2204.25  ;
N684 G1X86Y2204.25  ;
N685 G3X95.95Y2214.2I0J9.95  ;
N686 G1X95.95Y2275.7  ;
N687 G3X86Y2285.65I-9.95J0  ;
N688 G1X75.95Y2285.65  ;
N689 G1X75.95Y2330.75  ;
N690 G1X86Y2330.75  ;
N691 G3X95.95Y2340.7I0J9.95  ;
N692 G1X95.95Y2402.2  ;
N693 G3X86Y2412.15I-9.95J0  ;
N694 G1X75.95Y2412.15  ;
N695 G1X75.95Y2417.15  ;
N696 G1X74Y2417.15  ;
N697 G2X72.95Y2418.2I0J1.05  ;
N698 G1X72.95Y2426.2  ;
N699 G2X74Y2427.25I1.05J0  ;
N700 G1X75.95Y2427.25  ;
N701 G1X75.95Y2457.25  ;
N702 G3X100.95Y2482.25I0.05J24.95  ;
N703 G1X126.02Y2482.25  ;
N704 G1X131.05Y2477.22  ;
N705 G1X131.05Y2139.18  ;
N706 G1X126.04Y2134.16  ;
N707 G65 P9104 A101 B02  ;
N708 M98 P9103  ;
(P19:ID2:w56397705)  ;
N709 M98 P9101  ;
N710 G0X453.83Y2381.87  ;
N711 G65 P9102 A101 B02  ;
N712 G1X454.43Y2384.81  ;
N713 G3X453.5Y2385.95I-0.93J0.19  ;
N714 G3X447.55Y2380I0J-5.95  ;
N715 G1X447.55Y2378  ;
N716 G3X459.45Y2378I5.95J0  ;
N717 G1X459.45Y2380  ;
N718 G3X453.5Y2385.95I-5.95J0  ;
N719 G65 P9104 A101 B02  ;
N720 G0X453.83Y2541.87  ;
N721 G65 P9102 A101 B02  ;
N722 G1X454.43Y2544.81  ;
N723 G3X453.5Y2545.95I-0.93J0.19  ;
N724 G3X447.55Y2540I0J-5.95  ;
N725 G1X447.55Y2538  ;
N726 G3X459.45Y2538I5.95J0  ;
N727 G1X459.45Y2540  ;
N728 G3X453.5Y2545.95I-5.95J0  ;
N729 G65 P9104 A101 B01  ;
N730 G0X814.5Y2458.05  ;
N731 G65 P9102 A101 B01  ;
N732 G1X817.5Y2458.05  ;
N733 G3X818.45Y2459I0J0.95  ;
N734 G1X818.45Y2544  ;
N735 G3X798.5Y2563.95I-19.95J0  ;
N736 G1X538.5Y2563.95  ;
N737 G3X518.55Y2544I0J-19.95  ;
N738 G1X518.55Y2374  ;
N739 G3X538.5Y2354.05I19.95J0  ;
N740 G1X798.5Y2354.05  ;
N741 G3X818.45Y2374I0J19.95  ;
N742 G1X818.45Y2459  ;
N743 G65 P9104 A101 B02  ;
N744 G0X1433.83Y2541.87  ;
N745 G65 P9102 A101 B02  ;
N746 G1X1434.43Y2544.81  ;
N747 G3X1433.5Y2545.95I-0.93J0.19  ;
N748 G3X1427.55Y2540I0J-5.95  ;
N749 G1X1427.55Y2538  ;
N750 G3X1439.45Y2538I5.95J0  ;
N751 G1X1439.45Y2540  ;
N752 G3X1433.5Y2545.95I-5.95J0  ;
N753 G65 P9104 A101 B01  ;
N754 G0X1364.5Y2458.05  ;
N755 G65 P9102 A101 B01  ;
N756 G1X1367.5Y2458.05  ;
N757 G3X1368.45Y2459I0J0.95  ;
N758 G1X1368.45Y2544  ;
N759 G3X1348.5Y2563.95I-19.95J0  ;
N760 G1X1088.5Y2563.95  ;
N761 G3X1068.55Y2544I0J-19.95  ;
N762 G1X1068.55Y2374  ;
N763 G3X1088.5Y2354.05I19.95J0  ;
N764 G1X1348.5Y2354.05  ;
N765 G3X1368.45Y2374I0J19.95  ;
N766 G1X1368.45Y2459  ;
N767 G65 P9104 A101 B02  ;
N768 G0X1433.83Y2381.87  ;
N769 G65 P9102 A101 B02  ;
N770 G1X1434.43Y2384.81  ;
N771 G3X1433.5Y2385.95I-0.93J0.19  ;
N772 G3X1427.55Y2380I0J-5.95  ;
N773 G1X1427.55Y2378  ;
N774 G3X1439.45Y2378I5.95J0  ;
N775 G1X1439.45Y2380  ;
N776 G3X1433.5Y2385.95I-5.95J0  ;
N777 G65 P9104 A101 B01  ;
N778 G0X423Y2197.7  ;
N779 G65 P9102 A101 B01  ;
N780 G1X421.54Y2200.33  ;
N781 G3X420.25Y2200.7I-0.83J-0.46  ;
N782 G1X417.98Y2199.43  ;
N783 G2X413.45Y2202.1I-1.48J2.67  ;
N784 G1X413.45Y2715.9  ;
N785 G2X417.98Y2718.57I3.05J0  ;
N786 G1X422.51Y2716.05  ;
N787 G1X1464.49Y2716.05  ;
N788 G1X1469.02Y2718.57  ;
N789 G2X1473.55Y2715.9I1.48J-2.67  ;
N790 G1X1473.55Y2202.1  ;
N791 G2X1469.02Y2199.43I-3.05J0  ;
N792 G1X1464.49Y2201.95  ;
N793 G1X422.51Y2201.95  ;
N794 G1X420.25Y2200.7  ;
N795 G65 P9104 A101 B01  ;
N796 M98 P9103  ;
(P20:ID1:W56397706)  ;
N797 M98 P9101  ;
N798 G0X295.52Y2023.15  ;
N799 G65 P9102 A101 B01  ;
N800 G1X300.52Y2023.15  ;
N801 G1X358.07Y2023.15  ;
N802 G1X358.07Y2686.24  ;
N803 G1X300.47Y2686.24  ;
N804 G1X300.47Y2023.85  ;
N805 G65 P9104 A101 B01  ;
N806 M98 P9103  ;
(P21:ID1:W56397706)  ;
N807 M98 P9101  ;
N808 G0X211.52Y2023.15  ;
N809 G65 P9102 A101 B01  ;
N810 G1X216.52Y2023.15  ;
N811 G1X274.07Y2023.15  ;
N812 G1X274.07Y2686.24  ;
N813 G1X216.47Y2686.24  ;
N814 G1X216.47Y2023.85  ;
N815 G65 P9104 A101 B01  ;
N816 M98 P9103  ;
(P22:ID4:W56397733)  ;
N817 M98 P9101  ;
N818 G0X132.5Y2497.15  ;
N819 G65 P9102 A101 B01  ;
N820 G1X128.5Y2497.15  ;
N821 G1X123.55Y2497.15  ;
N822 G1X123.55Y2494.7  ;
N823 G2X123Y2494.15I-0.55J0  ;
N824 G1X114Y2494.15  ;
N825 G2X113.45Y2494.7I0J0.55  ;
N826 G1X113.45Y2497.15  ;
N827 G1X103.45Y2497.15  ;
N828 G3X78.45Y2522.15I-24.95J0.05  ;
N829 G1X78.45Y2567.25  ;
N830 G1X88.5Y2567.25  ;
N831 G3X98.45Y2577.2I0J9.95  ;
N832 G1X98.45Y2638.7  ;
N833 G3X88.5Y2648.65I-9.95J0  ;
N834 G1X78.45Y2648.65  ;
N835 G1X78.45Y2693.75  ;
N836 G1X88.5Y2693.75  ;
N837 G3X98.45Y2703.7I0J9.95  ;
N838 G1X98.45Y2765.2  ;
N839 G3X88.5Y2775.15I-9.95J0  ;
N840 G1X78.45Y2775.15  ;
N841 G1X78.45Y2780.15  ;
N842 G1X76.5Y2780.15  ;
N843 G2X75.45Y2781.2I0J1.05  ;
N844 G1X75.45Y2789.2  ;
N845 G2X76.5Y2790.25I1.05J0  ;
N846 G1X78.45Y2790.25  ;
N847 G1X78.45Y2820.25  ;
N848 G3X103.45Y2845.25I0.05J24.95  ;
N849 G1X128.52Y2845.25  ;
N850 G1X133.55Y2840.22  ;
N851 G1X133.55Y2502.18  ;
N852 G1X128.54Y2497.16  ;
N853 G65 P9104 A101 B01  ;
N854 M98 P9103  ;
(P23:ID4:W56397733)  ;
N855 M98 P9101  ;
N856 G0X202.5Y2455.75  ;
N857 G65 P9102 A101 B01  ;
N858 G1X198.5Y2455.75  ;
N859 G1X193.55Y2455.75  ;
N860 G1X193.55Y2453.3  ;
N861 G2X193Y2452.75I-0.55J0  ;
N862 G1X184Y2452.75  ;
N863 G2X183.45Y2453.3I0J0.55  ;
N864 G1X183.45Y2455.75  ;
N865 G1X173.45Y2455.75  ;
N866 G3X148.45Y2480.75I-24.95J0.05  ;
N867 G1X148.45Y2525.85  ;
N868 G1X158.5Y2525.85  ;
N869 G3X168.45Y2535.8I0J9.95  ;
N870 G1X168.45Y2597.3  ;
N871 G3X158.5Y2607.25I-9.95J0  ;
N872 G1X148.45Y2607.25  ;
N873 G1X148.45Y2652.35  ;
N874 G1X158.5Y2652.35  ;
N875 G3X168.45Y2662.3I0J9.95  ;
N876 G1X168.45Y2723.8  ;
N877 G3X158.5Y2733.75I-9.95J0  ;
N878 G1X148.45Y2733.75  ;
N879 G1X148.45Y2738.75  ;
N880 G1X146.5Y2738.75  ;
N881 G2X145.45Y2739.8I0J1.05  ;
N882 G1X145.45Y2747.8  ;
N883 G2X146.5Y2748.85I1.05J0  ;
N884 G1X148.45Y2748.85  ;
N885 G1X148.45Y2778.85  ;
N886 G3X173.45Y2803.85I0.05J24.95  ;
N887 G1X198.52Y2803.85  ;
N888 G1X203.55Y2798.82  ;
N889 G1X203.55Y2460.78  ;
N890 G1X198.54Y2455.76  ;
N891 M98 P9104  ;
N892 M98 P9103  ;
(FOOTER)
N893 M98 P9110  ;
N894 M30  ;
%
