O0099  ;
( MACHINE : TCI Laser )  ;
( MATERIAL : Acero al carbono N2 )  ;
( THICKNESS : 3 )  ;
( REPETITIONS : 1 )  ;
( SIMULATION TIME : 00:16:15 )  ;
( FORMAT : 1000x2000 )  ;
( JOB NUMBER : VARS5640\K564121s30 )  ;
( PROGRAM NUMBER : 12099 )  ;
( TYPE : 0 )  ;
( NUMBER OF SHEETS : 1 )  ;
( CUTTING HEADS : 1 )  ;
#516= 1  ;
#517= 1  ;
N105 G65 P9100 A103 B02  ;
(P1:ID1:W56397732)  ;
N106 M98 P9101  ;
N107 G0X163.93Y43.92  ;
N108 G65 P9102 A101 B02  ;
N109 G1X166.53Y45.42  ;
N110 G2X167.83Y45.07I0.48J-0.82  ;
N111 G1X169.44Y42.29  ;
N112 G1X166.22Y36.71  ;
N113 G1X159.78Y36.71  ;
N114 G1X156.56Y42.29  ;
N115 G1X159.78Y47.86  ;
N116 G1X166.22Y47.86  ;
N117 G1X167.83Y45.07  ;
N118 G65 P9104 A101 B02  ;
N119 G0X228.93Y43.92  ;
N120 G65 P9102 A101 B02  ;
N121 G1X231.53Y45.42  ;
N122 G2X232.83Y45.07I0.48J-0.82  ;
N123 G1X234.44Y42.29  ;
N124 G1X231.22Y36.71  ;
N125 G1X224.78Y36.71  ;
N126 G1X221.56Y42.29  ;
N127 G1X224.78Y47.86  ;
N128 G1X231.22Y47.86  ;
N129 G1X232.83Y45.07  ;
N130 G65 P9104 A101 B01  ;
N131 G0X137.63Y90.39  ;
N132 G65 P9102 A101 B01  ;
N133 G1X137.63Y85.44  ;
N134 G1X136.5Y85.44  ;
N135 G3X135.45Y84.39I0J-1.05  ;
N136 G1X135.45Y9.45  ;
N137 G1X255.55Y9.45  ;
N138 G1X255.55Y84.39  ;
N139 G3X254.5Y85.44I-1.05J0  ;
N140 G1X251.2Y85.44  ;
N141 G3X250.15Y84.39I0J-1.05  ;
N142 G1X250.15Y82.34  ;
N143 G1X140.85Y82.34  ;
N144 G1X140.85Y84.39  ;
N145 G3X139.8Y85.44I-1.05J0  ;
N146 G1X138.33Y85.44  ;
N147 G65 P9104 A101 B02  ;
N148 M98 P9103  ;
(P2:ID1:W56397732)  ;
N149 M98 P9101  ;
N150 G0X409.93Y43.92  ;
N151 G65 P9102 A101 B02  ;
N152 G1X412.53Y45.42  ;
N153 G2X413.83Y45.07I0.48J-0.82  ;
N154 G1X415.44Y42.29  ;
N155 G1X412.22Y36.71  ;
N156 G1X405.78Y36.71  ;
N157 G1X402.56Y42.29  ;
N158 G1X405.78Y47.86  ;
N159 G1X412.22Y47.86  ;
N160 G1X413.83Y45.07  ;
N161 G65 P9104 A101 B02  ;
N162 G0X474.93Y43.92  ;
N163 G65 P9102 A101 B02  ;
N164 G1X477.53Y45.42  ;
N165 G2X478.83Y45.07I0.48J-0.82  ;
N166 G1X480.44Y42.29  ;
N167 G1X477.22Y36.71  ;
N168 G1X470.78Y36.71  ;
N169 G1X467.56Y42.29  ;
N170 G1X470.78Y47.86  ;
N171 G1X477.22Y47.86  ;
N172 G1X478.83Y45.07  ;
N173 G65 P9104 A101 B01  ;
N174 G0X383.63Y90.39  ;
N175 G65 P9102 A101 B01  ;
N176 G1X383.63Y85.44  ;
N177 G1X382.5Y85.44  ;
N178 G3X381.45Y84.39I0J-1.05  ;
N179 G1X381.45Y9.45  ;
N180 G1X501.55Y9.45  ;
N181 G1X501.55Y84.39  ;
N182 G3X500.5Y85.44I-1.05J0  ;
N183 G1X497.2Y85.44  ;
N184 G3X496.15Y84.39I0J-1.05  ;
N185 G1X496.15Y82.34  ;
N186 G1X386.85Y82.34  ;
N187 G1X386.85Y84.39  ;
N188 G3X385.8Y85.44I-1.05J0  ;
N189 G1X384.33Y85.44  ;
N190 G65 P9104 A101 B02  ;
N191 M98 P9103  ;
(P3:ID1:W56397732)  ;
N192 M98 P9101  ;
N193 G0X536.93Y43.92  ;
N194 G65 P9102 A101 B02  ;
N195 G1X539.53Y45.42  ;
N196 G2X540.83Y45.07I0.48J-0.82  ;
N197 G1X542.44Y42.29  ;
N198 G1X539.22Y36.71  ;
N199 G1X532.78Y36.71  ;
N200 G1X529.56Y42.29  ;
N201 G1X532.78Y47.86  ;
N202 G1X539.22Y47.86  ;
N203 G1X540.83Y45.07  ;
N204 G65 P9104 A101 B02  ;
N205 G0X601.93Y43.92  ;
N206 G65 P9102 A101 B02  ;
N207 G1X604.53Y45.42  ;
N208 G2X605.83Y45.07I0.48J-0.82  ;
N209 G1X607.44Y42.29  ;
N210 G1X604.22Y36.71  ;
N211 G1X597.78Y36.71  ;
N212 G1X594.56Y42.29  ;
N213 G1X597.78Y47.86  ;
N214 G1X604.22Y47.86  ;
N215 G1X605.83Y45.07  ;
N216 G65 P9104 A101 B01  ;
N217 G0X510.63Y90.39  ;
N218 G65 P9102 A101 B01  ;
N219 G1X510.63Y85.44  ;
N220 G1X509.5Y85.44  ;
N221 G3X508.45Y84.39I0J-1.05  ;
N222 G1X508.45Y9.45  ;
N223 G1X628.55Y9.45  ;
N224 G1X628.55Y84.39  ;
N225 G3X627.5Y85.44I-1.05J0  ;
N226 G1X624.2Y85.44  ;
N227 G3X623.15Y84.39I0J-1.05  ;
N228 G1X623.15Y82.34  ;
N229 G1X513.85Y82.34  ;
N230 G1X513.85Y84.39  ;
N231 G3X512.8Y85.44I-1.05J0  ;
N232 G1X511.33Y85.44  ;
N233 G65 P9104 A101 B01  ;
N234 M98 P9103  ;
(P4:ID2:W56397735)  ;
N235 M98 P9101  ;
N236 G0X936.66Y155.7  ;
N237 G65 P9102 A101 B01  ;
N238 G1X936.66Y158.7  ;
N239 G1X936.66Y573.06  ;
N240 G1X906.66Y573.06  ;
N241 G1X906.66Y576.06  ;
N242 G1X902.61Y576.06  ;
N243 G3X901.56Y575.01I0J-1.05  ;
N244 G1X901.56Y573.06  ;
N245 G1X751.38Y573.06  ;
N246 G1X759.21Y528.34  ;
N247 G1X712.95Y528.34  ;
N248 G1X712.95Y203.38  ;
N249 G1X759.21Y203.38  ;
N250 G1X751.38Y158.65  ;
N251 G1X901.56Y158.65  ;
N252 G1X901.56Y156.7  ;
N253 G3X902.61Y155.65I1.05J0  ;
N254 G1X906.66Y155.65  ;
N255 G1X906.66Y158.65  ;
N256 G1X936.61Y158.65  ;
N257 G65 P9104 A101 B01  ;
N258 M98 P9103  ;
(P5:ID2:W56397735)  ;
N259 M98 P9101  ;
N260 G0X702.66Y152.7  ;
N261 G65 P9102 A101 B01  ;
N262 G1X702.66Y155.7  ;
N263 G1X702.66Y570.06  ;
N264 G1X672.66Y570.06  ;
N265 G1X672.66Y573.06  ;
N266 G1X668.61Y573.06  ;
N267 G3X667.56Y572.01I0J-1.05  ;
N268 G1X667.56Y570.06  ;
N269 G1X517.38Y570.06  ;
N270 G1X525.21Y525.34  ;
N271 G1X478.95Y525.34  ;
N272 G1X478.95Y200.38  ;
N273 G1X525.21Y200.38  ;
N274 G1X517.38Y155.65  ;
N275 G1X667.56Y155.65  ;
N276 G1X667.56Y153.7  ;
N277 G3X668.61Y152.65I1.05J0  ;
N278 G1X672.66Y152.65  ;
N279 G1X672.66Y155.65  ;
N280 G1X702.61Y155.65  ;
N281 G65 P9104 A101 B01  ;
N282 M98 P9103  ;
(P6:ID2:W56397735)  ;
N283 M98 P9101  ;
N284 G0X468.66Y152.7  ;
N285 G65 P9102 A101 B01  ;
N286 G1X468.66Y155.7  ;
N287 G1X468.66Y570.06  ;
N288 G1X438.66Y570.06  ;
N289 G1X438.66Y573.06  ;
N290 G1X434.61Y573.06  ;
N291 G3X433.56Y572.01I0J-1.05  ;
N292 G1X433.56Y570.06  ;
N293 G1X283.38Y570.06  ;
N294 G1X291.21Y525.34  ;
N295 G1X244.95Y525.34  ;
N296 G1X244.95Y200.38  ;
N297 G1X291.21Y200.38  ;
N298 G1X283.38Y155.65  ;
N299 G1X433.56Y155.65  ;
N300 G1X433.56Y153.7  ;
N301 G3X434.61Y152.65I1.05J0  ;
N302 G1X438.66Y152.65  ;
N303 G1X438.66Y155.65  ;
N304 G1X468.61Y155.65  ;
N305 G65 P9104 A101 B01  ;
N306 M98 P9103  ;
(P7:ID2:W56397735)  ;
N307 M98 P9101  ;
N308 G0X234.66Y152.7  ;
N309 G65 P9102 A101 B01  ;
N310 G1X234.66Y155.7  ;
N311 G1X234.66Y570.06  ;
N312 G1X204.66Y570.06  ;
N313 G1X204.66Y573.06  ;
N314 G1X200.61Y573.06  ;
N315 G3X199.56Y572.01I0J-1.05  ;
N316 G1X199.56Y570.06  ;
N317 G1X49.38Y570.06  ;
N318 G1X57.21Y525.34  ;
N319 G1X10.95Y525.34  ;
N320 G1X10.95Y200.38  ;
N321 G1X57.21Y200.38  ;
N322 G1X49.38Y155.65  ;
N323 G1X199.56Y155.65  ;
N324 G1X199.56Y153.7  ;
N325 G3X200.61Y152.65I1.05J0  ;
N326 G1X204.66Y152.65  ;
N327 G1X204.66Y155.65  ;
N328 G1X234.61Y155.65  ;
N329 G65 P9104 A101 B02  ;
N330 M98 P9103  ;
(P8:ID3:W56402107)  ;
N331 M98 P9101  ;
N332 G0X915.37Y637.08  ;
N333 G65 P9102 A101 B02  ;
N334 G1X913.29Y639.16  ;
N335 G3X913.32Y639.2I3.71J-3.64  ;
N336 G65 P9104 A101 B02  ;
N337 G0X965.37Y637.08  ;
N338 G65 P9102 A101 B02  ;
N339 G1X963.29Y639.16  ;
N340 G3X963.32Y639.2I3.71J-3.64  ;
N341 G65 P9104 A101 B02  ;
N342 G0X965.37Y769.08  ;
N343 G65 P9102 A101 B02  ;
N344 G1X963.29Y771.16  ;
N345 G3X963.32Y771.2I3.71J-3.64  ;
N346 G65 P9104 A101 B02  ;
N347 G0X915.37Y769.08  ;
N348 G65 P9102 A101 B02  ;
N349 G1X913.29Y771.16  ;
N350 G3X913.32Y771.2I3.71J-3.64  ;
N351 G65 P9104 A101 B01  ;
N352 G0X943.18Y574.92  ;
N353 G65 P9102 A101 B01  ;
N354 G1X943.18Y579.87  ;
N355 G1X943.9Y579.87  ;
N356 G3X944.95Y580.92I0J1.05  ;
N357 G1X944.95Y582.97  ;
N358 G1X979Y582.97  ;
N359 G3X987.05Y591.02I0J8.05  ;
N360 G1X987.05Y663.55  ;
N361 G3X979.5Y671.59I-8.05J0  ;
N362 G2X972.05Y679.52I0.5J7.93  ;
N363 G1X972.05Y723.55  ;
N364 G2X979.5Y731.49I7.95J0  ;
N365 G3X987.05Y739.52I-0.5J8.03  ;
N366 G1X987.05Y812.02  ;
N367 G3X979Y820.07I-8.05J0  ;
N368 G1X944.95Y820.07  ;
N369 G1X944.95Y822.12  ;
N370 G3X943.9Y823.17I-1.05J0  ;
N371 G1X940.1Y823.17  ;
N372 G3X939.05Y822.12I0J-1.05  ;
N373 G1X939.05Y820.07  ;
N374 G1X905Y820.07  ;
N375 G3X896.95Y812.02I0J-8.05  ;
N376 G1X896.95Y739.49  ;
N377 G3X904.5Y731.46I8.05J0  ;
N378 G2X911.95Y723.52I-0.5J-7.94  ;
N379 G1X911.95Y679.52  ;
N380 G2X904.5Y671.59I-7.95J0  ;
N381 G3X896.95Y663.55I0.5J-8.04  ;
N382 G1X896.95Y591.02  ;
N383 G3X905Y582.97I8.05J0  ;
N384 G1X939.05Y582.97  ;
N385 G1X939.05Y580.92  ;
N386 G3X940.1Y579.87I1.05J0  ;
N387 G1X942.48Y579.87  ;
N388 G65 P9104 A101 B02  ;
N389 M98 P9103  ;
(P9:ID3:W56402107)  ;
N390 M98 P9101  ;
N391 G0X963.37Y888.78  ;
N392 G65 P9102 A101 B02  ;
N393 G1X961.29Y890.86  ;
N394 G3X961.32Y890.9I3.71J-3.64  ;
N395 G65 P9104 A101 B02  ;
N396 G0X913.37Y888.78  ;
N397 G65 P9102 A101 B02  ;
N398 G1X911.29Y890.86  ;
N399 G3X911.32Y890.9I3.71J-3.64  ;
N400 G65 P9104 A101 B02  ;
N401 G0X913.37Y1020.78  ;
N402 G65 P9102 A101 B02  ;
N403 G1X911.29Y1022.86  ;
N404 G3X911.32Y1022.9I3.71J-3.64  ;
N405 G65 P9104 A101 B02  ;
N406 G0X963.37Y1020.78  ;
N407 G65 P9102 A101 B02  ;
N408 G1X961.29Y1022.86  ;
N409 G3X961.32Y1022.9I3.71J-3.64  ;
N410 G65 P9104 A101 B01  ;
N411 G0X941.18Y826.62  ;
N412 G65 P9102 A101 B01  ;
N413 G1X941.18Y831.57  ;
N414 G1X941.9Y831.57  ;
N415 G3X942.95Y832.62I0J1.05  ;
N416 G1X942.95Y834.67  ;
N417 G1X977Y834.67  ;
N418 G3X985.05Y842.72I0J8.05  ;
N419 G1X985.05Y915.25  ;
N420 G3X977.5Y923.29I-8.05J0  ;
N421 G2X970.05Y931.22I0.5J7.93  ;
N422 G1X970.05Y975.25  ;
N423 G2X977.5Y983.19I7.95J0  ;
N424 G3X985.05Y991.22I-0.5J8.03  ;
N425 G1X985.05Y1063.72  ;
N426 G3X977Y1071.77I-8.05J0  ;
N427 G1X942.95Y1071.77  ;
N428 G1X942.95Y1073.82  ;
N429 G3X941.9Y1074.87I-1.05J0  ;
N430 G1X938.1Y1074.87  ;
N431 G3X937.05Y1073.82I0J-1.05  ;
N432 G1X937.05Y1071.77  ;
N433 G1X903Y1071.77  ;
N434 G3X894.95Y1063.72I0J-8.05  ;
N435 G1X894.95Y991.19  ;
N436 G3X902.5Y983.16I8.05J0  ;
N437 G2X909.95Y975.22I-0.5J-7.94  ;
N438 G1X909.95Y931.22  ;
N439 G2X902.5Y923.29I-7.95J0  ;
N440 G3X894.95Y915.25I0.5J-8.04  ;
N441 G1X894.95Y842.72  ;
N442 G3X903Y834.67I8.05J0  ;
N443 G1X937.05Y834.67  ;
N444 G1X937.05Y832.62  ;
N445 G3X938.1Y831.57I1.05J0  ;
N446 G1X940.48Y831.57  ;
N447 G65 P9104 A102 B04  ;
N448 M98 P9103  ;
(P10:ID4:W56397725)  ;
N449 M98 P9101  ;
N450 G0X351Y953  ;
N451 G65 P9102 A102 B04  ;
N452 G1X346Y953  ;
N453 G1X346Y1052.5  ;
N454 G1X351Y1052.5  ;
N455 G1X351Y953  ;
N456 G65 P9104 A101 B01  ;
N457 M98 P9103  ;
N458 G0X437.21Y580.14  ;
N459 G65 P9102 A101 B01  ;
N460 G1X440.04Y582.96  ;
N461 G1X446.05Y588.98  ;
N462 G1X446.05Y1247.55  ;
N463 G1X185.05Y1247.55  ;
N464 G1X185.05Y1301.52  ;
N465 G1X179.02Y1307.55  ;
N466 G1X10.95Y1307.55  ;
N467 G1X10.95Y581  ;
N468 G3X12Y579.95I1.05J0  ;
N469 G1X18Y579.95  ;
N470 G3X19.05Y581I0J1.05  ;
N471 G1X19.05Y582.95  ;
N472 G1X440Y582.95  ;
N473 G65 P9104 A102 B04  ;
N474 M98 P9103  ;
(P11:ID4:W56397725)  ;
N475 M98 P9101  ;
N476 G0X793Y950  ;
N477 G65 P9102 A102 B04  ;
N478 G1X788Y950  ;
N479 G1X788Y1049.5  ;
N480 G1X793Y1049.5  ;
N481 G1X793Y950  ;
N482 G65 P9104 A101 B01  ;
N483 M98 P9103  ;
N484 G0X879.21Y577.14  ;
N485 G65 P9102 A101 B01  ;
N486 G1X882.04Y579.96  ;
N487 G1X888.05Y585.98  ;
N488 G1X888.05Y1244.55  ;
N489 G1X627.05Y1244.55  ;
N490 G1X627.05Y1298.52  ;
N491 G1X621.02Y1304.55  ;
N492 G1X452.95Y1304.55  ;
N493 G1X452.95Y578  ;
N494 G3X454Y576.95I1.05J0  ;
N495 G1X460Y576.95  ;
N496 G3X461.05Y578I0J1.05  ;
N497 G1X461.05Y579.95  ;
N498 G1X882Y579.95  ;
N499 G65 P9104 A101 B02  ;
N500 M98 P9103  ;
(P12:ID3:W56402107)  ;
N501 M98 P9101  ;
N502 G0X917.37Y1140.18  ;
N503 G65 P9102 A101 B02  ;
N504 G1X915.29Y1142.26  ;
N505 G3X915.32Y1142.3I3.71J-3.64  ;
N506 G65 P9104 A101 B02  ;
N507 G0X967.37Y1140.18  ;
N508 G65 P9102 A101 B02  ;
N509 G1X965.29Y1142.26  ;
N510 G3X965.32Y1142.3I3.71J-3.64  ;
N511 G65 P9104 A101 B02  ;
N512 G0X967.37Y1272.18  ;
N513 G65 P9102 A101 B02  ;
N514 G1X965.29Y1274.26  ;
N515 G3X965.32Y1274.3I3.71J-3.64  ;
N516 G65 P9104 A101 B02  ;
N517 G0X917.37Y1272.18  ;
N518 G65 P9102 A101 B02  ;
N519 G1X915.29Y1274.26  ;
N520 G3X915.32Y1274.3I3.71J-3.64  ;
N521 G65 P9104 A101 B01  ;
N522 G0X945.18Y1078.02  ;
N523 G65 P9102 A101 B01  ;
N524 G1X945.18Y1082.97  ;
N525 G1X945.9Y1082.97  ;
N526 G3X946.95Y1084.02I0J1.05  ;
N527 G1X946.95Y1086.07  ;
N528 G1X981Y1086.07  ;
N529 G3X989.05Y1094.12I0J8.05  ;
N530 G1X989.05Y1166.65  ;
N531 G3X981.5Y1174.69I-8.05J0  ;
N532 G2X974.05Y1182.62I0.5J7.93  ;
N533 G1X974.05Y1226.65  ;
N534 G2X981.5Y1234.59I7.95J0  ;
N535 G3X989.05Y1242.62I-0.5J8.03  ;
N536 G1X989.05Y1315.12  ;
N537 G3X981Y1323.17I-8.05J0  ;
N538 G1X946.95Y1323.17  ;
N539 G1X946.95Y1325.22  ;
N540 G3X945.9Y1326.27I-1.05J0  ;
N541 G1X942.1Y1326.27  ;
N542 G3X941.05Y1325.22I0J-1.05  ;
N543 G1X941.05Y1323.17  ;
N544 G1X907Y1323.17  ;
N545 G3X898.95Y1315.12I0J-8.05  ;
N546 G1X898.95Y1242.59  ;
N547 G3X906.5Y1234.56I8.05J0  ;
N548 G2X913.95Y1226.62I-0.5J-7.94  ;
N549 G1X913.95Y1182.62  ;
N550 G2X906.5Y1174.69I-7.95J0  ;
N551 G3X898.95Y1166.65I0.5J-8.04  ;
N552 G1X898.95Y1094.12  ;
N553 G3X907Y1086.07I8.05J0  ;
N554 G1X941.05Y1086.07  ;
N555 G1X941.05Y1084.02  ;
N556 G3X942.1Y1082.97I1.05J0  ;
N557 G1X944.48Y1082.97  ;
N558 G65 P9104 A101 B02  ;
N559 M98 P9103  ;
(P13:ID3:W56402107)  ;
N560 M98 P9101  ;
N561 G0X967.87Y1391.88  ;
N562 G65 P9102 A101 B02  ;
N563 G1X965.79Y1393.96  ;
N564 G3X965.82Y1394I3.71J-3.64  ;
N565 G65 P9104 A101 B02  ;
N566 G0X917.87Y1391.88  ;
N567 G65 P9102 A101 B02  ;
N568 G1X915.79Y1393.96  ;
N569 G3X915.82Y1394I3.71J-3.64  ;
N570 G65 P9104 A101 B02  ;
N571 G0X917.87Y1523.88  ;
N572 G65 P9102 A101 B02  ;
N573 G1X915.79Y1525.96  ;
N574 G3X915.82Y1526I3.71J-3.64  ;
N575 G65 P9104 A101 B02  ;
N576 G0X967.87Y1523.88  ;
N577 G65 P9102 A101 B02  ;
N578 G1X965.79Y1525.96  ;
N579 G3X965.82Y1526I3.71J-3.64  ;
N580 G65 P9104 A101 B01  ;
N581 G0X945.68Y1329.72  ;
N582 G65 P9102 A101 B01  ;
N583 G1X945.68Y1334.67  ;
N584 G1X946.4Y1334.67  ;
N585 G3X947.45Y1335.72I0J1.05  ;
N586 G1X947.45Y1337.77  ;
N587 G1X981.5Y1337.77  ;
N588 G3X989.55Y1345.82I0J8.05  ;
N589 G1X989.55Y1418.35  ;
N590 G3X982Y1426.39I-8.05J0  ;
N591 G2X974.55Y1434.32I0.5J7.93  ;
N592 G1X974.55Y1478.35  ;
N593 G2X982Y1486.29I7.95J0  ;
N594 G3X989.55Y1494.32I-0.5J8.03  ;
N595 G1X989.55Y1566.82  ;
N596 G3X981.5Y1574.87I-8.05J0  ;
N597 G1X947.45Y1574.87  ;
N598 G1X947.45Y1576.92  ;
N599 G3X946.4Y1577.97I-1.05J0  ;
N600 G1X942.6Y1577.97  ;
N601 G3X941.55Y1576.92I0J-1.05  ;
N602 G1X941.55Y1574.87  ;
N603 G1X907.5Y1574.87  ;
N604 G3X899.45Y1566.82I0J-8.05  ;
N605 G1X899.45Y1494.29  ;
N606 G3X907Y1486.26I8.05J0  ;
N607 G2X914.45Y1478.32I-0.5J-7.94  ;
N608 G1X914.45Y1434.32  ;
N609 G2X907Y1426.39I-7.95J0  ;
N610 G3X899.45Y1418.35I0.5J-8.04  ;
N611 G1X899.45Y1345.82  ;
N612 G3X907.5Y1337.77I8.05J0  ;
N613 G1X941.55Y1337.77  ;
N614 G1X941.55Y1335.72  ;
N615 G3X942.6Y1334.67I1.05J0  ;
N616 G1X944.98Y1334.67  ;
N617 G65 P9104 A101 B02  ;
N618 M98 P9103  ;
(P14:ID3:W56402107)  ;
N619 M98 P9101  ;
N620 G0X967.87Y1643.58  ;
N621 G65 P9102 A101 B02  ;
N622 G1X965.79Y1645.66  ;
N623 G3X965.82Y1645.7I3.71J-3.64  ;
N624 G65 P9104 A101 B02  ;
N625 G0X917.87Y1643.58  ;
N626 G65 P9102 A101 B02  ;
N627 G1X915.79Y1645.66  ;
N628 G3X915.82Y1645.7I3.71J-3.64  ;
N629 G65 P9104 A101 B02  ;
N630 G0X917.87Y1775.58  ;
N631 G65 P9102 A101 B02  ;
N632 G1X915.79Y1777.66  ;
N633 G3X915.82Y1777.7I3.71J-3.64  ;
N634 G65 P9104 A101 B02  ;
N635 G0X967.87Y1775.58  ;
N636 G65 P9102 A101 B02  ;
N637 G1X965.79Y1777.66  ;
N638 G3X965.82Y1777.7I3.71J-3.64  ;
N639 G65 P9104 A101 B01  ;
N640 G0X945.68Y1581.42  ;
N641 G65 P9102 A101 B01  ;
N642 G1X945.68Y1586.37  ;
N643 G1X946.4Y1586.37  ;
N644 G3X947.45Y1587.42I0J1.05  ;
N645 G1X947.45Y1589.47  ;
N646 G1X981.5Y1589.47  ;
N647 G3X989.55Y1597.52I0J8.05  ;
N648 G1X989.55Y1670.05  ;
N649 G3X982Y1678.09I-8.05J0  ;
N650 G2X974.55Y1686.02I0.5J7.93  ;
N651 G1X974.55Y1730.05  ;
N652 G2X982Y1737.99I7.95J0  ;
N653 G3X989.55Y1746.02I-0.5J8.03  ;
N654 G1X989.55Y1818.52  ;
N655 G3X981.5Y1826.57I-8.05J0  ;
N656 G1X947.45Y1826.57  ;
N657 G1X947.45Y1828.62  ;
N658 G3X946.4Y1829.67I-1.05J0  ;
N659 G1X942.6Y1829.67  ;
N660 G3X941.55Y1828.62I0J-1.05  ;
N661 G1X941.55Y1826.57  ;
N662 G1X907.5Y1826.57  ;
N663 G3X899.45Y1818.52I0J-8.05  ;
N664 G1X899.45Y1745.99  ;
N665 G3X907Y1737.96I8.05J0  ;
N666 G2X914.45Y1730.02I-0.5J-7.94  ;
N667 G1X914.45Y1686.02  ;
N668 G2X907Y1678.09I-7.95J0  ;
N669 G3X899.45Y1670.05I0.5J-8.04  ;
N670 G1X899.45Y1597.52  ;
N671 G3X907.5Y1589.47I8.05J0  ;
N672 G1X941.55Y1589.47  ;
N673 G1X941.55Y1587.42  ;
N674 G3X942.6Y1586.37I1.05J0  ;
N675 G1X944.98Y1586.37  ;
N676 G65 P9104 A102 B04  ;
N677 M98 P9103  ;
(P15:ID4:W56397725)  ;
N678 M98 P9101  ;
N679 G0X548Y1606  ;
N680 G65 P9102 A102 B04  ;
N681 G1X553Y1606  ;
N682 G1X553Y1506.5  ;
N683 G1X548Y1506.5  ;
N684 G1X548Y1606  ;
N685 G65 P9104 A101 B01  ;
N686 M98 P9103  ;
N687 G0X461.79Y1978.86  ;
N688 G65 P9102 A101 B01  ;
N689 G1X458.96Y1976.04  ;
N690 G1X452.95Y1970.02  ;
N691 G1X452.95Y1311.45  ;
N692 G1X713.95Y1311.45  ;
N693 G1X713.95Y1257.48  ;
N694 G1X719.98Y1251.45  ;
N695 G1X888.05Y1251.45  ;
N696 G1X888.05Y1978  ;
N697 G3X887Y1979.05I-1.05J0  ;
N698 G1X881Y1979.05  ;
N699 G3X879.95Y1978I0J-1.05  ;
N700 G1X879.95Y1976.05  ;
N701 G1X459Y1976.05  ;
N702 G65 P9104 A102 B04  ;
N703 M98 P9103  ;
(P16:ID4:W56397725)  ;
N704 M98 P9101  ;
N705 G0X106Y1612  ;
N706 G65 P9102 A102 B04  ;
N707 G1X111Y1612  ;
N708 G1X111Y1512.5  ;
N709 G1X106Y1512.5  ;
N710 G1X106Y1612  ;
N711 G65 P9104 A101 B01  ;
N712 M98 P9103  ;
N713 G0X19.79Y1984.86  ;
N714 G65 P9102 A101 B01  ;
N715 G1X16.96Y1982.04  ;
N716 G1X10.95Y1976.02  ;
N717 G1X10.95Y1317.45  ;
N718 G1X271.95Y1317.45  ;
N719 G1X271.95Y1263.48  ;
N720 G1X277.98Y1257.45  ;
N721 G1X446.05Y1257.45  ;
N722 G1X446.05Y1984  ;
N723 G3X445Y1985.05I-1.05J0  ;
N724 G1X439Y1985.05  ;
N725 G3X437.95Y1984I0J-1.05  ;
N726 G1X437.95Y1982.05  ;
N727 G1X17Y1982.05  ;
N728 M98 P9104  ;
N729 M98 P9103  ;
(FOOTER)
N730 M98 P9110  ;
N731 M30  ;
%
