O0099  ;
( MACHINE : TCI Laser )  ;
( MATERIAL : Acero al Carbono )  ;
( THICKNESS : 5 )  ;
( REPETITIONS : 5 )  ;
( SIMULATION TIME : 00:29:25 )  ;
( FORMAT : 1500x3050 )  ;
( JOB NUMBER : VARS8600\K860115 )  ;
( PROGRAM NUMBER : 12097 )  ;
( TYPE : 0 )  ;
( NUMBER OF SHEETS : 1 )  ;
( CUTTING HEADS : 1 )  ;
#516= 1  ;
#517= 1  ;
N105 G65 P9100 A103 B04  ;
(P1:ID1:W86011516)  ;
N106 M98 P9101  ;
N107 G0X437.26Y67.89  ;
N108 G65 P9102 A102 B04  ;
N109 G1X437.26Y77.71  ;
N110 G1X428.76Y82.61  ;
N111 G1X420.26Y77.71  ;
N112 G1X420.26Y67.89  ;
N113 G1X428.76Y62.99  ;
N114 G1X437.26Y67.89  ;
N115 G65 P9104 A102 B04  ;
N116 G0X383.26Y67.89  ;
N117 G65 P9102 A102 B04  ;
N118 G1X383.26Y77.71  ;
N119 G1X374.76Y82.61  ;
N120 G1X366.26Y77.71  ;
N121 G1X366.26Y67.89  ;
N122 G1X374.76Y62.99  ;
N123 G1X383.26Y67.89  ;
N124 G65 P9104 A102 B04  ;
N125 G0X374.76Y509.99  ;
N126 G65 P9102 A102 B04  ;
N127 G1X383.26Y514.89  ;
N128 G1X383.26Y524.71  ;
N129 G1X374.76Y529.61  ;
N130 G1X366.26Y524.71  ;
N131 G1X366.26Y514.89  ;
N132 G1X374.76Y509.99  ;
N133 G65 P9104 A102 B04  ;
N134 G0X420.26Y514.89  ;
N135 G65 P9102 A102 B04  ;
N136 G1X428.76Y509.99  ;
N137 G1X437.26Y514.89  ;
N138 G1X437.26Y524.71  ;
N139 G1X428.76Y529.61  ;
N140 G1X420.26Y524.71  ;
N141 G1X420.26Y514.89  ;
N142 G65 P9104 A102 B04  ;
N143 G0X428.76Y619.99  ;
N144 G65 P9102 A102 B04  ;
N145 G1X437.26Y624.89  ;
N146 G1X437.26Y634.71  ;
N147 G1X428.76Y639.61  ;
N148 G1X420.26Y634.71  ;
N149 G1X420.26Y624.89  ;
N150 G1X428.76Y619.99  ;
N151 G65 P9104 A102 B04  ;
N152 G0X383.26Y624.89  ;
N153 G65 P9102 A102 B04  ;
N154 G1X383.26Y634.71  ;
N155 G1X374.76Y639.61  ;
N156 G1X366.26Y634.71  ;
N157 G1X366.26Y624.89  ;
N158 G1X374.76Y619.99  ;
N159 G1X383.26Y624.89  ;
N160 G65 P9104 A102 B04  ;
N161 G0X374.76Y1439.99  ;
N162 G65 P9102 A102 B04  ;
N163 G1X383.26Y1444.89  ;
N164 G1X383.26Y1454.71  ;
N165 G1X374.76Y1459.61  ;
N166 G1X366.26Y1454.71  ;
N167 G1X366.26Y1444.89  ;
N168 G1X374.76Y1439.99  ;
N169 G65 P9104 A102 B04  ;
N170 G0X420.26Y1444.89  ;
N171 G65 P9102 A102 B04  ;
N172 G1X428.76Y1439.99  ;
N173 G1X437.26Y1444.89  ;
N174 G1X437.26Y1454.71  ;
N175 G1X428.76Y1459.61  ;
N176 G1X420.26Y1454.71  ;
N177 G1X420.26Y1444.89  ;
N178 G65 P9104 A101 B02  ;
N179 G0X426.42Y1452.06  ;
N180 G65 P9102 A101 B02  ;
N181 G1X424.34Y1454.15  ;
N182 G3X424.37Y1454.18I4.42J-4.35  ;
N183 G65 P9104 A101 B02  ;
N184 G0X372.42Y1452.06  ;
N185 G65 P9102 A101 B02  ;
N186 G1X370.34Y1454.15  ;
N187 G3X370.37Y1454.18I4.42J-4.35  ;
N188 G65 P9104 A101 B02  ;
N189 G0X244Y1380.36  ;
N190 G65 P9102 A101 B02  ;
N191 G1X241.92Y1382.44  ;
N192 G3X241.95Y1382.48I21.21J-21.14  ;
N193 G65 P9104 A101 B02  ;
N194 G0X244Y1080.36  ;
N195 G65 P9102 A101 B02  ;
N196 G1X241.92Y1082.44  ;
N197 G3X241.95Y1082.48I21.21J-21.14  ;
N198 G65 P9104 A101 B02  ;
N199 G0X244Y780.36  ;
N200 G65 P9102 A101 B02  ;
N201 G1X241.92Y782.44  ;
N202 G3X241.95Y782.48I21.21J-21.14  ;
N203 G65 P9104 A101 B02  ;
N204 G0X246.63Y608.35  ;
N205 G65 P9102 A101 B02  ;
N206 G1X243.63Y608.35  ;
N207 G2X242.68Y609.3I0J0.95  ;
N208 G1X242.68Y612.25  ;
N209 G1X283.58Y612.25  ;
N210 G1X283.58Y606.35  ;
N211 G1X242.68Y606.35  ;
N212 G1X242.68Y609.3  ;
N213 G65 P9104 A101 B02  ;
N214 G0X372.42Y632.06  ;
N215 G65 P9102 A101 B02  ;
N216 G1X370.34Y634.15  ;
N217 G3X370.37Y634.18I4.42J-4.35  ;
N218 G65 P9104 A101 B02  ;
N219 G0X426.42Y632.06  ;
N220 G65 P9102 A101 B02  ;
N221 G1X424.34Y634.15  ;
N222 G3X424.37Y634.18I4.42J-4.35  ;
N223 G65 P9104 A101 B02  ;
N224 G0X426.42Y522.06  ;
N225 G65 P9102 A101 B02  ;
N226 G1X424.34Y524.15  ;
N227 G3X424.37Y524.18I4.42J-4.35  ;
N228 G65 P9104 A101 B02  ;
N229 G0X372.42Y522.06  ;
N230 G65 P9102 A101 B02  ;
N231 G1X370.34Y524.15  ;
N232 G3X370.37Y524.18I4.42J-4.35  ;
N233 G65 P9104 A101 B02  ;
N234 G0X244Y480.36  ;
N235 G65 P9102 A101 B02  ;
N236 G1X241.92Y482.44  ;
N237 G3X241.95Y482.48I21.21J-21.14  ;
N238 G65 P9104 A101 B02  ;
N239 G0X244Y180.36  ;
N240 G65 P9102 A101 B02  ;
N241 G1X241.92Y182.44  ;
N242 G3X241.95Y182.48I21.21J-21.14  ;
N243 G65 P9104 A101 B02  ;
N244 G0X372.42Y75.06  ;
N245 G65 P9102 A101 B02  ;
N246 G1X370.34Y77.15  ;
N247 G3X370.37Y77.18I4.42J-4.35  ;
N248 G65 P9104 A101 B02  ;
N249 G0X426.42Y75.06  ;
N250 G65 P9102 A101 B02  ;
N251 G1X424.34Y77.15  ;
N252 G3X424.37Y77.18I4.42J-4.35  ;
N253 G65 P9104 A101 B01  ;
N254 G0X466.17Y12.84  ;
N255 G65 P9102 A101 B01  ;
N256 G1X468.29Y14.96  ;
N257 G1X469.31Y15.98  ;
N258 G1X469.31Y1506.62  ;
N259 G1X468.28Y1507.65  ;
N260 G1X461.24Y1507.65  ;
N261 G1X460.21Y1506.62  ;
N262 G1X460.21Y1502.65  ;
N263 G1X353.31Y1502.65  ;
N264 G1X353.31Y1506.62  ;
N265 G1X352.28Y1507.65  ;
N266 G1X345.24Y1507.65  ;
N267 G1X344.21Y1506.62  ;
N268 G1X344.21Y1479.35  ;
N269 G1X333.13Y1479.35  ;
N270 G2X313.38Y1499.35I0J19.75  ;
N271 G1X278.08Y1499.35  ;
N272 G2X248.18Y1499.35I-14.95J-0.05  ;
N273 G1X212.88Y1499.35  ;
N274 G2X193.13Y1479.35I-19.75J-0.25  ;
N275 G1X182.05Y1479.35  ;
N276 G1X182.05Y1506.62  ;
N277 G1X181.02Y1507.65  ;
N278 G1X173.98Y1507.65  ;
N279 G1X172.95Y1506.62  ;
N280 G1X172.95Y1502.65  ;
N281 G1X66.05Y1502.65  ;
N282 G1X66.05Y1506.62  ;
N283 G1X65.02Y1507.65  ;
N284 G1X57.98Y1507.65  ;
N285 G1X56.95Y1506.62  ;
N286 G1X56.95Y15.98  ;
N287 G1X57.98Y14.95  ;
N288 G1X65.02Y14.95  ;
N289 G1X66.05Y15.98  ;
N290 G1X66.05Y19.95  ;
N291 G1X172.95Y19.95  ;
N292 G1X172.95Y15.98  ;
N293 G1X173.98Y14.95  ;
N294 G1X181.02Y14.95  ;
N295 G1X182.05Y15.98  ;
N296 G1X182.05Y43.25  ;
N297 G1X193.13Y43.25  ;
N298 G2X212.88Y23.25I0J-19.75  ;
N299 G1X248.18Y23.25  ;
N300 G2X278.08Y23.25I14.95J0.05  ;
N301 G1X313.38Y23.25  ;
N302 G2X333.13Y43.25I19.75J0.25  ;
N303 G1X344.21Y43.25  ;
N304 G1X344.21Y15.98  ;
N305 G1X345.24Y14.95  ;
N306 G1X352.28Y14.95  ;
N307 G1X353.31Y15.98  ;
N308 G1X353.31Y19.95  ;
N309 G1X460.21Y19.95  ;
N310 G1X460.21Y15.98  ;
N311 G1X461.24Y14.95  ;
N312 G1X468.26Y14.95  ;
N313 G65 P9104 A102 B04  ;
N314 M98 P9103  ;
(P2:ID1:W86011516)  ;
N315 M98 P9101  ;
N316 G0X919.26Y67.89  ;
N317 G65 P9102 A102 B04  ;
N318 G1X919.26Y77.71  ;
N319 G1X910.76Y82.61  ;
N320 G1X902.26Y77.71  ;
N321 G1X902.26Y67.89  ;
N322 G1X910.76Y62.99  ;
N323 G1X919.26Y67.89  ;
N324 G65 P9104 A102 B04  ;
N325 G0X865.26Y67.89  ;
N326 G65 P9102 A102 B04  ;
N327 G1X865.26Y77.71  ;
N328 G1X856.76Y82.61  ;
N329 G1X848.26Y77.71  ;
N330 G1X848.26Y67.89  ;
N331 G1X856.76Y62.99  ;
N332 G1X865.26Y67.89  ;
N333 G65 P9104 A102 B04  ;
N334 G0X856.76Y509.99  ;
N335 G65 P9102 A102 B04  ;
N336 G1X865.26Y514.89  ;
N337 G1X865.26Y524.71  ;
N338 G1X856.76Y529.61  ;
N339 G1X848.26Y524.71  ;
N340 G1X848.26Y514.89  ;
N341 G1X856.76Y509.99  ;
N342 G65 P9104 A102 B04  ;
N343 G0X902.26Y514.89  ;
N344 G65 P9102 A102 B04  ;
N345 G1X910.76Y509.99  ;
N346 G1X919.26Y514.89  ;
N347 G1X919.26Y524.71  ;
N348 G1X910.76Y529.61  ;
N349 G1X902.26Y524.71  ;
N350 G1X902.26Y514.89  ;
N351 G65 P9104 A102 B04  ;
N352 G0X910.76Y619.99  ;
N353 G65 P9102 A102 B04  ;
N354 G1X919.26Y624.89  ;
N355 G1X919.26Y634.71  ;
N356 G1X910.76Y639.61  ;
N357 G1X902.26Y634.71  ;
N358 G1X902.26Y624.89  ;
N359 G1X910.76Y619.99  ;
N360 G65 P9104 A102 B04  ;
N361 G0X865.26Y624.89  ;
N362 G65 P9102 A102 B04  ;
N363 G1X865.26Y634.71  ;
N364 G1X856.76Y639.61  ;
N365 G1X848.26Y634.71  ;
N366 G1X848.26Y624.89  ;
N367 G1X856.76Y619.99  ;
N368 G1X865.26Y624.89  ;
N369 G65 P9104 A102 B04  ;
N370 G0X856.76Y1439.99  ;
N371 G65 P9102 A102 B04  ;
N372 G1X865.26Y1444.89  ;
N373 G1X865.26Y1454.71  ;
N374 G1X856.76Y1459.61  ;
N375 G1X848.26Y1454.71  ;
N376 G1X848.26Y1444.89  ;
N377 G1X856.76Y1439.99  ;
N378 G65 P9104 A102 B04  ;
N379 G0X902.26Y1444.89  ;
N380 G65 P9102 A102 B04  ;
N381 G1X910.76Y1439.99  ;
N382 G1X919.26Y1444.89  ;
N383 G1X919.26Y1454.71  ;
N384 G1X910.76Y1459.61  ;
N385 G1X902.26Y1454.71  ;
N386 G1X902.26Y1444.89  ;
N387 G65 P9104 A101 B02  ;
N388 G0X908.42Y1452.06  ;
N389 G65 P9102 A101 B02  ;
N390 G1X906.34Y1454.15  ;
N391 G3X906.37Y1454.18I4.42J-4.35  ;
N392 G65 P9104 A101 B02  ;
N393 G0X854.42Y1452.06  ;
N394 G65 P9102 A101 B02  ;
N395 G1X852.34Y1454.15  ;
N396 G3X852.37Y1454.18I4.42J-4.35  ;
N397 G65 P9104 A101 B02  ;
N398 G0X726Y1380.36  ;
N399 G65 P9102 A101 B02  ;
N400 G1X723.92Y1382.44  ;
N401 G3X723.95Y1382.48I21.21J-21.14  ;
N402 G65 P9104 A101 B02  ;
N403 G0X726Y1080.36  ;
N404 G65 P9102 A101 B02  ;
N405 G1X723.92Y1082.44  ;
N406 G3X723.95Y1082.48I21.21J-21.14  ;
N407 G65 P9104 A101 B02  ;
N408 G0X726Y780.36  ;
N409 G65 P9102 A101 B02  ;
N410 G1X723.92Y782.44  ;
N411 G3X723.95Y782.48I21.21J-21.14  ;
N412 G65 P9104 A101 B02  ;
N413 G0X728.63Y608.35  ;
N414 G65 P9102 A101 B02  ;
N415 G1X725.63Y608.35  ;
N416 G2X724.68Y609.3I0J0.95  ;
N417 G1X724.68Y612.25  ;
N418 G1X765.58Y612.25  ;
N419 G1X765.58Y606.35  ;
N420 G1X724.68Y606.35  ;
N421 G1X724.68Y609.3  ;
N422 G65 P9104 A101 B02  ;
N423 G0X854.42Y632.06  ;
N424 G65 P9102 A101 B02  ;
N425 G1X852.34Y634.15  ;
N426 G3X852.37Y634.18I4.42J-4.35  ;
N427 G65 P9104 A101 B02  ;
N428 G0X908.42Y632.06  ;
N429 G65 P9102 A101 B02  ;
N430 G1X906.34Y634.15  ;
N431 G3X906.37Y634.18I4.42J-4.35  ;
N432 G65 P9104 A101 B02  ;
N433 G0X908.42Y522.06  ;
N434 G65 P9102 A101 B02  ;
N435 G1X906.34Y524.15  ;
N436 G3X906.37Y524.18I4.42J-4.35  ;
N437 G65 P9104 A101 B02  ;
N438 G0X854.42Y522.06  ;
N439 G65 P9102 A101 B02  ;
N440 G1X852.34Y524.15  ;
N441 G3X852.37Y524.18I4.42J-4.35  ;
N442 G65 P9104 A101 B02  ;
N443 G0X726Y480.36  ;
N444 G65 P9102 A101 B02  ;
N445 G1X723.92Y482.44  ;
N446 G3X723.95Y482.48I21.21J-21.14  ;
N447 G65 P9104 A101 B02  ;
N448 G0X726Y180.36  ;
N449 G65 P9102 A101 B02  ;
N450 G1X723.92Y182.44  ;
N451 G3X723.95Y182.48I21.21J-21.14  ;
N452 G65 P9104 A101 B02  ;
N453 G0X854.42Y75.06  ;
N454 G65 P9102 A101 B02  ;
N455 G1X852.34Y77.15  ;
N456 G3X852.37Y77.18I4.42J-4.35  ;
N457 G65 P9104 A101 B02  ;
N458 G0X908.42Y75.06  ;
N459 G65 P9102 A101 B02  ;
N460 G1X906.34Y77.15  ;
N461 G3X906.37Y77.18I4.42J-4.35  ;
N462 G65 P9104 A101 B01  ;
N463 G0X948.17Y12.84  ;
N464 G65 P9102 A101 B01  ;
N465 G1X950.29Y14.96  ;
N466 G1X951.31Y15.98  ;
N467 G1X951.31Y1506.62  ;
N468 G1X950.28Y1507.65  ;
N469 G1X943.24Y1507.65  ;
N470 G1X942.21Y1506.62  ;
N471 G1X942.21Y1502.65  ;
N472 G1X835.31Y1502.65  ;
N473 G1X835.31Y1506.62  ;
N474 G1X834.28Y1507.65  ;
N475 G1X827.24Y1507.65  ;
N476 G1X826.21Y1506.62  ;
N477 G1X826.21Y1479.35  ;
N478 G1X815.13Y1479.35  ;
N479 G2X795.38Y1499.35I0J19.75  ;
N480 G1X760.08Y1499.35  ;
N481 G2X730.18Y1499.35I-14.95J-0.05  ;
N482 G1X694.88Y1499.35  ;
N483 G2X675.13Y1479.35I-19.75J-0.25  ;
N484 G1X664.05Y1479.35  ;
N485 G1X664.05Y1506.62  ;
N486 G1X663.02Y1507.65  ;
N487 G1X655.98Y1507.65  ;
N488 G1X654.95Y1506.62  ;
N489 G1X654.95Y1502.65  ;
N490 G1X548.05Y1502.65  ;
N491 G1X548.05Y1506.62  ;
N492 G1X547.02Y1507.65  ;
N493 G1X539.98Y1507.65  ;
N494 G1X538.95Y1506.62  ;
N495 G1X538.95Y15.98  ;
N496 G1X539.98Y14.95  ;
N497 G1X547.02Y14.95  ;
N498 G1X548.05Y15.98  ;
N499 G1X548.05Y19.95  ;
N500 G1X654.95Y19.95  ;
N501 G1X654.95Y15.98  ;
N502 G1X655.98Y14.95  ;
N503 G1X663.02Y14.95  ;
N504 G1X664.05Y15.98  ;
N505 G1X664.05Y43.25  ;
N506 G1X675.13Y43.25  ;
N507 G2X694.88Y23.25I0J-19.75  ;
N508 G1X730.18Y23.25  ;
N509 G2X760.08Y23.25I14.95J0.05  ;
N510 G1X795.38Y23.25  ;
N511 G2X815.13Y43.25I19.75J0.25  ;
N512 G1X826.21Y43.25  ;
N513 G1X826.21Y15.98  ;
N514 G1X827.24Y14.95  ;
N515 G1X834.28Y14.95  ;
N516 G1X835.31Y15.98  ;
N517 G1X835.31Y19.95  ;
N518 G1X942.21Y19.95  ;
N519 G1X942.21Y15.98  ;
N520 G1X943.24Y14.95  ;
N521 G1X950.26Y14.95  ;
N522 G65 P9104 A102 B04  ;
N523 M98 P9103  ;
(P3:ID1:W86011516)  ;
N524 M98 P9101  ;
N525 G0X1403.26Y67.89  ;
N526 G65 P9102 A102 B04  ;
N527 G1X1403.26Y77.71  ;
N528 G1X1394.76Y82.61  ;
N529 G1X1386.26Y77.71  ;
N530 G1X1386.26Y67.89  ;
N531 G1X1394.76Y62.99  ;
N532 G1X1403.26Y67.89  ;
N533 G65 P9104 A102 B04  ;
N534 G0X1349.26Y67.89  ;
N535 G65 P9102 A102 B04  ;
N536 G1X1349.26Y77.71  ;
N537 G1X1340.76Y82.61  ;
N538 G1X1332.26Y77.71  ;
N539 G1X1332.26Y67.89  ;
N540 G1X1340.76Y62.99  ;
N541 G1X1349.26Y67.89  ;
N542 G65 P9104 A102 B04  ;
N543 G0X1340.76Y509.99  ;
N544 G65 P9102 A102 B04  ;
N545 G1X1349.26Y514.89  ;
N546 G1X1349.26Y524.71  ;
N547 G1X1340.76Y529.61  ;
N548 G1X1332.26Y524.71  ;
N549 G1X1332.26Y514.89  ;
N550 G1X1340.76Y509.99  ;
N551 G65 P9104 A102 B04  ;
N552 G0X1386.26Y514.89  ;
N553 G65 P9102 A102 B04  ;
N554 G1X1394.76Y509.99  ;
N555 G1X1403.26Y514.89  ;
N556 G1X1403.26Y524.71  ;
N557 G1X1394.76Y529.61  ;
N558 G1X1386.26Y524.71  ;
N559 G1X1386.26Y514.89  ;
N560 G65 P9104 A102 B04  ;
N561 G0X1394.76Y619.99  ;
N562 G65 P9102 A102 B04  ;
N563 G1X1403.26Y624.89  ;
N564 G1X1403.26Y634.71  ;
N565 G1X1394.76Y639.61  ;
N566 G1X1386.26Y634.71  ;
N567 G1X1386.26Y624.89  ;
N568 G1X1394.76Y619.99  ;
N569 G65 P9104 A102 B04  ;
N570 G0X1349.26Y624.89  ;
N571 G65 P9102 A102 B04  ;
N572 G1X1349.26Y634.71  ;
N573 G1X1340.76Y639.61  ;
N574 G1X1332.26Y634.71  ;
N575 G1X1332.26Y624.89  ;
N576 G1X1340.76Y619.99  ;
N577 G1X1349.26Y624.89  ;
N578 G65 P9104 A102 B04  ;
N579 G0X1340.76Y1439.99  ;
N580 G65 P9102 A102 B04  ;
N581 G1X1349.26Y1444.89  ;
N582 G1X1349.26Y1454.71  ;
N583 G1X1340.76Y1459.61  ;
N584 G1X1332.26Y1454.71  ;
N585 G1X1332.26Y1444.89  ;
N586 G1X1340.76Y1439.99  ;
N587 G65 P9104 A102 B04  ;
N588 G0X1386.26Y1444.89  ;
N589 G65 P9102 A102 B04  ;
N590 G1X1394.76Y1439.99  ;
N591 G1X1403.26Y1444.89  ;
N592 G1X1403.26Y1454.71  ;
N593 G1X1394.76Y1459.61  ;
N594 G1X1386.26Y1454.71  ;
N595 G1X1386.26Y1444.89  ;
N596 G65 P9104 A101 B02  ;
N597 G0X1392.42Y1452.06  ;
N598 G65 P9102 A101 B02  ;
N599 G1X1390.34Y1454.15  ;
N600 G3X1390.37Y1454.18I4.42J-4.35  ;
N601 G65 P9104 A101 B02  ;
N602 G0X1338.42Y1452.06  ;
N603 G65 P9102 A101 B02  ;
N604 G1X1336.34Y1454.15  ;
N605 G3X1336.37Y1454.18I4.42J-4.35  ;
N606 G65 P9104 A101 B02  ;
N607 G0X1210Y1380.36  ;
N608 G65 P9102 A101 B02  ;
N609 G1X1207.92Y1382.44  ;
N610 G3X1207.95Y1382.48I21.21J-21.14  ;
N611 G65 P9104 A101 B02  ;
N612 G0X1210Y1080.36  ;
N613 G65 P9102 A101 B02  ;
N614 G1X1207.92Y1082.44  ;
N615 G3X1207.95Y1082.48I21.21J-21.14  ;
N616 G65 P9104 A101 B02  ;
N617 G0X1210Y780.36  ;
N618 G65 P9102 A101 B02  ;
N619 G1X1207.92Y782.44  ;
N620 G3X1207.95Y782.48I21.21J-21.14  ;
N621 G65 P9104 A101 B02  ;
N622 G0X1212.63Y608.35  ;
N623 G65 P9102 A101 B02  ;
N624 G1X1209.63Y608.35  ;
N625 G2X1208.68Y609.3I0J0.95  ;
N626 G1X1208.68Y612.25  ;
N627 G1X1249.58Y612.25  ;
N628 G1X1249.58Y606.35  ;
N629 G1X1208.68Y606.35  ;
N630 G1X1208.68Y609.3  ;
N631 G65 P9104 A101 B02  ;
N632 G0X1338.42Y632.06  ;
N633 G65 P9102 A101 B02  ;
N634 G1X1336.34Y634.15  ;
N635 G3X1336.37Y634.18I4.42J-4.35  ;
N636 G65 P9104 A101 B02  ;
N637 G0X1392.42Y632.06  ;
N638 G65 P9102 A101 B02  ;
N639 G1X1390.34Y634.15  ;
N640 G3X1390.37Y634.18I4.42J-4.35  ;
N641 G65 P9104 A101 B02  ;
N642 G0X1392.42Y522.06  ;
N643 G65 P9102 A101 B02  ;
N644 G1X1390.34Y524.15  ;
N645 G3X1390.37Y524.18I4.42J-4.35  ;
N646 G65 P9104 A101 B02  ;
N647 G0X1338.42Y522.06  ;
N648 G65 P9102 A101 B02  ;
N649 G1X1336.34Y524.15  ;
N650 G3X1336.37Y524.18I4.42J-4.35  ;
N651 G65 P9104 A101 B02  ;
N652 G0X1210Y480.36  ;
N653 G65 P9102 A101 B02  ;
N654 G1X1207.92Y482.44  ;
N655 G3X1207.95Y482.48I21.21J-21.14  ;
N656 G65 P9104 A101 B02  ;
N657 G0X1210Y180.36  ;
N658 G65 P9102 A101 B02  ;
N659 G1X1207.92Y182.44  ;
N660 G3X1207.95Y182.48I21.21J-21.14  ;
N661 G65 P9104 A101 B02  ;
N662 G0X1338.42Y75.06  ;
N663 G65 P9102 A101 B02  ;
N664 G1X1336.34Y77.15  ;
N665 G3X1336.37Y77.18I4.42J-4.35  ;
N666 G65 P9104 A101 B02  ;
N667 G0X1392.42Y75.06  ;
N668 G65 P9102 A101 B02  ;
N669 G1X1390.34Y77.15  ;
N670 G3X1390.37Y77.18I4.42J-4.35  ;
N671 G65 P9104 A101 B01  ;
N672 G0X1432.17Y12.84  ;
N673 G65 P9102 A101 B01  ;
N674 G1X1434.29Y14.96  ;
N675 G1X1435.31Y15.98  ;
N676 G1X1435.31Y1506.62  ;
N677 G1X1434.28Y1507.65  ;
N678 G1X1427.24Y1507.65  ;
N679 G1X1426.21Y1506.62  ;
N680 G1X1426.21Y1502.65  ;
N681 G1X1319.31Y1502.65  ;
N682 G1X1319.31Y1506.62  ;
N683 G1X1318.28Y1507.65  ;
N684 G1X1311.24Y1507.65  ;
N685 G1X1310.21Y1506.62  ;
N686 G1X1310.21Y1479.35  ;
N687 G1X1299.13Y1479.35  ;
N688 G2X1279.38Y1499.35I0J19.75  ;
N689 G1X1244.08Y1499.35  ;
N690 G2X1214.18Y1499.35I-14.95J-0.05  ;
N691 G1X1178.88Y1499.35  ;
N692 G2X1159.13Y1479.35I-19.75J-0.25  ;
N693 G1X1148.05Y1479.35  ;
N694 G1X1148.05Y1506.62  ;
N695 G1X1147.02Y1507.65  ;
N696 G1X1139.98Y1507.65  ;
N697 G1X1138.95Y1506.62  ;
N698 G1X1138.95Y1502.65  ;
N699 G1X1032.05Y1502.65  ;
N700 G1X1032.05Y1506.62  ;
N701 G1X1031.02Y1507.65  ;
N702 G1X1023.98Y1507.65  ;
N703 G1X1022.95Y1506.62  ;
N704 G1X1022.95Y15.98  ;
N705 G1X1023.98Y14.95  ;
N706 G1X1031.02Y14.95  ;
N707 G1X1032.05Y15.98  ;
N708 G1X1032.05Y19.95  ;
N709 G1X1138.95Y19.95  ;
N710 G1X1138.95Y15.98  ;
N711 G1X1139.98Y14.95  ;
N712 G1X1147.02Y14.95  ;
N713 G1X1148.05Y15.98  ;
N714 G1X1148.05Y43.25  ;
N715 G1X1159.13Y43.25  ;
N716 G2X1178.88Y23.25I0J-19.75  ;
N717 G1X1214.18Y23.25  ;
N718 G2X1244.08Y23.25I14.95J0.05  ;
N719 G1X1279.38Y23.25  ;
N720 G2X1299.13Y43.25I19.75J0.25  ;
N721 G1X1310.21Y43.25  ;
N722 G1X1310.21Y15.98  ;
N723 G1X1311.24Y14.95  ;
N724 G1X1318.28Y14.95  ;
N725 G1X1319.31Y15.98  ;
N726 G1X1319.31Y19.95  ;
N727 G1X1426.21Y19.95  ;
N728 G1X1426.21Y15.98  ;
N729 G1X1427.24Y14.95  ;
N730 G1X1434.26Y14.95  ;
N731 G65 P9104 A102 B04  ;
N732 M98 P9103  ;
(P4:ID1:W86011516)  ;
N733 M98 P9101  ;
N734 G0X1385.26Y1565.49  ;
N735 G65 P9102 A102 B04  ;
N736 G1X1385.26Y1575.31  ;
N737 G1X1376.76Y1580.21  ;
N738 G1X1368.26Y1575.31  ;
N739 G1X1368.26Y1565.49  ;
N740 G1X1376.76Y1560.59  ;
N741 G1X1385.26Y1565.49  ;
N742 G65 P9104 A102 B04  ;
N743 G0X1331.26Y1565.49  ;
N744 G65 P9102 A102 B04  ;
N745 G1X1331.26Y1575.31  ;
N746 G1X1322.76Y1580.21  ;
N747 G1X1314.26Y1575.31  ;
N748 G1X1314.26Y1565.49  ;
N749 G1X1322.76Y1560.59  ;
N750 G1X1331.26Y1565.49  ;
N751 G65 P9104 A102 B04  ;
N752 G0X1322.76Y2007.59  ;
N753 G65 P9102 A102 B04  ;
N754 G1X1331.26Y2012.49  ;
N755 G1X1331.26Y2022.31  ;
N756 G1X1322.76Y2027.21  ;
N757 G1X1314.26Y2022.31  ;
N758 G1X1314.26Y2012.49  ;
N759 G1X1322.76Y2007.59  ;
N760 G65 P9104 A102 B04  ;
N761 G0X1368.26Y2012.49  ;
N762 G65 P9102 A102 B04  ;
N763 G1X1376.76Y2007.59  ;
N764 G1X1385.26Y2012.49  ;
N765 G1X1385.26Y2022.31  ;
N766 G1X1376.76Y2027.21  ;
N767 G1X1368.26Y2022.31  ;
N768 G1X1368.26Y2012.49  ;
N769 G65 P9104 A102 B04  ;
N770 G0X1376.76Y2117.59  ;
N771 G65 P9102 A102 B04  ;
N772 G1X1385.26Y2122.49  ;
N773 G1X1385.26Y2132.31  ;
N774 G1X1376.76Y2137.21  ;
N775 G1X1368.26Y2132.31  ;
N776 G1X1368.26Y2122.49  ;
N777 G1X1376.76Y2117.59  ;
N778 G65 P9104 A102 B04  ;
N779 G0X1331.26Y2122.49  ;
N780 G65 P9102 A102 B04  ;
N781 G1X1331.26Y2132.31  ;
N782 G1X1322.76Y2137.21  ;
N783 G1X1314.26Y2132.31  ;
N784 G1X1314.26Y2122.49  ;
N785 G1X1322.76Y2117.59  ;
N786 G1X1331.26Y2122.49  ;
N787 G65 P9104 A102 B04  ;
N788 G0X1322.76Y2937.59  ;
N789 G65 P9102 A102 B04  ;
N790 G1X1331.26Y2942.49  ;
N791 G1X1331.26Y2952.31  ;
N792 G1X1322.76Y2957.21  ;
N793 G1X1314.26Y2952.31  ;
N794 G1X1314.26Y2942.49  ;
N795 G1X1322.76Y2937.59  ;
N796 G65 P9104 A102 B04  ;
N797 G0X1368.26Y2942.49  ;
N798 G65 P9102 A102 B04  ;
N799 G1X1376.76Y2937.59  ;
N800 G1X1385.26Y2942.49  ;
N801 G1X1385.26Y2952.31  ;
N802 G1X1376.76Y2957.21  ;
N803 G1X1368.26Y2952.31  ;
N804 G1X1368.26Y2942.49  ;
N805 G65 P9104 A101 B02  ;
N806 G0X1374.42Y2949.66  ;
N807 G65 P9102 A101 B02  ;
N808 G1X1372.34Y2951.75  ;
N809 G3X1372.37Y2951.78I4.42J-4.35  ;
N810 G65 P9104 A101 B02  ;
N811 G0X1320.42Y2949.66  ;
N812 G65 P9102 A101 B02  ;
N813 G1X1318.34Y2951.75  ;
N814 G3X1318.37Y2951.78I4.42J-4.35  ;
N815 G65 P9104 A101 B02  ;
N816 G0X1192Y2877.96  ;
N817 G65 P9102 A101 B02  ;
N818 G1X1189.92Y2880.04  ;
N819 G3X1189.95Y2880.08I21.21J-21.14  ;
N820 G65 P9104 A101 B02  ;
N821 G0X1192Y2577.96  ;
N822 G65 P9102 A101 B02  ;
N823 G1X1189.92Y2580.04  ;
N824 G3X1189.95Y2580.08I21.21J-21.14  ;
N825 G65 P9104 A101 B02  ;
N826 G0X1192Y2277.96  ;
N827 G65 P9102 A101 B02  ;
N828 G1X1189.92Y2280.04  ;
N829 G3X1189.95Y2280.08I21.21J-21.14  ;
N830 G65 P9104 A101 B02  ;
N831 G0X1194.63Y2105.95  ;
N832 G65 P9102 A101 B02  ;
N833 G1X1191.63Y2105.95  ;
N834 G2X1190.68Y2106.9I0J0.95  ;
N835 G1X1190.68Y2109.85  ;
N836 G1X1231.58Y2109.85  ;
N837 G1X1231.58Y2103.95  ;
N838 G1X1190.68Y2103.95  ;
N839 G1X1190.68Y2106.9  ;
N840 G65 P9104 A101 B02  ;
N841 G0X1320.42Y2129.66  ;
N842 G65 P9102 A101 B02  ;
N843 G1X1318.34Y2131.75  ;
N844 G3X1318.37Y2131.78I4.42J-4.35  ;
N845 G65 P9104 A101 B02  ;
N846 G0X1374.42Y2129.66  ;
N847 G65 P9102 A101 B02  ;
N848 G1X1372.34Y2131.75  ;
N849 G3X1372.37Y2131.78I4.42J-4.35  ;
N850 G65 P9104 A101 B02  ;
N851 G0X1374.42Y2019.66  ;
N852 G65 P9102 A101 B02  ;
N853 G1X1372.34Y2021.75  ;
N854 G3X1372.37Y2021.78I4.42J-4.35  ;
N855 G65 P9104 A101 B02  ;
N856 G0X1320.42Y2019.66  ;
N857 G65 P9102 A101 B02  ;
N858 G1X1318.34Y2021.75  ;
N859 G3X1318.37Y2021.78I4.42J-4.35  ;
N860 G65 P9104 A101 B02  ;
N861 G0X1192Y1977.96  ;
N862 G65 P9102 A101 B02  ;
N863 G1X1189.92Y1980.04  ;
N864 G3X1189.95Y1980.08I21.21J-21.14  ;
N865 G65 P9104 A101 B02  ;
N866 G0X1192Y1677.96  ;
N867 G65 P9102 A101 B02  ;
N868 G1X1189.92Y1680.04  ;
N869 G3X1189.95Y1680.08I21.21J-21.14  ;
N870 G65 P9104 A101 B02  ;
N871 G0X1320.42Y1572.66  ;
N872 G65 P9102 A101 B02  ;
N873 G1X1318.34Y1574.75  ;
N874 G3X1318.37Y1574.78I4.42J-4.35  ;
N875 G65 P9104 A101 B02  ;
N876 G0X1374.42Y1572.66  ;
N877 G65 P9102 A101 B02  ;
N878 G1X1372.34Y1574.75  ;
N879 G3X1372.37Y1574.78I4.42J-4.35  ;
N880 G65 P9104 A101 B01  ;
N881 G0X1414.17Y1510.44  ;
N882 G65 P9102 A101 B01  ;
N883 G1X1416.29Y1512.56  ;
N884 G1X1417.31Y1513.58  ;
N885 G1X1417.31Y3004.22  ;
N886 G1X1416.28Y3005.25  ;
N887 G1X1409.24Y3005.25  ;
N888 G1X1408.21Y3004.22  ;
N889 G1X1408.21Y3000.25  ;
N890 G1X1301.31Y3000.25  ;
N891 G1X1301.31Y3004.22  ;
N892 G1X1300.28Y3005.25  ;
N893 G1X1293.24Y3005.25  ;
N894 G1X1292.21Y3004.22  ;
N895 G1X1292.21Y2976.95  ;
N896 G1X1281.13Y2976.95  ;
N897 G2X1261.38Y2996.95I0J19.75  ;
N898 G1X1226.08Y2996.95  ;
N899 G2X1196.18Y2996.95I-14.95J-0.05  ;
N900 G1X1160.88Y2996.95  ;
N901 G2X1141.13Y2976.95I-19.75J-0.25  ;
N902 G1X1130.05Y2976.95  ;
N903 G1X1130.05Y3004.22  ;
N904 G1X1129.02Y3005.25  ;
N905 G1X1121.98Y3005.25  ;
N906 G1X1120.95Y3004.22  ;
N907 G1X1120.95Y3000.25  ;
N908 G1X1014.05Y3000.25  ;
N909 G1X1014.05Y3004.22  ;
N910 G1X1013.02Y3005.25  ;
N911 G1X1005.98Y3005.25  ;
N912 G1X1004.95Y3004.22  ;
N913 G1X1004.95Y1513.58  ;
N914 G1X1005.98Y1512.55  ;
N915 G1X1013.02Y1512.55  ;
N916 G1X1014.05Y1513.58  ;
N917 G1X1014.05Y1517.55  ;
N918 G1X1120.95Y1517.55  ;
N919 G1X1120.95Y1513.58  ;
N920 G1X1121.98Y1512.55  ;
N921 G1X1129.02Y1512.55  ;
N922 G1X1130.05Y1513.58  ;
N923 G1X1130.05Y1540.85  ;
N924 G1X1141.13Y1540.85  ;
N925 G2X1160.88Y1520.85I0J-19.75  ;
N926 G1X1196.18Y1520.85  ;
N927 G2X1226.08Y1520.85I14.95J0.05  ;
N928 G1X1261.38Y1520.85  ;
N929 G2X1281.13Y1540.85I19.75J0.25  ;
N930 G1X1292.21Y1540.85  ;
N931 G1X1292.21Y1513.58  ;
N932 G1X1293.24Y1512.55  ;
N933 G1X1300.28Y1512.55  ;
N934 G1X1301.31Y1513.58  ;
N935 G1X1301.31Y1517.55  ;
N936 G1X1408.21Y1517.55  ;
N937 G1X1408.21Y1513.58  ;
N938 G1X1409.24Y1512.55  ;
N939 G1X1416.26Y1512.55  ;
N940 G65 P9104 A102 B04  ;
N941 M98 P9103  ;
(P5:ID1:W86011516)  ;
N942 M98 P9101  ;
N943 G0X893.26Y1565.49  ;
N944 G65 P9102 A102 B04  ;
N945 G1X893.26Y1575.31  ;
N946 G1X884.76Y1580.21  ;
N947 G1X876.26Y1575.31  ;
N948 G1X876.26Y1565.49  ;
N949 G1X884.76Y1560.59  ;
N950 G1X893.26Y1565.49  ;
N951 G65 P9104 A102 B04  ;
N952 G0X839.26Y1565.49  ;
N953 G65 P9102 A102 B04  ;
N954 G1X839.26Y1575.31  ;
N955 G1X830.76Y1580.21  ;
N956 G1X822.26Y1575.31  ;
N957 G1X822.26Y1565.49  ;
N958 G1X830.76Y1560.59  ;
N959 G1X839.26Y1565.49  ;
N960 G65 P9104 A102 B04  ;
N961 G0X830.76Y2007.59  ;
N962 G65 P9102 A102 B04  ;
N963 G1X839.26Y2012.49  ;
N964 G1X839.26Y2022.31  ;
N965 G1X830.76Y2027.21  ;
N966 G1X822.26Y2022.31  ;
N967 G1X822.26Y2012.49  ;
N968 G1X830.76Y2007.59  ;
N969 G65 P9104 A102 B04  ;
N970 G0X876.26Y2012.49  ;
N971 G65 P9102 A102 B04  ;
N972 G1X884.76Y2007.59  ;
N973 G1X893.26Y2012.49  ;
N974 G1X893.26Y2022.31  ;
N975 G1X884.76Y2027.21  ;
N976 G1X876.26Y2022.31  ;
N977 G1X876.26Y2012.49  ;
N978 G65 P9104 A102 B04  ;
N979 G0X884.76Y2117.59  ;
N980 G65 P9102 A102 B04  ;
N981 G1X893.26Y2122.49  ;
N982 G1X893.26Y2132.31  ;
N983 G1X884.76Y2137.21  ;
N984 G1X876.26Y2132.31  ;
N985 G1X876.26Y2122.49  ;
N986 G1X884.76Y2117.59  ;
N987 G65 P9104 A102 B04  ;
N988 G0X839.26Y2122.49  ;
N989 G65 P9102 A102 B04  ;
N990 G1X839.26Y2132.31  ;
N991 G1X830.76Y2137.21  ;
N992 G1X822.26Y2132.31  ;
N993 G1X822.26Y2122.49  ;
N994 G1X830.76Y2117.59  ;
N995 G1X839.26Y2122.49  ;
N996 G65 P9104 A102 B04  ;
N997 G0X830.76Y2937.59  ;
N998 G65 P9102 A102 B04  ;
N999 G1X839.26Y2942.49  ;
N1000 G1X839.26Y2952.31  ;
N1001 G1X830.76Y2957.21  ;
N1002 G1X822.26Y2952.31  ;
N1003 G1X822.26Y2942.49  ;
N1004 G1X830.76Y2937.59  ;
N1005 G65 P9104 A102 B04  ;
N1006 G0X876.26Y2942.49  ;
N1007 G65 P9102 A102 B04  ;
N1008 G1X884.76Y2937.59  ;
N1009 G1X893.26Y2942.49  ;
N1010 G1X893.26Y2952.31  ;
N1011 G1X884.76Y2957.21  ;
N1012 G1X876.26Y2952.31  ;
N1013 G1X876.26Y2942.49  ;
N1014 G65 P9104 A101 B02  ;
N1015 G0X882.42Y2949.66  ;
N1016 G65 P9102 A101 B02  ;
N1017 G1X880.34Y2951.75  ;
N1018 G3X880.37Y2951.78I4.42J-4.35  ;
N1019 G65 P9104 A101 B02  ;
N1020 G0X828.42Y2949.66  ;
N1021 G65 P9102 A101 B02  ;
N1022 G1X826.34Y2951.75  ;
N1023 G3X826.37Y2951.78I4.42J-4.35  ;
N1024 G65 P9104 A101 B02  ;
N1025 G0X700Y2877.96  ;
N1026 G65 P9102 A101 B02  ;
N1027 G1X697.92Y2880.04  ;
N1028 G3X697.95Y2880.08I21.21J-21.14  ;
N1029 G65 P9104 A101 B02  ;
N1030 G0X700Y2577.96  ;
N1031 G65 P9102 A101 B02  ;
N1032 G1X697.92Y2580.04  ;
N1033 G3X697.95Y2580.08I21.21J-21.14  ;
N1034 G65 P9104 A101 B02  ;
N1035 G0X700Y2277.96  ;
N1036 G65 P9102 A101 B02  ;
N1037 G1X697.92Y2280.04  ;
N1038 G3X697.95Y2280.08I21.21J-21.14  ;
N1039 G65 P9104 A101 B02  ;
N1040 G0X702.63Y2105.95  ;
N1041 G65 P9102 A101 B02  ;
N1042 G1X699.63Y2105.95  ;
N1043 G2X698.68Y2106.9I0J0.95  ;
N1044 G1X698.68Y2109.85  ;
N1045 G1X739.58Y2109.85  ;
N1046 G1X739.58Y2103.95  ;
N1047 G1X698.68Y2103.95  ;
N1048 G1X698.68Y2106.9  ;
N1049 G65 P9104 A101 B02  ;
N1050 G0X828.42Y2129.66  ;
N1051 G65 P9102 A101 B02  ;
N1052 G1X826.34Y2131.75  ;
N1053 G3X826.37Y2131.78I4.42J-4.35  ;
N1054 G65 P9104 A101 B02  ;
N1055 G0X882.42Y2129.66  ;
N1056 G65 P9102 A101 B02  ;
N1057 G1X880.34Y2131.75  ;
N1058 G3X880.37Y2131.78I4.42J-4.35  ;
N1059 G65 P9104 A101 B02  ;
N1060 G0X882.42Y2019.66  ;
N1061 G65 P9102 A101 B02  ;
N1062 G1X880.34Y2021.75  ;
N1063 G3X880.37Y2021.78I4.42J-4.35  ;
N1064 G65 P9104 A101 B02  ;
N1065 G0X828.42Y2019.66  ;
N1066 G65 P9102 A101 B02  ;
N1067 G1X826.34Y2021.75  ;
N1068 G3X826.37Y2021.78I4.42J-4.35  ;
N1069 G65 P9104 A101 B02  ;
N1070 G0X700Y1977.96  ;
N1071 G65 P9102 A101 B02  ;
N1072 G1X697.92Y1980.04  ;
N1073 G3X697.95Y1980.08I21.21J-21.14  ;
N1074 G65 P9104 A101 B02  ;
N1075 G0X700Y1677.96  ;
N1076 G65 P9102 A101 B02  ;
N1077 G1X697.92Y1680.04  ;
N1078 G3X697.95Y1680.08I21.21J-21.14  ;
N1079 G65 P9104 A101 B02  ;
N1080 G0X828.42Y1572.66  ;
N1081 G65 P9102 A101 B02  ;
N1082 G1X826.34Y1574.75  ;
N1083 G3X826.37Y1574.78I4.42J-4.35  ;
N1084 G65 P9104 A101 B02  ;
N1085 G0X882.42Y1572.66  ;
N1086 G65 P9102 A101 B02  ;
N1087 G1X880.34Y1574.75  ;
N1088 G3X880.37Y1574.78I4.42J-4.35  ;
N1089 G65 P9104 A101 B01  ;
N1090 G0X922.17Y1510.44  ;
N1091 G65 P9102 A101 B01  ;
N1092 G1X924.29Y1512.56  ;
N1093 G1X925.31Y1513.58  ;
N1094 G1X925.31Y3004.22  ;
N1095 G1X924.28Y3005.25  ;
N1096 G1X917.24Y3005.25  ;
N1097 G1X916.21Y3004.22  ;
N1098 G1X916.21Y3000.25  ;
N1099 G1X809.31Y3000.25  ;
N1100 G1X809.31Y3004.22  ;
N1101 G1X808.28Y3005.25  ;
N1102 G1X801.24Y3005.25  ;
N1103 G1X800.21Y3004.22  ;
N1104 G1X800.21Y2976.95  ;
N1105 G1X789.13Y2976.95  ;
N1106 G2X769.38Y2996.95I0J19.75  ;
N1107 G1X734.08Y2996.95  ;
N1108 G2X704.18Y2996.95I-14.95J-0.05  ;
N1109 G1X668.88Y2996.95  ;
N1110 G2X649.13Y2976.95I-19.75J-0.25  ;
N1111 G1X638.05Y2976.95  ;
N1112 G1X638.05Y3004.22  ;
N1113 G1X637.02Y3005.25  ;
N1114 G1X629.98Y3005.25  ;
N1115 G1X628.95Y3004.22  ;
N1116 G1X628.95Y3000.25  ;
N1117 G1X522.05Y3000.25  ;
N1118 G1X522.05Y3004.22  ;
N1119 G1X521.02Y3005.25  ;
N1120 G1X513.98Y3005.25  ;
N1121 G1X512.95Y3004.22  ;
N1122 G1X512.95Y1513.58  ;
N1123 G1X513.98Y1512.55  ;
N1124 G1X521.02Y1512.55  ;
N1125 G1X522.05Y1513.58  ;
N1126 G1X522.05Y1517.55  ;
N1127 G1X628.95Y1517.55  ;
N1128 G1X628.95Y1513.58  ;
N1129 G1X629.98Y1512.55  ;
N1130 G1X637.02Y1512.55  ;
N1131 G1X638.05Y1513.58  ;
N1132 G1X638.05Y1540.85  ;
N1133 G1X649.13Y1540.85  ;
N1134 G2X668.88Y1520.85I0J-19.75  ;
N1135 G1X704.18Y1520.85  ;
N1136 G2X734.08Y1520.85I14.95J0.05  ;
N1137 G1X769.38Y1520.85  ;
N1138 G2X789.13Y1540.85I19.75J0.25  ;
N1139 G1X800.21Y1540.85  ;
N1140 G1X800.21Y1513.58  ;
N1141 G1X801.24Y1512.55  ;
N1142 G1X808.28Y1512.55  ;
N1143 G1X809.31Y1513.58  ;
N1144 G1X809.31Y1517.55  ;
N1145 G1X916.21Y1517.55  ;
N1146 G1X916.21Y1513.58  ;
N1147 G1X917.24Y1512.55  ;
N1148 G1X924.26Y1512.55  ;
N1149 G65 P9104 A102 B04  ;
N1150 M98 P9103  ;
(P6:ID1:W86011516)  ;
N1151 M98 P9101  ;
N1152 G0X419.26Y1565.49  ;
N1153 G65 P9102 A102 B04  ;
N1154 G1X419.26Y1575.31  ;
N1155 G1X410.76Y1580.21  ;
N1156 G1X402.26Y1575.31  ;
N1157 G1X402.26Y1565.49  ;
N1158 G1X410.76Y1560.59  ;
N1159 G1X419.26Y1565.49  ;
N1160 G65 P9104 A102 B04  ;
N1161 G0X365.26Y1565.49  ;
N1162 G65 P9102 A102 B04  ;
N1163 G1X365.26Y1575.31  ;
N1164 G1X356.76Y1580.21  ;
N1165 G1X348.26Y1575.31  ;
N1166 G1X348.26Y1565.49  ;
N1167 G1X356.76Y1560.59  ;
N1168 G1X365.26Y1565.49  ;
N1169 G65 P9104 A102 B04  ;
N1170 G0X356.76Y2007.59  ;
N1171 G65 P9102 A102 B04  ;
N1172 G1X365.26Y2012.49  ;
N1173 G1X365.26Y2022.31  ;
N1174 G1X356.76Y2027.21  ;
N1175 G1X348.26Y2022.31  ;
N1176 G1X348.26Y2012.49  ;
N1177 G1X356.76Y2007.59  ;
N1178 G65 P9104 A102 B04  ;
N1179 G0X402.26Y2012.49  ;
N1180 G65 P9102 A102 B04  ;
N1181 G1X410.76Y2007.59  ;
N1182 G1X419.26Y2012.49  ;
N1183 G1X419.26Y2022.31  ;
N1184 G1X410.76Y2027.21  ;
N1185 G1X402.26Y2022.31  ;
N1186 G1X402.26Y2012.49  ;
N1187 G65 P9104 A102 B04  ;
N1188 G0X410.76Y2117.59  ;
N1189 G65 P9102 A102 B04  ;
N1190 G1X419.26Y2122.49  ;
N1191 G1X419.26Y2132.31  ;
N1192 G1X410.76Y2137.21  ;
N1193 G1X402.26Y2132.31  ;
N1194 G1X402.26Y2122.49  ;
N1195 G1X410.76Y2117.59  ;
N1196 G65 P9104 A102 B04  ;
N1197 G0X365.26Y2122.49  ;
N1198 G65 P9102 A102 B04  ;
N1199 G1X365.26Y2132.31  ;
N1200 G1X356.76Y2137.21  ;
N1201 G1X348.26Y2132.31  ;
N1202 G1X348.26Y2122.49  ;
N1203 G1X356.76Y2117.59  ;
N1204 G1X365.26Y2122.49  ;
N1205 G65 P9104 A102 B04  ;
N1206 G0X356.76Y2937.59  ;
N1207 G65 P9102 A102 B04  ;
N1208 G1X365.26Y2942.49  ;
N1209 G1X365.26Y2952.31  ;
N1210 G1X356.76Y2957.21  ;
N1211 G1X348.26Y2952.31  ;
N1212 G1X348.26Y2942.49  ;
N1213 G1X356.76Y2937.59  ;
N1214 G65 P9104 A102 B04  ;
N1215 G0X402.26Y2942.49  ;
N1216 G65 P9102 A102 B04  ;
N1217 G1X410.76Y2937.59  ;
N1218 G1X419.26Y2942.49  ;
N1219 G1X419.26Y2952.31  ;
N1220 G1X410.76Y2957.21  ;
N1221 G1X402.26Y2952.31  ;
N1222 G1X402.26Y2942.49  ;
N1223 G65 P9104 A101 B02  ;
N1224 G0X408.42Y2949.66  ;
N1225 G65 P9102 A101 B02  ;
N1226 G1X406.34Y2951.75  ;
N1227 G3X406.37Y2951.78I4.42J-4.35  ;
N1228 G65 P9104 A101 B02  ;
N1229 G0X354.42Y2949.66  ;
N1230 G65 P9102 A101 B02  ;
N1231 G1X352.34Y2951.75  ;
N1232 G3X352.37Y2951.78I4.42J-4.35  ;
N1233 G65 P9104 A101 B02  ;
N1234 G0X226Y2877.96  ;
N1235 G65 P9102 A101 B02  ;
N1236 G1X223.92Y2880.04  ;
N1237 G3X223.95Y2880.08I21.21J-21.14  ;
N1238 G65 P9104 A101 B02  ;
N1239 G0X226Y2577.96  ;
N1240 G65 P9102 A101 B02  ;
N1241 G1X223.92Y2580.04  ;
N1242 G3X223.95Y2580.08I21.21J-21.14  ;
N1243 G65 P9104 A101 B02  ;
N1244 G0X226Y2277.96  ;
N1245 G65 P9102 A101 B02  ;
N1246 G1X223.92Y2280.04  ;
N1247 G3X223.95Y2280.08I21.21J-21.14  ;
N1248 G65 P9104 A101 B02  ;
N1249 G0X228.63Y2105.95  ;
N1250 G65 P9102 A101 B02  ;
N1251 G1X225.63Y2105.95  ;
N1252 G2X224.68Y2106.9I0J0.95  ;
N1253 G1X224.68Y2109.85  ;
N1254 G1X265.58Y2109.85  ;
N1255 G1X265.58Y2103.95  ;
N1256 G1X224.68Y2103.95  ;
N1257 G1X224.68Y2106.9  ;
N1258 G65 P9104 A101 B02  ;
N1259 G0X354.42Y2129.66  ;
N1260 G65 P9102 A101 B02  ;
N1261 G1X352.34Y2131.75  ;
N1262 G3X352.37Y2131.78I4.42J-4.35  ;
N1263 G65 P9104 A101 B02  ;
N1264 G0X408.42Y2129.66  ;
N1265 G65 P9102 A101 B02  ;
N1266 G1X406.34Y2131.75  ;
N1267 G3X406.37Y2131.78I4.42J-4.35  ;
N1268 G65 P9104 A101 B02  ;
N1269 G0X408.42Y2019.66  ;
N1270 G65 P9102 A101 B02  ;
N1271 G1X406.34Y2021.75  ;
N1272 G3X406.37Y2021.78I4.42J-4.35  ;
N1273 G65 P9104 A101 B02  ;
N1274 G0X354.42Y2019.66  ;
N1275 G65 P9102 A101 B02  ;
N1276 G1X352.34Y2021.75  ;
N1277 G3X352.37Y2021.78I4.42J-4.35  ;
N1278 G65 P9104 A101 B02  ;
N1279 G0X226Y1977.96  ;
N1280 G65 P9102 A101 B02  ;
N1281 G1X223.92Y1980.04  ;
N1282 G3X223.95Y1980.08I21.21J-21.14  ;
N1283 G65 P9104 A101 B02  ;
N1284 G0X226Y1677.96  ;
N1285 G65 P9102 A101 B02  ;
N1286 G1X223.92Y1680.04  ;
N1287 G3X223.95Y1680.08I21.21J-21.14  ;
N1288 G65 P9104 A101 B02  ;
N1289 G0X354.42Y1572.66  ;
N1290 G65 P9102 A101 B02  ;
N1291 G1X352.34Y1574.75  ;
N1292 G3X352.37Y1574.78I4.42J-4.35  ;
N1293 G65 P9104 A101 B02  ;
N1294 G0X408.42Y1572.66  ;
N1295 G65 P9102 A101 B02  ;
N1296 G1X406.34Y1574.75  ;
N1297 G3X406.37Y1574.78I4.42J-4.35  ;
N1298 G65 P9104 A101 B01  ;
N1299 G0X448.17Y1510.44  ;
N1300 G65 P9102 A101 B01  ;
N1301 G1X450.29Y1512.56  ;
N1302 G1X451.31Y1513.58  ;
N1303 G1X451.31Y3004.22  ;
N1304 G1X450.28Y3005.25  ;
N1305 G1X443.24Y3005.25  ;
N1306 G1X442.21Y3004.22  ;
N1307 G1X442.21Y3000.25  ;
N1308 G1X335.31Y3000.25  ;
N1309 G1X335.31Y3004.22  ;
N1310 G1X334.28Y3005.25  ;
N1311 G1X327.24Y3005.25  ;
N1312 G1X326.21Y3004.22  ;
N1313 G1X326.21Y2976.95  ;
N1314 G1X315.13Y2976.95  ;
N1315 G2X295.38Y2996.95I0J19.75  ;
N1316 G1X260.08Y2996.95  ;
N1317 G2X230.18Y2996.95I-14.95J-0.05  ;
N1318 G1X194.88Y2996.95  ;
N1319 G2X175.13Y2976.95I-19.75J-0.25  ;
N1320 G1X164.05Y2976.95  ;
N1321 G1X164.05Y3004.22  ;
N1322 G1X163.02Y3005.25  ;
N1323 G1X155.98Y3005.25  ;
N1324 G1X154.95Y3004.22  ;
N1325 G1X154.95Y3000.25  ;
N1326 G1X48.05Y3000.25  ;
N1327 G1X48.05Y3004.22  ;
N1328 G1X47.02Y3005.25  ;
N1329 G1X39.98Y3005.25  ;
N1330 G1X38.95Y3004.22  ;
N1331 G1X38.95Y1513.58  ;
N1332 G1X39.98Y1512.55  ;
N1333 G1X47.02Y1512.55  ;
N1334 G1X48.05Y1513.58  ;
N1335 G1X48.05Y1517.55  ;
N1336 G1X154.95Y1517.55  ;
N1337 G1X154.95Y1513.58  ;
N1338 G1X155.98Y1512.55  ;
N1339 G1X163.02Y1512.55  ;
N1340 G1X164.05Y1513.58  ;
N1341 G1X164.05Y1540.85  ;
N1342 G1X175.13Y1540.85  ;
N1343 G2X194.88Y1520.85I0J-19.75  ;
N1344 G1X230.18Y1520.85  ;
N1345 G2X260.08Y1520.85I14.95J0.05  ;
N1346 G1X295.38Y1520.85  ;
N1347 G2X315.13Y1540.85I19.75J0.25  ;
N1348 G1X326.21Y1540.85  ;
N1349 G1X326.21Y1513.58  ;
N1350 G1X327.24Y1512.55  ;
N1351 G1X334.28Y1512.55  ;
N1352 G1X335.31Y1513.58  ;
N1353 G1X335.31Y1517.55  ;
N1354 G1X442.21Y1517.55  ;
N1355 G1X442.21Y1513.58  ;
N1356 G1X443.24Y1512.55  ;
N1357 G1X450.26Y1512.55  ;
N1358 M98 P9104  ;
N1359 M98 P9103  ;
(FOOTER)
N1360 M98 P9110  ;
N1361 M30  ;
%
