O0099  ;
( MACHINE : TCI Laser )  ;
( MATERIAL : Acero al carbono N2 )  ;
( THICKNESS : 3 )  ;
( REPETITIONS : 1 )  ;
( SIMULATION TIME : 00:24:08 )  ;
( FORMAT : 1250x2500 )  ;
( JOB NUMBER : VARS8600\K860088-2500 )  ;
( PROGRAM NUMBER : 7878 )  ;
( TYPE : 0 )  ;
( NUMBER OF SHEETS : 1 )  ;
( CUTTING HEADS : 1 )  ;
#516= 1  ;
#517= 1  ;
N105 G65 P9100 A103 B01  ;
(P1:ID1:W86008806)  ;
N106 M98 P9101  ;
N107 G0X138.5Y36.35  ;
N108 G65 P9102 A101 B01  ;
N109 G1X133.56Y36.35  ;
N110 G1X133.56Y41  ;
N111 G3X133Y41.56I-0.56J0  ;
N112 G1X131.56Y41.56  ;
N113 G1X131.56Y42.2  ;
N114 G3X131.2Y42.56I-0.36J0  ;
N115 G1X130.3Y42.56  ;
N116 G2X130.06Y42.8I0J0.24  ;
N117 G1X130.06Y51.7  ;
N118 G2X130.3Y51.94I0.24J0  ;
N119 G1X131.2Y51.94  ;
N120 G3X131.56Y52.3I0J0.36  ;
N121 G1X131.56Y53.52  ;
N122 G1X121.45Y63.64  ;
N123 G1X120.29Y63.99  ;
N124 G3X119.84Y63.75I-0.11J-0.34  ;
N125 G1X119.57Y62.89  ;
N126 G2X119.28Y62.73I-0.22J0.07  ;
N127 G1X104.59Y67.22  ;
N128 G2X104.43Y67.52I0.07J0.23  ;
N129 G1X104.69Y68.38  ;
N130 G3X104.45Y68.83I-0.34J0.11  ;
N131 G1X103.84Y69.02  ;
N132 G1X104.26Y70.4  ;
N133 G3X103.89Y71.09I-0.53J0.16  ;
N134 G1X101.49Y71.83  ;
N135 G1X94.21Y71.96  ;
N136 G1X81.94Y75.71  ;
N137 G1X81.94Y41.83  ;
N138 G3X82.49Y39.54I5.06J0  ;
N139 G1X94.06Y16.71  ;
N140 G3X98.57Y13.94I4.51J2.29  ;
N141 G1X101.07Y13.94  ;
N142 G3X101.43Y14.3I0J0.36  ;
N143 G1X101.43Y15.2  ;
N144 G2X101.67Y15.44I0.24J0  ;
N145 G1X122.7Y15.44  ;
N146 G2X122.94Y15.2I0J-0.24  ;
N147 G1X122.94Y14.3  ;
N148 G3X123.3Y13.94I0.36J0  ;
N149 G1X124.52Y13.94  ;
N150 G1X131.56Y20.98  ;
N151 G1X131.56Y22.06  ;
N152 G1X131.06Y22.06  ;
N153 G1X131.06Y30.44  ;
N154 G1X131.56Y30.44  ;
N155 G1X131.56Y31.44  ;
N156 G1X133Y31.44  ;
N157 G3X133.56Y32I0J0.56  ;
N158 G1X133.56Y35.64  ;
N159 G65 P9104 A101 B01  ;
N160 M98 P9103  ;
(P2:ID1:W86008806)  ;
N161 M98 P9101  ;
N162 G0X200.5Y36.35  ;
N163 G65 P9102 A101 B01  ;
N164 G1X195.56Y36.35  ;
N165 G1X195.56Y41  ;
N166 G3X195Y41.56I-0.56J0  ;
N167 G1X193.56Y41.56  ;
N168 G1X193.56Y42.2  ;
N169 G3X193.2Y42.56I-0.36J0  ;
N170 G1X192.3Y42.56  ;
N171 G2X192.06Y42.8I0J0.24  ;
N172 G1X192.06Y51.7  ;
N173 G2X192.3Y51.94I0.24J0  ;
N174 G1X193.2Y51.94  ;
N175 G3X193.56Y52.3I0J0.36  ;
N176 G1X193.56Y53.52  ;
N177 G1X183.45Y63.64  ;
N178 G1X182.29Y63.99  ;
N179 G3X181.84Y63.75I-0.11J-0.34  ;
N180 G1X181.57Y62.89  ;
N181 G2X181.28Y62.73I-0.22J0.07  ;
N182 G1X166.59Y67.22  ;
N183 G2X166.43Y67.52I0.07J0.23  ;
N184 G1X166.69Y68.38  ;
N185 G3X166.45Y68.83I-0.34J0.11  ;
N186 G1X165.84Y69.02  ;
N187 G1X166.26Y70.4  ;
N188 G3X165.89Y71.09I-0.53J0.16  ;
N189 G1X163.49Y71.83  ;
N190 G1X156.21Y71.96  ;
N191 G1X143.94Y75.71  ;
N192 G1X143.94Y41.83  ;
N193 G3X144.49Y39.54I5.06J0  ;
N194 G1X156.06Y16.71  ;
N195 G3X160.57Y13.94I4.51J2.29  ;
N196 G1X163.07Y13.94  ;
N197 G3X163.43Y14.3I0J0.36  ;
N198 G1X163.43Y15.2  ;
N199 G2X163.67Y15.44I0.24J0  ;
N200 G1X184.7Y15.44  ;
N201 G2X184.94Y15.2I0J-0.24  ;
N202 G1X184.94Y14.3  ;
N203 G3X185.3Y13.94I0.36J0  ;
N204 G1X186.52Y13.94  ;
N205 G1X193.56Y20.98  ;
N206 G1X193.56Y22.06  ;
N207 G1X193.06Y22.06  ;
N208 G1X193.06Y30.44  ;
N209 G1X193.56Y30.44  ;
N210 G1X193.56Y31.44  ;
N211 G1X195Y31.44  ;
N212 G3X195.56Y32I0J0.56  ;
N213 G1X195.56Y35.64  ;
N214 G65 P9104 A101 B01  ;
N215 M98 P9103  ;
(P3:ID1:W86008806)  ;
N216 M98 P9101  ;
N217 G0X262Y37.15  ;
N218 G65 P9102 A101 B01  ;
N219 G1X257.06Y37.15  ;
N220 G1X257.06Y41.8  ;
N221 G3X256.5Y42.36I-0.56J0  ;
N222 G1X255.06Y42.36  ;
N223 G1X255.06Y43  ;
N224 G3X254.7Y43.36I-0.36J0  ;
N225 G1X253.8Y43.36  ;
N226 G2X253.56Y43.6I0J0.24  ;
N227 G1X253.56Y52.5  ;
N228 G2X253.8Y52.74I0.24J0  ;
N229 G1X254.7Y52.74  ;
N230 G3X255.06Y53.1I0J0.36  ;
N231 G1X255.06Y54.32  ;
N232 G1X244.95Y64.44  ;
N233 G1X243.79Y64.79  ;
N234 G3X243.34Y64.55I-0.11J-0.34  ;
N235 G1X243.07Y63.69  ;
N236 G2X242.78Y63.53I-0.22J0.07  ;
N237 G1X228.09Y68.02  ;
N238 G2X227.93Y68.32I0.07J0.23  ;
N239 G1X228.19Y69.18  ;
N240 G3X227.95Y69.63I-0.34J0.11  ;
N241 G1X227.34Y69.82  ;
N242 G1X227.76Y71.2  ;
N243 G3X227.39Y71.89I-0.53J0.16  ;
N244 G1X224.99Y72.63  ;
N245 G1X217.71Y72.76  ;
N246 G1X205.44Y76.51  ;
N247 G1X205.44Y42.63  ;
N248 G3X205.99Y40.34I5.06J0  ;
N249 G1X217.56Y17.51  ;
N250 G3X222.07Y14.74I4.51J2.29  ;
N251 G1X224.57Y14.74  ;
N252 G3X224.93Y15.1I0J0.36  ;
N253 G1X224.93Y16  ;
N254 G2X225.17Y16.24I0.24J0  ;
N255 G1X246.2Y16.24  ;
N256 G2X246.44Y16I0J-0.24  ;
N257 G1X246.44Y15.1  ;
N258 G3X246.8Y14.74I0.36J0  ;
N259 G1X248.02Y14.74  ;
N260 G1X255.06Y21.78  ;
N261 G1X255.06Y22.86  ;
N262 G1X254.56Y22.86  ;
N263 G1X254.56Y31.24  ;
N264 G1X255.06Y31.24  ;
N265 G1X255.06Y32.24  ;
N266 G1X256.5Y32.24  ;
N267 G3X257.06Y32.8I0J0.56  ;
N268 G1X257.06Y36.44  ;
N269 G65 P9104 A101 B01  ;
N270 M98 P9103  ;
(P4:ID1:W86008806)  ;
N271 M98 P9101  ;
N272 G0X385.5Y36.35  ;
N273 G65 P9102 A101 B01  ;
N274 G1X380.56Y36.35  ;
N275 G1X380.56Y41  ;
N276 G3X380Y41.56I-0.56J0  ;
N277 G1X378.56Y41.56  ;
N278 G1X378.56Y42.2  ;
N279 G3X378.2Y42.56I-0.36J0  ;
N280 G1X377.3Y42.56  ;
N281 G2X377.06Y42.8I0J0.24  ;
N282 G1X377.06Y51.7  ;
N283 G2X377.3Y51.94I0.24J0  ;
N284 G1X378.2Y51.94  ;
N285 G3X378.56Y52.3I0J0.36  ;
N286 G1X378.56Y53.52  ;
N287 G1X368.45Y63.64  ;
N288 G1X367.29Y63.99  ;
N289 G3X366.84Y63.75I-0.11J-0.34  ;
N290 G1X366.57Y62.89  ;
N291 G2X366.28Y62.73I-0.22J0.07  ;
N292 G1X351.59Y67.22  ;
N293 G2X351.43Y67.52I0.07J0.23  ;
N294 G1X351.69Y68.38  ;
N295 G3X351.45Y68.83I-0.34J0.11  ;
N296 G1X350.84Y69.02  ;
N297 G1X351.26Y70.4  ;
N298 G3X350.89Y71.09I-0.53J0.16  ;
N299 G1X348.49Y71.83  ;
N300 G1X341.21Y71.96  ;
N301 G1X328.94Y75.71  ;
N302 G1X328.94Y41.83  ;
N303 G3X329.49Y39.54I5.06J0  ;
N304 G1X341.06Y16.71  ;
N305 G3X345.57Y13.94I4.51J2.29  ;
N306 G1X348.07Y13.94  ;
N307 G3X348.43Y14.3I0J0.36  ;
N308 G1X348.43Y15.2  ;
N309 G2X348.67Y15.44I0.24J0  ;
N310 G1X369.7Y15.44  ;
N311 G2X369.94Y15.2I0J-0.24  ;
N312 G1X369.94Y14.3  ;
N313 G3X370.3Y13.94I0.36J0  ;
N314 G1X371.52Y13.94  ;
N315 G1X378.56Y20.98  ;
N316 G1X378.56Y22.06  ;
N317 G1X378.06Y22.06  ;
N318 G1X378.06Y30.44  ;
N319 G1X378.56Y30.44  ;
N320 G1X378.56Y31.44  ;
N321 G1X380Y31.44  ;
N322 G3X380.56Y32I0J0.56  ;
N323 G1X380.56Y35.64  ;
N324 G65 P9104 A101 B01  ;
N325 M98 P9103  ;
(P5:ID1:W86008806)  ;
N326 M98 P9101  ;
N327 G0X447Y37.15  ;
N328 G65 P9102 A101 B01  ;
N329 G1X442.06Y37.15  ;
N330 G1X442.06Y41.8  ;
N331 G3X441.5Y42.36I-0.56J0  ;
N332 G1X440.06Y42.36  ;
N333 G1X440.06Y43  ;
N334 G3X439.7Y43.36I-0.36J0  ;
N335 G1X438.8Y43.36  ;
N336 G2X438.56Y43.6I0J0.24  ;
N337 G1X438.56Y52.5  ;
N338 G2X438.8Y52.74I0.24J0  ;
N339 G1X439.7Y52.74  ;
N340 G3X440.06Y53.1I0J0.36  ;
N341 G1X440.06Y54.32  ;
N342 G1X429.95Y64.44  ;
N343 G1X428.79Y64.79  ;
N344 G3X428.34Y64.55I-0.11J-0.34  ;
N345 G1X428.07Y63.69  ;
N346 G2X427.78Y63.53I-0.22J0.07  ;
N347 G1X413.09Y68.02  ;
N348 G2X412.93Y68.32I0.07J0.23  ;
N349 G1X413.19Y69.18  ;
N350 G3X412.95Y69.63I-0.34J0.11  ;
N351 G1X412.34Y69.82  ;
N352 G1X412.76Y71.2  ;
N353 G3X412.39Y71.89I-0.53J0.16  ;
N354 G1X409.99Y72.63  ;
N355 G1X402.71Y72.76  ;
N356 G1X390.44Y76.51  ;
N357 G1X390.44Y42.63  ;
N358 G3X390.99Y40.34I5.06J0  ;
N359 G1X402.56Y17.51  ;
N360 G3X407.07Y14.74I4.51J2.29  ;
N361 G1X409.57Y14.74  ;
N362 G3X409.93Y15.1I0J0.36  ;
N363 G1X409.93Y16  ;
N364 G2X410.17Y16.24I0.24J0  ;
N365 G1X431.2Y16.24  ;
N366 G2X431.44Y16I0J-0.24  ;
N367 G1X431.44Y15.1  ;
N368 G3X431.8Y14.74I0.36J0  ;
N369 G1X433.02Y14.74  ;
N370 G1X440.06Y21.78  ;
N371 G1X440.06Y22.86  ;
N372 G1X439.56Y22.86  ;
N373 G1X439.56Y31.24  ;
N374 G1X440.06Y31.24  ;
N375 G1X440.06Y32.24  ;
N376 G1X441.5Y32.24  ;
N377 G3X442.06Y32.8I0J0.56  ;
N378 G1X442.06Y36.44  ;
N379 G65 P9104 A101 B01  ;
N380 M98 P9103  ;
(P6:ID1:W86008806)  ;
N381 M98 P9101  ;
N382 G0X509Y36.35  ;
N383 G65 P9102 A101 B01  ;
N384 G1X504.06Y36.35  ;
N385 G1X504.06Y41  ;
N386 G3X503.5Y41.56I-0.56J0  ;
N387 G1X502.06Y41.56  ;
N388 G1X502.06Y42.2  ;
N389 G3X501.7Y42.56I-0.36J0  ;
N390 G1X500.8Y42.56  ;
N391 G2X500.56Y42.8I0J0.24  ;
N392 G1X500.56Y51.7  ;
N393 G2X500.8Y51.94I0.24J0  ;
N394 G1X501.7Y51.94  ;
N395 G3X502.06Y52.3I0J0.36  ;
N396 G1X502.06Y53.52  ;
N397 G1X491.95Y63.64  ;
N398 G1X490.79Y63.99  ;
N399 G3X490.34Y63.75I-0.11J-0.34  ;
N400 G1X490.07Y62.89  ;
N401 G2X489.78Y62.73I-0.22J0.07  ;
N402 G1X475.09Y67.22  ;
N403 G2X474.93Y67.52I0.07J0.23  ;
N404 G1X475.19Y68.38  ;
N405 G3X474.95Y68.83I-0.34J0.11  ;
N406 G1X474.34Y69.02  ;
N407 G1X474.76Y70.4  ;
N408 G3X474.39Y71.09I-0.53J0.16  ;
N409 G1X471.99Y71.83  ;
N410 G1X464.71Y71.96  ;
N411 G1X452.44Y75.71  ;
N412 G1X452.44Y41.83  ;
N413 G3X452.99Y39.54I5.06J0  ;
N414 G1X464.56Y16.71  ;
N415 G3X469.07Y13.94I4.51J2.29  ;
N416 G1X471.57Y13.94  ;
N417 G3X471.93Y14.3I0J0.36  ;
N418 G1X471.93Y15.2  ;
N419 G2X472.17Y15.44I0.24J0  ;
N420 G1X493.2Y15.44  ;
N421 G2X493.44Y15.2I0J-0.24  ;
N422 G1X493.44Y14.3  ;
N423 G3X493.8Y13.94I0.36J0  ;
N424 G1X495.02Y13.94  ;
N425 G1X502.06Y20.98  ;
N426 G1X502.06Y22.06  ;
N427 G1X501.56Y22.06  ;
N428 G1X501.56Y30.44  ;
N429 G1X502.06Y30.44  ;
N430 G1X502.06Y31.44  ;
N431 G1X503.5Y31.44  ;
N432 G3X504.06Y32I0J0.56  ;
N433 G1X504.06Y35.64  ;
N434 G65 P9104 A101 B01  ;
N435 M98 P9103  ;
(P7:ID1:W86008806)  ;
N436 M98 P9101  ;
N437 G0X570.5Y37.15  ;
N438 G65 P9102 A101 B01  ;
N439 G1X565.56Y37.15  ;
N440 G1X565.56Y41.8  ;
N441 G3X565Y42.36I-0.56J0  ;
N442 G1X563.56Y42.36  ;
N443 G1X563.56Y43  ;
N444 G3X563.2Y43.36I-0.36J0  ;
N445 G1X562.3Y43.36  ;
N446 G2X562.06Y43.6I0J0.24  ;
N447 G1X562.06Y52.5  ;
N448 G2X562.3Y52.74I0.24J0  ;
N449 G1X563.2Y52.74  ;
N450 G3X563.56Y53.1I0J0.36  ;
N451 G1X563.56Y54.32  ;
N452 G1X553.45Y64.44  ;
N453 G1X552.29Y64.79  ;
N454 G3X551.84Y64.55I-0.11J-0.34  ;
N455 G1X551.57Y63.69  ;
N456 G2X551.28Y63.53I-0.22J0.07  ;
N457 G1X536.59Y68.02  ;
N458 G2X536.43Y68.32I0.07J0.23  ;
N459 G1X536.69Y69.18  ;
N460 G3X536.45Y69.63I-0.34J0.11  ;
N461 G1X535.84Y69.82  ;
N462 G1X536.26Y71.2  ;
N463 G3X535.89Y71.89I-0.53J0.16  ;
N464 G1X533.49Y72.63  ;
N465 G1X526.21Y72.76  ;
N466 G1X513.94Y76.51  ;
N467 G1X513.94Y42.63  ;
N468 G3X514.49Y40.34I5.06J0  ;
N469 G1X526.06Y17.51  ;
N470 G3X530.57Y14.74I4.51J2.29  ;
N471 G1X533.07Y14.74  ;
N472 G3X533.43Y15.1I0J0.36  ;
N473 G1X533.43Y16  ;
N474 G2X533.67Y16.24I0.24J0  ;
N475 G1X554.7Y16.24  ;
N476 G2X554.94Y16I0J-0.24  ;
N477 G1X554.94Y15.1  ;
N478 G3X555.3Y14.74I0.36J0  ;
N479 G1X556.52Y14.74  ;
N480 G1X563.56Y21.78  ;
N481 G1X563.56Y22.86  ;
N482 G1X563.06Y22.86  ;
N483 G1X563.06Y31.24  ;
N484 G1X563.56Y31.24  ;
N485 G1X563.56Y32.24  ;
N486 G1X565Y32.24  ;
N487 G3X565.56Y32.8I0J0.56  ;
N488 G1X565.56Y36.44  ;
N489 G65 P9104 A101 B01  ;
N490 M98 P9103  ;
(P8:ID1:W86008806)  ;
N491 M98 P9101  ;
N492 G0X694Y36.35  ;
N493 G65 P9102 A101 B01  ;
N494 G1X689.06Y36.35  ;
N495 G1X689.06Y41  ;
N496 G3X688.5Y41.56I-0.56J0  ;
N497 G1X687.06Y41.56  ;
N498 G1X687.06Y42.2  ;
N499 G3X686.7Y42.56I-0.36J0  ;
N500 G1X685.8Y42.56  ;
N501 G2X685.56Y42.8I0J0.24  ;
N502 G1X685.56Y51.7  ;
N503 G2X685.8Y51.94I0.24J0  ;
N504 G1X686.7Y51.94  ;
N505 G3X687.06Y52.3I0J0.36  ;
N506 G1X687.06Y53.52  ;
N507 G1X676.95Y63.64  ;
N508 G1X675.79Y63.99  ;
N509 G3X675.34Y63.75I-0.11J-0.34  ;
N510 G1X675.07Y62.89  ;
N511 G2X674.78Y62.73I-0.22J0.07  ;
N512 G1X660.09Y67.22  ;
N513 G2X659.93Y67.52I0.07J0.23  ;
N514 G1X660.19Y68.38  ;
N515 G3X659.95Y68.83I-0.34J0.11  ;
N516 G1X659.34Y69.02  ;
N517 G1X659.76Y70.4  ;
N518 G3X659.39Y71.09I-0.53J0.16  ;
N519 G1X656.99Y71.83  ;
N520 G1X649.71Y71.96  ;
N521 G1X637.44Y75.71  ;
N522 G1X637.44Y41.83  ;
N523 G3X637.99Y39.54I5.06J0  ;
N524 G1X649.56Y16.71  ;
N525 G3X654.07Y13.94I4.51J2.29  ;
N526 G1X656.57Y13.94  ;
N527 G3X656.93Y14.3I0J0.36  ;
N528 G1X656.93Y15.2  ;
N529 G2X657.17Y15.44I0.24J0  ;
N530 G1X678.2Y15.44  ;
N531 G2X678.44Y15.2I0J-0.24  ;
N532 G1X678.44Y14.3  ;
N533 G3X678.8Y13.94I0.36J0  ;
N534 G1X680.02Y13.94  ;
N535 G1X687.06Y20.98  ;
N536 G1X687.06Y22.06  ;
N537 G1X686.56Y22.06  ;
N538 G1X686.56Y30.44  ;
N539 G1X687.06Y30.44  ;
N540 G1X687.06Y31.44  ;
N541 G1X688.5Y31.44  ;
N542 G3X689.06Y32I0J0.56  ;
N543 G1X689.06Y35.64  ;
N544 G65 P9104 A101 B01  ;
N545 M98 P9103  ;
(P9:ID1:W86008806)  ;
N546 M98 P9101  ;
N547 G0X755.5Y37.15  ;
N548 G65 P9102 A101 B01  ;
N549 G1X750.56Y37.15  ;
N550 G1X750.56Y41.8  ;
N551 G3X750Y42.36I-0.56J0  ;
N552 G1X748.56Y42.36  ;
N553 G1X748.56Y43  ;
N554 G3X748.2Y43.36I-0.36J0  ;
N555 G1X747.3Y43.36  ;
N556 G2X747.06Y43.6I0J0.24  ;
N557 G1X747.06Y52.5  ;
N558 G2X747.3Y52.74I0.24J0  ;
N559 G1X748.2Y52.74  ;
N560 G3X748.56Y53.1I0J0.36  ;
N561 G1X748.56Y54.32  ;
N562 G1X738.45Y64.44  ;
N563 G1X737.29Y64.79  ;
N564 G3X736.84Y64.55I-0.11J-0.34  ;
N565 G1X736.57Y63.69  ;
N566 G2X736.28Y63.53I-0.22J0.07  ;
N567 G1X721.59Y68.02  ;
N568 G2X721.43Y68.32I0.07J0.23  ;
N569 G1X721.69Y69.18  ;
N570 G3X721.45Y69.63I-0.34J0.11  ;
N571 G1X720.84Y69.82  ;
N572 G1X721.26Y71.2  ;
N573 G3X720.89Y71.89I-0.53J0.16  ;
N574 G1X718.49Y72.63  ;
N575 G1X711.21Y72.76  ;
N576 G1X698.94Y76.51  ;
N577 G1X698.94Y42.63  ;
N578 G3X699.49Y40.34I5.06J0  ;
N579 G1X711.06Y17.51  ;
N580 G3X715.57Y14.74I4.51J2.29  ;
N581 G1X718.07Y14.74  ;
N582 G3X718.43Y15.1I0J0.36  ;
N583 G1X718.43Y16  ;
N584 G2X718.67Y16.24I0.24J0  ;
N585 G1X739.7Y16.24  ;
N586 G2X739.94Y16I0J-0.24  ;
N587 G1X739.94Y15.1  ;
N588 G3X740.3Y14.74I0.36J0  ;
N589 G1X741.52Y14.74  ;
N590 G1X748.56Y21.78  ;
N591 G1X748.56Y22.86  ;
N592 G1X748.06Y22.86  ;
N593 G1X748.06Y31.24  ;
N594 G1X748.56Y31.24  ;
N595 G1X748.56Y32.24  ;
N596 G1X750Y32.24  ;
N597 G3X750.56Y32.8I0J0.56  ;
N598 G1X750.56Y36.44  ;
N599 G65 P9104 A101 B01  ;
N600 M98 P9103  ;
(P10:ID1:W86008806)  ;
N601 M98 P9101  ;
N602 G0X879.3Y36.35  ;
N603 G65 P9102 A101 B01  ;
N604 G1X874.36Y36.35  ;
N605 G1X874.36Y41  ;
N606 G3X873.8Y41.56I-0.56J0  ;
N607 G1X872.36Y41.56  ;
N608 G1X872.36Y42.2  ;
N609 G3X872Y42.56I-0.36J0  ;
N610 G1X871.1Y42.56  ;
N611 G2X870.86Y42.8I0J0.24  ;
N612 G1X870.86Y51.7  ;
N613 G2X871.1Y51.94I0.24J0  ;
N614 G1X872Y51.94  ;
N615 G3X872.36Y52.3I0J0.36  ;
N616 G1X872.36Y53.52  ;
N617 G1X862.25Y63.64  ;
N618 G1X861.09Y63.99  ;
N619 G3X860.64Y63.75I-0.11J-0.34  ;
N620 G1X860.37Y62.89  ;
N621 G2X860.08Y62.73I-0.22J0.07  ;
N622 G1X845.39Y67.22  ;
N623 G2X845.23Y67.52I0.07J0.23  ;
N624 G1X845.49Y68.38  ;
N625 G3X845.25Y68.83I-0.34J0.11  ;
N626 G1X844.64Y69.02  ;
N627 G1X845.06Y70.4  ;
N628 G3X844.69Y71.09I-0.53J0.16  ;
N629 G1X842.29Y71.83  ;
N630 G1X835.01Y71.96  ;
N631 G1X822.74Y75.71  ;
N632 G1X822.74Y41.83  ;
N633 G3X823.29Y39.54I5.06J0  ;
N634 G1X834.86Y16.71  ;
N635 G3X839.37Y13.94I4.51J2.29  ;
N636 G1X841.87Y13.94  ;
N637 G3X842.23Y14.3I0J0.36  ;
N638 G1X842.23Y15.2  ;
N639 G2X842.47Y15.44I0.24J0  ;
N640 G1X863.5Y15.44  ;
N641 G2X863.74Y15.2I0J-0.24  ;
N642 G1X863.74Y14.3  ;
N643 G3X864.1Y13.94I0.36J0  ;
N644 G1X865.32Y13.94  ;
N645 G1X872.36Y20.98  ;
N646 G1X872.36Y22.06  ;
N647 G1X871.86Y22.06  ;
N648 G1X871.86Y30.44  ;
N649 G1X872.36Y30.44  ;
N650 G1X872.36Y31.44  ;
N651 G1X873.8Y31.44  ;
N652 G3X874.36Y32I0J0.56  ;
N653 G1X874.36Y35.64  ;
N654 G65 P9104 A101 B01  ;
N655 M98 P9103  ;
(P11:ID1:W86008806)  ;
N656 M98 P9101  ;
N657 G0X940.8Y37.15  ;
N658 G65 P9102 A101 B01  ;
N659 G1X935.86Y37.15  ;
N660 G1X935.86Y41.8  ;
N661 G3X935.3Y42.36I-0.56J0  ;
N662 G1X933.86Y42.36  ;
N663 G1X933.86Y43  ;
N664 G3X933.5Y43.36I-0.36J0  ;
N665 G1X932.6Y43.36  ;
N666 G2X932.36Y43.6I0J0.24  ;
N667 G1X932.36Y52.5  ;
N668 G2X932.6Y52.74I0.24J0  ;
N669 G1X933.5Y52.74  ;
N670 G3X933.86Y53.1I0J0.36  ;
N671 G1X933.86Y54.32  ;
N672 G1X923.75Y64.44  ;
N673 G1X922.59Y64.79  ;
N674 G3X922.14Y64.55I-0.11J-0.34  ;
N675 G1X921.87Y63.69  ;
N676 G2X921.58Y63.53I-0.22J0.07  ;
N677 G1X906.89Y68.02  ;
N678 G2X906.73Y68.32I0.07J0.23  ;
N679 G1X906.99Y69.18  ;
N680 G3X906.75Y69.63I-0.34J0.11  ;
N681 G1X906.14Y69.82  ;
N682 G1X906.56Y71.2  ;
N683 G3X906.19Y71.89I-0.53J0.16  ;
N684 G1X903.79Y72.63  ;
N685 G1X896.51Y72.76  ;
N686 G1X884.24Y76.51  ;
N687 G1X884.24Y42.63  ;
N688 G3X884.79Y40.34I5.06J0  ;
N689 G1X896.36Y17.51  ;
N690 G3X900.87Y14.74I4.51J2.29  ;
N691 G1X903.37Y14.74  ;
N692 G3X903.73Y15.1I0J0.36  ;
N693 G1X903.73Y16  ;
N694 G2X903.97Y16.24I0.24J0  ;
N695 G1X925Y16.24  ;
N696 G2X925.24Y16I0J-0.24  ;
N697 G1X925.24Y15.1  ;
N698 G3X925.6Y14.74I0.36J0  ;
N699 G1X926.82Y14.74  ;
N700 G1X933.86Y21.78  ;
N701 G1X933.86Y22.86  ;
N702 G1X933.36Y22.86  ;
N703 G1X933.36Y31.24  ;
N704 G1X933.86Y31.24  ;
N705 G1X933.86Y32.24  ;
N706 G1X935.3Y32.24  ;
N707 G3X935.86Y32.8I0J0.56  ;
N708 G1X935.86Y36.44  ;
N709 G65 P9104 A101 B01  ;
N710 M98 P9103  ;
(P12:ID1:W86008806)  ;
N711 M98 P9101  ;
N712 G0X1116.5Y36.35  ;
N713 G65 P9102 A101 B01  ;
N714 G1X1111.56Y36.35  ;
N715 G1X1111.56Y41  ;
N716 G3X1111Y41.56I-0.56J0  ;
N717 G1X1109.56Y41.56  ;
N718 G1X1109.56Y42.2  ;
N719 G3X1109.2Y42.56I-0.36J0  ;
N720 G1X1108.3Y42.56  ;
N721 G2X1108.06Y42.8I0J0.24  ;
N722 G1X1108.06Y51.7  ;
N723 G2X1108.3Y51.94I0.24J0  ;
N724 G1X1109.2Y51.94  ;
N725 G3X1109.56Y52.3I0J0.36  ;
N726 G1X1109.56Y53.52  ;
N727 G1X1099.45Y63.64  ;
N728 G1X1098.29Y63.99  ;
N729 G3X1097.84Y63.75I-0.11J-0.34  ;
N730 G1X1097.57Y62.89  ;
N731 G2X1097.28Y62.73I-0.22J0.07  ;
N732 G1X1082.59Y67.22  ;
N733 G2X1082.43Y67.52I0.07J0.23  ;
N734 G1X1082.69Y68.38  ;
N735 G3X1082.45Y68.83I-0.34J0.11  ;
N736 G1X1081.84Y69.02  ;
N737 G1X1082.26Y70.4  ;
N738 G3X1081.89Y71.09I-0.53J0.16  ;
N739 G1X1079.49Y71.83  ;
N740 G1X1072.21Y71.96  ;
N741 G1X1059.94Y75.71  ;
N742 G1X1059.94Y41.83  ;
N743 G3X1060.49Y39.54I5.06J0  ;
N744 G1X1072.06Y16.71  ;
N745 G3X1076.57Y13.94I4.51J2.29  ;
N746 G1X1079.07Y13.94  ;
N747 G3X1079.43Y14.3I0J0.36  ;
N748 G1X1079.43Y15.2  ;
N749 G2X1079.67Y15.44I0.24J0  ;
N750 G1X1100.7Y15.44  ;
N751 G2X1100.94Y15.2I0J-0.24  ;
N752 G1X1100.94Y14.3  ;
N753 G3X1101.3Y13.94I0.36J0  ;
N754 G1X1102.52Y13.94  ;
N755 G1X1109.56Y20.98  ;
N756 G1X1109.56Y22.06  ;
N757 G1X1109.06Y22.06  ;
N758 G1X1109.06Y30.44  ;
N759 G1X1109.56Y30.44  ;
N760 G1X1109.56Y31.44  ;
N761 G1X1111Y31.44  ;
N762 G3X1111.56Y32I0J0.56  ;
N763 G1X1111.56Y35.64  ;
N764 G65 P9104 A101 B01  ;
N765 M98 P9103  ;
(P13:ID1:W86008806)  ;
N766 M98 P9101  ;
N767 G0X1178.5Y36.35  ;
N768 G65 P9102 A101 B01  ;
N769 G1X1173.56Y36.35  ;
N770 G1X1173.56Y41  ;
N771 G3X1173Y41.56I-0.56J0  ;
N772 G1X1171.56Y41.56  ;
N773 G1X1171.56Y42.2  ;
N774 G3X1171.2Y42.56I-0.36J0  ;
N775 G1X1170.3Y42.56  ;
N776 G2X1170.06Y42.8I0J0.24  ;
N777 G1X1170.06Y51.7  ;
N778 G2X1170.3Y51.94I0.24J0  ;
N779 G1X1171.2Y51.94  ;
N780 G3X1171.56Y52.3I0J0.36  ;
N781 G1X1171.56Y53.52  ;
N782 G1X1161.45Y63.64  ;
N783 G1X1160.29Y63.99  ;
N784 G3X1159.84Y63.75I-0.11J-0.34  ;
N785 G1X1159.57Y62.89  ;
N786 G2X1159.28Y62.73I-0.22J0.07  ;
N787 G1X1144.59Y67.22  ;
N788 G2X1144.43Y67.52I0.07J0.23  ;
N789 G1X1144.69Y68.38  ;
N790 G3X1144.45Y68.83I-0.34J0.11  ;
N791 G1X1143.84Y69.02  ;
N792 G1X1144.26Y70.4  ;
N793 G3X1143.89Y71.09I-0.53J0.16  ;
N794 G1X1141.49Y71.83  ;
N795 G1X1134.21Y71.96  ;
N796 G1X1121.94Y75.71  ;
N797 G1X1121.94Y41.83  ;
N798 G3X1122.49Y39.54I5.06J0  ;
N799 G1X1134.06Y16.71  ;
N800 G3X1138.57Y13.94I4.51J2.29  ;
N801 G1X1141.07Y13.94  ;
N802 G3X1141.43Y14.3I0J0.36  ;
N803 G1X1141.43Y15.2  ;
N804 G2X1141.67Y15.44I0.24J0  ;
N805 G1X1162.7Y15.44  ;
N806 G2X1162.94Y15.2I0J-0.24  ;
N807 G1X1162.94Y14.3  ;
N808 G3X1163.3Y13.94I0.36J0  ;
N809 G1X1164.52Y13.94  ;
N810 G1X1171.56Y20.98  ;
N811 G1X1171.56Y22.06  ;
N812 G1X1171.06Y22.06  ;
N813 G1X1171.06Y30.44  ;
N814 G1X1171.56Y30.44  ;
N815 G1X1171.56Y31.44  ;
N816 G1X1173Y31.44  ;
N817 G3X1173.56Y32I0J0.56  ;
N818 G1X1173.56Y35.64  ;
N819 G65 P9104 A101 B01  ;
N820 M98 P9103  ;
(P14:ID1:W86008806)  ;
N821 M98 P9101  ;
N822 G0X1240.5Y36.35  ;
N823 G65 P9102 A101 B01  ;
N824 G1X1235.56Y36.35  ;
N825 G1X1235.56Y41  ;
N826 G3X1235Y41.56I-0.56J0  ;
N827 G1X1233.56Y41.56  ;
N828 G1X1233.56Y42.2  ;
N829 G3X1233.2Y42.56I-0.36J0  ;
N830 G1X1232.3Y42.56  ;
N831 G2X1232.06Y42.8I0J0.24  ;
N832 G1X1232.06Y51.7  ;
N833 G2X1232.3Y51.94I0.24J0  ;
N834 G1X1233.2Y51.94  ;
N835 G3X1233.56Y52.3I0J0.36  ;
N836 G1X1233.56Y53.52  ;
N837 G1X1223.45Y63.64  ;
N838 G1X1222.29Y63.99  ;
N839 G3X1221.84Y63.75I-0.11J-0.34  ;
N840 G1X1221.57Y62.89  ;
N841 G2X1221.28Y62.73I-0.22J0.07  ;
N842 G1X1206.59Y67.22  ;
N843 G2X1206.43Y67.52I0.07J0.23  ;
N844 G1X1206.69Y68.38  ;
N845 G3X1206.45Y68.83I-0.34J0.11  ;
N846 G1X1205.84Y69.02  ;
N847 G1X1206.26Y70.4  ;
N848 G3X1205.89Y71.09I-0.53J0.16  ;
N849 G1X1203.49Y71.83  ;
N850 G1X1196.21Y71.96  ;
N851 G1X1183.94Y75.71  ;
N852 G1X1183.94Y41.83  ;
N853 G3X1184.49Y39.54I5.06J0  ;
N854 G1X1196.06Y16.71  ;
N855 G3X1200.57Y13.94I4.51J2.29  ;
N856 G1X1203.07Y13.94  ;
N857 G3X1203.43Y14.3I0J0.36  ;
N858 G1X1203.43Y15.2  ;
N859 G2X1203.67Y15.44I0.24J0  ;
N860 G1X1224.7Y15.44  ;
N861 G2X1224.94Y15.2I0J-0.24  ;
N862 G1X1224.94Y14.3  ;
N863 G3X1225.3Y13.94I0.36J0  ;
N864 G1X1226.52Y13.94  ;
N865 G1X1233.56Y20.98  ;
N866 G1X1233.56Y22.06  ;
N867 G1X1233.06Y22.06  ;
N868 G1X1233.06Y30.44  ;
N869 G1X1233.56Y30.44  ;
N870 G1X1233.56Y31.44  ;
N871 G1X1235Y31.44  ;
N872 G3X1235.56Y32I0J0.56  ;
N873 G1X1235.56Y35.64  ;
N874 G65 P9104 A101 B01  ;
N875 M98 P9103  ;
(P15:ID1:W86008806)  ;
N876 M98 P9101  ;
N877 G0X1002.5Y37.95  ;
N878 G65 P9102 A101 B01  ;
N879 G1X997.56Y37.95  ;
N880 G1X997.56Y42.6  ;
N881 G3X997Y43.16I-0.56J0  ;
N882 G1X995.56Y43.16  ;
N883 G1X995.56Y43.8  ;
N884 G3X995.2Y44.16I-0.36J0  ;
N885 G1X994.3Y44.16  ;
N886 G2X994.06Y44.4I0J0.24  ;
N887 G1X994.06Y53.3  ;
N888 G2X994.3Y53.54I0.24J0  ;
N889 G1X995.2Y53.54  ;
N890 G3X995.56Y53.9I0J0.36  ;
N891 G1X995.56Y55.12  ;
N892 G1X985.45Y65.24  ;
N893 G1X984.29Y65.59  ;
N894 G3X983.84Y65.35I-0.11J-0.34  ;
N895 G1X983.57Y64.49  ;
N896 G2X983.28Y64.33I-0.22J0.07  ;
N897 G1X968.59Y68.82  ;
N898 G2X968.43Y69.12I0.07J0.23  ;
N899 G1X968.69Y69.98  ;
N900 G3X968.45Y70.43I-0.34J0.11  ;
N901 G1X967.84Y70.62  ;
N902 G1X968.26Y72  ;
N903 G3X967.89Y72.69I-0.53J0.16  ;
N904 G1X965.49Y73.43  ;
N905 G1X958.21Y73.56  ;
N906 G1X945.94Y77.31  ;
N907 G1X945.94Y43.43  ;
N908 G3X946.49Y41.14I5.06J0  ;
N909 G1X958.06Y18.31  ;
N910 G3X962.57Y15.54I4.51J2.29  ;
N911 G1X965.07Y15.54  ;
N912 G3X965.43Y15.9I0J0.36  ;
N913 G1X965.43Y16.8  ;
N914 G2X965.67Y17.04I0.24J0  ;
N915 G1X986.7Y17.04  ;
N916 G2X986.94Y16.8I0J-0.24  ;
N917 G1X986.94Y15.9  ;
N918 G3X987.3Y15.54I0.36J0  ;
N919 G1X988.52Y15.54  ;
N920 G1X995.56Y22.58  ;
N921 G1X995.56Y23.66  ;
N922 G1X995.06Y23.66  ;
N923 G1X995.06Y32.04  ;
N924 G1X995.56Y32.04  ;
N925 G1X995.56Y33.04  ;
N926 G1X997Y33.04  ;
N927 G3X997.56Y33.6I0J0.56  ;
N928 G1X997.56Y37.24  ;
N929 G65 P9104 A101 B01  ;
N930 M98 P9103  ;
(P16:ID1:W86008806)  ;
N931 M98 P9101  ;
N932 G0X817.3Y37.95  ;
N933 G65 P9102 A101 B01  ;
N934 G1X812.36Y37.95  ;
N935 G1X812.36Y42.6  ;
N936 G3X811.8Y43.16I-0.56J0  ;
N937 G1X810.36Y43.16  ;
N938 G1X810.36Y43.8  ;
N939 G3X810Y44.16I-0.36J0  ;
N940 G1X809.1Y44.16  ;
N941 G2X808.86Y44.4I0J0.24  ;
N942 G1X808.86Y53.3  ;
N943 G2X809.1Y53.54I0.24J0  ;
N944 G1X810Y53.54  ;
N945 G3X810.36Y53.9I0J0.36  ;
N946 G1X810.36Y55.12  ;
N947 G1X800.25Y65.24  ;
N948 G1X799.09Y65.59  ;
N949 G3X798.64Y65.35I-0.11J-0.34  ;
N950 G1X798.37Y64.49  ;
N951 G2X798.08Y64.33I-0.22J0.07  ;
N952 G1X783.39Y68.82  ;
N953 G2X783.23Y69.12I0.07J0.23  ;
N954 G1X783.49Y69.98  ;
N955 G3X783.25Y70.43I-0.34J0.11  ;
N956 G1X782.64Y70.62  ;
N957 G1X783.06Y72  ;
N958 G3X782.69Y72.69I-0.53J0.16  ;
N959 G1X780.29Y73.43  ;
N960 G1X773.01Y73.56  ;
N961 G1X760.74Y77.31  ;
N962 G1X760.74Y43.43  ;
N963 G3X761.29Y41.14I5.06J0  ;
N964 G1X772.86Y18.31  ;
N965 G3X777.37Y15.54I4.51J2.29  ;
N966 G1X779.87Y15.54  ;
N967 G3X780.23Y15.9I0J0.36  ;
N968 G1X780.23Y16.8  ;
N969 G2X780.47Y17.04I0.24J0  ;
N970 G1X801.5Y17.04  ;
N971 G2X801.74Y16.8I0J-0.24  ;
N972 G1X801.74Y15.9  ;
N973 G3X802.1Y15.54I0.36J0  ;
N974 G1X803.32Y15.54  ;
N975 G1X810.36Y22.58  ;
N976 G1X810.36Y23.66  ;
N977 G1X809.86Y23.66  ;
N978 G1X809.86Y32.04  ;
N979 G1X810.36Y32.04  ;
N980 G1X810.36Y33.04  ;
N981 G1X811.8Y33.04  ;
N982 G3X812.36Y33.6I0J0.56  ;
N983 G1X812.36Y37.24  ;
N984 G65 P9104 A101 B01  ;
N985 M98 P9103  ;
(P17:ID1:W86008806)  ;
N986 M98 P9101  ;
N987 G0X632Y37.95  ;
N988 G65 P9102 A101 B01  ;
N989 G1X627.06Y37.95  ;
N990 G1X627.06Y42.6  ;
N991 G3X626.5Y43.16I-0.56J0  ;
N992 G1X625.06Y43.16  ;
N993 G1X625.06Y43.8  ;
N994 G3X624.7Y44.16I-0.36J0  ;
N995 G1X623.8Y44.16  ;
N996 G2X623.56Y44.4I0J0.24  ;
N997 G1X623.56Y53.3  ;
N998 G2X623.8Y53.54I0.24J0  ;
N999 G1X624.7Y53.54  ;
N1000 G3X625.06Y53.9I0J0.36  ;
N1001 G1X625.06Y55.12  ;
N1002 G1X614.95Y65.24  ;
N1003 G1X613.79Y65.59  ;
N1004 G3X613.34Y65.35I-0.11J-0.34  ;
N1005 G1X613.07Y64.49  ;
N1006 G2X612.78Y64.33I-0.22J0.07  ;
N1007 G1X598.09Y68.82  ;
N1008 G2X597.93Y69.12I0.07J0.23  ;
N1009 G1X598.19Y69.98  ;
N1010 G3X597.95Y70.43I-0.34J0.11  ;
N1011 G1X597.34Y70.62  ;
N1012 G1X597.76Y72  ;
N1013 G3X597.39Y72.69I-0.53J0.16  ;
N1014 G1X594.99Y73.43  ;
N1015 G1X587.71Y73.56  ;
N1016 G1X575.44Y77.31  ;
N1017 G1X575.44Y43.43  ;
N1018 G3X575.99Y41.14I5.06J0  ;
N1019 G1X587.56Y18.31  ;
N1020 G3X592.07Y15.54I4.51J2.29  ;
N1021 G1X594.57Y15.54  ;
N1022 G3X594.93Y15.9I0J0.36  ;
N1023 G1X594.93Y16.8  ;
N1024 G2X595.17Y17.04I0.24J0  ;
N1025 G1X616.2Y17.04  ;
N1026 G2X616.44Y16.8I0J-0.24  ;
N1027 G1X616.44Y15.9  ;
N1028 G3X616.8Y15.54I0.36J0  ;
N1029 G1X618.02Y15.54  ;
N1030 G1X625.06Y22.58  ;
N1031 G1X625.06Y23.66  ;
N1032 G1X624.56Y23.66  ;
N1033 G1X624.56Y32.04  ;
N1034 G1X625.06Y32.04  ;
N1035 G1X625.06Y33.04  ;
N1036 G1X626.5Y33.04  ;
N1037 G3X627.06Y33.6I0J0.56  ;
N1038 G1X627.06Y37.24  ;
N1039 G65 P9104 A101 B01  ;
N1040 M98 P9103  ;
(P18:ID1:W86008806)  ;
N1041 M98 P9101  ;
N1042 G0X323.5Y37.95  ;
N1043 G65 P9102 A101 B01  ;
N1044 G1X318.56Y37.95  ;
N1045 G1X318.56Y42.6  ;
N1046 G3X318Y43.16I-0.56J0  ;
N1047 G1X316.56Y43.16  ;
N1048 G1X316.56Y43.8  ;
N1049 G3X316.2Y44.16I-0.36J0  ;
N1050 G1X315.3Y44.16  ;
N1051 G2X315.06Y44.4I0J0.24  ;
N1052 G1X315.06Y53.3  ;
N1053 G2X315.3Y53.54I0.24J0  ;
N1054 G1X316.2Y53.54  ;
N1055 G3X316.56Y53.9I0J0.36  ;
N1056 G1X316.56Y55.12  ;
N1057 G1X306.45Y65.24  ;
N1058 G1X305.29Y65.59  ;
N1059 G3X304.84Y65.35I-0.11J-0.34  ;
N1060 G1X304.57Y64.49  ;
N1061 G2X304.28Y64.33I-0.22J0.07  ;
N1062 G1X289.59Y68.82  ;
N1063 G2X289.43Y69.12I0.07J0.23  ;
N1064 G1X289.69Y69.98  ;
N1065 G3X289.45Y70.43I-0.34J0.11  ;
N1066 G1X288.84Y70.62  ;
N1067 G1X289.26Y72  ;
N1068 G3X288.89Y72.69I-0.53J0.16  ;
N1069 G1X286.49Y73.43  ;
N1070 G1X279.21Y73.56  ;
N1071 G1X266.94Y77.31  ;
N1072 G1X266.94Y43.43  ;
N1073 G3X267.49Y41.14I5.06J0  ;
N1074 G1X279.06Y18.31  ;
N1075 G3X283.57Y15.54I4.51J2.29  ;
N1076 G1X286.07Y15.54  ;
N1077 G3X286.43Y15.9I0J0.36  ;
N1078 G1X286.43Y16.8  ;
N1079 G2X286.67Y17.04I0.24J0  ;
N1080 G1X307.7Y17.04  ;
N1081 G2X307.94Y16.8I0J-0.24  ;
N1082 G1X307.94Y15.9  ;
N1083 G3X308.3Y15.54I0.36J0  ;
N1084 G1X309.52Y15.54  ;
N1085 G1X316.56Y22.58  ;
N1086 G1X316.56Y23.66  ;
N1087 G1X316.06Y23.66  ;
N1088 G1X316.06Y32.04  ;
N1089 G1X316.56Y32.04  ;
N1090 G1X316.56Y33.04  ;
N1091 G1X318Y33.04  ;
N1092 G3X318.56Y33.6I0J0.56  ;
N1093 G1X318.56Y37.24  ;
N1094 G65 P9104 A101 B01  ;
N1095 M98 P9103  ;
(P19:ID1:W86008806)  ;
N1096 M98 P9101  ;
N1097 G0X76.5Y37.95  ;
N1098 G65 P9102 A101 B01  ;
N1099 G1X71.56Y37.95  ;
N1100 G1X71.56Y42.6  ;
N1101 G3X71Y43.16I-0.56J0  ;
N1102 G1X69.56Y43.16  ;
N1103 G1X69.56Y43.8  ;
N1104 G3X69.2Y44.16I-0.36J0  ;
N1105 G1X68.3Y44.16  ;
N1106 G2X68.06Y44.4I0J0.24  ;
N1107 G1X68.06Y53.3  ;
N1108 G2X68.3Y53.54I0.24J0  ;
N1109 G1X69.2Y53.54  ;
N1110 G3X69.56Y53.9I0J0.36  ;
N1111 G1X69.56Y55.12  ;
N1112 G1X59.45Y65.24  ;
N1113 G1X58.29Y65.59  ;
N1114 G3X57.84Y65.35I-0.11J-0.34  ;
N1115 G1X57.57Y64.49  ;
N1116 G2X57.28Y64.33I-0.22J0.07  ;
N1117 G1X42.59Y68.82  ;
N1118 G2X42.43Y69.12I0.07J0.23  ;
N1119 G1X42.69Y69.98  ;
N1120 G3X42.45Y70.43I-0.34J0.11  ;
N1121 G1X41.84Y70.62  ;
N1122 G1X42.26Y72  ;
N1123 G3X41.89Y72.69I-0.53J0.16  ;
N1124 G1X39.49Y73.43  ;
N1125 G1X32.21Y73.56  ;
N1126 G1X19.94Y77.31  ;
N1127 G1X19.94Y43.43  ;
N1128 G3X20.49Y41.14I5.06J0  ;
N1129 G1X32.06Y18.31  ;
N1130 G3X36.57Y15.54I4.51J2.29  ;
N1131 G1X39.07Y15.54  ;
N1132 G3X39.43Y15.9I0J0.36  ;
N1133 G1X39.43Y16.8  ;
N1134 G2X39.67Y17.04I0.24J0  ;
N1135 G1X60.7Y17.04  ;
N1136 G2X60.94Y16.8I0J-0.24  ;
N1137 G1X60.94Y15.9  ;
N1138 G3X61.3Y15.54I0.36J0  ;
N1139 G1X62.52Y15.54  ;
N1140 G1X69.56Y22.58  ;
N1141 G1X69.56Y23.66  ;
N1142 G1X69.06Y23.66  ;
N1143 G1X69.06Y32.04  ;
N1144 G1X69.56Y32.04  ;
N1145 G1X69.56Y33.04  ;
N1146 G1X71Y33.04  ;
N1147 G3X71.56Y33.6I0J0.56  ;
N1148 G1X71.56Y37.24  ;
N1149 G65 P9104 A101 B01  ;
N1150 M98 P9103  ;
(P20:ID1:W86008806)  ;
N1151 M98 P9101  ;
N1152 G0X1116.5Y104.15  ;
N1153 G65 P9102 A101 B01  ;
N1154 G1X1111.56Y104.15  ;
N1155 G1X1111.56Y108.8  ;
N1156 G3X1111Y109.36I-0.56J0  ;
N1157 G1X1109.56Y109.36  ;
N1158 G1X1109.56Y110  ;
N1159 G3X1109.2Y110.36I-0.36J0  ;
N1160 G1X1108.3Y110.36  ;
N1161 G2X1108.06Y110.6I0J0.24  ;
N1162 G1X1108.06Y119.5  ;
N1163 G2X1108.3Y119.74I0.24J0  ;
N1164 G1X1109.2Y119.74  ;
N1165 G3X1109.56Y120.1I0J0.36  ;
N1166 G1X1109.56Y121.32  ;
N1167 G1X1099.45Y131.44  ;
N1168 G1X1098.29Y131.79  ;
N1169 G3X1097.84Y131.55I-0.11J-0.34  ;
N1170 G1X1097.57Y130.69  ;
N1171 G2X1097.28Y130.53I-0.22J0.07  ;
N1172 G1X1082.59Y135.02  ;
N1173 G2X1082.43Y135.32I0.07J0.23  ;
N1174 G1X1082.69Y136.18  ;
N1175 G3X1082.45Y136.63I-0.34J0.11  ;
N1176 G1X1081.84Y136.82  ;
N1177 G1X1082.26Y138.2  ;
N1178 G3X1081.89Y138.89I-0.53J0.16  ;
N1179 G1X1079.49Y139.63  ;
N1180 G1X1072.21Y139.76  ;
N1181 G1X1059.94Y143.51  ;
N1182 G1X1059.94Y109.63  ;
N1183 G3X1060.49Y107.34I5.06J0  ;
N1184 G1X1072.06Y84.51  ;
N1185 G3X1076.57Y81.74I4.51J2.29  ;
N1186 G1X1079.07Y81.74  ;
N1187 G3X1079.43Y82.1I0J0.36  ;
N1188 G1X1079.43Y83  ;
N1189 G2X1079.67Y83.24I0.24J0  ;
N1190 G1X1100.7Y83.24  ;
N1191 G2X1100.94Y83I0J-0.24  ;
N1192 G1X1100.94Y82.1  ;
N1193 G3X1101.3Y81.74I0.36J0  ;
N1194 G1X1102.52Y81.74  ;
N1195 G1X1109.56Y88.78  ;
N1196 G1X1109.56Y89.86  ;
N1197 G1X1109.06Y89.86  ;
N1198 G1X1109.06Y98.24  ;
N1199 G1X1109.56Y98.24  ;
N1200 G1X1109.56Y99.24  ;
N1201 G1X1111Y99.24  ;
N1202 G3X1111.56Y99.8I0J0.56  ;
N1203 G1X1111.56Y103.44  ;
N1204 G65 P9104 A101 B01  ;
N1205 M98 P9103  ;
(P21:ID1:W86008806)  ;
N1206 M98 P9101  ;
N1207 G0X1178.5Y104.15  ;
N1208 G65 P9102 A101 B01  ;
N1209 G1X1173.56Y104.15  ;
N1210 G1X1173.56Y108.8  ;
N1211 G3X1173Y109.36I-0.56J0  ;
N1212 G1X1171.56Y109.36  ;
N1213 G1X1171.56Y110  ;
N1214 G3X1171.2Y110.36I-0.36J0  ;
N1215 G1X1170.3Y110.36  ;
N1216 G2X1170.06Y110.6I0J0.24  ;
N1217 G1X1170.06Y119.5  ;
N1218 G2X1170.3Y119.74I0.24J0  ;
N1219 G1X1171.2Y119.74  ;
N1220 G3X1171.56Y120.1I0J0.36  ;
N1221 G1X1171.56Y121.32  ;
N1222 G1X1161.45Y131.44  ;
N1223 G1X1160.29Y131.79  ;
N1224 G3X1159.84Y131.55I-0.11J-0.34  ;
N1225 G1X1159.57Y130.69  ;
N1226 G2X1159.28Y130.53I-0.22J0.07  ;
N1227 G1X1144.59Y135.02  ;
N1228 G2X1144.43Y135.32I0.07J0.23  ;
N1229 G1X1144.69Y136.18  ;
N1230 G3X1144.45Y136.63I-0.34J0.11  ;
N1231 G1X1143.84Y136.82  ;
N1232 G1X1144.26Y138.2  ;
N1233 G3X1143.89Y138.89I-0.53J0.16  ;
N1234 G1X1141.49Y139.63  ;
N1235 G1X1134.21Y139.76  ;
N1236 G1X1121.94Y143.51  ;
N1237 G1X1121.94Y109.63  ;
N1238 G3X1122.49Y107.34I5.06J0  ;
N1239 G1X1134.06Y84.51  ;
N1240 G3X1138.57Y81.74I4.51J2.29  ;
N1241 G1X1141.07Y81.74  ;
N1242 G3X1141.43Y82.1I0J0.36  ;
N1243 G1X1141.43Y83  ;
N1244 G2X1141.67Y83.24I0.24J0  ;
N1245 G1X1162.7Y83.24  ;
N1246 G2X1162.94Y83I0J-0.24  ;
N1247 G1X1162.94Y82.1  ;
N1248 G3X1163.3Y81.74I0.36J0  ;
N1249 G1X1164.52Y81.74  ;
N1250 G1X1171.56Y88.78  ;
N1251 G1X1171.56Y89.86  ;
N1252 G1X1171.06Y89.86  ;
N1253 G1X1171.06Y98.24  ;
N1254 G1X1171.56Y98.24  ;
N1255 G1X1171.56Y99.24  ;
N1256 G1X1173Y99.24  ;
N1257 G3X1173.56Y99.8I0J0.56  ;
N1258 G1X1173.56Y103.44  ;
N1259 G65 P9104 A101 B01  ;
N1260 M98 P9103  ;
(P22:ID1:W86008806)  ;
N1261 M98 P9101  ;
N1262 G0X1240.5Y104.15  ;
N1263 G65 P9102 A101 B01  ;
N1264 G1X1235.56Y104.15  ;
N1265 G1X1235.56Y108.8  ;
N1266 G3X1235Y109.36I-0.56J0  ;
N1267 G1X1233.56Y109.36  ;
N1268 G1X1233.56Y110  ;
N1269 G3X1233.2Y110.36I-0.36J0  ;
N1270 G1X1232.3Y110.36  ;
N1271 G2X1232.06Y110.6I0J0.24  ;
N1272 G1X1232.06Y119.5  ;
N1273 G2X1232.3Y119.74I0.24J0  ;
N1274 G1X1233.2Y119.74  ;
N1275 G3X1233.56Y120.1I0J0.36  ;
N1276 G1X1233.56Y121.32  ;
N1277 G1X1223.45Y131.44  ;
N1278 G1X1222.29Y131.79  ;
N1279 G3X1221.84Y131.55I-0.11J-0.34  ;
N1280 G1X1221.57Y130.69  ;
N1281 G2X1221.28Y130.53I-0.22J0.07  ;
N1282 G1X1206.59Y135.02  ;
N1283 G2X1206.43Y135.32I0.07J0.23  ;
N1284 G1X1206.69Y136.18  ;
N1285 G3X1206.45Y136.63I-0.34J0.11  ;
N1286 G1X1205.84Y136.82  ;
N1287 G1X1206.26Y138.2  ;
N1288 G3X1205.89Y138.89I-0.53J0.16  ;
N1289 G1X1203.49Y139.63  ;
N1290 G1X1196.21Y139.76  ;
N1291 G1X1183.94Y143.51  ;
N1292 G1X1183.94Y109.63  ;
N1293 G3X1184.49Y107.34I5.06J0  ;
N1294 G1X1196.06Y84.51  ;
N1295 G3X1200.57Y81.74I4.51J2.29  ;
N1296 G1X1203.07Y81.74  ;
N1297 G3X1203.43Y82.1I0J0.36  ;
N1298 G1X1203.43Y83  ;
N1299 G2X1203.67Y83.24I0.24J0  ;
N1300 G1X1224.7Y83.24  ;
N1301 G2X1224.94Y83I0J-0.24  ;
N1302 G1X1224.94Y82.1  ;
N1303 G3X1225.3Y81.74I0.36J0  ;
N1304 G1X1226.52Y81.74  ;
N1305 G1X1233.56Y88.78  ;
N1306 G1X1233.56Y89.86  ;
N1307 G1X1233.06Y89.86  ;
N1308 G1X1233.06Y98.24  ;
N1309 G1X1233.56Y98.24  ;
N1310 G1X1233.56Y99.24  ;
N1311 G1X1235Y99.24  ;
N1312 G3X1235.56Y99.8I0J0.56  ;
N1313 G1X1235.56Y103.44  ;
N1314 G65 P9104 A101 B02  ;
N1315 M98 P9103  ;
(P23:ID2:W860088)  ;
N1316 M98 P9101  ;
N1317 G0X866.76Y1271.48  ;
N1318 G65 P9102 A101 B02  ;
N1319 G1X869.67Y1272.2  ;
N1320 G2X870.84Y1271.29I0.23J-0.91  ;
N1321 G2X865.75Y1266.2I-5.09J0  ;
N1322 G1X861.05Y1266.2  ;
N1323 G2X861.05Y1276.38I0J5.09  ;
N1324 G1X865.75Y1276.38  ;
N1325 G2X870.84Y1271.29I0J-5.09  ;
N1326 G65 P9104 A101 B02  ;
N1327 G0X881.56Y1230.15  ;
N1328 G65 P9102 A101 B02  ;
N1329 G1X881.56Y1227.21  ;
N1330 G1X883.29Y1227.21  ;
N1331 G1X883.29Y1239.09  ;
N1332 G1X879.71Y1239.09  ;
N1333 G1X879.71Y1227.21  ;
N1334 G1X881.5Y1227.21  ;
N1335 G65 P9104 A101 B02  ;
N1336 G0X919.94Y1247.48  ;
N1337 G65 P9102 A101 B02  ;
N1338 G1X921.31Y1246.11  ;
N1339 G3X921.27Y1246.07I-1.41J1.33  ;
N1340 G65 P9104 A101 B02  ;
N1341 G0X927.26Y1201.17  ;
N1342 G65 P9102 A101 B02  ;
N1343 G1X929.33Y1199.1  ;
N1344 G3X929.29Y1199.05I-3.23J3.15  ;
N1345 G65 P9104 A101 B02  ;
N1346 G0X965.43Y1230.15  ;
N1347 G65 P9102 A101 B02  ;
N1348 G1X965.43Y1227.21  ;
N1349 G1X967.19Y1227.21  ;
N1350 G1X967.19Y1239.09  ;
N1351 G1X963.56Y1239.09  ;
N1352 G1X963.56Y1227.21  ;
N1353 G1X965.37Y1227.21  ;
N1354 G65 P9104 A101 B02  ;
N1355 G0X984.96Y1269.81  ;
N1356 G65 P9102 A101 B02  ;
N1357 G1X987.04Y1267.73  ;
N1358 G3X987Y1267.69I-3.64J3.56  ;
N1359 G65 P9104 A101 B02  ;
N1360 G0X918.83Y1066.1  ;
N1361 G65 P9102 A101 B02  ;
N1362 G1X920.91Y1064.02  ;
N1363 G3X920.87Y1063.98I-3.71J3.63  ;
N1364 G65 P9104 A101 B02  ;
N1365 G0X908.7Y1027.71  ;
N1366 G65 P9102 A101 B02  ;
N1367 G1X911.64Y1027.71  ;
N1368 G1X911.64Y1029.29  ;
N1369 G1X900.76Y1029.29  ;
N1370 G1X900.76Y1026.01  ;
N1371 G1X911.64Y1026.01  ;
N1372 G1X911.64Y1027.65  ;
N1373 G65 P9104 A101 B02  ;
N1374 G0X967.8Y1027.59  ;
N1375 G65 P9102 A101 B02  ;
N1376 G1X970.74Y1027.59  ;
N1377 G1X970.74Y1026.01  ;
N1378 G1X959.86Y1026.01  ;
N1379 G1X959.86Y1029.29  ;
N1380 G1X970.74Y1029.29  ;
N1381 G1X970.74Y1027.65  ;
N1382 G65 P9104 A101 B02  ;
N1383 G0X869.28Y1066.1  ;
N1384 G65 P9102 A101 B02  ;
N1385 G1X871.36Y1064.02  ;
N1386 G3X871.32Y1063.98I-3.71J3.63  ;
N1387 G65 P9104 A101 B02  ;
N1388 G0X908.7Y916.11  ;
N1389 G65 P9102 A101 B02  ;
N1390 G1X911.64Y916.11  ;
N1391 G1X911.64Y917.69  ;
N1392 G1X900.76Y917.69  ;
N1393 G1X900.76Y914.41  ;
N1394 G1X911.64Y914.41  ;
N1395 G1X911.64Y916.05  ;
N1396 G65 P9104 A101 B02  ;
N1397 G0X918.83Y874.5  ;
N1398 G65 P9102 A101 B02  ;
N1399 G1X920.91Y872.42  ;
N1400 G3X920.87Y872.38I-3.71J3.63  ;
N1401 G65 P9104 A101 B02  ;
N1402 G0X908.7Y835.99  ;
N1403 G65 P9102 A101 B02  ;
N1404 G1X911.64Y835.99  ;
N1405 G1X911.64Y834.41  ;
N1406 G1X900.76Y834.41  ;
N1407 G1X900.76Y837.69  ;
N1408 G1X911.64Y837.69  ;
N1409 G1X911.64Y836.05  ;
N1410 G65 P9104 A101 B02  ;
N1411 G0X967.8Y836.11  ;
N1412 G65 P9102 A101 B02  ;
N1413 G1X970.74Y836.11  ;
N1414 G1X970.74Y837.69  ;
N1415 G1X959.86Y837.69  ;
N1416 G1X959.86Y834.41  ;
N1417 G1X970.74Y834.41  ;
N1418 G1X970.74Y836.05  ;
N1419 G65 P9104 A101 B02  ;
N1420 G0X967.8Y915.99  ;
N1421 G65 P9102 A101 B02  ;
N1422 G1X970.74Y915.99  ;
N1423 G1X970.74Y914.41  ;
N1424 G1X959.86Y914.41  ;
N1425 G1X959.86Y917.69  ;
N1426 G1X970.74Y917.69  ;
N1427 G1X970.74Y916.05  ;
N1428 G65 P9104 A101 B02  ;
N1429 G0X869.28Y874.5  ;
N1430 G65 P9102 A101 B02  ;
N1431 G1X871.36Y872.42  ;
N1432 G3X871.32Y872.38I-3.71J3.63  ;
N1433 G65 P9104 A101 B02  ;
N1434 G0X908.7Y724.39  ;
N1435 G65 P9102 A101 B02  ;
N1436 G1X911.64Y724.39  ;
N1437 G1X911.64Y722.81  ;
N1438 G1X900.76Y722.81  ;
N1439 G1X900.76Y726.09  ;
N1440 G1X911.64Y726.09  ;
N1441 G1X911.64Y724.45  ;
N1442 G65 P9104 A101 B02  ;
N1443 G0X918.83Y682.9  ;
N1444 G65 P9102 A101 B02  ;
N1445 G1X920.91Y680.82  ;
N1446 G3X920.87Y680.78I-3.71J3.63  ;
N1447 G65 P9104 A101 B02  ;
N1448 G0X908.7Y644.39  ;
N1449 G65 P9102 A101 B02  ;
N1450 G1X911.64Y644.39  ;
N1451 G1X911.64Y642.81  ;
N1452 G1X900.76Y642.81  ;
N1453 G1X900.76Y646.09  ;
N1454 G1X911.64Y646.09  ;
N1455 G1X911.64Y644.45  ;
N1456 G65 P9104 A101 B02  ;
N1457 G0X967.8Y644.51  ;
N1458 G65 P9102 A101 B02  ;
N1459 G1X970.74Y644.51  ;
N1460 G1X970.74Y646.09  ;
N1461 G1X959.86Y646.09  ;
N1462 G1X959.86Y642.81  ;
N1463 G1X970.74Y642.81  ;
N1464 G1X970.74Y644.45  ;
N1465 G65 P9104 A101 B02  ;
N1466 G0X967.8Y724.51  ;
N1467 G65 P9102 A101 B02  ;
N1468 G1X970.74Y724.51  ;
N1469 G1X970.74Y726.09  ;
N1470 G1X959.86Y726.09  ;
N1471 G1X959.86Y722.81  ;
N1472 G1X970.74Y722.81  ;
N1473 G1X970.74Y724.45  ;
N1474 G65 P9104 A101 B02  ;
N1475 G0X869.28Y682.9  ;
N1476 G65 P9102 A101 B02  ;
N1477 G1X871.36Y680.82  ;
N1478 G3X871.32Y680.78I-3.71J3.63  ;
N1479 G65 P9104 A101 B02  ;
N1480 G0X908.7Y532.79  ;
N1481 G65 P9102 A101 B02  ;
N1482 G1X911.64Y532.79  ;
N1483 G1X911.64Y531.21  ;
N1484 G1X900.76Y531.21  ;
N1485 G1X900.76Y534.49  ;
N1486 G1X911.64Y534.49  ;
N1487 G1X911.64Y532.85  ;
N1488 G65 P9104 A101 B02  ;
N1489 G0X918.83Y491.3  ;
N1490 G65 P9102 A101 B02  ;
N1491 G1X920.91Y489.22  ;
N1492 G3X920.87Y489.18I-3.71J3.63  ;
N1493 G65 P9104 A101 B02  ;
N1494 G0X908.7Y452.79  ;
N1495 G65 P9102 A101 B02  ;
N1496 G1X911.64Y452.79  ;
N1497 G1X911.64Y451.21  ;
N1498 G1X900.76Y451.21  ;
N1499 G1X900.76Y454.49  ;
N1500 G1X911.64Y454.49  ;
N1501 G1X911.64Y452.85  ;
N1502 G65 P9104 A101 B02  ;
N1503 G0X967.8Y452.91  ;
N1504 G65 P9102 A101 B02  ;
N1505 G1X970.74Y452.91  ;
N1506 G1X970.74Y454.49  ;
N1507 G1X959.86Y454.49  ;
N1508 G1X959.86Y451.21  ;
N1509 G1X970.74Y451.21  ;
N1510 G1X970.74Y452.85  ;
N1511 G65 P9104 A101 B02  ;
N1512 G0X967.8Y532.91  ;
N1513 G65 P9102 A101 B02  ;
N1514 G1X970.74Y532.91  ;
N1515 G1X970.74Y534.49  ;
N1516 G1X959.86Y534.49  ;
N1517 G1X959.86Y531.21  ;
N1518 G1X970.74Y531.21  ;
N1519 G1X970.74Y532.85  ;
N1520 G65 P9104 A101 B02  ;
N1521 G0X869.28Y491.3  ;
N1522 G65 P9102 A101 B02  ;
N1523 G1X871.36Y489.22  ;
N1524 G3X871.32Y489.18I-3.71J3.63  ;
N1525 G65 P9104 A101 B02  ;
N1526 G0X908.7Y341.19  ;
N1527 G65 P9102 A101 B02  ;
N1528 G1X911.64Y341.19  ;
N1529 G1X911.64Y339.61  ;
N1530 G1X900.76Y339.61  ;
N1531 G1X900.76Y342.89  ;
N1532 G1X911.64Y342.89  ;
N1533 G1X911.64Y341.25  ;
N1534 G65 P9104 A101 B02  ;
N1535 G0X918.83Y299.7  ;
N1536 G65 P9102 A101 B02  ;
N1537 G1X920.91Y297.62  ;
N1538 G3X920.87Y297.58I-3.71J3.63  ;
N1539 G65 P9104 A101 B02  ;
N1540 G0X869.28Y299.7  ;
N1541 G65 P9102 A101 B02  ;
N1542 G1X871.36Y297.62  ;
N1543 G3X871.32Y297.58I-3.71J3.63  ;
N1544 G65 P9104 A101 B02  ;
N1545 G0X967.8Y341.31  ;
N1546 G65 P9102 A101 B02  ;
N1547 G1X970.74Y341.31  ;
N1548 G1X970.74Y342.89  ;
N1549 G1X959.86Y342.89  ;
N1550 G1X959.86Y339.61  ;
N1551 G1X970.74Y339.61  ;
N1552 G1X970.74Y341.25  ;
N1553 G65 P9104 A101 B02  ;
N1554 G0X927.26Y165.57  ;
N1555 G65 P9102 A101 B02  ;
N1556 G1X929.33Y163.5  ;
N1557 G3X929.29Y163.45I-3.23J3.15  ;
N1558 G65 P9104 A101 B02  ;
N1559 G0X919.94Y121.49  ;
N1560 G65 P9102 A101 B02  ;
N1561 G1X921.31Y120.12  ;
N1562 G3X921.27Y120.08I-1.41J1.33  ;
N1563 G65 P9104 A101 B02  ;
N1564 G0X881.44Y132.75  ;
N1565 G65 P9102 A101 B02  ;
N1566 G1X881.44Y129.81  ;
N1567 G1X879.71Y129.81  ;
N1568 G1X879.71Y141.69  ;
N1569 G1X883.29Y141.69  ;
N1570 G1X883.29Y129.81  ;
N1571 G1X881.5Y129.81  ;
N1572 G65 P9104 A101 B02  ;
N1573 G0X866.76Y97.79  ;
N1574 G65 P9102 A101 B02  ;
N1575 G1X869.67Y98.51  ;
N1576 G2X870.84Y97.6I0.23J-0.91  ;
N1577 G2X865.75Y92.51I-5.09J0  ;
N1578 G1X861.05Y92.51  ;
N1579 G2X861.05Y102.69I0J5.09  ;
N1580 G1X865.75Y102.69  ;
N1581 G2X870.84Y97.6I0J-5.09  ;
N1582 G65 P9104 A101 B02  ;
N1583 G0X965.31Y132.75  ;
N1584 G65 P9102 A101 B02  ;
N1585 G1X965.31Y129.81  ;
N1586 G1X963.56Y129.81  ;
N1587 G1X963.56Y141.69  ;
N1588 G1X967.19Y141.69  ;
N1589 G1X967.19Y129.81  ;
N1590 G1X965.37Y129.81  ;
N1591 G65 P9104 A101 B02  ;
N1592 G0X984.96Y96.12  ;
N1593 G65 P9102 A101 B02  ;
N1594 G1X987.04Y94.04  ;
N1595 G3X987Y94I-3.64J3.56  ;
N1596 G65 P9104 A101 B01  ;
N1597 G0X879.84Y1158.05  ;
N1598 G65 P9102 A101 B01  ;
N1599 G1X879.84Y1161.05  ;
N1600 G1X879.84Y1197.07  ;
N1601 G3X878.39Y1200.57I-4.94J0  ;
N1602 G1X851.32Y1227.64  ;
N1603 G2X849.84Y1231.22I3.58J3.58  ;
N1604 G1X849.84Y1276.69  ;
N1605 G2X854.9Y1281.75I5.06J0  ;
N1606 G1X991.9Y1281.75  ;
N1607 G2X996.96Y1276.69I0J-5.06  ;
N1608 G1X996.96Y1231.22  ;
N1609 G2X995.48Y1227.64I-5.06J0  ;
N1610 G1X968.41Y1200.57  ;
N1611 G3X966.96Y1197.07I3.49J-3.5  ;
N1612 G1X966.96Y1166.49  ;
N1613 G1X963.56Y1166.49  ;
N1614 G1X963.56Y1154.61  ;
N1615 G1X966.96Y1154.61  ;
N1616 G1X966.96Y1137.49  ;
N1617 G1X951.07Y1137.49  ;
N1618 G3X949.21Y1136.11I0J-1.94  ;
N1619 G1X934.61Y1088.34  ;
N1620 G2X933.59Y1087.59I-1.02J0.31  ;
N1621 G1X930.06Y1087.59  ;
N1622 G3X932.7Y1083.36I0J-2.94  ;
N1623 G2X934.52Y1084.51I1.85J-0.91  ;
N1624 G1X945.75Y1084.71  ;
N1625 G1X1004.29Y1084.71  ;
N1626 G1X1004.29Y1072.64  ;
N1627 G1X1001.14Y1072.64  ;
N1628 G1X1001.14Y1069.66  ;
N1629 G1X1004.29Y1069.66  ;
N1630 G1X1004.29Y299.24  ;
N1631 G1X1001.14Y299.24  ;
N1632 G1X1001.14Y296.26  ;
N1633 G1X1004.29Y296.26  ;
N1634 G1X1004.29Y284.69  ;
N1635 G1X945.75Y284.69  ;
N1636 G1X934.23Y284.88  ;
N1637 G2X932.53Y285.83I0.04J2.06  ;
N1638 G3X930.06Y281.31I-2.47J-1.58  ;
N1639 G1X933.59Y281.31  ;
N1640 G2X934.61Y280.56I0J-1.06  ;
N1641 G1X949.21Y232.78  ;
N1642 G3X951.07Y231.41I1.86J0.57  ;
N1643 G1X966.96Y231.41  ;
N1644 G1X966.96Y214.29  ;
N1645 G1X963.56Y214.29  ;
N1646 G1X963.56Y202.41  ;
N1647 G1X966.96Y202.41  ;
N1648 G1X966.96Y171.82  ;
N1649 G3X968.41Y168.32I4.94J0  ;
N1650 G1X995.48Y141.25  ;
N1651 G2X996.96Y137.67I-3.58J-3.58  ;
N1652 G1X996.96Y92.2  ;
N1653 G2X991.9Y87.14I-5.06J0  ;
N1654 G1X854.9Y87.14  ;
N1655 G2X849.84Y92.2I0J5.06  ;
N1656 G1X849.84Y137.67  ;
N1657 G2X851.32Y141.25I5.06J0  ;
N1658 G1X878.39Y168.32  ;
N1659 G3X879.84Y171.82I-3.49J3.5  ;
N1660 G1X879.84Y207.91  ;
N1661 G1X883.29Y207.91  ;
N1662 G1X883.29Y219.79  ;
N1663 G1X879.84Y219.79  ;
N1664 G1X879.84Y280.25  ;
N1665 G2X880.9Y281.31I1.06J0  ;
N1666 G1X883.15Y281.31  ;
N1667 G3X880.67Y285.83I0J2.94  ;
N1668 G2X878.97Y284.88I-1.73J1.11  ;
N1669 G1X867.9Y284.69  ;
N1670 G1X847.44Y284.69  ;
N1671 G1X847.44Y1084.71  ;
N1672 G1X867.9Y1084.71  ;
N1673 G1X878.69Y1084.52  ;
N1674 G2X880.51Y1083.36I-0.04J-2.06  ;
N1675 G3X883.15Y1087.59I2.64J1.29  ;
N1676 G1X880.9Y1087.59  ;
N1677 G2X879.84Y1088.65I0J1.06  ;
N1678 G1X879.84Y1149.11  ;
N1679 G1X883.29Y1149.11  ;
N1680 G1X883.29Y1160.99  ;
N1681 G1X879.9Y1160.99  ;
N1682 G65 P9104 A101 B02  ;
N1683 M98 P9103  ;
(P24:ID2:W860088)  ;
N1684 M98 P9101  ;
N1685 G0X700.06Y1271.48  ;
N1686 G65 P9102 A101 B02  ;
N1687 G1X702.97Y1272.2  ;
N1688 G2X704.14Y1271.29I0.23J-0.91  ;
N1689 G2X699.05Y1266.2I-5.09J0  ;
N1690 G1X694.35Y1266.2  ;
N1691 G2X694.35Y1276.38I0J5.09  ;
N1692 G1X699.05Y1276.38  ;
N1693 G2X704.14Y1271.29I0J-5.09  ;
N1694 G65 P9104 A101 B02  ;
N1695 G0X714.86Y1230.15  ;
N1696 G65 P9102 A101 B02  ;
N1697 G1X714.86Y1227.21  ;
N1698 G1X716.59Y1227.21  ;
N1699 G1X716.59Y1239.09  ;
N1700 G1X713.01Y1239.09  ;
N1701 G1X713.01Y1227.21  ;
N1702 G1X714.8Y1227.21  ;
N1703 G65 P9104 A101 B02  ;
N1704 G0X753.24Y1247.48  ;
N1705 G65 P9102 A101 B02  ;
N1706 G1X754.61Y1246.11  ;
N1707 G3X754.57Y1246.07I-1.41J1.33  ;
N1708 G65 P9104 A101 B02  ;
N1709 G0X760.56Y1201.17  ;
N1710 G65 P9102 A101 B02  ;
N1711 G1X762.63Y1199.1  ;
N1712 G3X762.59Y1199.05I-3.23J3.15  ;
N1713 G65 P9104 A101 B02  ;
N1714 G0X798.73Y1230.15  ;
N1715 G65 P9102 A101 B02  ;
N1716 G1X798.73Y1227.21  ;
N1717 G1X800.49Y1227.21  ;
N1718 G1X800.49Y1239.09  ;
N1719 G1X796.86Y1239.09  ;
N1720 G1X796.86Y1227.21  ;
N1721 G1X798.67Y1227.21  ;
N1722 G65 P9104 A101 B02  ;
N1723 G0X818.26Y1269.81  ;
N1724 G65 P9102 A101 B02  ;
N1725 G1X820.34Y1267.73  ;
N1726 G3X820.3Y1267.69I-3.64J3.56  ;
N1727 G65 P9104 A101 B02  ;
N1728 G0X752.13Y1066.1  ;
N1729 G65 P9102 A101 B02  ;
N1730 G1X754.21Y1064.02  ;
N1731 G3X754.17Y1063.98I-3.71J3.63  ;
N1732 G65 P9104 A101 B02  ;
N1733 G0X742Y1027.71  ;
N1734 G65 P9102 A101 B02  ;
N1735 G1X744.94Y1027.71  ;
N1736 G1X744.94Y1029.29  ;
N1737 G1X734.06Y1029.29  ;
N1738 G1X734.06Y1026.01  ;
N1739 G1X744.94Y1026.01  ;
N1740 G1X744.94Y1027.65  ;
N1741 G65 P9104 A101 B02  ;
N1742 G0X801.1Y1027.59  ;
N1743 G65 P9102 A101 B02  ;
N1744 G1X804.04Y1027.59  ;
N1745 G1X804.04Y1026.01  ;
N1746 G1X793.16Y1026.01  ;
N1747 G1X793.16Y1029.29  ;
N1748 G1X804.04Y1029.29  ;
N1749 G1X804.04Y1027.65  ;
N1750 G65 P9104 A101 B02  ;
N1751 G0X702.58Y1066.1  ;
N1752 G65 P9102 A101 B02  ;
N1753 G1X704.66Y1064.02  ;
N1754 G3X704.62Y1063.98I-3.71J3.63  ;
N1755 G65 P9104 A101 B02  ;
N1756 G0X742Y916.11  ;
N1757 G65 P9102 A101 B02  ;
N1758 G1X744.94Y916.11  ;
N1759 G1X744.94Y917.69  ;
N1760 G1X734.06Y917.69  ;
N1761 G1X734.06Y914.41  ;
N1762 G1X744.94Y914.41  ;
N1763 G1X744.94Y916.05  ;
N1764 G65 P9104 A101 B02  ;
N1765 G0X752.13Y874.5  ;
N1766 G65 P9102 A101 B02  ;
N1767 G1X754.21Y872.42  ;
N1768 G3X754.17Y872.38I-3.71J3.63  ;
N1769 G65 P9104 A101 B02  ;
N1770 G0X742Y835.99  ;
N1771 G65 P9102 A101 B02  ;
N1772 G1X744.94Y835.99  ;
N1773 G1X744.94Y834.41  ;
N1774 G1X734.06Y834.41  ;
N1775 G1X734.06Y837.69  ;
N1776 G1X744.94Y837.69  ;
N1777 G1X744.94Y836.05  ;
N1778 G65 P9104 A101 B02  ;
N1779 G0X801.1Y836.11  ;
N1780 G65 P9102 A101 B02  ;
N1781 G1X804.04Y836.11  ;
N1782 G1X804.04Y837.69  ;
N1783 G1X793.16Y837.69  ;
N1784 G1X793.16Y834.41  ;
N1785 G1X804.04Y834.41  ;
N1786 G1X804.04Y836.05  ;
N1787 G65 P9104 A101 B02  ;
N1788 G0X801.1Y915.99  ;
N1789 G65 P9102 A101 B02  ;
N1790 G1X804.04Y915.99  ;
N1791 G1X804.04Y914.41  ;
N1792 G1X793.16Y914.41  ;
N1793 G1X793.16Y917.69  ;
N1794 G1X804.04Y917.69  ;
N1795 G1X804.04Y916.05  ;
N1796 G65 P9104 A101 B02  ;
N1797 G0X702.58Y874.5  ;
N1798 G65 P9102 A101 B02  ;
N1799 G1X704.66Y872.42  ;
N1800 G3X704.62Y872.38I-3.71J3.63  ;
N1801 G65 P9104 A101 B02  ;
N1802 G0X742Y724.39  ;
N1803 G65 P9102 A101 B02  ;
N1804 G1X744.94Y724.39  ;
N1805 G1X744.94Y722.81  ;
N1806 G1X734.06Y722.81  ;
N1807 G1X734.06Y726.09  ;
N1808 G1X744.94Y726.09  ;
N1809 G1X744.94Y724.45  ;
N1810 G65 P9104 A101 B02  ;
N1811 G0X752.13Y682.9  ;
N1812 G65 P9102 A101 B02  ;
N1813 G1X754.21Y680.82  ;
N1814 G3X754.17Y680.78I-3.71J3.63  ;
N1815 G65 P9104 A101 B02  ;
N1816 G0X742Y644.39  ;
N1817 G65 P9102 A101 B02  ;
N1818 G1X744.94Y644.39  ;
N1819 G1X744.94Y642.81  ;
N1820 G1X734.06Y642.81  ;
N1821 G1X734.06Y646.09  ;
N1822 G1X744.94Y646.09  ;
N1823 G1X744.94Y644.45  ;
N1824 G65 P9104 A101 B02  ;
N1825 G0X801.1Y644.51  ;
N1826 G65 P9102 A101 B02  ;
N1827 G1X804.04Y644.51  ;
N1828 G1X804.04Y646.09  ;
N1829 G1X793.16Y646.09  ;
N1830 G1X793.16Y642.81  ;
N1831 G1X804.04Y642.81  ;
N1832 G1X804.04Y644.45  ;
N1833 G65 P9104 A101 B02  ;
N1834 G0X801.1Y724.51  ;
N1835 G65 P9102 A101 B02  ;
N1836 G1X804.04Y724.51  ;
N1837 G1X804.04Y726.09  ;
N1838 G1X793.16Y726.09  ;
N1839 G1X793.16Y722.81  ;
N1840 G1X804.04Y722.81  ;
N1841 G1X804.04Y724.45  ;
N1842 G65 P9104 A101 B02  ;
N1843 G0X702.58Y682.9  ;
N1844 G65 P9102 A101 B02  ;
N1845 G1X704.66Y680.82  ;
N1846 G3X704.62Y680.78I-3.71J3.63  ;
N1847 G65 P9104 A101 B02  ;
N1848 G0X742Y532.79  ;
N1849 G65 P9102 A101 B02  ;
N1850 G1X744.94Y532.79  ;
N1851 G1X744.94Y531.21  ;
N1852 G1X734.06Y531.21  ;
N1853 G1X734.06Y534.49  ;
N1854 G1X744.94Y534.49  ;
N1855 G1X744.94Y532.85  ;
N1856 G65 P9104 A101 B02  ;
N1857 G0X752.13Y491.3  ;
N1858 G65 P9102 A101 B02  ;
N1859 G1X754.21Y489.22  ;
N1860 G3X754.17Y489.18I-3.71J3.63  ;
N1861 G65 P9104 A101 B02  ;
N1862 G0X742Y452.79  ;
N1863 G65 P9102 A101 B02  ;
N1864 G1X744.94Y452.79  ;
N1865 G1X744.94Y451.21  ;
N1866 G1X734.06Y451.21  ;
N1867 G1X734.06Y454.49  ;
N1868 G1X744.94Y454.49  ;
N1869 G1X744.94Y452.85  ;
N1870 G65 P9104 A101 B02  ;
N1871 G0X801.1Y452.91  ;
N1872 G65 P9102 A101 B02  ;
N1873 G1X804.04Y452.91  ;
N1874 G1X804.04Y454.49  ;
N1875 G1X793.16Y454.49  ;
N1876 G1X793.16Y451.21  ;
N1877 G1X804.04Y451.21  ;
N1878 G1X804.04Y452.85  ;
N1879 G65 P9104 A101 B02  ;
N1880 G0X801.1Y532.91  ;
N1881 G65 P9102 A101 B02  ;
N1882 G1X804.04Y532.91  ;
N1883 G1X804.04Y534.49  ;
N1884 G1X793.16Y534.49  ;
N1885 G1X793.16Y531.21  ;
N1886 G1X804.04Y531.21  ;
N1887 G1X804.04Y532.85  ;
N1888 G65 P9104 A101 B02  ;
N1889 G0X702.58Y491.3  ;
N1890 G65 P9102 A101 B02  ;
N1891 G1X704.66Y489.22  ;
N1892 G3X704.62Y489.18I-3.71J3.63  ;
N1893 G65 P9104 A101 B02  ;
N1894 G0X742Y341.19  ;
N1895 G65 P9102 A101 B02  ;
N1896 G1X744.94Y341.19  ;
N1897 G1X744.94Y339.61  ;
N1898 G1X734.06Y339.61  ;
N1899 G1X734.06Y342.89  ;
N1900 G1X744.94Y342.89  ;
N1901 G1X744.94Y341.25  ;
N1902 G65 P9104 A101 B02  ;
N1903 G0X752.13Y299.7  ;
N1904 G65 P9102 A101 B02  ;
N1905 G1X754.21Y297.62  ;
N1906 G3X754.17Y297.58I-3.71J3.63  ;
N1907 G65 P9104 A101 B02  ;
N1908 G0X702.58Y299.7  ;
N1909 G65 P9102 A101 B02  ;
N1910 G1X704.66Y297.62  ;
N1911 G3X704.62Y297.58I-3.71J3.63  ;
N1912 G65 P9104 A101 B02  ;
N1913 G0X801.1Y341.31  ;
N1914 G65 P9102 A101 B02  ;
N1915 G1X804.04Y341.31  ;
N1916 G1X804.04Y342.89  ;
N1917 G1X793.16Y342.89  ;
N1918 G1X793.16Y339.61  ;
N1919 G1X804.04Y339.61  ;
N1920 G1X804.04Y341.25  ;
N1921 G65 P9104 A101 B02  ;
N1922 G0X760.56Y165.57  ;
N1923 G65 P9102 A101 B02  ;
N1924 G1X762.63Y163.5  ;
N1925 G3X762.59Y163.45I-3.23J3.15  ;
N1926 G65 P9104 A101 B02  ;
N1927 G0X753.24Y121.49  ;
N1928 G65 P9102 A101 B02  ;
N1929 G1X754.61Y120.12  ;
N1930 G3X754.57Y120.08I-1.41J1.33  ;
N1931 G65 P9104 A101 B02  ;
N1932 G0X714.74Y132.75  ;
N1933 G65 P9102 A101 B02  ;
N1934 G1X714.74Y129.81  ;
N1935 G1X713.01Y129.81  ;
N1936 G1X713.01Y141.69  ;
N1937 G1X716.59Y141.69  ;
N1938 G1X716.59Y129.81  ;
N1939 G1X714.8Y129.81  ;
N1940 G65 P9104 A101 B02  ;
N1941 G0X700.06Y97.79  ;
N1942 G65 P9102 A101 B02  ;
N1943 G1X702.97Y98.51  ;
N1944 G2X704.14Y97.6I0.23J-0.91  ;
N1945 G2X699.05Y92.51I-5.09J0  ;
N1946 G1X694.35Y92.51  ;
N1947 G2X694.35Y102.69I0J5.09  ;
N1948 G1X699.05Y102.69  ;
N1949 G2X704.14Y97.6I0J-5.09  ;
N1950 G65 P9104 A101 B02  ;
N1951 G0X798.61Y132.75  ;
N1952 G65 P9102 A101 B02  ;
N1953 G1X798.61Y129.81  ;
N1954 G1X796.86Y129.81  ;
N1955 G1X796.86Y141.69  ;
N1956 G1X800.49Y141.69  ;
N1957 G1X800.49Y129.81  ;
N1958 G1X798.67Y129.81  ;
N1959 G65 P9104 A101 B02  ;
N1960 G0X818.26Y96.12  ;
N1961 G65 P9102 A101 B02  ;
N1962 G1X820.34Y94.04  ;
N1963 G3X820.3Y94I-3.64J3.56  ;
N1964 G65 P9104 A101 B01  ;
N1965 G0X713.14Y1158.05  ;
N1966 G65 P9102 A101 B01  ;
N1967 G1X713.14Y1161.05  ;
N1968 G1X713.14Y1197.07  ;
N1969 G3X711.69Y1200.57I-4.94J0  ;
N1970 G1X684.62Y1227.64  ;
N1971 G2X683.14Y1231.22I3.58J3.58  ;
N1972 G1X683.14Y1276.69  ;
N1973 G2X688.2Y1281.75I5.06J0  ;
N1974 G1X825.2Y1281.75  ;
N1975 G2X830.26Y1276.69I0J-5.06  ;
N1976 G1X830.26Y1231.22  ;
N1977 G2X828.78Y1227.64I-5.06J0  ;
N1978 G1X801.71Y1200.57  ;
N1979 G3X800.26Y1197.07I3.49J-3.5  ;
N1980 G1X800.26Y1166.49  ;
N1981 G1X796.86Y1166.49  ;
N1982 G1X796.86Y1154.61  ;
N1983 G1X800.26Y1154.61  ;
N1984 G1X800.26Y1137.49  ;
N1985 G1X784.37Y1137.49  ;
N1986 G3X782.51Y1136.11I0J-1.94  ;
N1987 G1X767.91Y1088.34  ;
N1988 G2X766.89Y1087.59I-1.02J0.31  ;
N1989 G1X763.36Y1087.59  ;
N1990 G3X766Y1083.36I0J-2.94  ;
N1991 G2X767.82Y1084.51I1.85J-0.91  ;
N1992 G1X779.05Y1084.71  ;
N1993 G1X837.59Y1084.71  ;
N1994 G1X837.59Y1072.64  ;
N1995 G1X834.44Y1072.64  ;
N1996 G1X834.44Y1069.66  ;
N1997 G1X837.59Y1069.66  ;
N1998 G1X837.59Y299.24  ;
N1999 G1X834.44Y299.24  ;
N2000 G1X834.44Y296.26  ;
N2001 G1X837.59Y296.26  ;
N2002 G1X837.59Y284.69  ;
N2003 G1X779.05Y284.69  ;
N2004 G1X767.53Y284.88  ;
N2005 G2X765.83Y285.83I0.04J2.06  ;
N2006 G3X763.36Y281.31I-2.47J-1.58  ;
N2007 G1X766.89Y281.31  ;
N2008 G2X767.91Y280.56I0J-1.06  ;
N2009 G1X782.51Y232.78  ;
N2010 G3X784.37Y231.41I1.86J0.57  ;
N2011 G1X800.26Y231.41  ;
N2012 G1X800.26Y214.29  ;
N2013 G1X796.86Y214.29  ;
N2014 G1X796.86Y202.41  ;
N2015 G1X800.26Y202.41  ;
N2016 G1X800.26Y171.82  ;
N2017 G3X801.71Y168.32I4.94J0  ;
N2018 G1X828.78Y141.25  ;
N2019 G2X830.26Y137.67I-3.58J-3.58  ;
N2020 G1X830.26Y92.2  ;
N2021 G2X825.2Y87.14I-5.06J0  ;
N2022 G1X688.2Y87.14  ;
N2023 G2X683.14Y92.2I0J5.06  ;
N2024 G1X683.14Y137.67  ;
N2025 G2X684.62Y141.25I5.06J0  ;
N2026 G1X711.69Y168.32  ;
N2027 G3X713.14Y171.82I-3.49J3.5  ;
N2028 G1X713.14Y207.91  ;
N2029 G1X716.59Y207.91  ;
N2030 G1X716.59Y219.79  ;
N2031 G1X713.14Y219.79  ;
N2032 G1X713.14Y280.25  ;
N2033 G2X714.2Y281.31I1.06J0  ;
N2034 G1X716.45Y281.31  ;
N2035 G3X713.97Y285.83I0J2.94  ;
N2036 G2X712.27Y284.88I-1.73J1.11  ;
N2037 G1X701.2Y284.69  ;
N2038 G1X680.74Y284.69  ;
N2039 G1X680.74Y1084.71  ;
N2040 G1X701.2Y1084.71  ;
N2041 G1X711.99Y1084.52  ;
N2042 G2X713.81Y1083.36I-0.04J-2.06  ;
N2043 G3X716.45Y1087.59I2.64J1.29  ;
N2044 G1X714.2Y1087.59  ;
N2045 G2X713.14Y1088.65I0J1.06  ;
N2046 G1X713.14Y1149.11  ;
N2047 G1X716.59Y1149.11  ;
N2048 G1X716.59Y1160.99  ;
N2049 G1X713.2Y1160.99  ;
N2050 G65 P9104 A101 B02  ;
N2051 M98 P9103  ;
(P25:ID2:W860088)  ;
N2052 M98 P9101  ;
N2053 G0X533.36Y1271.48  ;
N2054 G65 P9102 A101 B02  ;
N2055 G1X536.27Y1272.2  ;
N2056 G2X537.44Y1271.29I0.23J-0.91  ;
N2057 G2X532.35Y1266.2I-5.09J0  ;
N2058 G1X527.65Y1266.2  ;
N2059 G2X527.65Y1276.38I0J5.09  ;
N2060 G1X532.35Y1276.38  ;
N2061 G2X537.44Y1271.29I0J-5.09  ;
N2062 G65 P9104 A101 B02  ;
N2063 G0X548.16Y1230.15  ;
N2064 G65 P9102 A101 B02  ;
N2065 G1X548.16Y1227.21  ;
N2066 G1X549.89Y1227.21  ;
N2067 G1X549.89Y1239.09  ;
N2068 G1X546.31Y1239.09  ;
N2069 G1X546.31Y1227.21  ;
N2070 G1X548.1Y1227.21  ;
N2071 G65 P9104 A101 B02  ;
N2072 G0X586.54Y1247.48  ;
N2073 G65 P9102 A101 B02  ;
N2074 G1X587.91Y1246.11  ;
N2075 G3X587.87Y1246.07I-1.41J1.33  ;
N2076 G65 P9104 A101 B02  ;
N2077 G0X593.86Y1201.17  ;
N2078 G65 P9102 A101 B02  ;
N2079 G1X595.93Y1199.1  ;
N2080 G3X595.89Y1199.05I-3.23J3.15  ;
N2081 G65 P9104 A101 B02  ;
N2082 G0X632.03Y1230.15  ;
N2083 G65 P9102 A101 B02  ;
N2084 G1X632.03Y1227.21  ;
N2085 G1X633.79Y1227.21  ;
N2086 G1X633.79Y1239.09  ;
N2087 G1X630.16Y1239.09  ;
N2088 G1X630.16Y1227.21  ;
N2089 G1X631.97Y1227.21  ;
N2090 G65 P9104 A101 B02  ;
N2091 G0X651.56Y1269.81  ;
N2092 G65 P9102 A101 B02  ;
N2093 G1X653.64Y1267.73  ;
N2094 G3X653.6Y1267.69I-3.64J3.56  ;
N2095 G65 P9104 A101 B02  ;
N2096 G0X585.43Y1066.1  ;
N2097 G65 P9102 A101 B02  ;
N2098 G1X587.51Y1064.02  ;
N2099 G3X587.47Y1063.98I-3.71J3.63  ;
N2100 G65 P9104 A101 B02  ;
N2101 G0X575.3Y1027.71  ;
N2102 G65 P9102 A101 B02  ;
N2103 G1X578.24Y1027.71  ;
N2104 G1X578.24Y1029.29  ;
N2105 G1X567.36Y1029.29  ;
N2106 G1X567.36Y1026.01  ;
N2107 G1X578.24Y1026.01  ;
N2108 G1X578.24Y1027.65  ;
N2109 G65 P9104 A101 B02  ;
N2110 G0X634.4Y1027.59  ;
N2111 G65 P9102 A101 B02  ;
N2112 G1X637.34Y1027.59  ;
N2113 G1X637.34Y1026.01  ;
N2114 G1X626.46Y1026.01  ;
N2115 G1X626.46Y1029.29  ;
N2116 G1X637.34Y1029.29  ;
N2117 G1X637.34Y1027.65  ;
N2118 G65 P9104 A101 B02  ;
N2119 G0X535.88Y1066.1  ;
N2120 G65 P9102 A101 B02  ;
N2121 G1X537.96Y1064.02  ;
N2122 G3X537.92Y1063.98I-3.71J3.63  ;
N2123 G65 P9104 A101 B02  ;
N2124 G0X575.3Y916.11  ;
N2125 G65 P9102 A101 B02  ;
N2126 G1X578.24Y916.11  ;
N2127 G1X578.24Y917.69  ;
N2128 G1X567.36Y917.69  ;
N2129 G1X567.36Y914.41  ;
N2130 G1X578.24Y914.41  ;
N2131 G1X578.24Y916.05  ;
N2132 G65 P9104 A101 B02  ;
N2133 G0X585.43Y874.5  ;
N2134 G65 P9102 A101 B02  ;
N2135 G1X587.51Y872.42  ;
N2136 G3X587.47Y872.38I-3.71J3.63  ;
N2137 G65 P9104 A101 B02  ;
N2138 G0X575.3Y835.99  ;
N2139 G65 P9102 A101 B02  ;
N2140 G1X578.24Y835.99  ;
N2141 G1X578.24Y834.41  ;
N2142 G1X567.36Y834.41  ;
N2143 G1X567.36Y837.69  ;
N2144 G1X578.24Y837.69  ;
N2145 G1X578.24Y836.05  ;
N2146 G65 P9104 A101 B02  ;
N2147 G0X634.4Y836.11  ;
N2148 G65 P9102 A101 B02  ;
N2149 G1X637.34Y836.11  ;
N2150 G1X637.34Y837.69  ;
N2151 G1X626.46Y837.69  ;
N2152 G1X626.46Y834.41  ;
N2153 G1X637.34Y834.41  ;
N2154 G1X637.34Y836.05  ;
N2155 G65 P9104 A101 B02  ;
N2156 G0X634.4Y915.99  ;
N2157 G65 P9102 A101 B02  ;
N2158 G1X637.34Y915.99  ;
N2159 G1X637.34Y914.41  ;
N2160 G1X626.46Y914.41  ;
N2161 G1X626.46Y917.69  ;
N2162 G1X637.34Y917.69  ;
N2163 G1X637.34Y916.05  ;
N2164 G65 P9104 A101 B02  ;
N2165 G0X535.88Y874.5  ;
N2166 G65 P9102 A101 B02  ;
N2167 G1X537.96Y872.42  ;
N2168 G3X537.92Y872.38I-3.71J3.63  ;
N2169 G65 P9104 A101 B02  ;
N2170 G0X575.3Y724.39  ;
N2171 G65 P9102 A101 B02  ;
N2172 G1X578.24Y724.39  ;
N2173 G1X578.24Y722.81  ;
N2174 G1X567.36Y722.81  ;
N2175 G1X567.36Y726.09  ;
N2176 G1X578.24Y726.09  ;
N2177 G1X578.24Y724.45  ;
N2178 G65 P9104 A101 B02  ;
N2179 G0X585.43Y682.9  ;
N2180 G65 P9102 A101 B02  ;
N2181 G1X587.51Y680.82  ;
N2182 G3X587.47Y680.78I-3.71J3.63  ;
N2183 G65 P9104 A101 B02  ;
N2184 G0X575.3Y644.39  ;
N2185 G65 P9102 A101 B02  ;
N2186 G1X578.24Y644.39  ;
N2187 G1X578.24Y642.81  ;
N2188 G1X567.36Y642.81  ;
N2189 G1X567.36Y646.09  ;
N2190 G1X578.24Y646.09  ;
N2191 G1X578.24Y644.45  ;
N2192 G65 P9104 A101 B02  ;
N2193 G0X634.4Y644.51  ;
N2194 G65 P9102 A101 B02  ;
N2195 G1X637.34Y644.51  ;
N2196 G1X637.34Y646.09  ;
N2197 G1X626.46Y646.09  ;
N2198 G1X626.46Y642.81  ;
N2199 G1X637.34Y642.81  ;
N2200 G1X637.34Y644.45  ;
N2201 G65 P9104 A101 B02  ;
N2202 G0X634.4Y724.51  ;
N2203 G65 P9102 A101 B02  ;
N2204 G1X637.34Y724.51  ;
N2205 G1X637.34Y726.09  ;
N2206 G1X626.46Y726.09  ;
N2207 G1X626.46Y722.81  ;
N2208 G1X637.34Y722.81  ;
N2209 G1X637.34Y724.45  ;
N2210 G65 P9104 A101 B02  ;
N2211 G0X535.88Y682.9  ;
N2212 G65 P9102 A101 B02  ;
N2213 G1X537.96Y680.82  ;
N2214 G3X537.92Y680.78I-3.71J3.63  ;
N2215 G65 P9104 A101 B02  ;
N2216 G0X575.3Y532.79  ;
N2217 G65 P9102 A101 B02  ;
N2218 G1X578.24Y532.79  ;
N2219 G1X578.24Y531.21  ;
N2220 G1X567.36Y531.21  ;
N2221 G1X567.36Y534.49  ;
N2222 G1X578.24Y534.49  ;
N2223 G1X578.24Y532.85  ;
N2224 G65 P9104 A101 B02  ;
N2225 G0X585.43Y491.3  ;
N2226 G65 P9102 A101 B02  ;
N2227 G1X587.51Y489.22  ;
N2228 G3X587.47Y489.18I-3.71J3.63  ;
N2229 G65 P9104 A101 B02  ;
N2230 G0X575.3Y452.79  ;
N2231 G65 P9102 A101 B02  ;
N2232 G1X578.24Y452.79  ;
N2233 G1X578.24Y451.21  ;
N2234 G1X567.36Y451.21  ;
N2235 G1X567.36Y454.49  ;
N2236 G1X578.24Y454.49  ;
N2237 G1X578.24Y452.85  ;
N2238 G65 P9104 A101 B02  ;
N2239 G0X634.4Y452.91  ;
N2240 G65 P9102 A101 B02  ;
N2241 G1X637.34Y452.91  ;
N2242 G1X637.34Y454.49  ;
N2243 G1X626.46Y454.49  ;
N2244 G1X626.46Y451.21  ;
N2245 G1X637.34Y451.21  ;
N2246 G1X637.34Y452.85  ;
N2247 G65 P9104 A101 B02  ;
N2248 G0X634.4Y532.91  ;
N2249 G65 P9102 A101 B02  ;
N2250 G1X637.34Y532.91  ;
N2251 G1X637.34Y534.49  ;
N2252 G1X626.46Y534.49  ;
N2253 G1X626.46Y531.21  ;
N2254 G1X637.34Y531.21  ;
N2255 G1X637.34Y532.85  ;
N2256 G65 P9104 A101 B02  ;
N2257 G0X535.88Y491.3  ;
N2258 G65 P9102 A101 B02  ;
N2259 G1X537.96Y489.22  ;
N2260 G3X537.92Y489.18I-3.71J3.63  ;
N2261 G65 P9104 A101 B02  ;
N2262 G0X575.3Y341.19  ;
N2263 G65 P9102 A101 B02  ;
N2264 G1X578.24Y341.19  ;
N2265 G1X578.24Y339.61  ;
N2266 G1X567.36Y339.61  ;
N2267 G1X567.36Y342.89  ;
N2268 G1X578.24Y342.89  ;
N2269 G1X578.24Y341.25  ;
N2270 G65 P9104 A101 B02  ;
N2271 G0X585.43Y299.7  ;
N2272 G65 P9102 A101 B02  ;
N2273 G1X587.51Y297.62  ;
N2274 G3X587.47Y297.58I-3.71J3.63  ;
N2275 G65 P9104 A101 B02  ;
N2276 G0X535.88Y299.7  ;
N2277 G65 P9102 A101 B02  ;
N2278 G1X537.96Y297.62  ;
N2279 G3X537.92Y297.58I-3.71J3.63  ;
N2280 G65 P9104 A101 B02  ;
N2281 G0X634.4Y341.31  ;
N2282 G65 P9102 A101 B02  ;
N2283 G1X637.34Y341.31  ;
N2284 G1X637.34Y342.89  ;
N2285 G1X626.46Y342.89  ;
N2286 G1X626.46Y339.61  ;
N2287 G1X637.34Y339.61  ;
N2288 G1X637.34Y341.25  ;
N2289 G65 P9104 A101 B02  ;
N2290 G0X593.86Y165.57  ;
N2291 G65 P9102 A101 B02  ;
N2292 G1X595.93Y163.5  ;
N2293 G3X595.89Y163.45I-3.23J3.15  ;
N2294 G65 P9104 A101 B02  ;
N2295 G0X586.54Y121.49  ;
N2296 G65 P9102 A101 B02  ;
N2297 G1X587.91Y120.12  ;
N2298 G3X587.87Y120.08I-1.41J1.33  ;
N2299 G65 P9104 A101 B02  ;
N2300 G0X548.04Y132.75  ;
N2301 G65 P9102 A101 B02  ;
N2302 G1X548.04Y129.81  ;
N2303 G1X546.31Y129.81  ;
N2304 G1X546.31Y141.69  ;
N2305 G1X549.89Y141.69  ;
N2306 G1X549.89Y129.81  ;
N2307 G1X548.1Y129.81  ;
N2308 G65 P9104 A101 B02  ;
N2309 G0X533.36Y97.79  ;
N2310 G65 P9102 A101 B02  ;
N2311 G1X536.27Y98.51  ;
N2312 G2X537.44Y97.6I0.23J-0.91  ;
N2313 G2X532.35Y92.51I-5.09J0  ;
N2314 G1X527.65Y92.51  ;
N2315 G2X527.65Y102.69I0J5.09  ;
N2316 G1X532.35Y102.69  ;
N2317 G2X537.44Y97.6I0J-5.09  ;
N2318 G65 P9104 A101 B02  ;
N2319 G0X631.92Y132.75  ;
N2320 G65 P9102 A101 B02  ;
N2321 G1X631.92Y129.81  ;
N2322 G1X630.16Y129.81  ;
N2323 G1X630.16Y141.69  ;
N2324 G1X633.79Y141.69  ;
N2325 G1X633.79Y129.81  ;
N2326 G1X631.97Y129.81  ;
N2327 G65 P9104 A101 B02  ;
N2328 G0X651.56Y96.12  ;
N2329 G65 P9102 A101 B02  ;
N2330 G1X653.64Y94.04  ;
N2331 G3X653.6Y94I-3.64J3.56  ;
N2332 G65 P9104 A101 B01  ;
N2333 G0X546.44Y1158.05  ;
N2334 G65 P9102 A101 B01  ;
N2335 G1X546.44Y1161.05  ;
N2336 G1X546.44Y1197.07  ;
N2337 G3X544.99Y1200.57I-4.94J0  ;
N2338 G1X517.92Y1227.64  ;
N2339 G2X516.44Y1231.22I3.58J3.58  ;
N2340 G1X516.44Y1276.69  ;
N2341 G2X521.5Y1281.75I5.06J0  ;
N2342 G1X658.5Y1281.75  ;
N2343 G2X663.56Y1276.69I0J-5.06  ;
N2344 G1X663.56Y1231.22  ;
N2345 G2X662.08Y1227.64I-5.06J0  ;
N2346 G1X635.01Y1200.57  ;
N2347 G3X633.56Y1197.07I3.49J-3.5  ;
N2348 G1X633.56Y1166.49  ;
N2349 G1X630.16Y1166.49  ;
N2350 G1X630.16Y1154.61  ;
N2351 G1X633.56Y1154.61  ;
N2352 G1X633.56Y1137.49  ;
N2353 G1X617.67Y1137.49  ;
N2354 G3X615.81Y1136.11I0J-1.94  ;
N2355 G1X601.21Y1088.34  ;
N2356 G2X600.19Y1087.59I-1.02J0.31  ;
N2357 G1X596.66Y1087.59  ;
N2358 G3X599.3Y1083.36I0J-2.94  ;
N2359 G2X601.12Y1084.51I1.85J-0.91  ;
N2360 G1X612.35Y1084.71  ;
N2361 G1X670.89Y1084.71  ;
N2362 G1X670.89Y1072.64  ;
N2363 G1X667.74Y1072.64  ;
N2364 G1X667.74Y1069.66  ;
N2365 G1X670.89Y1069.66  ;
N2366 G1X670.89Y299.24  ;
N2367 G1X667.74Y299.24  ;
N2368 G1X667.74Y296.26  ;
N2369 G1X670.89Y296.26  ;
N2370 G1X670.89Y284.69  ;
N2371 G1X612.35Y284.69  ;
N2372 G1X600.83Y284.88  ;
N2373 G2X599.13Y285.83I0.04J2.06  ;
N2374 G3X596.66Y281.31I-2.47J-1.58  ;
N2375 G1X600.19Y281.31  ;
N2376 G2X601.21Y280.56I0J-1.06  ;
N2377 G1X615.81Y232.78  ;
N2378 G3X617.67Y231.41I1.86J0.57  ;
N2379 G1X633.56Y231.41  ;
N2380 G1X633.56Y214.29  ;
N2381 G1X630.16Y214.29  ;
N2382 G1X630.16Y202.41  ;
N2383 G1X633.56Y202.41  ;
N2384 G1X633.56Y171.82  ;
N2385 G3X635.01Y168.32I4.94J0  ;
N2386 G1X662.08Y141.25  ;
N2387 G2X663.56Y137.67I-3.58J-3.58  ;
N2388 G1X663.56Y92.2  ;
N2389 G2X658.5Y87.14I-5.06J0  ;
N2390 G1X521.5Y87.14  ;
N2391 G2X516.44Y92.2I0J5.06  ;
N2392 G1X516.44Y137.67  ;
N2393 G2X517.92Y141.25I5.06J0  ;
N2394 G1X544.99Y168.32  ;
N2395 G3X546.44Y171.82I-3.49J3.5  ;
N2396 G1X546.44Y207.91  ;
N2397 G1X549.89Y207.91  ;
N2398 G1X549.89Y219.79  ;
N2399 G1X546.44Y219.79  ;
N2400 G1X546.44Y280.25  ;
N2401 G2X547.5Y281.31I1.06J0  ;
N2402 G1X549.75Y281.31  ;
N2403 G3X547.27Y285.83I0J2.94  ;
N2404 G2X545.57Y284.88I-1.73J1.11  ;
N2405 G1X534.5Y284.69  ;
N2406 G1X514.04Y284.69  ;
N2407 G1X514.04Y1084.71  ;
N2408 G1X534.5Y1084.71  ;
N2409 G1X545.29Y1084.52  ;
N2410 G2X547.11Y1083.36I-0.04J-2.06  ;
N2411 G3X549.75Y1087.59I2.64J1.29  ;
N2412 G1X547.5Y1087.59  ;
N2413 G2X546.44Y1088.65I0J1.06  ;
N2414 G1X546.44Y1149.11  ;
N2415 G1X549.89Y1149.11  ;
N2416 G1X549.89Y1160.99  ;
N2417 G1X546.5Y1160.99  ;
N2418 G65 P9104 A101 B02  ;
N2419 M98 P9103  ;
(P26:ID2:W860088)  ;
N2420 M98 P9101  ;
N2421 G0X366.66Y1271.48  ;
N2422 G65 P9102 A101 B02  ;
N2423 G1X369.57Y1272.2  ;
N2424 G2X370.74Y1271.29I0.23J-0.91  ;
N2425 G2X365.65Y1266.2I-5.09J0  ;
N2426 G1X360.95Y1266.2  ;
N2427 G2X360.95Y1276.38I0J5.09  ;
N2428 G1X365.65Y1276.38  ;
N2429 G2X370.74Y1271.29I0J-5.09  ;
N2430 G65 P9104 A101 B02  ;
N2431 G0X381.46Y1230.15  ;
N2432 G65 P9102 A101 B02  ;
N2433 G1X381.46Y1227.21  ;
N2434 G1X383.19Y1227.21  ;
N2435 G1X383.19Y1239.09  ;
N2436 G1X379.61Y1239.09  ;
N2437 G1X379.61Y1227.21  ;
N2438 G1X381.4Y1227.21  ;
N2439 G65 P9104 A101 B02  ;
N2440 G0X419.84Y1247.48  ;
N2441 G65 P9102 A101 B02  ;
N2442 G1X421.21Y1246.11  ;
N2443 G3X421.17Y1246.07I-1.41J1.33  ;
N2444 G65 P9104 A101 B02  ;
N2445 G0X427.16Y1201.17  ;
N2446 G65 P9102 A101 B02  ;
N2447 G1X429.23Y1199.1  ;
N2448 G3X429.19Y1199.05I-3.23J3.15  ;
N2449 G65 P9104 A101 B02  ;
N2450 G0X465.33Y1230.15  ;
N2451 G65 P9102 A101 B02  ;
N2452 G1X465.33Y1227.21  ;
N2453 G1X467.09Y1227.21  ;
N2454 G1X467.09Y1239.09  ;
N2455 G1X463.46Y1239.09  ;
N2456 G1X463.46Y1227.21  ;
N2457 G1X465.27Y1227.21  ;
N2458 G65 P9104 A101 B02  ;
N2459 G0X484.86Y1269.81  ;
N2460 G65 P9102 A101 B02  ;
N2461 G1X486.94Y1267.73  ;
N2462 G3X486.9Y1267.69I-3.64J3.56  ;
N2463 G65 P9104 A101 B02  ;
N2464 G0X418.73Y1066.1  ;
N2465 G65 P9102 A101 B02  ;
N2466 G1X420.81Y1064.02  ;
N2467 G3X420.77Y1063.98I-3.71J3.63  ;
N2468 G65 P9104 A101 B02  ;
N2469 G0X408.6Y1027.71  ;
N2470 G65 P9102 A101 B02  ;
N2471 G1X411.54Y1027.71  ;
N2472 G1X411.54Y1029.29  ;
N2473 G1X400.66Y1029.29  ;
N2474 G1X400.66Y1026.01  ;
N2475 G1X411.54Y1026.01  ;
N2476 G1X411.54Y1027.65  ;
N2477 G65 P9104 A101 B02  ;
N2478 G0X467.7Y1027.59  ;
N2479 G65 P9102 A101 B02  ;
N2480 G1X470.64Y1027.59  ;
N2481 G1X470.64Y1026.01  ;
N2482 G1X459.76Y1026.01  ;
N2483 G1X459.76Y1029.29  ;
N2484 G1X470.64Y1029.29  ;
N2485 G1X470.64Y1027.65  ;
N2486 G65 P9104 A101 B02  ;
N2487 G0X369.18Y1066.1  ;
N2488 G65 P9102 A101 B02  ;
N2489 G1X371.26Y1064.02  ;
N2490 G3X371.22Y1063.98I-3.71J3.63  ;
N2491 G65 P9104 A101 B02  ;
N2492 G0X408.6Y916.11  ;
N2493 G65 P9102 A101 B02  ;
N2494 G1X411.54Y916.11  ;
N2495 G1X411.54Y917.69  ;
N2496 G1X400.66Y917.69  ;
N2497 G1X400.66Y914.41  ;
N2498 G1X411.54Y914.41  ;
N2499 G1X411.54Y916.05  ;
N2500 G65 P9104 A101 B02  ;
N2501 G0X418.73Y874.5  ;
N2502 G65 P9102 A101 B02  ;
N2503 G1X420.81Y872.42  ;
N2504 G3X420.77Y872.38I-3.71J3.63  ;
N2505 G65 P9104 A101 B02  ;
N2506 G0X408.6Y835.99  ;
N2507 G65 P9102 A101 B02  ;
N2508 G1X411.54Y835.99  ;
N2509 G1X411.54Y834.41  ;
N2510 G1X400.66Y834.41  ;
N2511 G1X400.66Y837.69  ;
N2512 G1X411.54Y837.69  ;
N2513 G1X411.54Y836.05  ;
N2514 G65 P9104 A101 B02  ;
N2515 G0X467.7Y836.11  ;
N2516 G65 P9102 A101 B02  ;
N2517 G1X470.64Y836.11  ;
N2518 G1X470.64Y837.69  ;
N2519 G1X459.76Y837.69  ;
N2520 G1X459.76Y834.41  ;
N2521 G1X470.64Y834.41  ;
N2522 G1X470.64Y836.05  ;
N2523 G65 P9104 A101 B02  ;
N2524 G0X467.7Y915.99  ;
N2525 G65 P9102 A101 B02  ;
N2526 G1X470.64Y915.99  ;
N2527 G1X470.64Y914.41  ;
N2528 G1X459.76Y914.41  ;
N2529 G1X459.76Y917.69  ;
N2530 G1X470.64Y917.69  ;
N2531 G1X470.64Y916.05  ;
N2532 G65 P9104 A101 B02  ;
N2533 G0X369.18Y874.5  ;
N2534 G65 P9102 A101 B02  ;
N2535 G1X371.26Y872.42  ;
N2536 G3X371.22Y872.38I-3.71J3.63  ;
N2537 G65 P9104 A101 B02  ;
N2538 G0X408.6Y724.39  ;
N2539 G65 P9102 A101 B02  ;
N2540 G1X411.54Y724.39  ;
N2541 G1X411.54Y722.81  ;
N2542 G1X400.66Y722.81  ;
N2543 G1X400.66Y726.09  ;
N2544 G1X411.54Y726.09  ;
N2545 G1X411.54Y724.45  ;
N2546 G65 P9104 A101 B02  ;
N2547 G0X418.73Y682.9  ;
N2548 G65 P9102 A101 B02  ;
N2549 G1X420.81Y680.82  ;
N2550 G3X420.77Y680.78I-3.71J3.63  ;
N2551 G65 P9104 A101 B02  ;
N2552 G0X408.6Y644.39  ;
N2553 G65 P9102 A101 B02  ;
N2554 G1X411.54Y644.39  ;
N2555 G1X411.54Y642.81  ;
N2556 G1X400.66Y642.81  ;
N2557 G1X400.66Y646.09  ;
N2558 G1X411.54Y646.09  ;
N2559 G1X411.54Y644.45  ;
N2560 G65 P9104 A101 B02  ;
N2561 G0X467.7Y644.51  ;
N2562 G65 P9102 A101 B02  ;
N2563 G1X470.64Y644.51  ;
N2564 G1X470.64Y646.09  ;
N2565 G1X459.76Y646.09  ;
N2566 G1X459.76Y642.81  ;
N2567 G1X470.64Y642.81  ;
N2568 G1X470.64Y644.45  ;
N2569 G65 P9104 A101 B02  ;
N2570 G0X467.7Y724.51  ;
N2571 G65 P9102 A101 B02  ;
N2572 G1X470.64Y724.51  ;
N2573 G1X470.64Y726.09  ;
N2574 G1X459.76Y726.09  ;
N2575 G1X459.76Y722.81  ;
N2576 G1X470.64Y722.81  ;
N2577 G1X470.64Y724.45  ;
N2578 G65 P9104 A101 B02  ;
N2579 G0X369.18Y682.9  ;
N2580 G65 P9102 A101 B02  ;
N2581 G1X371.26Y680.82  ;
N2582 G3X371.22Y680.78I-3.71J3.63  ;
N2583 G65 P9104 A101 B02  ;
N2584 G0X408.6Y532.79  ;
N2585 G65 P9102 A101 B02  ;
N2586 G1X411.54Y532.79  ;
N2587 G1X411.54Y531.21  ;
N2588 G1X400.66Y531.21  ;
N2589 G1X400.66Y534.49  ;
N2590 G1X411.54Y534.49  ;
N2591 G1X411.54Y532.85  ;
N2592 G65 P9104 A101 B02  ;
N2593 G0X418.73Y491.3  ;
N2594 G65 P9102 A101 B02  ;
N2595 G1X420.81Y489.22  ;
N2596 G3X420.77Y489.18I-3.71J3.63  ;
N2597 G65 P9104 A101 B02  ;
N2598 G0X408.6Y452.79  ;
N2599 G65 P9102 A101 B02  ;
N2600 G1X411.54Y452.79  ;
N2601 G1X411.54Y451.21  ;
N2602 G1X400.66Y451.21  ;
N2603 G1X400.66Y454.49  ;
N2604 G1X411.54Y454.49  ;
N2605 G1X411.54Y452.85  ;
N2606 G65 P9104 A101 B02  ;
N2607 G0X467.7Y452.91  ;
N2608 G65 P9102 A101 B02  ;
N2609 G1X470.64Y452.91  ;
N2610 G1X470.64Y454.49  ;
N2611 G1X459.76Y454.49  ;
N2612 G1X459.76Y451.21  ;
N2613 G1X470.64Y451.21  ;
N2614 G1X470.64Y452.85  ;
N2615 G65 P9104 A101 B02  ;
N2616 G0X467.7Y532.91  ;
N2617 G65 P9102 A101 B02  ;
N2618 G1X470.64Y532.91  ;
N2619 G1X470.64Y534.49  ;
N2620 G1X459.76Y534.49  ;
N2621 G1X459.76Y531.21  ;
N2622 G1X470.64Y531.21  ;
N2623 G1X470.64Y532.85  ;
N2624 G65 P9104 A101 B02  ;
N2625 G0X369.18Y491.3  ;
N2626 G65 P9102 A101 B02  ;
N2627 G1X371.26Y489.22  ;
N2628 G3X371.22Y489.18I-3.71J3.63  ;
N2629 G65 P9104 A101 B02  ;
N2630 G0X408.6Y341.19  ;
N2631 G65 P9102 A101 B02  ;
N2632 G1X411.54Y341.19  ;
N2633 G1X411.54Y339.61  ;
N2634 G1X400.66Y339.61  ;
N2635 G1X400.66Y342.89  ;
N2636 G1X411.54Y342.89  ;
N2637 G1X411.54Y341.25  ;
N2638 G65 P9104 A101 B02  ;
N2639 G0X418.73Y299.7  ;
N2640 G65 P9102 A101 B02  ;
N2641 G1X420.81Y297.62  ;
N2642 G3X420.77Y297.58I-3.71J3.63  ;
N2643 G65 P9104 A101 B02  ;
N2644 G0X369.18Y299.7  ;
N2645 G65 P9102 A101 B02  ;
N2646 G1X371.26Y297.62  ;
N2647 G3X371.22Y297.58I-3.71J3.63  ;
N2648 G65 P9104 A101 B02  ;
N2649 G0X467.7Y341.31  ;
N2650 G65 P9102 A101 B02  ;
N2651 G1X470.64Y341.31  ;
N2652 G1X470.64Y342.89  ;
N2653 G1X459.76Y342.89  ;
N2654 G1X459.76Y339.61  ;
N2655 G1X470.64Y339.61  ;
N2656 G1X470.64Y341.25  ;
N2657 G65 P9104 A101 B02  ;
N2658 G0X427.16Y165.57  ;
N2659 G65 P9102 A101 B02  ;
N2660 G1X429.23Y163.5  ;
N2661 G3X429.19Y163.45I-3.23J3.15  ;
N2662 G65 P9104 A101 B02  ;
N2663 G0X419.84Y121.49  ;
N2664 G65 P9102 A101 B02  ;
N2665 G1X421.21Y120.12  ;
N2666 G3X421.17Y120.08I-1.41J1.33  ;
N2667 G65 P9104 A101 B02  ;
N2668 G0X381.34Y132.75  ;
N2669 G65 P9102 A101 B02  ;
N2670 G1X381.34Y129.81  ;
N2671 G1X379.61Y129.81  ;
N2672 G1X379.61Y141.69  ;
N2673 G1X383.19Y141.69  ;
N2674 G1X383.19Y129.81  ;
N2675 G1X381.4Y129.81  ;
N2676 G65 P9104 A101 B02  ;
N2677 G0X366.66Y97.79  ;
N2678 G65 P9102 A101 B02  ;
N2679 G1X369.57Y98.51  ;
N2680 G2X370.74Y97.6I0.23J-0.91  ;
N2681 G2X365.65Y92.51I-5.09J0  ;
N2682 G1X360.95Y92.51  ;
N2683 G2X360.95Y102.69I0J5.09  ;
N2684 G1X365.65Y102.69  ;
N2685 G2X370.74Y97.6I0J-5.09  ;
N2686 G65 P9104 A101 B02  ;
N2687 G0X465.21Y132.75  ;
N2688 G65 P9102 A101 B02  ;
N2689 G1X465.21Y129.81  ;
N2690 G1X463.46Y129.81  ;
N2691 G1X463.46Y141.69  ;
N2692 G1X467.09Y141.69  ;
N2693 G1X467.09Y129.81  ;
N2694 G1X465.27Y129.81  ;
N2695 G65 P9104 A101 B02  ;
N2696 G0X484.86Y96.12  ;
N2697 G65 P9102 A101 B02  ;
N2698 G1X486.94Y94.04  ;
N2699 G3X486.9Y94I-3.64J3.56  ;
N2700 G65 P9104 A101 B01  ;
N2701 G0X379.74Y1158.05  ;
N2702 G65 P9102 A101 B01  ;
N2703 G1X379.74Y1161.05  ;
N2704 G1X379.74Y1197.07  ;
N2705 G3X378.29Y1200.57I-4.94J0  ;
N2706 G1X351.22Y1227.64  ;
N2707 G2X349.74Y1231.22I3.58J3.58  ;
N2708 G1X349.74Y1276.69  ;
N2709 G2X354.8Y1281.75I5.06J0  ;
N2710 G1X491.8Y1281.75  ;
N2711 G2X496.86Y1276.69I0J-5.06  ;
N2712 G1X496.86Y1231.22  ;
N2713 G2X495.38Y1227.64I-5.06J0  ;
N2714 G1X468.31Y1200.57  ;
N2715 G3X466.86Y1197.07I3.49J-3.5  ;
N2716 G1X466.86Y1166.49  ;
N2717 G1X463.46Y1166.49  ;
N2718 G1X463.46Y1154.61  ;
N2719 G1X466.86Y1154.61  ;
N2720 G1X466.86Y1137.49  ;
N2721 G1X450.97Y1137.49  ;
N2722 G3X449.11Y1136.11I0J-1.94  ;
N2723 G1X434.51Y1088.34  ;
N2724 G2X433.49Y1087.59I-1.02J0.31  ;
N2725 G1X429.96Y1087.59  ;
N2726 G3X432.6Y1083.36I0J-2.94  ;
N2727 G2X434.42Y1084.51I1.85J-0.91  ;
N2728 G1X445.65Y1084.71  ;
N2729 G1X504.19Y1084.71  ;
N2730 G1X504.19Y1072.64  ;
N2731 G1X501.04Y1072.64  ;
N2732 G1X501.04Y1069.66  ;
N2733 G1X504.19Y1069.66  ;
N2734 G1X504.19Y299.24  ;
N2735 G1X501.04Y299.24  ;
N2736 G1X501.04Y296.26  ;
N2737 G1X504.19Y296.26  ;
N2738 G1X504.19Y284.69  ;
N2739 G1X445.65Y284.69  ;
N2740 G1X434.13Y284.88  ;
N2741 G2X432.43Y285.83I0.04J2.06  ;
N2742 G3X429.96Y281.31I-2.47J-1.58  ;
N2743 G1X433.49Y281.31  ;
N2744 G2X434.51Y280.56I0J-1.06  ;
N2745 G1X449.11Y232.78  ;
N2746 G3X450.97Y231.41I1.86J0.57  ;
N2747 G1X466.86Y231.41  ;
N2748 G1X466.86Y214.29  ;
N2749 G1X463.46Y214.29  ;
N2750 G1X463.46Y202.41  ;
N2751 G1X466.86Y202.41  ;
N2752 G1X466.86Y171.82  ;
N2753 G3X468.31Y168.32I4.94J0  ;
N2754 G1X495.38Y141.25  ;
N2755 G2X496.86Y137.67I-3.58J-3.58  ;
N2756 G1X496.86Y92.2  ;
N2757 G2X491.8Y87.14I-5.06J0  ;
N2758 G1X354.8Y87.14  ;
N2759 G2X349.74Y92.2I0J5.06  ;
N2760 G1X349.74Y137.67  ;
N2761 G2X351.22Y141.25I5.06J0  ;
N2762 G1X378.29Y168.32  ;
N2763 G3X379.74Y171.82I-3.49J3.5  ;
N2764 G1X379.74Y207.91  ;
N2765 G1X383.19Y207.91  ;
N2766 G1X383.19Y219.79  ;
N2767 G1X379.74Y219.79  ;
N2768 G1X379.74Y280.25  ;
N2769 G2X380.8Y281.31I1.06J0  ;
N2770 G1X383.05Y281.31  ;
N2771 G3X380.57Y285.83I0J2.94  ;
N2772 G2X378.87Y284.88I-1.73J1.11  ;
N2773 G1X367.8Y284.69  ;
N2774 G1X347.34Y284.69  ;
N2775 G1X347.34Y1084.71  ;
N2776 G1X367.8Y1084.71  ;
N2777 G1X378.59Y1084.52  ;
N2778 G2X380.41Y1083.36I-0.04J-2.06  ;
N2779 G3X383.05Y1087.59I2.64J1.29  ;
N2780 G1X380.8Y1087.59  ;
N2781 G2X379.74Y1088.65I0J1.06  ;
N2782 G1X379.74Y1149.11  ;
N2783 G1X383.19Y1149.11  ;
N2784 G1X383.19Y1160.99  ;
N2785 G1X379.8Y1160.99  ;
N2786 G65 P9104 A101 B02  ;
N2787 M98 P9103  ;
(P27:ID2:W860088)  ;
N2788 M98 P9101  ;
N2789 G0X199.96Y1271.48  ;
N2790 G65 P9102 A101 B02  ;
N2791 G1X202.87Y1272.2  ;
N2792 G2X204.04Y1271.29I0.23J-0.91  ;
N2793 G2X198.95Y1266.2I-5.09J0  ;
N2794 G1X194.25Y1266.2  ;
N2795 G2X194.25Y1276.38I0J5.09  ;
N2796 G1X198.95Y1276.38  ;
N2797 G2X204.04Y1271.29I0J-5.09  ;
N2798 G65 P9104 A101 B02  ;
N2799 G0X214.76Y1230.15  ;
N2800 G65 P9102 A101 B02  ;
N2801 G1X214.76Y1227.21  ;
N2802 G1X216.49Y1227.21  ;
N2803 G1X216.49Y1239.09  ;
N2804 G1X212.91Y1239.09  ;
N2805 G1X212.91Y1227.21  ;
N2806 G1X214.7Y1227.21  ;
N2807 G65 P9104 A101 B02  ;
N2808 G0X253.14Y1247.48  ;
N2809 G65 P9102 A101 B02  ;
N2810 G1X254.51Y1246.11  ;
N2811 G3X254.47Y1246.07I-1.41J1.33  ;
N2812 G65 P9104 A101 B02  ;
N2813 G0X260.46Y1201.17  ;
N2814 G65 P9102 A101 B02  ;
N2815 G1X262.53Y1199.1  ;
N2816 G3X262.49Y1199.05I-3.23J3.15  ;
N2817 G65 P9104 A101 B02  ;
N2818 G0X298.63Y1230.15  ;
N2819 G65 P9102 A101 B02  ;
N2820 G1X298.63Y1227.21  ;
N2821 G1X300.39Y1227.21  ;
N2822 G1X300.39Y1239.09  ;
N2823 G1X296.76Y1239.09  ;
N2824 G1X296.76Y1227.21  ;
N2825 G1X298.57Y1227.21  ;
N2826 G65 P9104 A101 B02  ;
N2827 G0X318.16Y1269.81  ;
N2828 G65 P9102 A101 B02  ;
N2829 G1X320.24Y1267.73  ;
N2830 G3X320.2Y1267.69I-3.64J3.56  ;
N2831 G65 P9104 A101 B02  ;
N2832 G0X252.03Y1066.1  ;
N2833 G65 P9102 A101 B02  ;
N2834 G1X254.11Y1064.02  ;
N2835 G3X254.07Y1063.98I-3.71J3.63  ;
N2836 G65 P9104 A101 B02  ;
N2837 G0X241.9Y1027.71  ;
N2838 G65 P9102 A101 B02  ;
N2839 G1X244.84Y1027.71  ;
N2840 G1X244.84Y1029.29  ;
N2841 G1X233.96Y1029.29  ;
N2842 G1X233.96Y1026.01  ;
N2843 G1X244.84Y1026.01  ;
N2844 G1X244.84Y1027.65  ;
N2845 G65 P9104 A101 B02  ;
N2846 G0X301Y1027.59  ;
N2847 G65 P9102 A101 B02  ;
N2848 G1X303.94Y1027.59  ;
N2849 G1X303.94Y1026.01  ;
N2850 G1X293.06Y1026.01  ;
N2851 G1X293.06Y1029.29  ;
N2852 G1X303.94Y1029.29  ;
N2853 G1X303.94Y1027.65  ;
N2854 G65 P9104 A101 B02  ;
N2855 G0X202.48Y1066.1  ;
N2856 G65 P9102 A101 B02  ;
N2857 G1X204.56Y1064.02  ;
N2858 G3X204.52Y1063.98I-3.71J3.63  ;
N2859 G65 P9104 A101 B02  ;
N2860 G0X241.9Y916.11  ;
N2861 G65 P9102 A101 B02  ;
N2862 G1X244.84Y916.11  ;
N2863 G1X244.84Y917.69  ;
N2864 G1X233.96Y917.69  ;
N2865 G1X233.96Y914.41  ;
N2866 G1X244.84Y914.41  ;
N2867 G1X244.84Y916.05  ;
N2868 G65 P9104 A101 B02  ;
N2869 G0X252.03Y874.5  ;
N2870 G65 P9102 A101 B02  ;
N2871 G1X254.11Y872.42  ;
N2872 G3X254.07Y872.38I-3.71J3.63  ;
N2873 G65 P9104 A101 B02  ;
N2874 G0X241.9Y835.99  ;
N2875 G65 P9102 A101 B02  ;
N2876 G1X244.84Y835.99  ;
N2877 G1X244.84Y834.41  ;
N2878 G1X233.96Y834.41  ;
N2879 G1X233.96Y837.69  ;
N2880 G1X244.84Y837.69  ;
N2881 G1X244.84Y836.05  ;
N2882 G65 P9104 A101 B02  ;
N2883 G0X301Y836.11  ;
N2884 G65 P9102 A101 B02  ;
N2885 G1X303.94Y836.11  ;
N2886 G1X303.94Y837.69  ;
N2887 G1X293.06Y837.69  ;
N2888 G1X293.06Y834.41  ;
N2889 G1X303.94Y834.41  ;
N2890 G1X303.94Y836.05  ;
N2891 G65 P9104 A101 B02  ;
N2892 G0X301Y915.99  ;
N2893 G65 P9102 A101 B02  ;
N2894 G1X303.94Y915.99  ;
N2895 G1X303.94Y914.41  ;
N2896 G1X293.06Y914.41  ;
N2897 G1X293.06Y917.69  ;
N2898 G1X303.94Y917.69  ;
N2899 G1X303.94Y916.05  ;
N2900 G65 P9104 A101 B02  ;
N2901 G0X202.48Y874.5  ;
N2902 G65 P9102 A101 B02  ;
N2903 G1X204.56Y872.42  ;
N2904 G3X204.52Y872.38I-3.71J3.63  ;
N2905 G65 P9104 A101 B02  ;
N2906 G0X241.9Y724.39  ;
N2907 G65 P9102 A101 B02  ;
N2908 G1X244.84Y724.39  ;
N2909 G1X244.84Y722.81  ;
N2910 G1X233.96Y722.81  ;
N2911 G1X233.96Y726.09  ;
N2912 G1X244.84Y726.09  ;
N2913 G1X244.84Y724.45  ;
N2914 G65 P9104 A101 B02  ;
N2915 G0X252.03Y682.9  ;
N2916 G65 P9102 A101 B02  ;
N2917 G1X254.11Y680.82  ;
N2918 G3X254.07Y680.78I-3.71J3.63  ;
N2919 G65 P9104 A101 B02  ;
N2920 G0X241.9Y644.39  ;
N2921 G65 P9102 A101 B02  ;
N2922 G1X244.84Y644.39  ;
N2923 G1X244.84Y642.81  ;
N2924 G1X233.96Y642.81  ;
N2925 G1X233.96Y646.09  ;
N2926 G1X244.84Y646.09  ;
N2927 G1X244.84Y644.45  ;
N2928 G65 P9104 A101 B02  ;
N2929 G0X301Y644.51  ;
N2930 G65 P9102 A101 B02  ;
N2931 G1X303.94Y644.51  ;
N2932 G1X303.94Y646.09  ;
N2933 G1X293.06Y646.09  ;
N2934 G1X293.06Y642.81  ;
N2935 G1X303.94Y642.81  ;
N2936 G1X303.94Y644.45  ;
N2937 G65 P9104 A101 B02  ;
N2938 G0X301Y724.51  ;
N2939 G65 P9102 A101 B02  ;
N2940 G1X303.94Y724.51  ;
N2941 G1X303.94Y726.09  ;
N2942 G1X293.06Y726.09  ;
N2943 G1X293.06Y722.81  ;
N2944 G1X303.94Y722.81  ;
N2945 G1X303.94Y724.45  ;
N2946 G65 P9104 A101 B02  ;
N2947 G0X202.48Y682.9  ;
N2948 G65 P9102 A101 B02  ;
N2949 G1X204.56Y680.82  ;
N2950 G3X204.52Y680.78I-3.71J3.63  ;
N2951 G65 P9104 A101 B02  ;
N2952 G0X241.9Y532.79  ;
N2953 G65 P9102 A101 B02  ;
N2954 G1X244.84Y532.79  ;
N2955 G1X244.84Y531.21  ;
N2956 G1X233.96Y531.21  ;
N2957 G1X233.96Y534.49  ;
N2958 G1X244.84Y534.49  ;
N2959 G1X244.84Y532.85  ;
N2960 G65 P9104 A101 B02  ;
N2961 G0X252.03Y491.3  ;
N2962 G65 P9102 A101 B02  ;
N2963 G1X254.11Y489.22  ;
N2964 G3X254.07Y489.18I-3.71J3.63  ;
N2965 G65 P9104 A101 B02  ;
N2966 G0X241.9Y452.79  ;
N2967 G65 P9102 A101 B02  ;
N2968 G1X244.84Y452.79  ;
N2969 G1X244.84Y451.21  ;
N2970 G1X233.96Y451.21  ;
N2971 G1X233.96Y454.49  ;
N2972 G1X244.84Y454.49  ;
N2973 G1X244.84Y452.85  ;
N2974 G65 P9104 A101 B02  ;
N2975 G0X301Y452.91  ;
N2976 G65 P9102 A101 B02  ;
N2977 G1X303.94Y452.91  ;
N2978 G1X303.94Y454.49  ;
N2979 G1X293.06Y454.49  ;
N2980 G1X293.06Y451.21  ;
N2981 G1X303.94Y451.21  ;
N2982 G1X303.94Y452.85  ;
N2983 G65 P9104 A101 B02  ;
N2984 G0X301Y532.91  ;
N2985 G65 P9102 A101 B02  ;
N2986 G1X303.94Y532.91  ;
N2987 G1X303.94Y534.49  ;
N2988 G1X293.06Y534.49  ;
N2989 G1X293.06Y531.21  ;
N2990 G1X303.94Y531.21  ;
N2991 G1X303.94Y532.85  ;
N2992 G65 P9104 A101 B02  ;
N2993 G0X202.48Y491.3  ;
N2994 G65 P9102 A101 B02  ;
N2995 G1X204.56Y489.22  ;
N2996 G3X204.52Y489.18I-3.71J3.63  ;
N2997 G65 P9104 A101 B02  ;
N2998 G0X241.9Y341.19  ;
N2999 G65 P9102 A101 B02  ;
N3000 G1X244.84Y341.19  ;
N3001 G1X244.84Y339.61  ;
N3002 G1X233.96Y339.61  ;
N3003 G1X233.96Y342.89  ;
N3004 G1X244.84Y342.89  ;
N3005 G1X244.84Y341.25  ;
N3006 G65 P9104 A101 B02  ;
N3007 G0X252.03Y299.7  ;
N3008 G65 P9102 A101 B02  ;
N3009 G1X254.11Y297.62  ;
N3010 G3X254.07Y297.58I-3.71J3.63  ;
N3011 G65 P9104 A101 B02  ;
N3012 G0X202.48Y299.7  ;
N3013 G65 P9102 A101 B02  ;
N3014 G1X204.56Y297.62  ;
N3015 G3X204.52Y297.58I-3.71J3.63  ;
N3016 G65 P9104 A101 B02  ;
N3017 G0X301Y341.31  ;
N3018 G65 P9102 A101 B02  ;
N3019 G1X303.94Y341.31  ;
N3020 G1X303.94Y342.89  ;
N3021 G1X293.06Y342.89  ;
N3022 G1X293.06Y339.61  ;
N3023 G1X303.94Y339.61  ;
N3024 G1X303.94Y341.25  ;
N3025 G65 P9104 A101 B02  ;
N3026 G0X260.46Y165.57  ;
N3027 G65 P9102 A101 B02  ;
N3028 G1X262.53Y163.5  ;
N3029 G3X262.49Y163.45I-3.23J3.15  ;
N3030 G65 P9104 A101 B02  ;
N3031 G0X253.14Y121.49  ;
N3032 G65 P9102 A101 B02  ;
N3033 G1X254.51Y120.12  ;
N3034 G3X254.47Y120.08I-1.41J1.33  ;
N3035 G65 P9104 A101 B02  ;
N3036 G0X214.64Y132.75  ;
N3037 G65 P9102 A101 B02  ;
N3038 G1X214.64Y129.81  ;
N3039 G1X212.91Y129.81  ;
N3040 G1X212.91Y141.69  ;
N3041 G1X216.49Y141.69  ;
N3042 G1X216.49Y129.81  ;
N3043 G1X214.7Y129.81  ;
N3044 G65 P9104 A101 B02  ;
N3045 G0X199.96Y97.79  ;
N3046 G65 P9102 A101 B02  ;
N3047 G1X202.87Y98.51  ;
N3048 G2X204.04Y97.6I0.23J-0.91  ;
N3049 G2X198.95Y92.51I-5.09J0  ;
N3050 G1X194.25Y92.51  ;
N3051 G2X194.25Y102.69I0J5.09  ;
N3052 G1X198.95Y102.69  ;
N3053 G2X204.04Y97.6I0J-5.09  ;
N3054 G65 P9104 A101 B02  ;
N3055 G0X298.51Y132.75  ;
N3056 G65 P9102 A101 B02  ;
N3057 G1X298.51Y129.81  ;
N3058 G1X296.76Y129.81  ;
N3059 G1X296.76Y141.69  ;
N3060 G1X300.39Y141.69  ;
N3061 G1X300.39Y129.81  ;
N3062 G1X298.57Y129.81  ;
N3063 G65 P9104 A101 B02  ;
N3064 G0X318.16Y96.12  ;
N3065 G65 P9102 A101 B02  ;
N3066 G1X320.24Y94.04  ;
N3067 G3X320.2Y94I-3.64J3.56  ;
N3068 G65 P9104 A101 B01  ;
N3069 G0X213.04Y1158.05  ;
N3070 G65 P9102 A101 B01  ;
N3071 G1X213.04Y1161.05  ;
N3072 G1X213.04Y1197.07  ;
N3073 G3X211.59Y1200.57I-4.94J0  ;
N3074 G1X184.52Y1227.64  ;
N3075 G2X183.04Y1231.22I3.58J3.58  ;
N3076 G1X183.04Y1276.69  ;
N3077 G2X188.1Y1281.75I5.06J0  ;
N3078 G1X325.1Y1281.75  ;
N3079 G2X330.16Y1276.69I0J-5.06  ;
N3080 G1X330.16Y1231.22  ;
N3081 G2X328.68Y1227.64I-5.06J0  ;
N3082 G1X301.61Y1200.57  ;
N3083 G3X300.16Y1197.07I3.49J-3.5  ;
N3084 G1X300.16Y1166.49  ;
N3085 G1X296.76Y1166.49  ;
N3086 G1X296.76Y1154.61  ;
N3087 G1X300.16Y1154.61  ;
N3088 G1X300.16Y1137.49  ;
N3089 G1X284.27Y1137.49  ;
N3090 G3X282.41Y1136.11I0J-1.94  ;
N3091 G1X267.81Y1088.34  ;
N3092 G2X266.79Y1087.59I-1.02J0.31  ;
N3093 G1X263.26Y1087.59  ;
N3094 G3X265.9Y1083.36I0J-2.94  ;
N3095 G2X267.72Y1084.51I1.85J-0.91  ;
N3096 G1X278.95Y1084.71  ;
N3097 G1X337.49Y1084.71  ;
N3098 G1X337.49Y1072.64  ;
N3099 G1X334.34Y1072.64  ;
N3100 G1X334.34Y1069.66  ;
N3101 G1X337.49Y1069.66  ;
N3102 G1X337.49Y299.24  ;
N3103 G1X334.34Y299.24  ;
N3104 G1X334.34Y296.26  ;
N3105 G1X337.49Y296.26  ;
N3106 G1X337.49Y284.69  ;
N3107 G1X278.95Y284.69  ;
N3108 G1X267.43Y284.88  ;
N3109 G2X265.73Y285.83I0.04J2.06  ;
N3110 G3X263.26Y281.31I-2.47J-1.58  ;
N3111 G1X266.79Y281.31  ;
N3112 G2X267.81Y280.56I0J-1.06  ;
N3113 G1X282.41Y232.78  ;
N3114 G3X284.27Y231.41I1.86J0.57  ;
N3115 G1X300.16Y231.41  ;
N3116 G1X300.16Y214.29  ;
N3117 G1X296.76Y214.29  ;
N3118 G1X296.76Y202.41  ;
N3119 G1X300.16Y202.41  ;
N3120 G1X300.16Y171.82  ;
N3121 G3X301.61Y168.32I4.94J0  ;
N3122 G1X328.68Y141.25  ;
N3123 G2X330.16Y137.67I-3.58J-3.58  ;
N3124 G1X330.16Y92.2  ;
N3125 G2X325.1Y87.14I-5.06J0  ;
N3126 G1X188.1Y87.14  ;
N3127 G2X183.04Y92.2I0J5.06  ;
N3128 G1X183.04Y137.67  ;
N3129 G2X184.52Y141.25I5.06J0  ;
N3130 G1X211.59Y168.32  ;
N3131 G3X213.04Y171.82I-3.49J3.5  ;
N3132 G1X213.04Y207.91  ;
N3133 G1X216.49Y207.91  ;
N3134 G1X216.49Y219.79  ;
N3135 G1X213.04Y219.79  ;
N3136 G1X213.04Y280.25  ;
N3137 G2X214.1Y281.31I1.06J0  ;
N3138 G1X216.35Y281.31  ;
N3139 G3X213.87Y285.83I0J2.94  ;
N3140 G2X212.17Y284.88I-1.73J1.11  ;
N3141 G1X201.1Y284.69  ;
N3142 G1X180.64Y284.69  ;
N3143 G1X180.64Y1084.71  ;
N3144 G1X201.1Y1084.71  ;
N3145 G1X211.89Y1084.52  ;
N3146 G2X213.71Y1083.36I-0.04J-2.06  ;
N3147 G3X216.35Y1087.59I2.64J1.29  ;
N3148 G1X214.1Y1087.59  ;
N3149 G2X213.04Y1088.65I0J1.06  ;
N3150 G1X213.04Y1149.11  ;
N3151 G1X216.49Y1149.11  ;
N3152 G1X216.49Y1160.99  ;
N3153 G1X213.1Y1160.99  ;
N3154 G65 P9104 A101 B02  ;
N3155 M98 P9103  ;
(P28:ID2:W860088)  ;
N3156 M98 P9101  ;
N3157 G0X33.26Y1271.48  ;
N3158 G65 P9102 A101 B02  ;
N3159 G1X36.17Y1272.2  ;
N3160 G2X37.34Y1271.29I0.23J-0.91  ;
N3161 G2X32.25Y1266.2I-5.09J0  ;
N3162 G1X27.55Y1266.2  ;
N3163 G2X27.55Y1276.38I0J5.09  ;
N3164 G1X32.25Y1276.38  ;
N3165 G2X37.34Y1271.29I0J-5.09  ;
N3166 G65 P9104 A101 B02  ;
N3167 G0X48.06Y1230.15  ;
N3168 G65 P9102 A101 B02  ;
N3169 G1X48.06Y1227.21  ;
N3170 G1X49.79Y1227.21  ;
N3171 G1X49.79Y1239.09  ;
N3172 G1X46.21Y1239.09  ;
N3173 G1X46.21Y1227.21  ;
N3174 G1X48Y1227.21  ;
N3175 G65 P9104 A101 B02  ;
N3176 G0X86.44Y1247.48  ;
N3177 G65 P9102 A101 B02  ;
N3178 G1X87.81Y1246.11  ;
N3179 G3X87.77Y1246.07I-1.41J1.33  ;
N3180 G65 P9104 A101 B02  ;
N3181 G0X93.76Y1201.17  ;
N3182 G65 P9102 A101 B02  ;
N3183 G1X95.83Y1199.1  ;
N3184 G3X95.79Y1199.05I-3.23J3.15  ;
N3185 G65 P9104 A101 B02  ;
N3186 G0X131.93Y1230.15  ;
N3187 G65 P9102 A101 B02  ;
N3188 G1X131.93Y1227.21  ;
N3189 G1X133.69Y1227.21  ;
N3190 G1X133.69Y1239.09  ;
N3191 G1X130.06Y1239.09  ;
N3192 G1X130.06Y1227.21  ;
N3193 G1X131.88Y1227.21  ;
N3194 G65 P9104 A101 B02  ;
N3195 G0X151.46Y1269.81  ;
N3196 G65 P9102 A101 B02  ;
N3197 G1X153.54Y1267.73  ;
N3198 G3X153.5Y1267.69I-3.64J3.56  ;
N3199 G65 P9104 A101 B02  ;
N3200 G0X85.33Y1066.1  ;
N3201 G65 P9102 A101 B02  ;
N3202 G1X87.41Y1064.02  ;
N3203 G3X87.37Y1063.98I-3.71J3.63  ;
N3204 G65 P9104 A101 B02  ;
N3205 G0X75.2Y1027.71  ;
N3206 G65 P9102 A101 B02  ;
N3207 G1X78.14Y1027.71  ;
N3208 G1X78.14Y1029.29  ;
N3209 G1X67.26Y1029.29  ;
N3210 G1X67.26Y1026.01  ;
N3211 G1X78.14Y1026.01  ;
N3212 G1X78.14Y1027.65  ;
N3213 G65 P9104 A101 B02  ;
N3214 G0X134.3Y1027.59  ;
N3215 G65 P9102 A101 B02  ;
N3216 G1X137.24Y1027.59  ;
N3217 G1X137.24Y1026.01  ;
N3218 G1X126.36Y1026.01  ;
N3219 G1X126.36Y1029.29  ;
N3220 G1X137.24Y1029.29  ;
N3221 G1X137.24Y1027.65  ;
N3222 G65 P9104 A101 B02  ;
N3223 G0X35.78Y1066.1  ;
N3224 G65 P9102 A101 B02  ;
N3225 G1X37.86Y1064.02  ;
N3226 G3X37.82Y1063.98I-3.71J3.63  ;
N3227 G65 P9104 A101 B02  ;
N3228 G0X75.2Y916.11  ;
N3229 G65 P9102 A101 B02  ;
N3230 G1X78.14Y916.11  ;
N3231 G1X78.14Y917.69  ;
N3232 G1X67.26Y917.69  ;
N3233 G1X67.26Y914.41  ;
N3234 G1X78.14Y914.41  ;
N3235 G1X78.14Y916.05  ;
N3236 G65 P9104 A101 B02  ;
N3237 G0X85.33Y874.5  ;
N3238 G65 P9102 A101 B02  ;
N3239 G1X87.41Y872.42  ;
N3240 G3X87.37Y872.38I-3.71J3.63  ;
N3241 G65 P9104 A101 B02  ;
N3242 G0X75.2Y835.99  ;
N3243 G65 P9102 A101 B02  ;
N3244 G1X78.14Y835.99  ;
N3245 G1X78.14Y834.41  ;
N3246 G1X67.26Y834.41  ;
N3247 G1X67.26Y837.69  ;
N3248 G1X78.14Y837.69  ;
N3249 G1X78.14Y836.05  ;
N3250 G65 P9104 A101 B02  ;
N3251 G0X134.3Y836.11  ;
N3252 G65 P9102 A101 B02  ;
N3253 G1X137.24Y836.11  ;
N3254 G1X137.24Y837.69  ;
N3255 G1X126.36Y837.69  ;
N3256 G1X126.36Y834.41  ;
N3257 G1X137.24Y834.41  ;
N3258 G1X137.24Y836.05  ;
N3259 G65 P9104 A101 B02  ;
N3260 G0X134.3Y915.99  ;
N3261 G65 P9102 A101 B02  ;
N3262 G1X137.24Y915.99  ;
N3263 G1X137.24Y914.41  ;
N3264 G1X126.36Y914.41  ;
N3265 G1X126.36Y917.69  ;
N3266 G1X137.24Y917.69  ;
N3267 G1X137.24Y916.05  ;
N3268 G65 P9104 A101 B02  ;
N3269 G0X35.78Y874.5  ;
N3270 G65 P9102 A101 B02  ;
N3271 G1X37.86Y872.42  ;
N3272 G3X37.82Y872.38I-3.71J3.63  ;
N3273 G65 P9104 A101 B02  ;
N3274 G0X75.2Y724.39  ;
N3275 G65 P9102 A101 B02  ;
N3276 G1X78.14Y724.39  ;
N3277 G1X78.14Y722.81  ;
N3278 G1X67.26Y722.81  ;
N3279 G1X67.26Y726.09  ;
N3280 G1X78.14Y726.09  ;
N3281 G1X78.14Y724.45  ;
N3282 G65 P9104 A101 B02  ;
N3283 G0X85.33Y682.9  ;
N3284 G65 P9102 A101 B02  ;
N3285 G1X87.41Y680.82  ;
N3286 G3X87.37Y680.78I-3.71J3.63  ;
N3287 G65 P9104 A101 B02  ;
N3288 G0X75.2Y644.39  ;
N3289 G65 P9102 A101 B02  ;
N3290 G1X78.14Y644.39  ;
N3291 G1X78.14Y642.81  ;
N3292 G1X67.26Y642.81  ;
N3293 G1X67.26Y646.09  ;
N3294 G1X78.14Y646.09  ;
N3295 G1X78.14Y644.45  ;
N3296 G65 P9104 A101 B02  ;
N3297 G0X134.3Y644.51  ;
N3298 G65 P9102 A101 B02  ;
N3299 G1X137.24Y644.51  ;
N3300 G1X137.24Y646.09  ;
N3301 G1X126.36Y646.09  ;
N3302 G1X126.36Y642.81  ;
N3303 G1X137.24Y642.81  ;
N3304 G1X137.24Y644.45  ;
N3305 G65 P9104 A101 B02  ;
N3306 G0X134.3Y724.51  ;
N3307 G65 P9102 A101 B02  ;
N3308 G1X137.24Y724.51  ;
N3309 G1X137.24Y726.09  ;
N3310 G1X126.36Y726.09  ;
N3311 G1X126.36Y722.81  ;
N3312 G1X137.24Y722.81  ;
N3313 G1X137.24Y724.45  ;
N3314 G65 P9104 A101 B02  ;
N3315 G0X35.78Y682.9  ;
N3316 G65 P9102 A101 B02  ;
N3317 G1X37.86Y680.82  ;
N3318 G3X37.82Y680.78I-3.71J3.63  ;
N3319 G65 P9104 A101 B02  ;
N3320 G0X75.2Y532.79  ;
N3321 G65 P9102 A101 B02  ;
N3322 G1X78.14Y532.79  ;
N3323 G1X78.14Y531.21  ;
N3324 G1X67.26Y531.21  ;
N3325 G1X67.26Y534.49  ;
N3326 G1X78.14Y534.49  ;
N3327 G1X78.14Y532.85  ;
N3328 G65 P9104 A101 B02  ;
N3329 G0X85.33Y491.3  ;
N3330 G65 P9102 A101 B02  ;
N3331 G1X87.41Y489.22  ;
N3332 G3X87.37Y489.18I-3.71J3.63  ;
N3333 G65 P9104 A101 B02  ;
N3334 G0X75.2Y452.79  ;
N3335 G65 P9102 A101 B02  ;
N3336 G1X78.14Y452.79  ;
N3337 G1X78.14Y451.21  ;
N3338 G1X67.26Y451.21  ;
N3339 G1X67.26Y454.49  ;
N3340 G1X78.14Y454.49  ;
N3341 G1X78.14Y452.85  ;
N3342 G65 P9104 A101 B02  ;
N3343 G0X134.3Y452.91  ;
N3344 G65 P9102 A101 B02  ;
N3345 G1X137.24Y452.91  ;
N3346 G1X137.24Y454.49  ;
N3347 G1X126.36Y454.49  ;
N3348 G1X126.36Y451.21  ;
N3349 G1X137.24Y451.21  ;
N3350 G1X137.24Y452.85  ;
N3351 G65 P9104 A101 B02  ;
N3352 G0X134.3Y532.91  ;
N3353 G65 P9102 A101 B02  ;
N3354 G1X137.24Y532.91  ;
N3355 G1X137.24Y534.49  ;
N3356 G1X126.36Y534.49  ;
N3357 G1X126.36Y531.21  ;
N3358 G1X137.24Y531.21  ;
N3359 G1X137.24Y532.85  ;
N3360 G65 P9104 A101 B02  ;
N3361 G0X35.78Y491.3  ;
N3362 G65 P9102 A101 B02  ;
N3363 G1X37.86Y489.22  ;
N3364 G3X37.82Y489.18I-3.71J3.63  ;
N3365 G65 P9104 A101 B02  ;
N3366 G0X75.2Y341.19  ;
N3367 G65 P9102 A101 B02  ;
N3368 G1X78.14Y341.19  ;
N3369 G1X78.14Y339.61  ;
N3370 G1X67.26Y339.61  ;
N3371 G1X67.26Y342.89  ;
N3372 G1X78.14Y342.89  ;
N3373 G1X78.14Y341.25  ;
N3374 G65 P9104 A101 B02  ;
N3375 G0X85.33Y299.7  ;
N3376 G65 P9102 A101 B02  ;
N3377 G1X87.41Y297.62  ;
N3378 G3X87.37Y297.58I-3.71J3.63  ;
N3379 G65 P9104 A101 B02  ;
N3380 G0X35.78Y299.7  ;
N3381 G65 P9102 A101 B02  ;
N3382 G1X37.86Y297.62  ;
N3383 G3X37.82Y297.58I-3.71J3.63  ;
N3384 G65 P9104 A101 B02  ;
N3385 G0X134.3Y341.31  ;
N3386 G65 P9102 A101 B02  ;
N3387 G1X137.24Y341.31  ;
N3388 G1X137.24Y342.89  ;
N3389 G1X126.36Y342.89  ;
N3390 G1X126.36Y339.61  ;
N3391 G1X137.24Y339.61  ;
N3392 G1X137.24Y341.25  ;
N3393 G65 P9104 A101 B02  ;
N3394 G0X93.76Y165.57  ;
N3395 G65 P9102 A101 B02  ;
N3396 G1X95.83Y163.5  ;
N3397 G3X95.79Y163.45I-3.23J3.15  ;
N3398 G65 P9104 A101 B02  ;
N3399 G0X86.44Y121.49  ;
N3400 G65 P9102 A101 B02  ;
N3401 G1X87.81Y120.12  ;
N3402 G3X87.77Y120.08I-1.41J1.33  ;
N3403 G65 P9104 A101 B02  ;
N3404 G0X47.94Y132.75  ;
N3405 G65 P9102 A101 B02  ;
N3406 G1X47.94Y129.81  ;
N3407 G1X46.21Y129.81  ;
N3408 G1X46.21Y141.69  ;
N3409 G1X49.79Y141.69  ;
N3410 G1X49.79Y129.81  ;
N3411 G1X48Y129.81  ;
N3412 G65 P9104 A101 B02  ;
N3413 G0X33.26Y97.79  ;
N3414 G65 P9102 A101 B02  ;
N3415 G1X36.17Y98.51  ;
N3416 G2X37.34Y97.6I0.23J-0.91  ;
N3417 G2X32.25Y92.51I-5.09J0  ;
N3418 G1X27.55Y92.51  ;
N3419 G2X27.55Y102.69I0J5.09  ;
N3420 G1X32.25Y102.69  ;
N3421 G2X37.34Y97.6I0J-5.09  ;
N3422 G65 P9104 A101 B02  ;
N3423 G0X131.81Y132.75  ;
N3424 G65 P9102 A101 B02  ;
N3425 G1X131.81Y129.81  ;
N3426 G1X130.06Y129.81  ;
N3427 G1X130.06Y141.69  ;
N3428 G1X133.69Y141.69  ;
N3429 G1X133.69Y129.81  ;
N3430 G1X131.88Y129.81  ;
N3431 G65 P9104 A101 B02  ;
N3432 G0X151.46Y96.12  ;
N3433 G65 P9102 A101 B02  ;
N3434 G1X153.54Y94.04  ;
N3435 G3X153.5Y94I-3.64J3.56  ;
N3436 G65 P9104 A101 B01  ;
N3437 G0X46.34Y1158.05  ;
N3438 G65 P9102 A101 B01  ;
N3439 G1X46.34Y1161.05  ;
N3440 G1X46.34Y1197.07  ;
N3441 G3X44.89Y1200.57I-4.94J0  ;
N3442 G1X17.82Y1227.64  ;
N3443 G2X16.34Y1231.22I3.58J3.58  ;
N3444 G1X16.34Y1276.69  ;
N3445 G2X21.4Y1281.75I5.06J0  ;
N3446 G1X158.4Y1281.75  ;
N3447 G2X163.46Y1276.69I0J-5.06  ;
N3448 G1X163.46Y1231.22  ;
N3449 G2X161.98Y1227.64I-5.06J0  ;
N3450 G1X134.91Y1200.57  ;
N3451 G3X133.46Y1197.07I3.49J-3.5  ;
N3452 G1X133.46Y1166.49  ;
N3453 G1X130.06Y1166.49  ;
N3454 G1X130.06Y1154.61  ;
N3455 G1X133.46Y1154.61  ;
N3456 G1X133.46Y1137.49  ;
N3457 G1X117.57Y1137.49  ;
N3458 G3X115.71Y1136.11I0J-1.94  ;
N3459 G1X101.11Y1088.34  ;
N3460 G2X100.09Y1087.59I-1.02J0.31  ;
N3461 G1X96.56Y1087.59  ;
N3462 G3X99.2Y1083.36I0J-2.94  ;
N3463 G2X101.02Y1084.51I1.85J-0.91  ;
N3464 G1X112.25Y1084.71  ;
N3465 G1X170.79Y1084.71  ;
N3466 G1X170.79Y1072.64  ;
N3467 G1X167.64Y1072.64  ;
N3468 G1X167.64Y1069.66  ;
N3469 G1X170.79Y1069.66  ;
N3470 G1X170.79Y299.24  ;
N3471 G1X167.64Y299.24  ;
N3472 G1X167.64Y296.26  ;
N3473 G1X170.79Y296.26  ;
N3474 G1X170.79Y284.69  ;
N3475 G1X112.25Y284.69  ;
N3476 G1X100.73Y284.88  ;
N3477 G2X99.03Y285.83I0.04J2.06  ;
N3478 G3X96.56Y281.31I-2.47J-1.58  ;
N3479 G1X100.09Y281.31  ;
N3480 G2X101.11Y280.56I0J-1.06  ;
N3481 G1X115.71Y232.78  ;
N3482 G3X117.57Y231.41I1.86J0.57  ;
N3483 G1X133.46Y231.41  ;
N3484 G1X133.46Y214.29  ;
N3485 G1X130.06Y214.29  ;
N3486 G1X130.06Y202.41  ;
N3487 G1X133.46Y202.41  ;
N3488 G1X133.46Y171.82  ;
N3489 G3X134.91Y168.32I4.94J0  ;
N3490 G1X161.98Y141.25  ;
N3491 G2X163.46Y137.67I-3.58J-3.58  ;
N3492 G1X163.46Y92.2  ;
N3493 G2X158.4Y87.14I-5.06J0  ;
N3494 G1X21.4Y87.14  ;
N3495 G2X16.34Y92.2I0J5.06  ;
N3496 G1X16.34Y137.67  ;
N3497 G2X17.82Y141.25I5.06J0  ;
N3498 G1X44.89Y168.32  ;
N3499 G3X46.34Y171.82I-3.49J3.5  ;
N3500 G1X46.34Y207.91  ;
N3501 G1X49.79Y207.91  ;
N3502 G1X49.79Y219.79  ;
N3503 G1X46.34Y219.79  ;
N3504 G1X46.34Y280.25  ;
N3505 G2X47.4Y281.31I1.06J0  ;
N3506 G1X49.65Y281.31  ;
N3507 G3X47.17Y285.83I0J2.94  ;
N3508 G2X45.47Y284.88I-1.73J1.11  ;
N3509 G1X34.4Y284.69  ;
N3510 G1X13.94Y284.69  ;
N3511 G1X13.94Y1084.71  ;
N3512 G1X34.4Y1084.71  ;
N3513 G1X45.19Y1084.52  ;
N3514 G2X47.01Y1083.36I-0.04J-2.06  ;
N3515 G3X49.65Y1087.59I2.64J1.29  ;
N3516 G1X47.4Y1087.59  ;
N3517 G2X46.34Y1088.65I0J1.06  ;
N3518 G1X46.34Y1149.11  ;
N3519 G1X49.79Y1149.11  ;
N3520 G1X49.79Y1160.99  ;
N3521 G1X46.4Y1160.99  ;
N3522 G65 P9104 A101 B01  ;
N3523 M98 P9103  ;
(P29:ID1:W86008806)  ;
N3524 M98 P9101  ;
N3525 G0X1056Y155.55  ;
N3526 G65 P9102 A101 B01  ;
N3527 G1X1051.06Y155.55  ;
N3528 G1X1051.06Y160.2  ;
N3529 G3X1050.5Y160.76I-0.56J0  ;
N3530 G1X1049.06Y160.76  ;
N3531 G1X1049.06Y161.4  ;
N3532 G3X1048.7Y161.76I-0.36J0  ;
N3533 G1X1047.8Y161.76  ;
N3534 G2X1047.56Y162I0J0.24  ;
N3535 G1X1047.56Y170.9  ;
N3536 G2X1047.8Y171.14I0.24J0  ;
N3537 G1X1048.7Y171.14  ;
N3538 G3X1049.06Y171.5I0J0.36  ;
N3539 G1X1049.06Y172.72  ;
N3540 G1X1038.95Y182.84  ;
N3541 G1X1037.79Y183.19  ;
N3542 G3X1037.34Y182.95I-0.11J-0.34  ;
N3543 G1X1037.07Y182.09  ;
N3544 G2X1036.78Y181.93I-0.22J0.07  ;
N3545 G1X1022.09Y186.42  ;
N3546 G2X1021.93Y186.72I0.07J0.23  ;
N3547 G1X1022.19Y187.58  ;
N3548 G3X1021.95Y188.03I-0.34J0.11  ;
N3549 G1X1021.34Y188.22  ;
N3550 G1X1021.76Y189.6  ;
N3551 G3X1021.39Y190.29I-0.53J0.16  ;
N3552 G1X1018.99Y191.03  ;
N3553 G1X1011.71Y191.16  ;
N3554 G1X999.44Y194.91  ;
N3555 G1X999.44Y161.03  ;
N3556 G3X999.99Y158.74I5.06J0  ;
N3557 G1X1011.56Y135.91  ;
N3558 G3X1016.07Y133.14I4.51J2.29  ;
N3559 G1X1018.57Y133.14  ;
N3560 G3X1018.93Y133.5I0J0.36  ;
N3561 G1X1018.93Y134.4  ;
N3562 G2X1019.17Y134.64I0.24J0  ;
N3563 G1X1040.2Y134.64  ;
N3564 G2X1040.44Y134.4I0J-0.24  ;
N3565 G1X1040.44Y133.5  ;
N3566 G3X1040.8Y133.14I0.36J0  ;
N3567 G1X1042.02Y133.14  ;
N3568 G1X1049.06Y140.18  ;
N3569 G1X1049.06Y141.26  ;
N3570 G1X1048.56Y141.26  ;
N3571 G1X1048.56Y149.64  ;
N3572 G1X1049.06Y149.64  ;
N3573 G1X1049.06Y150.64  ;
N3574 G1X1050.5Y150.64  ;
N3575 G3X1051.06Y151.2I0J0.56  ;
N3576 G1X1051.06Y154.84  ;
N3577 G65 P9104 A101 B01  ;
N3578 M98 P9103  ;
(P30:ID1:W86008806)  ;
N3579 M98 P9101  ;
N3580 G0X1240.5Y171.95  ;
N3581 G65 P9102 A101 B01  ;
N3582 G1X1235.56Y171.95  ;
N3583 G1X1235.56Y176.6  ;
N3584 G3X1235Y177.16I-0.56J0  ;
N3585 G1X1233.56Y177.16  ;
N3586 G1X1233.56Y177.8  ;
N3587 G3X1233.2Y178.16I-0.36J0  ;
N3588 G1X1232.3Y178.16  ;
N3589 G2X1232.06Y178.4I0J0.24  ;
N3590 G1X1232.06Y187.3  ;
N3591 G2X1232.3Y187.54I0.24J0  ;
N3592 G1X1233.2Y187.54  ;
N3593 G3X1233.56Y187.9I0J0.36  ;
N3594 G1X1233.56Y189.12  ;
N3595 G1X1223.45Y199.24  ;
N3596 G1X1222.29Y199.59  ;
N3597 G3X1221.84Y199.35I-0.11J-0.34  ;
N3598 G1X1221.57Y198.49  ;
N3599 G2X1221.28Y198.33I-0.22J0.07  ;
N3600 G1X1206.59Y202.82  ;
N3601 G2X1206.43Y203.12I0.07J0.23  ;
N3602 G1X1206.69Y203.98  ;
N3603 G3X1206.45Y204.43I-0.34J0.11  ;
N3604 G1X1205.84Y204.62  ;
N3605 G1X1206.26Y206  ;
N3606 G3X1205.89Y206.69I-0.53J0.16  ;
N3607 G1X1203.49Y207.43  ;
N3608 G1X1196.21Y207.56  ;
N3609 G1X1183.94Y211.31  ;
N3610 G1X1183.94Y177.43  ;
N3611 G3X1184.49Y175.14I5.06J0  ;
N3612 G1X1196.06Y152.31  ;
N3613 G3X1200.57Y149.54I4.51J2.29  ;
N3614 G1X1203.07Y149.54  ;
N3615 G3X1203.43Y149.9I0J0.36  ;
N3616 G1X1203.43Y150.8  ;
N3617 G2X1203.67Y151.04I0.24J0  ;
N3618 G1X1224.7Y151.04  ;
N3619 G2X1224.94Y150.8I0J-0.24  ;
N3620 G1X1224.94Y149.9  ;
N3621 G3X1225.3Y149.54I0.36J0  ;
N3622 G1X1226.52Y149.54  ;
N3623 G1X1233.56Y156.58  ;
N3624 G1X1233.56Y157.66  ;
N3625 G1X1233.06Y157.66  ;
N3626 G1X1233.06Y166.04  ;
N3627 G1X1233.56Y166.04  ;
N3628 G1X1233.56Y167.04  ;
N3629 G1X1235Y167.04  ;
N3630 G3X1235.56Y167.6I0J0.56  ;
N3631 G1X1235.56Y171.24  ;
N3632 G65 P9104 A101 B01  ;
N3633 M98 P9103  ;
(P31:ID1:W86008806)  ;
N3634 M98 P9101  ;
N3635 G0X1178.5Y171.95  ;
N3636 G65 P9102 A101 B01  ;
N3637 G1X1173.56Y171.95  ;
N3638 G1X1173.56Y176.6  ;
N3639 G3X1173Y177.16I-0.56J0  ;
N3640 G1X1171.56Y177.16  ;
N3641 G1X1171.56Y177.8  ;
N3642 G3X1171.2Y178.16I-0.36J0  ;
N3643 G1X1170.3Y178.16  ;
N3644 G2X1170.06Y178.4I0J0.24  ;
N3645 G1X1170.06Y187.3  ;
N3646 G2X1170.3Y187.54I0.24J0  ;
N3647 G1X1171.2Y187.54  ;
N3648 G3X1171.56Y187.9I0J0.36  ;
N3649 G1X1171.56Y189.12  ;
N3650 G1X1161.45Y199.24  ;
N3651 G1X1160.29Y199.59  ;
N3652 G3X1159.84Y199.35I-0.11J-0.34  ;
N3653 G1X1159.57Y198.49  ;
N3654 G2X1159.28Y198.33I-0.22J0.07  ;
N3655 G1X1144.59Y202.82  ;
N3656 G2X1144.43Y203.12I0.07J0.23  ;
N3657 G1X1144.69Y203.98  ;
N3658 G3X1144.45Y204.43I-0.34J0.11  ;
N3659 G1X1143.84Y204.62  ;
N3660 G1X1144.26Y206  ;
N3661 G3X1143.89Y206.69I-0.53J0.16  ;
N3662 G1X1141.49Y207.43  ;
N3663 G1X1134.21Y207.56  ;
N3664 G1X1121.94Y211.31  ;
N3665 G1X1121.94Y177.43  ;
N3666 G3X1122.49Y175.14I5.06J0  ;
N3667 G1X1134.06Y152.31  ;
N3668 G3X1138.57Y149.54I4.51J2.29  ;
N3669 G1X1141.07Y149.54  ;
N3670 G3X1141.43Y149.9I0J0.36  ;
N3671 G1X1141.43Y150.8  ;
N3672 G2X1141.67Y151.04I0.24J0  ;
N3673 G1X1162.7Y151.04  ;
N3674 G2X1162.94Y150.8I0J-0.24  ;
N3675 G1X1162.94Y149.9  ;
N3676 G3X1163.3Y149.54I0.36J0  ;
N3677 G1X1164.52Y149.54  ;
N3678 G1X1171.56Y156.58  ;
N3679 G1X1171.56Y157.66  ;
N3680 G1X1171.06Y157.66  ;
N3681 G1X1171.06Y166.04  ;
N3682 G1X1171.56Y166.04  ;
N3683 G1X1171.56Y167.04  ;
N3684 G1X1173Y167.04  ;
N3685 G3X1173.56Y167.6I0J0.56  ;
N3686 G1X1173.56Y171.24  ;
N3687 G65 P9104 A101 B01  ;
N3688 M98 P9103  ;
(P32:ID1:W86008806)  ;
N3689 M98 P9101  ;
N3690 G0X1116.5Y171.95  ;
N3691 G65 P9102 A101 B01  ;
N3692 G1X1111.56Y171.95  ;
N3693 G1X1111.56Y176.6  ;
N3694 G3X1111Y177.16I-0.56J0  ;
N3695 G1X1109.56Y177.16  ;
N3696 G1X1109.56Y177.8  ;
N3697 G3X1109.2Y178.16I-0.36J0  ;
N3698 G1X1108.3Y178.16  ;
N3699 G2X1108.06Y178.4I0J0.24  ;
N3700 G1X1108.06Y187.3  ;
N3701 G2X1108.3Y187.54I0.24J0  ;
N3702 G1X1109.2Y187.54  ;
N3703 G3X1109.56Y187.9I0J0.36  ;
N3704 G1X1109.56Y189.12  ;
N3705 G1X1099.45Y199.24  ;
N3706 G1X1098.29Y199.59  ;
N3707 G3X1097.84Y199.35I-0.11J-0.34  ;
N3708 G1X1097.57Y198.49  ;
N3709 G2X1097.28Y198.33I-0.22J0.07  ;
N3710 G1X1082.59Y202.82  ;
N3711 G2X1082.43Y203.12I0.07J0.23  ;
N3712 G1X1082.69Y203.98  ;
N3713 G3X1082.45Y204.43I-0.34J0.11  ;
N3714 G1X1081.84Y204.62  ;
N3715 G1X1082.26Y206  ;
N3716 G3X1081.89Y206.69I-0.53J0.16  ;
N3717 G1X1079.49Y207.43  ;
N3718 G1X1072.21Y207.56  ;
