O0099  ;
( MACHINE : TCI Laser )  ;
( MATERIAL : Acero al Carbono )  ;
( THICKNESS : 5 )  ;
( REPETITIONS : 1 )  ;
( SIMULATION TIME : 00:45:25 )  ;
( FORMAT : 1500x3000 )  ;
( JOB NUMBER : VARS8600\K860115 )  ;
( PROGRAM NUMBER : 12091 )  ;
( TYPE : 0 )  ;
( NUMBER OF SHEETS : 1 )  ;
( CUTTING HEADS : 1 )  ;
#516= 1  ;
#517= 1  ;
N105 G65 P9100 A103 B01  ;
(P1:ID1:W86011517)  ;
N106 M98 P9101  ;
N107 G0X74.99Y93.98  ;
N108 G65 P9102 A101 B01  ;
N109 G1X79.93Y93.7  ;
N110 G3X65Y109.45I-14.93J0.8  ;
N111 G1X61.98Y109.45  ;
N112 G1X60.95Y110.48  ;
N113 G1X60.95Y113.52  ;
N114 G1X61.98Y114.55  ;
N115 G1X64.95Y114.55  ;
N116 G1X64.95Y136.45  ;
N117 G1X64.45Y136.45  ;
N118 G1X64.45Y139.55  ;
N119 G1X64.98Y139.55  ;
N120 G1X92.98Y168.55  ;
N121 G1X135.95Y168.55  ;
N122 G1X135.95Y169.05  ;
N123 G1X138.95Y169.05  ;
N124 G1X138.95Y174.05  ;
N125 G1X144.05Y174.05  ;
N126 G1X144.05Y14.95  ;
N127 G1X138.95Y14.95  ;
N128 G1X138.95Y19.95  ;
N129 G1X135.95Y19.95  ;
N130 G1X135.95Y20.45  ;
N131 G1X92.98Y20.45  ;
N132 G1X64.98Y49.45  ;
N133 G1X64.45Y49.45  ;
N134 G1X64.45Y52.55  ;
N135 G1X64.95Y52.55  ;
N136 G1X64.95Y79.55  ;
N137 G3X79.87Y93I0.05J14.95  ;
N138 G65 P9104 A101 B01  ;
N139 M98 P9103  ;
(P2:ID1:W86011517)  ;
N140 M98 P9101  ;
N141 G0X36.99Y257.48  ;
N142 G65 P9102 A101 B01  ;
N143 G1X41.93Y257.2  ;
N144 G3X27Y272.95I-14.93J0.8  ;
N145 G1X23.98Y272.95  ;
N146 G1X22.95Y273.98  ;
N147 G1X22.95Y277.02  ;
N148 G1X23.98Y278.05  ;
N149 G1X26.95Y278.05  ;
N150 G1X26.95Y299.95  ;
N151 G1X26.45Y299.95  ;
N152 G1X26.45Y303.05  ;
N153 G1X26.98Y303.05  ;
N154 G1X54.98Y332.05  ;
N155 G1X97.95Y332.05  ;
N156 G1X97.95Y332.55  ;
N157 G1X100.95Y332.55  ;
N158 G1X100.95Y337.55  ;
N159 G1X106.05Y337.55  ;
N160 G1X106.05Y178.45  ;
N161 G1X100.95Y178.45  ;
N162 G1X100.95Y183.45  ;
N163 G1X97.95Y183.45  ;
N164 G1X97.95Y183.95  ;
N165 G1X54.98Y183.95  ;
N166 G1X26.98Y212.95  ;
N167 G1X26.45Y212.95  ;
N168 G1X26.45Y216.05  ;
N169 G1X26.95Y216.05  ;
N170 G1X26.95Y243.05  ;
N171 G3X41.87Y256.5I0.05J14.95  ;
N172 G65 P9104 A101 B01  ;
N173 M98 P9103  ;
(P3:ID1:W86011517)  ;
N174 M98 P9101  ;
N175 G0X79.49Y420.98  ;
N176 G65 P9102 A101 B01  ;
N177 G1X84.43Y420.7  ;
N178 G3X69.5Y436.45I-14.93J0.8  ;
N179 G1X66.48Y436.45  ;
N180 G1X65.45Y437.48  ;
N181 G1X65.45Y440.52  ;
N182 G1X66.48Y441.55  ;
N183 G1X69.45Y441.55  ;
N184 G1X69.45Y463.45  ;
N185 G1X68.95Y463.45  ;
N186 G1X68.95Y466.55  ;
N187 G1X69.48Y466.55  ;
N188 G1X97.48Y495.55  ;
N189 G1X140.45Y495.55  ;
N190 G1X140.45Y496.05  ;
N191 G1X143.45Y496.05  ;
N192 G1X143.45Y501.05  ;
N193 G1X148.55Y501.05  ;
N194 G1X148.55Y341.95  ;
N195 G1X143.45Y341.95  ;
N196 G1X143.45Y346.95  ;
N197 G1X140.45Y346.95  ;
N198 G1X140.45Y347.45  ;
N199 G1X97.48Y347.45  ;
N200 G1X69.48Y376.45  ;
N201 G1X68.95Y376.45  ;
N202 G1X68.95Y379.55  ;
N203 G1X69.45Y379.55  ;
N204 G1X69.45Y406.55  ;
N205 G3X84.37Y420I0.05J14.95  ;
N206 G65 P9104 A101 B01  ;
N207 M98 P9103  ;
(P4:ID1:W86011517)  ;
N208 M98 P9101  ;
N209 G0X64.99Y584.48  ;
N210 G65 P9102 A101 B01  ;
N211 G1X69.93Y584.2  ;
N212 G3X55Y599.95I-14.93J0.8  ;
N213 G1X51.98Y599.95  ;
N214 G1X50.95Y600.98  ;
N215 G1X50.95Y604.02  ;
N216 G1X51.98Y605.05  ;
N217 G1X54.95Y605.05  ;
N218 G1X54.95Y626.95  ;
N219 G1X54.45Y626.95  ;
N220 G1X54.45Y630.05  ;
N221 G1X54.98Y630.05  ;
N222 G1X82.98Y659.05  ;
N223 G1X125.95Y659.05  ;
N224 G1X125.95Y659.55  ;
N225 G1X128.95Y659.55  ;
N226 G1X128.95Y664.55  ;
N227 G1X134.05Y664.55  ;
N228 G1X134.05Y505.45  ;
N229 G1X128.95Y505.45  ;
N230 G1X128.95Y510.45  ;
N231 G1X125.95Y510.45  ;
N232 G1X125.95Y510.95  ;
N233 G1X82.98Y510.95  ;
N234 G1X54.98Y539.95  ;
N235 G1X54.45Y539.95  ;
N236 G1X54.45Y543.05  ;
N237 G1X54.95Y543.05  ;
N238 G1X54.95Y570.05  ;
N239 G3X69.87Y583.5I0.05J14.95  ;
N240 G65 P9104 A101 B01  ;
N241 M98 P9103  ;
(P5:ID1:W86011517)  ;
N242 M98 P9101  ;
N243 G0X50.99Y747.98  ;
N244 G65 P9102 A101 B01  ;
N245 G1X55.93Y747.7  ;
N246 G3X41Y763.45I-14.93J0.8  ;
N247 G1X37.98Y763.45  ;
N248 G1X36.95Y764.48  ;
N249 G1X36.95Y767.52  ;
N250 G1X37.98Y768.55  ;
N251 G1X40.95Y768.55  ;
N252 G1X40.95Y790.45  ;
N253 G1X40.45Y790.45  ;
N254 G1X40.45Y793.55  ;
N255 G1X40.98Y793.55  ;
N256 G1X68.98Y822.55  ;
N257 G1X111.95Y822.55  ;
N258 G1X111.95Y823.05  ;
N259 G1X114.95Y823.05  ;
N260 G1X114.95Y828.05  ;
N261 G1X120.05Y828.05  ;
N262 G1X120.05Y668.95  ;
N263 G1X114.95Y668.95  ;
N264 G1X114.95Y673.95  ;
N265 G1X111.95Y673.95  ;
N266 G1X111.95Y674.45  ;
N267 G1X68.98Y674.45  ;
N268 G1X40.98Y703.45  ;
N269 G1X40.45Y703.45  ;
N270 G1X40.45Y706.55  ;
N271 G1X40.95Y706.55  ;
N272 G1X40.95Y733.55  ;
N273 G3X55.87Y747I0.05J14.95  ;
N274 G65 P9104 A101 B01  ;
N275 M98 P9103  ;
(P6:ID1:W86011517)  ;
N276 M98 P9101  ;
N277 G0X72.99Y911.48  ;
N278 G65 P9102 A101 B01  ;
N279 G1X77.93Y911.2  ;
N280 G3X63Y926.95I-14.93J0.8  ;
N281 G1X59.98Y926.95  ;
N282 G1X58.95Y927.98  ;
N283 G1X58.95Y931.02  ;
N284 G1X59.98Y932.05  ;
N285 G1X62.95Y932.05  ;
N286 G1X62.95Y953.95  ;
N287 G1X62.45Y953.95  ;
N288 G1X62.45Y957.05  ;
N289 G1X62.98Y957.05  ;
N290 G1X90.98Y986.05  ;
N291 G1X133.95Y986.05  ;
N292 G1X133.95Y986.55  ;
N293 G1X136.95Y986.55  ;
N294 G1X136.95Y991.55  ;
N295 G1X142.05Y991.55  ;
N296 G1X142.05Y832.45  ;
N297 G1X136.95Y832.45  ;
N298 G1X136.95Y837.45  ;
N299 G1X133.95Y837.45  ;
N300 G1X133.95Y837.95  ;
N301 G1X90.98Y837.95  ;
N302 G1X62.98Y866.95  ;
N303 G1X62.45Y866.95  ;
N304 G1X62.45Y870.05  ;
N305 G1X62.95Y870.05  ;
N306 G1X62.95Y897.05  ;
N307 G3X77.87Y910.5I0.05J14.95  ;
N308 G65 P9104 A101 B01  ;
N309 M98 P9103  ;
(P7:ID1:W86011517)  ;
N310 M98 P9101  ;
N311 G0X58.99Y1074.98  ;
N312 G65 P9102 A101 B01  ;
N313 G1X63.93Y1074.7  ;
N314 G3X49Y1090.45I-14.93J0.8  ;
N315 G1X45.98Y1090.45  ;
N316 G1X44.95Y1091.48  ;
N317 G1X44.95Y1094.52  ;
N318 G1X45.98Y1095.55  ;
N319 G1X48.95Y1095.55  ;
N320 G1X48.95Y1117.45  ;
N321 G1X48.45Y1117.45  ;
N322 G1X48.45Y1120.55  ;
N323 G1X48.98Y1120.55  ;
N324 G1X76.98Y1149.55  ;
N325 G1X119.95Y1149.55  ;
N326 G1X119.95Y1150.05  ;
N327 G1X122.95Y1150.05  ;
N328 G1X122.95Y1155.05  ;
N329 G1X128.05Y1155.05  ;
N330 G1X128.05Y995.95  ;
N331 G1X122.95Y995.95  ;
N332 G1X122.95Y1000.95  ;
N333 G1X119.95Y1000.95  ;
N334 G1X119.95Y1001.45  ;
N335 G1X76.98Y1001.45  ;
N336 G1X48.98Y1030.45  ;
N337 G1X48.45Y1030.45  ;
N338 G1X48.45Y1033.55  ;
N339 G1X48.95Y1033.55  ;
N340 G1X48.95Y1060.55  ;
N341 G3X63.87Y1074I0.05J14.95  ;
N342 G65 P9104 A101 B01  ;
N343 M98 P9103  ;
(P8:ID1:W86011517)  ;
N344 M98 P9101  ;
N345 G0X79.49Y1238.48  ;
N346 G65 P9102 A101 B01  ;
N347 G1X84.43Y1238.2  ;
N348 G3X69.5Y1253.95I-14.93J0.8  ;
N349 G1X66.48Y1253.95  ;
N350 G1X65.45Y1254.98  ;
N351 G1X65.45Y1258.02  ;
N352 G1X66.48Y1259.05  ;
N353 G1X69.45Y1259.05  ;
N354 G1X69.45Y1280.95  ;
N355 G1X68.95Y1280.95  ;
N356 G1X68.95Y1284.05  ;
N357 G1X69.48Y1284.05  ;
N358 G1X97.48Y1313.05  ;
N359 G1X140.45Y1313.05  ;
N360 G1X140.45Y1313.55  ;
N361 G1X143.45Y1313.55  ;
N362 G1X143.45Y1318.55  ;
N363 G1X148.55Y1318.55  ;
N364 G1X148.55Y1159.45  ;
N365 G1X143.45Y1159.45  ;
N366 G1X143.45Y1164.45  ;
N367 G1X140.45Y1164.45  ;
N368 G1X140.45Y1164.95  ;
N369 G1X97.48Y1164.95  ;
N370 G1X69.48Y1193.95  ;
N371 G1X68.95Y1193.95  ;
N372 G1X68.95Y1197.05  ;
N373 G1X69.45Y1197.05  ;
N374 G1X69.45Y1224.05  ;
N375 G3X84.37Y1237.5I0.05J14.95  ;
N376 G65 P9104 A101 B01  ;
N377 M98 P9103  ;
(P9:ID2:W86011514)  ;
N378 M98 P9101  ;
N379 G0X109.95Y1371  ;
N380 G65 P9102 A101 B01  ;
N381 G1X109.95Y1373.95  ;
N382 G3X110Y1373.95I0.05J-9.95  ;
N383 G65 P9104 A101 B01  ;
N384 G0X109.95Y1448  ;
N385 G65 P9102 A101 B01  ;
N386 G1X109.95Y1450.95  ;
N387 G3X110Y1450.95I0.05J-9.95  ;
N388 G65 P9104 A101 B01  ;
N389 G0X132.03Y1318  ;
N390 G65 P9102 A101 B01  ;
N391 G1X132.03Y1322.95  ;
N392 G1X129.95Y1322.95  ;
N393 G1X129.95Y1327.95  ;
N394 G1X126.95Y1327.95  ;
N395 G1X126.95Y1328.45  ;
N396 G1X89.98Y1328.45  ;
N397 G1X65.98Y1352.95  ;
N398 G1X62.98Y1352.95  ;
N399 G1X61.95Y1353.98  ;
N400 G1X61.95Y1357.02  ;
N401 G1X62.98Y1358.05  ;
N402 G1X65.45Y1358.05  ;
N403 G1X65.45Y1361.05  ;
N404 G1X65.95Y1361.05  ;
N405 G1X65.95Y1387.55  ;
N406 G3X65.95Y1417.45I0.05J14.95  ;
N407 G1X65.95Y1448.95  ;
N408 G1X65.45Y1448.95  ;
N409 G1X65.45Y1452.05  ;
N410 G1X65.98Y1452.05  ;
N411 G1X89.98Y1476.55  ;
N412 G1X126.95Y1476.55  ;
N413 G1X126.95Y1477.05  ;
N414 G1X129.95Y1477.05  ;
N415 G1X129.95Y1482.05  ;
N416 G1X135.05Y1482.05  ;
N417 G1X135.05Y1322.95  ;
N418 G1X132.73Y1322.95  ;
N419 G65 P9104 A101 B01  ;
N420 M98 P9103  ;
(P10:ID2:W86011514)  ;
N421 M98 P9101  ;
N422 G0X123.95Y1537  ;
N423 G65 P9102 A101 B01  ;
N424 G1X123.95Y1539.95  ;
N425 G3X124Y1539.95I0.05J-9.95  ;
N426 G65 P9104 A101 B01  ;
N427 G0X123.95Y1614  ;
N428 G65 P9102 A101 B01  ;
N429 G1X123.95Y1616.95  ;
N430 G3X124Y1616.95I0.05J-9.95  ;
N431 G65 P9104 A101 B01  ;
N432 G0X146.03Y1484  ;
N433 G65 P9102 A101 B01  ;
N434 G1X146.03Y1488.95  ;
N435 G1X143.95Y1488.95  ;
N436 G1X143.95Y1493.95  ;
N437 G1X140.95Y1493.95  ;
N438 G1X140.95Y1494.45  ;
N439 G1X103.98Y1494.45  ;
N440 G1X79.98Y1518.95  ;
N441 G1X76.98Y1518.95  ;
N442 G1X75.95Y1519.98  ;
N443 G1X75.95Y1523.02  ;
N444 G1X76.98Y1524.05  ;
N445 G1X79.45Y1524.05  ;
N446 G1X79.45Y1527.05  ;
N447 G1X79.95Y1527.05  ;
N448 G1X79.95Y1553.55  ;
N449 G3X79.95Y1583.45I0.05J14.95  ;
N450 G1X79.95Y1614.95  ;
N451 G1X79.45Y1614.95  ;
N452 G1X79.45Y1618.05  ;
N453 G1X79.98Y1618.05  ;
N454 G1X103.98Y1642.55  ;
N455 G1X140.95Y1642.55  ;
N456 G1X140.95Y1643.05  ;
N457 G1X143.95Y1643.05  ;
N458 G1X143.95Y1648.05  ;
N459 G1X149.05Y1648.05  ;
N460 G1X149.05Y1488.95  ;
N461 G1X146.73Y1488.95  ;
N462 G65 P9104 A101 B01  ;
N463 M98 P9103  ;
(P11:ID2:W86011514)  ;
N464 M98 P9101  ;
N465 G0X110.45Y1700.5  ;
N466 G65 P9102 A101 B01  ;
N467 G1X110.45Y1703.45  ;
N468 G3X110.5Y1703.45I0.05J-9.95  ;
N469 G65 P9104 A101 B01  ;
N470 G0X110.45Y1777.5  ;
N471 G65 P9102 A101 B01  ;
N472 G1X110.45Y1780.45  ;
N473 G3X110.5Y1780.45I0.05J-9.95  ;
N474 G65 P9104 A101 B01  ;
N475 G0X132.53Y1647.5  ;
N476 G65 P9102 A101 B01  ;
N477 G1X132.53Y1652.45  ;
N478 G1X130.45Y1652.45  ;
N479 G1X130.45Y1657.45  ;
N480 G1X127.45Y1657.45  ;
N481 G1X127.45Y1657.95  ;
N482 G1X90.48Y1657.95  ;
N483 G1X66.48Y1682.45  ;
N484 G1X63.48Y1682.45  ;
N485 G1X62.45Y1683.48  ;
N486 G1X62.45Y1686.52  ;
N487 G1X63.48Y1687.55  ;
N488 G1X65.95Y1687.55  ;
N489 G1X65.95Y1690.55  ;
N490 G1X66.45Y1690.55  ;
N491 G1X66.45Y1717.05  ;
N492 G3X66.45Y1746.95I0.05J14.95  ;
N493 G1X66.45Y1778.45  ;
N494 G1X65.95Y1778.45  ;
N495 G1X65.95Y1781.55  ;
N496 G1X66.48Y1781.55  ;
N497 G1X90.48Y1806.05  ;
N498 G1X127.45Y1806.05  ;
N499 G1X127.45Y1806.55  ;
N500 G1X130.45Y1806.55  ;
N501 G1X130.45Y1811.55  ;
N502 G1X135.55Y1811.55  ;
N503 G1X135.55Y1652.45  ;
N504 G1X133.23Y1652.45  ;
N505 G65 P9104 A102 B04  ;
N506 M98 P9103  ;
(P12:ID3:W86011501)  ;
N507 M98 P9101  ;
N508 G0X1376.62Y183.57  ;
N509 G65 P9102 A102 B04  ;
N510 G1X1376.62Y197.43  ;
N511 G1X1364.62Y204.36  ;
N512 G1X1352.62Y197.43  ;
N513 G1X1352.62Y183.57  ;
N514 G1X1364.62Y176.64  ;
N515 G1X1376.62Y183.57  ;
N516 G65 P9104 A102 B04  ;
N517 G0X1316.62Y183.57  ;
N518 G65 P9102 A102 B04  ;
N519 G1X1316.62Y197.43  ;
N520 G1X1304.62Y204.36  ;
N521 G1X1292.62Y197.43  ;
N522 G1X1292.62Y183.57  ;
N523 G1X1304.62Y176.64  ;
N524 G1X1316.62Y183.57  ;
N525 G65 P9104 A102 B04  ;
N526 G0X1186.5Y155.41  ;
N527 G65 P9102 A102 B04  ;
N528 G1X1178Y160.31  ;
N529 G1X1169.5Y155.41  ;
N530 G1X1169.5Y145.59  ;
N531 G1X1178Y140.69  ;
N532 G1X1186.5Y145.59  ;
N533 G1X1186.5Y155.41  ;
N534 G65 P9104 A102 B04  ;
N535 G0X1304.62Y351.64  ;
N536 G65 P9102 A102 B04  ;
N537 G1X1316.62Y358.57  ;
N538 G1X1316.62Y372.43  ;
N539 G1X1304.62Y379.36  ;
N540 G1X1292.62Y372.43  ;
N541 G1X1292.62Y358.57  ;
N542 G1X1304.62Y351.64  ;
N543 G65 P9104 A102 B04  ;
N544 G0X1352.62Y358.57  ;
N545 G65 P9102 A102 B04  ;
N546 G1X1364.62Y351.64  ;
N547 G1X1376.62Y358.57  ;
N548 G1X1376.62Y372.43  ;
N549 G1X1364.62Y379.36  ;
N550 G1X1352.62Y372.43  ;
N551 G1X1352.62Y358.57  ;
N552 G65 P9104 A102 B04  ;
N553 G0X1322.12Y604.14  ;
N554 G65 P9102 A102 B04  ;
N555 G1X1334.12Y611.07  ;
N556 G1X1334.12Y624.93  ;
N557 G1X1322.12Y631.86  ;
N558 G1X1310.12Y624.93  ;
N559 G1X1310.12Y611.07  ;
N560 G1X1322.12Y604.14  ;
N561 G65 P9104 A102 B04  ;
N562 G0X1178Y923.69  ;
N563 G65 P9102 A102 B04  ;
N564 G1X1186.5Y928.59  ;
N565 G1X1186.5Y938.41  ;
N566 G1X1178Y943.31  ;
N567 G1X1169.5Y938.41  ;
N568 G1X1169.5Y928.59  ;
N569 G1X1178Y923.69  ;
N570 G65 P9104 A102 B04  ;
N571 G0X1178Y1107.69  ;
N572 G65 P9102 A102 B04  ;
N573 G1X1186.5Y1112.59  ;
N574 G1X1186.5Y1122.41  ;
N575 G1X1178Y1127.31  ;
N576 G1X1169.5Y1122.41  ;
N577 G1X1169.5Y1112.59  ;
N578 G1X1178Y1107.69  ;
N579 G65 P9104 A102 B04  ;
N580 G0X1322.12Y1419.14  ;
N581 G65 P9102 A102 B04  ;
N582 G1X1334.12Y1426.07  ;
N583 G1X1334.12Y1439.93  ;
N584 G1X1322.12Y1446.86  ;
N585 G1X1310.12Y1439.93  ;
N586 G1X1310.12Y1426.07  ;
N587 G1X1322.12Y1419.14  ;
N588 G65 P9104 A102 B04  ;
N589 G0X1364.62Y1671.64  ;
N590 G65 P9102 A102 B04  ;
N591 G1X1376.62Y1678.57  ;
N592 G1X1376.62Y1692.43  ;
N593 G1X1364.62Y1699.36  ;
N594 G1X1352.62Y1692.43  ;
N595 G1X1352.62Y1678.57  ;
N596 G1X1364.62Y1671.64  ;
N597 G65 P9104 A102 B04  ;
N598 G0X1316.62Y1678.57  ;
N599 G65 P9102 A102 B04  ;
N600 G1X1316.62Y1692.43  ;
N601 G1X1304.62Y1699.36  ;
N602 G1X1292.62Y1692.43  ;
N603 G1X1292.62Y1678.57  ;
N604 G1X1304.62Y1671.64  ;
N605 G1X1316.62Y1678.57  ;
N606 G65 P9104 A102 B04  ;
N607 G0X1304.62Y1846.64  ;
N608 G65 P9102 A102 B04  ;
N609 G1X1316.62Y1853.57  ;
N610 G1X1316.62Y1867.43  ;
N611 G1X1304.62Y1874.36  ;
N612 G1X1292.62Y1867.43  ;
N613 G1X1292.62Y1853.57  ;
N614 G1X1304.62Y1846.64  ;
N615 G65 P9104 A102 B04  ;
N616 G0X1352.62Y1853.57  ;
N617 G65 P9102 A102 B04  ;
N618 G1X1364.62Y1846.64  ;
N619 G1X1376.62Y1853.57  ;
N620 G1X1376.62Y1867.43  ;
N621 G1X1364.62Y1874.36  ;
N622 G1X1352.62Y1867.43  ;
N623 G1X1352.62Y1853.57  ;
N624 G65 P9104 A102 B04  ;
N625 G0X1186.5Y1895.59  ;
N626 G65 P9102 A102 B04  ;
N627 G1X1186.5Y1905.41  ;
N628 G1X1178Y1910.31  ;
N629 G1X1169.5Y1905.41  ;
N630 G1X1169.5Y1895.59  ;
N631 G1X1178Y1890.69  ;
N632 G1X1186.5Y1895.59  ;
N633 G65 P9104 A101 B02  ;
N634 G0X1175.67Y1902.76  ;
N635 G65 P9102 A101 B02  ;
N636 G1X1173.58Y1904.85  ;
N637 G3X1173.62Y1904.88I4.42J-4.35  ;
N638 G65 P9104 A101 B02  ;
N639 G0X1223.14Y1928.29  ;
N640 G65 P9102 A101 B02  ;
N641 G1X1221.05Y1930.38  ;
N642 G3X1221.09Y1930.41I4.95J-4.88  ;
N643 G65 P9104 A101 B02  ;
N644 G0X1305.12Y1953.55  ;
N645 G65 P9102 A101 B02  ;
N646 G1X1302.12Y1953.55  ;
N647 G2X1301.17Y1954.5I0J0.95  ;
N648 G1X1301.17Y1957.45  ;
N649 G1X1343.07Y1957.45  ;
N650 G1X1343.07Y1951.55  ;
N651 G1X1301.17Y1951.55  ;
N652 G1X1301.17Y1954.5  ;
N653 G65 P9104 A101 B02  ;
N654 G0X1300.03Y1865.03  ;
N655 G65 P9102 A101 B02  ;
N656 G1X1297.94Y1867.11  ;
N657 G3X1297.98Y1867.15I6.68J-6.61  ;
N658 G65 P9104 A101 B02  ;
N659 G0X1360.03Y1865.03  ;
N660 G65 P9102 A101 B02  ;
N661 G1X1357.94Y1867.11  ;
N662 G3X1357.98Y1867.15I6.68J-6.61  ;
N663 G65 P9104 A101 B02  ;
N664 G0X1438.97Y2011.21  ;
N665 G65 P9102 A101 B02  ;
N666 G1X1436.88Y2013.29  ;
N667 G3X1436.92Y2013.33I6.37J-6.29  ;
N668 G65 P9104 A101 B02  ;
N669 G0X1178.48Y1801.95  ;
N670 G65 P9102 A101 B02  ;
N671 G1X1176.39Y1804.04  ;
N672 G3X1176.43Y1804.07I3.61J-3.54  ;
N673 G65 P9104 A101 B02  ;
N674 G0X1300.03Y1690.03  ;
N675 G65 P9102 A101 B02  ;
N676 G1X1297.94Y1692.11  ;
N677 G3X1297.98Y1692.15I6.68J-6.61  ;
N678 G65 P9104 A101 B02  ;
N679 G0X1360.03Y1690.03  ;
N680 G65 P9102 A101 B02  ;
N681 G1X1357.94Y1692.11  ;
N682 G3X1357.98Y1692.15I6.68J-6.61  ;
N683 G65 P9104 A101 B02  ;
N684 G0X1305.12Y1579.05  ;
N685 G65 P9102 A101 B02  ;
N686 G1X1302.12Y1579.05  ;
N687 G2X1301.17Y1580I0J0.95  ;
N688 G1X1301.17Y1582.95  ;
N689 G1X1343.07Y1582.95  ;
N690 G1X1343.07Y1577.05  ;
N691 G1X1301.17Y1577.05  ;
N692 G1X1301.17Y1580  ;
N693 G65 P9104 A101 B02  ;
N694 G0X1223.14Y1478.29  ;
N695 G65 P9102 A101 B02  ;
N696 G1X1221.05Y1480.38  ;
N697 G3X1221.09Y1480.41I4.95J-4.88  ;
N698 G65 P9104 A101 B02  ;
N699 G0X1317.53Y1437.53  ;
N700 G65 P9102 A101 B02  ;
N701 G1X1315.44Y1439.61  ;
N702 G3X1315.48Y1439.65I6.68J-6.61  ;
N703 G65 P9104 A101 B02  ;
N704 G0X1175.67Y1119.76  ;
N705 G65 P9102 A101 B02  ;
N706 G1X1173.58Y1121.85  ;
N707 G3X1173.62Y1121.88I4.42J-4.35  ;
N708 G65 P9104 A101 B02  ;
N709 G0X1223.14Y1028.29  ;
N710 G65 P9102 A101 B02  ;
N711 G1X1221.05Y1030.38  ;
N712 G3X1221.09Y1030.41I4.95J-4.88  ;
N713 G65 P9104 A101 B02  ;
N714 G0X1305.12Y990.05  ;
N715 G65 P9102 A101 B02  ;
N716 G1X1302.12Y990.05  ;
N717 G2X1301.17Y991I0J0.95  ;
N718 G1X1301.17Y993.95  ;
N719 G1X1343.07Y993.95  ;
N720 G1X1343.07Y988.05  ;
N721 G1X1301.17Y988.05  ;
N722 G1X1301.17Y991  ;
N723 G65 P9104 A101 B02  ;
N724 G0X1175.67Y935.76  ;
N725 G65 P9102 A101 B02  ;
N726 G1X1173.58Y937.85  ;
N727 G3X1173.62Y937.88I4.42J-4.35  ;
N728 G65 P9104 A101 B02  ;
N729 G0X1317.53Y622.53  ;
N730 G65 P9102 A101 B02  ;
N731 G1X1315.44Y624.61  ;
N732 G3X1315.48Y624.65I6.68J-6.61  ;
N733 G65 P9104 A101 B02  ;
N734 G0X1223.14Y578.29  ;
N735 G65 P9102 A101 B02  ;
N736 G1X1221.05Y580.38  ;
N737 G3X1221.09Y580.41I4.95J-4.88  ;
N738 G65 P9104 A101 B02  ;
N739 G0X1305.12Y427.05  ;
N740 G65 P9102 A101 B02  ;
N741 G1X1302.12Y427.05  ;
N742 G2X1301.17Y428I0J0.95  ;
N743 G1X1301.17Y430.95  ;
N744 G1X1343.07Y430.95  ;
N745 G1X1343.07Y425.05  ;
N746 G1X1301.17Y425.05  ;
N747 G1X1301.17Y428  ;
N748 G65 P9104 A101 B02  ;
N749 G0X1300.03Y370.03  ;
N750 G65 P9102 A101 B02  ;
N751 G1X1297.94Y372.11  ;
N752 G3X1297.98Y372.15I6.68J-6.61  ;
N753 G65 P9104 A101 B02  ;
N754 G0X1360.03Y370.03  ;
N755 G65 P9102 A101 B02  ;
N756 G1X1357.94Y372.11  ;
N757 G3X1357.98Y372.15I6.68J-6.61  ;
N758 G65 P9104 A101 B02  ;
N759 G0X1178.48Y251.95  ;
N760 G65 P9102 A101 B02  ;
N761 G1X1176.39Y254.04  ;
N762 G3X1176.43Y254.07I3.61J-3.54  ;
N763 G65 P9104 A101 B02  ;
N764 G0X1175.67Y152.76  ;
N765 G65 P9102 A101 B02  ;
N766 G1X1173.58Y154.85  ;
N767 G3X1173.62Y154.88I4.42J-4.35  ;
N768 G65 P9104 A101 B02  ;
N769 G0X1223.14Y128.29  ;
N770 G65 P9102 A101 B02  ;
N771 G1X1221.05Y130.38  ;
N772 G3X1221.09Y130.41I4.95J-4.88  ;
N773 G65 P9104 A101 B02  ;
N774 G0X1300.03Y195.03  ;
N775 G65 P9102 A101 B02  ;
N776 G1X1297.94Y197.11  ;
N777 G3X1297.98Y197.15I6.68J-6.61  ;
N778 G65 P9104 A101 B02  ;
N779 G0X1360.03Y195.03  ;
N780 G65 P9102 A101 B02  ;
N781 G1X1357.94Y197.11  ;
N782 G3X1357.98Y197.15I6.68J-6.61  ;
N783 G65 P9104 A101 B02  ;
N784 G0X1305.12Y96.55  ;
N785 G65 P9102 A101 B02  ;
N786 G1X1302.12Y96.55  ;
N787 G2X1301.17Y97.5I0J0.95  ;
N788 G1X1301.17Y100.45  ;
N789 G1X1343.07Y100.45  ;
N790 G1X1343.07Y94.55  ;
N791 G1X1301.17Y94.55  ;
N792 G1X1301.17Y97.5  ;
N793 G65 P9104 A101 B02  ;
N794 G0X1438.97Y48.21  ;
N795 G65 P9102 A101 B02  ;
N796 G1X1436.88Y50.29  ;
N797 G3X1436.92Y50.33I6.37J-6.29  ;
N798 G65 P9104 A101 B01  ;
N799 G0X1486.25Y14.95  ;
N800 G65 P9102 A101 B01  ;
N801 G1X1483.25Y14.95  ;
N802 G1X1160.95Y14.95  ;
N803 G1X1160.95Y138.5  ;
N804 G1X1166.15Y138.5  ;
N805 G1X1166.15Y143.6  ;
N806 G1X1160.95Y143.6  ;
N807 G1X1160.95Y2037.05  ;
N808 G1X1483.3Y2037.05  ;
N809 G1X1483.3Y143.6  ;
N810 G1X1478.1Y143.6  ;
N811 G1X1478.1Y138.5  ;
N812 G1X1483.3Y138.5  ;
N813 G1X1483.3Y15  ;
N814 G65 P9104 A102 B04  ;
N815 M98 P9103  ;
(P13:ID3:W86011501)  ;
N816 M98 P9101  ;
N817 G0X1042.62Y183.57  ;
N818 G65 P9102 A102 B04  ;
N819 G1X1042.62Y197.43  ;
N820 G1X1030.62Y204.36  ;
N821 G1X1018.62Y197.43  ;
N822 G1X1018.62Y183.57  ;
N823 G1X1030.62Y176.64  ;
N824 G1X1042.62Y183.57  ;
N825 G65 P9104 A102 B04  ;
N826 G0X982.62Y183.57  ;
N827 G65 P9102 A102 B04  ;
N828 G1X982.62Y197.43  ;
N829 G1X970.62Y204.36  ;
N830 G1X958.62Y197.43  ;
N831 G1X958.62Y183.57  ;
N832 G1X970.62Y176.64  ;
N833 G1X982.62Y183.57  ;
N834 G65 P9104 A102 B04  ;
N835 G0X852.5Y155.41  ;
N836 G65 P9102 A102 B04  ;
N837 G1X844Y160.31  ;
N838 G1X835.5Y155.41  ;
N839 G1X835.5Y145.59  ;
N840 G1X844Y140.69  ;
N841 G1X852.5Y145.59  ;
N842 G1X852.5Y155.41  ;
N843 G65 P9104 A102 B04  ;
N844 G0X970.62Y351.64  ;
N845 G65 P9102 A102 B04  ;
N846 G1X982.62Y358.57  ;
N847 G1X982.62Y372.43  ;
N848 G1X970.62Y379.36  ;
N849 G1X958.62Y372.43  ;
N850 G1X958.62Y358.57  ;
N851 G1X970.62Y351.64  ;
N852 G65 P9104 A102 B04  ;
N853 G0X1018.62Y358.57  ;
N854 G65 P9102 A102 B04  ;
N855 G1X1030.62Y351.64  ;
N856 G1X1042.62Y358.57  ;
N857 G1X1042.62Y372.43  ;
N858 G1X1030.62Y379.36  ;
N859 G1X1018.62Y372.43  ;
N860 G1X1018.62Y358.57  ;
N861 G65 P9104 A102 B04  ;
N862 G0X988.12Y604.14  ;
N863 G65 P9102 A102 B04  ;
N864 G1X1000.12Y611.07  ;
N865 G1X1000.12Y624.93  ;
N866 G1X988.12Y631.86  ;
N867 G1X976.12Y624.93  ;
N868 G1X976.12Y611.07  ;
N869 G1X988.12Y604.14  ;
N870 G65 P9104 A102 B04  ;
N871 G0X844Y923.69  ;
N872 G65 P9102 A102 B04  ;
N873 G1X852.5Y928.59  ;
N874 G1X852.5Y938.41  ;
N875 G1X844Y943.31  ;
N876 G1X835.5Y938.41  ;
N877 G1X835.5Y928.59  ;
N878 G1X844Y923.69  ;
N879 G65 P9104 A102 B04  ;
N880 G0X844Y1107.69  ;
N881 G65 P9102 A102 B04  ;
N882 G1X852.5Y1112.59  ;
N883 G1X852.5Y1122.41  ;
N884 G1X844Y1127.31  ;
N885 G1X835.5Y1122.41  ;
N886 G1X835.5Y1112.59  ;
N887 G1X844Y1107.69  ;
N888 G65 P9104 A102 B04  ;
N889 G0X988.12Y1419.14  ;
N890 G65 P9102 A102 B04  ;
N891 G1X1000.12Y1426.07  ;
N892 G1X1000.12Y1439.93  ;
N893 G1X988.12Y1446.86  ;
N894 G1X976.12Y1439.93  ;
N895 G1X976.12Y1426.07  ;
N896 G1X988.12Y1419.14  ;
N897 G65 P9104 A102 B04  ;
N898 G0X1030.62Y1671.64  ;
N899 G65 P9102 A102 B04  ;
N900 G1X1042.62Y1678.57  ;
N901 G1X1042.62Y1692.43  ;
N902 G1X1030.62Y1699.36  ;
N903 G1X1018.62Y1692.43  ;
N904 G1X1018.62Y1678.57  ;
N905 G1X1030.62Y1671.64  ;
N906 G65 P9104 A102 B04  ;
N907 G0X982.62Y1678.57  ;
N908 G65 P9102 A102 B04  ;
N909 G1X982.62Y1692.43  ;
N910 G1X970.62Y1699.36  ;
N911 G1X958.62Y1692.43  ;
N912 G1X958.62Y1678.57  ;
N913 G1X970.62Y1671.64  ;
N914 G1X982.62Y1678.57  ;
N915 G65 P9104 A102 B04  ;
N916 G0X970.62Y1846.64  ;
N917 G65 P9102 A102 B04  ;
N918 G1X982.62Y1853.57  ;
N919 G1X982.62Y1867.43  ;
N920 G1X970.62Y1874.36  ;
N921 G1X958.62Y1867.43  ;
N922 G1X958.62Y1853.57  ;
N923 G1X970.62Y1846.64  ;
N924 G65 P9104 A102 B04  ;
N925 G0X1018.62Y1853.57  ;
N926 G65 P9102 A102 B04  ;
N927 G1X1030.62Y1846.64  ;
N928 G1X1042.62Y1853.57  ;
N929 G1X1042.62Y1867.43  ;
N930 G1X1030.62Y1874.36  ;
N931 G1X1018.62Y1867.43  ;
N932 G1X1018.62Y1853.57  ;
N933 G65 P9104 A102 B04  ;
N934 G0X852.5Y1895.59  ;
N935 G65 P9102 A102 B04  ;
N936 G1X852.5Y1905.41  ;
N937 G1X844Y1910.31  ;
N938 G1X835.5Y1905.41  ;
N939 G1X835.5Y1895.59  ;
N940 G1X844Y1890.69  ;
N941 G1X852.5Y1895.59  ;
N942 G65 P9104 A101 B02  ;
N943 G0X841.67Y1902.76  ;
N944 G65 P9102 A101 B02  ;
N945 G1X839.58Y1904.85  ;
N946 G3X839.62Y1904.88I4.42J-4.35  ;
N947 G65 P9104 A101 B02  ;
N948 G0X889.14Y1928.29  ;
N949 G65 P9102 A101 B02  ;
N950 G1X887.05Y1930.38  ;
N951 G3X887.09Y1930.41I4.95J-4.88  ;
N952 G65 P9104 A101 B02  ;
N953 G0X971.12Y1953.55  ;
N954 G65 P9102 A101 B02  ;
N955 G1X968.12Y1953.55  ;
N956 G2X967.17Y1954.5I0J0.95  ;
N957 G1X967.17Y1957.45  ;
N958 G1X1009.07Y1957.45  ;
N959 G1X1009.07Y1951.55  ;
N960 G1X967.17Y1951.55  ;
N961 G1X967.17Y1954.5  ;
N962 G65 P9104 A101 B02  ;
N963 G0X966.03Y1865.03  ;
N964 G65 P9102 A101 B02  ;
N965 G1X963.94Y1867.11  ;
N966 G3X963.98Y1867.15I6.68J-6.61  ;
N967 G65 P9104 A101 B02  ;
N968 G0X1026.03Y1865.03  ;
N969 G65 P9102 A101 B02  ;
N970 G1X1023.94Y1867.11  ;
N971 G3X1023.98Y1867.15I6.68J-6.61  ;
N972 G65 P9104 A101 B02  ;
N973 G0X1104.97Y2011.21  ;
N974 G65 P9102 A101 B02  ;
N975 G1X1102.88Y2013.29  ;
N976 G3X1102.92Y2013.33I6.37J-6.29  ;
N977 G65 P9104 A101 B02  ;
N978 G0X844.48Y1801.95  ;
N979 G65 P9102 A101 B02  ;
N980 G1X842.39Y1804.04  ;
N981 G3X842.43Y1804.07I3.61J-3.54  ;
N982 G65 P9104 A101 B02  ;
N983 G0X966.03Y1690.03  ;
N984 G65 P9102 A101 B02  ;
N985 G1X963.94Y1692.11  ;
N986 G3X963.98Y1692.15I6.68J-6.61  ;
N987 G65 P9104 A101 B02  ;
N988 G0X1026.03Y1690.03  ;
N989 G65 P9102 A101 B02  ;
N990 G1X1023.94Y1692.11  ;
N991 G3X1023.98Y1692.15I6.68J-6.61  ;
N992 G65 P9104 A101 B02  ;
N993 G0X971.12Y1579.05  ;
N994 G65 P9102 A101 B02  ;
N995 G1X968.12Y1579.05  ;
N996 G2X967.17Y1580I0J0.95  ;
N997 G1X967.17Y1582.95  ;
N998 G1X1009.07Y1582.95  ;
N999 G1X1009.07Y1577.05  ;
N1000 G1X967.17Y1577.05  ;
N1001 G1X967.17Y1580  ;
N1002 G65 P9104 A101 B02  ;
N1003 G0X889.14Y1478.29  ;
N1004 G65 P9102 A101 B02  ;
N1005 G1X887.05Y1480.38  ;
N1006 G3X887.09Y1480.41I4.95J-4.88  ;
N1007 G65 P9104 A101 B02  ;
N1008 G0X983.53Y1437.53  ;
N1009 G65 P9102 A101 B02  ;
N1010 G1X981.44Y1439.61  ;
N1011 G3X981.48Y1439.65I6.68J-6.61  ;
N1012 G65 P9104 A101 B02  ;
N1013 G0X841.67Y1119.76  ;
N1014 G65 P9102 A101 B02  ;
N1015 G1X839.58Y1121.85  ;
N1016 G3X839.62Y1121.88I4.42J-4.35  ;
N1017 G65 P9104 A101 B02  ;
N1018 G0X889.14Y1028.29  ;
N1019 G65 P9102 A101 B02  ;
N1020 G1X887.05Y1030.38  ;
N1021 G3X887.09Y1030.41I4.95J-4.88  ;
N1022 G65 P9104 A101 B02  ;
N1023 G0X971.12Y990.05  ;
N1024 G65 P9102 A101 B02  ;
N1025 G1X968.12Y990.05  ;
N1026 G2X967.17Y991I0J0.95  ;
N1027 G1X967.17Y993.95  ;
N1028 G1X1009.07Y993.95  ;
N1029 G1X1009.07Y988.05  ;
N1030 G1X967.17Y988.05  ;
N1031 G1X967.17Y991  ;
N1032 G65 P9104 A101 B02  ;
N1033 G0X841.67Y935.76  ;
N1034 G65 P9102 A101 B02  ;
N1035 G1X839.58Y937.85  ;
N1036 G3X839.62Y937.88I4.42J-4.35  ;
N1037 G65 P9104 A101 B02  ;
N1038 G0X983.53Y622.53  ;
N1039 G65 P9102 A101 B02  ;
N1040 G1X981.44Y624.61  ;
N1041 G3X981.48Y624.65I6.68J-6.61  ;
N1042 G65 P9104 A101 B02  ;
N1043 G0X889.14Y578.29  ;
N1044 G65 P9102 A101 B02  ;
N1045 G1X887.05Y580.38  ;
N1046 G3X887.09Y580.41I4.95J-4.88  ;
N1047 G65 P9104 A101 B02  ;
N1048 G0X971.12Y427.05  ;
N1049 G65 P9102 A101 B02  ;
N1050 G1X968.12Y427.05  ;
N1051 G2X967.17Y428I0J0.95  ;
N1052 G1X967.17Y430.95  ;
N1053 G1X1009.07Y430.95  ;
N1054 G1X1009.07Y425.05  ;
N1055 G1X967.17Y425.05  ;
N1056 G1X967.17Y428  ;
N1057 G65 P9104 A101 B02  ;
N1058 G0X966.03Y370.03  ;
N1059 G65 P9102 A101 B02  ;
N1060 G1X963.94Y372.11  ;
N1061 G3X963.98Y372.15I6.68J-6.61  ;
N1062 G65 P9104 A101 B02  ;
N1063 G0X1026.03Y370.03  ;
N1064 G65 P9102 A101 B02  ;
N1065 G1X1023.94Y372.11  ;
N1066 G3X1023.98Y372.15I6.68J-6.61  ;
N1067 G65 P9104 A101 B02  ;
N1068 G0X844.48Y251.95  ;
N1069 G65 P9102 A101 B02  ;
N1070 G1X842.39Y254.04  ;
N1071 G3X842.43Y254.07I3.61J-3.54  ;
N1072 G65 P9104 A101 B02  ;
N1073 G0X841.67Y152.76  ;
N1074 G65 P9102 A101 B02  ;
N1075 G1X839.58Y154.85  ;
N1076 G3X839.62Y154.88I4.42J-4.35  ;
N1077 G65 P9104 A101 B02  ;
N1078 G0X889.14Y128.29  ;
N1079 G65 P9102 A101 B02  ;
N1080 G1X887.05Y130.38  ;
N1081 G3X887.09Y130.41I4.95J-4.88  ;
N1082 G65 P9104 A101 B02  ;
N1083 G0X966.03Y195.03  ;
N1084 G65 P9102 A101 B02  ;
N1085 G1X963.94Y197.11  ;
N1086 G3X963.98Y197.15I6.68J-6.61  ;
N1087 G65 P9104 A101 B02  ;
N1088 G0X1026.03Y195.03  ;
N1089 G65 P9102 A101 B02  ;
N1090 G1X1023.94Y197.11  ;
N1091 G3X1023.98Y197.15I6.68J-6.61  ;
N1092 G65 P9104 A101 B02  ;
N1093 G0X971.12Y96.55  ;
N1094 G65 P9102 A101 B02  ;
N1095 G1X968.12Y96.55  ;
N1096 G2X967.17Y97.5I0J0.95  ;
N1097 G1X967.17Y100.45  ;
N1098 G1X1009.07Y100.45  ;
N1099 G1X1009.07Y94.55  ;
N1100 G1X967.17Y94.55  ;
N1101 G1X967.17Y97.5  ;
N1102 G65 P9104 A101 B02  ;
N1103 G0X1104.97Y48.21  ;
N1104 G65 P9102 A101 B02  ;
N1105 G1X1102.88Y50.29  ;
N1106 G3X1102.92Y50.33I6.37J-6.29  ;
N1107 G65 P9104 A101 B01  ;
N1108 G0X1152.25Y14.95  ;
N1109 G65 P9102 A101 B01  ;
N1110 G1X1149.25Y14.95  ;
N1111 G1X826.95Y14.95  ;
N1112 G1X826.95Y138.5  ;
N1113 G1X832.15Y138.5  ;
N1114 G1X832.15Y143.6  ;
N1115 G1X826.95Y143.6  ;
N1116 G1X826.95Y2037.05  ;
N1117 G1X1149.3Y2037.05  ;
N1118 G1X1149.3Y143.6  ;
N1119 G1X1144.1Y143.6  ;
N1120 G1X1144.1Y138.5  ;
N1121 G1X1149.3Y138.5  ;
N1122 G1X1149.3Y15  ;
N1123 G65 P9104 A102 B04  ;
N1124 M98 P9103  ;
(P14:ID3:W86011501)  ;
N1125 M98 P9101  ;
N1126 G0X708.62Y183.57  ;
N1127 G65 P9102 A102 B04  ;
N1128 G1X708.62Y197.43  ;
N1129 G1X696.62Y204.36  ;
N1130 G1X684.62Y197.43  ;
N1131 G1X684.62Y183.57  ;
N1132 G1X696.62Y176.64  ;
N1133 G1X708.62Y183.57  ;
N1134 G65 P9104 A102 B04  ;
N1135 G0X648.62Y183.57  ;
N1136 G65 P9102 A102 B04  ;
N1137 G1X648.62Y197.43  ;
N1138 G1X636.62Y204.36  ;
N1139 G1X624.62Y197.43  ;
N1140 G1X624.62Y183.57  ;
N1141 G1X636.62Y176.64  ;
N1142 G1X648.62Y183.57  ;
N1143 G65 P9104 A102 B04  ;
N1144 G0X518.5Y155.41  ;
N1145 G65 P9102 A102 B04  ;
N1146 G1X510Y160.31  ;
N1147 G1X501.5Y155.41  ;
N1148 G1X501.5Y145.59  ;
N1149 G1X510Y140.69  ;
N1150 G1X518.5Y145.59  ;
N1151 G1X518.5Y155.41  ;
N1152 G65 P9104 A102 B04  ;
N1153 G0X636.62Y351.64  ;
N1154 G65 P9102 A102 B04  ;
N1155 G1X648.62Y358.57  ;
N1156 G1X648.62Y372.43  ;
N1157 G1X636.62Y379.36  ;
N1158 G1X624.62Y372.43  ;
N1159 G1X624.62Y358.57  ;
N1160 G1X636.62Y351.64  ;
N1161 G65 P9104 A102 B04  ;
N1162 G0X684.62Y358.57  ;
N1163 G65 P9102 A102 B04  ;
N1164 G1X696.62Y351.64  ;
N1165 G1X708.62Y358.57  ;
N1166 G1X708.62Y372.43  ;
N1167 G1X696.62Y379.36  ;
N1168 G1X684.62Y372.43  ;
N1169 G1X684.62Y358.57  ;
N1170 G65 P9104 A102 B04  ;
N1171 G0X654.12Y604.14  ;
N1172 G65 P9102 A102 B04  ;
N1173 G1X666.12Y611.07  ;
N1174 G1X666.12Y624.93  ;
N1175 G1X654.12Y631.86  ;
N1176 G1X642.12Y624.93  ;
N1177 G1X642.12Y611.07  ;
N1178 G1X654.12Y604.14  ;
N1179 G65 P9104 A102 B04  ;
N1180 G0X510Y923.69  ;
N1181 G65 P9102 A102 B04  ;
N1182 G1X518.5Y928.59  ;
N1183 G1X518.5Y938.41  ;
N1184 G1X510Y943.31  ;
N1185 G1X501.5Y938.41  ;
N1186 G1X501.5Y928.59  ;
N1187 G1X510Y923.69  ;
N1188 G65 P9104 A102 B04  ;
N1189 G0X510Y1107.69  ;
N1190 G65 P9102 A102 B04  ;
N1191 G1X518.5Y1112.59  ;
N1192 G1X518.5Y1122.41  ;
N1193 G1X510Y1127.31  ;
N1194 G1X501.5Y1122.41  ;
N1195 G1X501.5Y1112.59  ;
N1196 G1X510Y1107.69  ;
N1197 G65 P9104 A102 B04  ;
N1198 G0X654.12Y1419.14  ;
N1199 G65 P9102 A102 B04  ;
N1200 G1X666.12Y1426.07  ;
N1201 G1X666.12Y1439.93  ;
N1202 G1X654.12Y1446.86  ;
N1203 G1X642.12Y1439.93  ;
N1204 G1X642.12Y1426.07  ;
N1205 G1X654.12Y1419.14  ;
N1206 G65 P9104 A102 B04  ;
N1207 G0X696.62Y1671.64  ;
N1208 G65 P9102 A102 B04  ;
N1209 G1X708.62Y1678.57  ;
N1210 G1X708.62Y1692.43  ;
N1211 G1X696.62Y1699.36  ;
N1212 G1X684.62Y1692.43  ;
N1213 G1X684.62Y1678.57  ;
N1214 G1X696.62Y1671.64  ;
N1215 G65 P9104 A102 B04  ;
N1216 G0X648.62Y1678.57  ;
N1217 G65 P9102 A102 B04  ;
N1218 G1X648.62Y1692.43  ;
N1219 G1X636.62Y1699.36  ;
N1220 G1X624.62Y1692.43  ;
N1221 G1X624.62Y1678.57  ;
N1222 G1X636.62Y1671.64  ;
N1223 G1X648.62Y1678.57  ;
N1224 G65 P9104 A102 B04  ;
N1225 G0X636.62Y1846.64  ;
N1226 G65 P9102 A102 B04  ;
N1227 G1X648.62Y1853.57  ;
N1228 G1X648.62Y1867.43  ;
N1229 G1X636.62Y1874.36  ;
N1230 G1X624.62Y1867.43  ;
N1231 G1X624.62Y1853.57  ;
N1232 G1X636.62Y1846.64  ;
N1233 G65 P9104 A102 B04  ;
N1234 G0X684.62Y1853.57  ;
N1235 G65 P9102 A102 B04  ;
N1236 G1X696.62Y1846.64  ;
N1237 G1X708.62Y1853.57  ;
N1238 G1X708.62Y1867.43  ;
N1239 G1X696.62Y1874.36  ;
N1240 G1X684.62Y1867.43  ;
N1241 G1X684.62Y1853.57  ;
N1242 G65 P9104 A102 B04  ;
N1243 G0X518.5Y1895.59  ;
N1244 G65 P9102 A102 B04  ;
N1245 G1X518.5Y1905.41  ;
N1246 G1X510Y1910.31  ;
N1247 G1X501.5Y1905.41  ;
N1248 G1X501.5Y1895.59  ;
N1249 G1X510Y1890.69  ;
N1250 G1X518.5Y1895.59  ;
N1251 G65 P9104 A101 B02  ;
N1252 G0X507.67Y1902.76  ;
N1253 G65 P9102 A101 B02  ;
N1254 G1X505.58Y1904.85  ;
N1255 G3X505.62Y1904.88I4.42J-4.35  ;
N1256 G65 P9104 A101 B02  ;
N1257 G0X555.14Y1928.29  ;
N1258 G65 P9102 A101 B02  ;
N1259 G1X553.05Y1930.38  ;
N1260 G3X553.09Y1930.41I4.95J-4.88  ;
N1261 G65 P9104 A101 B02  ;
N1262 G0X637.12Y1953.55  ;
N1263 G65 P9102 A101 B02  ;
N1264 G1X634.12Y1953.55  ;
N1265 G2X633.17Y1954.5I0J0.95  ;
N1266 G1X633.17Y1957.45  ;
N1267 G1X675.07Y1957.45  ;
N1268 G1X675.07Y1951.55  ;
N1269 G1X633.17Y1951.55  ;
N1270 G1X633.17Y1954.5  ;
N1271 G65 P9104 A101 B02  ;
N1272 G0X632.03Y1865.03  ;
N1273 G65 P9102 A101 B02  ;
N1274 G1X629.94Y1867.11  ;
N1275 G3X629.98Y1867.15I6.68J-6.61  ;
N1276 G65 P9104 A101 B02  ;
N1277 G0X692.03Y1865.03  ;
N1278 G65 P9102 A101 B02  ;
N1279 G1X689.94Y1867.11  ;
N1280 G3X689.98Y1867.15I6.68J-6.61  ;
N1281 G65 P9104 A101 B02  ;
N1282 G0X770.97Y2011.21  ;
N1283 G65 P9102 A101 B02  ;
N1284 G1X768.88Y2013.29  ;
N1285 G3X768.92Y2013.33I6.37J-6.29  ;
N1286 G65 P9104 A101 B02  ;
N1287 G0X510.48Y1801.95  ;
N1288 G65 P9102 A101 B02  ;
N1289 G1X508.39Y1804.04  ;
N1290 G3X508.43Y1804.07I3.61J-3.54  ;
N1291 G65 P9104 A101 B02  ;
N1292 G0X632.03Y1690.03  ;
N1293 G65 P9102 A101 B02  ;
N1294 G1X629.94Y1692.11  ;
N1295 G3X629.98Y1692.15I6.68J-6.61  ;
N1296 G65 P9104 A101 B02  ;
N1297 G0X692.03Y1690.03  ;
N1298 G65 P9102 A101 B02  ;
N1299 G1X689.94Y1692.11  ;
N1300 G3X689.98Y1692.15I6.68J-6.61  ;
N1301 G65 P9104 A101 B02  ;
N1302 G0X637.12Y1579.05  ;
N1303 G65 P9102 A101 B02  ;
N1304 G1X634.12Y1579.05  ;
N1305 G2X633.17Y1580I0J0.95  ;
N1306 G1X633.17Y1582.95  ;
N1307 G1X675.07Y1582.95  ;
N1308 G1X675.07Y1577.05  ;
N1309 G1X633.17Y1577.05  ;
N1310 G1X633.17Y1580  ;
N1311 G65 P9104 A101 B02  ;
N1312 G0X555.14Y1478.29  ;
N1313 G65 P9102 A101 B02  ;
N1314 G1X553.05Y1480.38  ;
N1315 G3X553.09Y1480.41I4.95J-4.88  ;
N1316 G65 P9104 A101 B02  ;
N1317 G0X649.53Y1437.53  ;
N1318 G65 P9102 A101 B02  ;
N1319 G1X647.44Y1439.61  ;
N1320 G3X647.48Y1439.65I6.68J-6.61  ;
N1321 G65 P9104 A101 B02  ;
N1322 G0X507.67Y1119.76  ;
N1323 G65 P9102 A101 B02  ;
N1324 G1X505.58Y1121.85  ;
N1325 G3X505.62Y1121.88I4.42J-4.35  ;
N1326 G65 P9104 A101 B02  ;
N1327 G0X555.14Y1028.29  ;
N1328 G65 P9102 A101 B02  ;
N1329 G1X553.05Y1030.38  ;
N1330 G3X553.09Y1030.41I4.95J-4.88  ;
N1331 G65 P9104 A101 B02  ;
N1332 G0X637.12Y990.05  ;
N1333 G65 P9102 A101 B02  ;
N1334 G1X634.12Y990.05  ;
N1335 G2X633.17Y991I0J0.95  ;
N1336 G1X633.17Y993.95  ;
N1337 G1X675.07Y993.95  ;
N1338 G1X675.07Y988.05  ;
N1339 G1X633.17Y988.05  ;
N1340 G1X633.17Y991  ;
N1341 G65 P9104 A101 B02  ;
N1342 G0X507.67Y935.76  ;
N1343 G65 P9102 A101 B02  ;
N1344 G1X505.58Y937.85  ;
N1345 G3X505.62Y937.88I4.42J-4.35  ;
N1346 G65 P9104 A101 B02  ;
N1347 G0X649.53Y622.53  ;
N1348 G65 P9102 A101 B02  ;
N1349 G1X647.44Y624.61  ;
N1350 G3X647.48Y624.65I6.68J-6.61  ;
N1351 G65 P9104 A101 B02  ;
N1352 G0X555.14Y578.29  ;
N1353 G65 P9102 A101 B02  ;
N1354 G1X553.05Y580.38  ;
N1355 G3X553.09Y580.41I4.95J-4.88  ;
N1356 G65 P9104 A101 B02  ;
N1357 G0X637.12Y427.05  ;
N1358 G65 P9102 A101 B02  ;
N1359 G1X634.12Y427.05  ;
N1360 G2X633.17Y428I0J0.95  ;
N1361 G1X633.17Y430.95  ;
N1362 G1X675.07Y430.95  ;
N1363 G1X675.07Y425.05  ;
N1364 G1X633.17Y425.05  ;
N1365 G1X633.17Y428  ;
N1366 G65 P9104 A101 B02  ;
N1367 G0X632.03Y370.03  ;
N1368 G65 P9102 A101 B02  ;
N1369 G1X629.94Y372.11  ;
N1370 G3X629.98Y372.15I6.68J-6.61  ;
N1371 G65 P9104 A101 B02  ;
N1372 G0X692.03Y370.03  ;
N1373 G65 P9102 A101 B02  ;
N1374 G1X689.94Y372.11  ;
N1375 G3X689.98Y372.15I6.68J-6.61  ;
N1376 G65 P9104 A101 B02  ;
N1377 G0X510.48Y251.95  ;
N1378 G65 P9102 A101 B02  ;
N1379 G1X508.39Y254.04  ;
N1380 G3X508.43Y254.07I3.61J-3.54  ;
N1381 G65 P9104 A101 B02  ;
N1382 G0X507.67Y152.76  ;
N1383 G65 P9102 A101 B02  ;
N1384 G1X505.58Y154.85  ;
N1385 G3X505.62Y154.88I4.42J-4.35  ;
N1386 G65 P9104 A101 B02  ;
N1387 G0X555.14Y128.29  ;
N1388 G65 P9102 A101 B02  ;
N1389 G1X553.05Y130.38  ;
N1390 G3X553.09Y130.41I4.95J-4.88  ;
N1391 G65 P9104 A101 B02  ;
N1392 G0X632.03Y195.03  ;
N1393 G65 P9102 A101 B02  ;
N1394 G1X629.94Y197.11  ;
N1395 G3X629.98Y197.15I6.68J-6.61  ;
N1396 G65 P9104 A101 B02  ;
N1397 G0X692.03Y195.03  ;
N1398 G65 P9102 A101 B02  ;
N1399 G1X689.94Y197.11  ;
N1400 G3X689.98Y197.15I6.68J-6.61  ;
N1401 G65 P9104 A101 B02  ;
N1402 G0X637.12Y96.55  ;
N1403 G65 P9102 A101 B02  ;
N1404 G1X634.12Y96.55  ;
N1405 G2X633.17Y97.5I0J0.95  ;
N1406 G1X633.17Y100.45  ;
N1407 G1X675.07Y100.45  ;
N1408 G1X675.07Y94.55  ;
N1409 G1X633.17Y94.55  ;
N1410 G1X633.17Y97.5  ;
N1411 G65 P9104 A101 B02  ;
N1412 G0X770.97Y48.21  ;
N1413 G65 P9102 A101 B02  ;
N1414 G1X768.88Y50.29  ;
N1415 G3X768.92Y50.33I6.37J-6.29  ;
N1416 G65 P9104 A101 B01  ;
N1417 G0X818.25Y14.95  ;
N1418 G65 P9102 A101 B01  ;
N1419 G1X815.25Y14.95  ;
N1420 G1X492.95Y14.95  ;
N1421 G1X492.95Y138.5  ;
N1422 G1X498.15Y138.5  ;
N1423 G1X498.15Y143.6  ;
N1424 G1X492.95Y143.6  ;
N1425 G1X492.95Y2037.05  ;
N1426 G1X815.3Y2037.05  ;
N1427 G1X815.3Y143.6  ;
N1428 G1X810.1Y143.6  ;
N1429 G1X810.1Y138.5  ;
N1430 G1X815.3Y138.5  ;
N1431 G1X815.3Y15  ;
N1432 G65 P9104 A102 B04  ;
N1433 M98 P9103  ;
(P15:ID3:W86011501)  ;
N1434 M98 P9101  ;
N1435 G0X374.62Y183.57  ;
N1436 G65 P9102 A102 B04  ;
N1437 G1X374.62Y197.43  ;
N1438 G1X362.62Y204.36  ;
N1439 G1X350.62Y197.43  ;
N1440 G1X350.62Y183.57  ;
N1441 G1X362.62Y176.64  ;
N1442 G1X374.62Y183.57  ;
N1443 G65 P9104 A102 B04  ;
N1444 G0X314.62Y183.57  ;
N1445 G65 P9102 A102 B04  ;
N1446 G1X314.62Y197.43  ;
N1447 G1X302.62Y204.36  ;
N1448 G1X290.62Y197.43  ;
N1449 G1X290.62Y183.57  ;
N1450 G1X302.62Y176.64  ;
N1451 G1X314.62Y183.57  ;
N1452 G65 P9104 A102 B04  ;
N1453 G0X184.5Y155.41  ;
N1454 G65 P9102 A102 B04  ;
N1455 G1X176Y160.31  ;
N1456 G1X167.5Y155.41  ;
N1457 G1X167.5Y145.59  ;
N1458 G1X176Y140.69  ;
N1459 G1X184.5Y145.59  ;
N1460 G1X184.5Y155.41  ;
N1461 G65 P9104 A102 B04  ;
N1462 G0X302.62Y351.64  ;
N1463 G65 P9102 A102 B04  ;
N1464 G1X314.62Y358.57  ;
N1465 G1X314.62Y372.43  ;
N1466 G1X302.62Y379.36  ;
N1467 G1X290.62Y372.43  ;
N1468 G1X290.62Y358.57  ;
N1469 G1X302.62Y351.64  ;
N1470 G65 P9104 A102 B04  ;
N1471 G0X350.62Y358.57  ;
N1472 G65 P9102 A102 B04  ;
N1473 G1X362.62Y351.64  ;
N1474 G1X374.62Y358.57  ;
N1475 G1X374.62Y372.43  ;
N1476 G1X362.62Y379.36  ;
N1477 G1X350.62Y372.43  ;
N1478 G1X350.62Y358.57  ;
N1479 G65 P9104 A102 B04  ;
N1480 G0X320.12Y604.14  ;
N1481 G65 P9102 A102 B04  ;
N1482 G1X332.12Y611.07  ;
N1483 G1X332.12Y624.93  ;
N1484 G1X320.12Y631.86  ;
N1485 G1X308.12Y624.93  ;
N1486 G1X308.12Y611.07  ;
N1487 G1X320.12Y604.14  ;
N1488 G65 P9104 A102 B04  ;
N1489 G0X176Y923.69  ;
N1490 G65 P9102 A102 B04  ;
N1491 G1X184.5Y928.59  ;
N1492 G1X184.5Y938.41  ;
N1493 G1X176Y943.31  ;
N1494 G1X167.5Y938.41  ;
N1495 G1X167.5Y928.59  ;
N1496 G1X176Y923.69  ;
N1497 G65 P9104 A102 B04  ;
N1498 G0X176Y1107.69  ;
N1499 G65 P9102 A102 B04  ;
N1500 G1X184.5Y1112.59  ;
N1501 G1X184.5Y1122.41  ;
N1502 G1X176Y1127.31  ;
N1503 G1X167.5Y1122.41  ;
N1504 G1X167.5Y1112.59  ;
N1505 G1X176Y1107.69  ;
N1506 G65 P9104 A102 B04  ;
N1507 G0X320.12Y1419.14  ;
N1508 G65 P9102 A102 B04  ;
N1509 G1X332.12Y1426.07  ;
N1510 G1X332.12Y1439.93  ;
N1511 G1X320.12Y1446.86  ;
N1512 G1X308.12Y1439.93  ;
N1513 G1X308.12Y1426.07  ;
N1514 G1X320.12Y1419.14  ;
N1515 G65 P9104 A102 B04  ;
N1516 G0X362.62Y1671.64  ;
N1517 G65 P9102 A102 B04  ;
N1518 G1X374.62Y1678.57  ;
N1519 G1X374.62Y1692.43  ;
N1520 G1X362.62Y1699.36  ;
N1521 G1X350.62Y1692.43  ;
N1522 G1X350.62Y1678.57  ;
N1523 G1X362.62Y1671.64  ;
N1524 G65 P9104 A102 B04  ;
N1525 G0X314.62Y1678.57  ;
N1526 G65 P9102 A102 B04  ;
N1527 G1X314.62Y1692.43  ;
N1528 G1X302.62Y1699.36  ;
N1529 G1X290.62Y1692.43  ;
N1530 G1X290.62Y1678.57  ;
N1531 G1X302.62Y1671.64  ;
N1532 G1X314.62Y1678.57  ;
N1533 G65 P9104 A102 B04  ;
N1534 G0X302.62Y1846.64  ;
N1535 G65 P9102 A102 B04  ;
N1536 G1X314.62Y1853.57  ;
N1537 G1X314.62Y1867.43  ;
N1538 G1X302.62Y1874.36  ;
N1539 G1X290.62Y1867.43  ;
N1540 G1X290.62Y1853.57  ;
N1541 G1X302.62Y1846.64  ;
N1542 G65 P9104 A102 B04  ;
N1543 G0X350.62Y1853.57  ;
N1544 G65 P9102 A102 B04  ;
N1545 G1X362.62Y1846.64  ;
N1546 G1X374.62Y1853.57  ;
N1547 G1X374.62Y1867.43  ;
N1548 G1X362.62Y1874.36  ;
N1549 G1X350.62Y1867.43  ;
N1550 G1X350.62Y1853.57  ;
N1551 G65 P9104 A102 B04  ;
N1552 G0X184.5Y1895.59  ;
N1553 G65 P9102 A102 B04  ;
N1554 G1X184.5Y1905.41  ;
N1555 G1X176Y1910.31  ;
N1556 G1X167.5Y1905.41  ;
N1557 G1X167.5Y1895.59  ;
N1558 G1X176Y1890.69  ;
N1559 G1X184.5Y1895.59  ;
N1560 G65 P9104 A101 B02  ;
N1561 G0X173.67Y1902.76  ;
N1562 G65 P9102 A101 B02  ;
N1563 G1X171.58Y1904.85  ;
N1564 G3X171.62Y1904.88I4.42J-4.35  ;
N1565 G65 P9104 A101 B02  ;
N1566 G0X221.14Y1928.29  ;
N1567 G65 P9102 A101 B02  ;
N1568 G1X219.05Y1930.38  ;
N1569 G3X219.09Y1930.41I4.95J-4.88  ;
N1570 G65 P9104 A101 B02  ;
N1571 G0X303.12Y1953.55  ;
N1572 G65 P9102 A101 B02  ;
N1573 G1X300.12Y1953.55  ;
N1574 G2X299.17Y1954.5I0J0.95  ;
N1575 G1X299.17Y1957.45  ;
N1576 G1X341.07Y1957.45  ;
N1577 G1X341.07Y1951.55  ;
N1578 G1X299.17Y1951.55  ;
N1579 G1X299.17Y1954.5  ;
N1580 G65 P9104 A101 B02  ;
N1581 G0X298.03Y1865.03  ;
N1582 G65 P9102 A101 B02  ;
N1583 G1X295.94Y1867.11  ;
N1584 G3X295.98Y1867.15I6.68J-6.61  ;
N1585 G65 P9104 A101 B02  ;
N1586 G0X358.03Y1865.03  ;
N1587 G65 P9102 A101 B02  ;
N1588 G1X355.94Y1867.11  ;
N1589 G3X355.98Y1867.15I6.68J-6.61  ;
N1590 G65 P9104 A101 B02  ;
N1591 G0X436.97Y2011.21  ;
N1592 G65 P9102 A101 B02  ;
N1593 G1X434.88Y2013.29  ;
N1594 G3X434.92Y2013.33I6.37J-6.29  ;
N1595 G65 P9104 A101 B02  ;
N1596 G0X176.48Y1801.95  ;
N1597 G65 P9102 A101 B02  ;
N1598 G1X174.39Y1804.04  ;
N1599 G3X174.43Y1804.07I3.61J-3.54  ;
N1600 G65 P9104 A101 B02  ;
N1601 G0X298.03Y1690.03  ;
N1602 G65 P9102 A101 B02  ;
N1603 G1X295.94Y1692.11  ;
N1604 G3X295.98Y1692.15I6.68J-6.61  ;
N1605 G65 P9104 A101 B02  ;
N1606 G0X358.03Y1690.03  ;
N1607 G65 P9102 A101 B02  ;
N1608 G1X355.94Y1692.11  ;
N1609 G3X355.98Y1692.15I6.68J-6.61  ;
N1610 G65 P9104 A101 B02  ;
N1611 G0X303.12Y1579.05  ;
N1612 G65 P9102 A101 B02  ;
N1613 G1X300.12Y1579.05  ;
N1614 G2X299.17Y1580I0J0.95  ;
N1615 G1X299.17Y1582.95  ;
N1616 G1X341.07Y1582.95  ;
N1617 G1X341.07Y1577.05  ;
N1618 G1X299.17Y1577.05  ;
N1619 G1X299.17Y1580  ;
N1620 G65 P9104 A101 B02  ;
N1621 G0X221.14Y1478.29  ;
N1622 G65 P9102 A101 B02  ;
N1623 G1X219.05Y1480.38  ;
N1624 G3X219.09Y1480.41I4.95J-4.88  ;
N1625 G65 P9104 A101 B02  ;
N1626 G0X315.53Y1437.53  ;
N1627 G65 P9102 A101 B02  ;
N1628 G1X313.44Y1439.61  ;
N1629 G3X313.48Y1439.65I6.68J-6.61  ;
N1630 G65 P9104 A101 B02  ;
N1631 G0X173.67Y1119.76  ;
N1632 G65 P9102 A101 B02  ;
N1633 G1X171.58Y1121.85  ;
N1634 G3X171.62Y1121.88I4.42J-4.35  ;
N1635 G65 P9104 A101 B02  ;
N1636 G0X221.14Y1028.29  ;
N1637 G65 P9102 A101 B02  ;
N1638 G1X219.05Y1030.38  ;
N1639 G3X219.09Y1030.41I4.95J-4.88  ;
N1640 G65 P9104 A101 B02  ;
N1641 G0X303.12Y990.05  ;
N1642 G65 P9102 A101 B02  ;
N1643 G1X300.12Y990.05  ;
N1644 G2X299.17Y991I0J0.95  ;
N1645 G1X299.17Y993.95  ;
N1646 G1X341.07Y993.95  ;
N1647 G1X341.07Y988.05  ;
N1648 G1X299.17Y988.05  ;
N1649 G1X299.17Y991  ;
N1650 G65 P9104 A101 B02  ;
N1651 G0X173.67Y935.76  ;
N1652 G65 P9102 A101 B02  ;
N1653 G1X171.58Y937.85  ;
N1654 G3X171.62Y937.88I4.42J-4.35  ;
N1655 G65 P9104 A101 B02  ;
N1656 G0X315.53Y622.53  ;
N1657 G65 P9102 A101 B02  ;
N1658 G1X313.44Y624.61  ;
N1659 G3X313.48Y624.65I6.68J-6.61  ;
N1660 G65 P9104 A101 B02  ;
N1661 G0X221.14Y578.29  ;
N1662 G65 P9102 A101 B02  ;
N1663 G1X219.05Y580.38  ;
N1664 G3X219.09Y580.41I4.95J-4.88  ;
N1665 G65 P9104 A101 B02  ;
N1666 G0X303.12Y427.05  ;
N1667 G65 P9102 A101 B02  ;
N1668 G1X300.12Y427.05  ;
N1669 G2X299.17Y428I0J0.95  ;
N1670 G1X299.17Y430.95  ;
N1671 G1X341.07Y430.95  ;
N1672 G1X341.07Y425.05  ;
N1673 G1X299.17Y425.05  ;
N1674 G1X299.17Y428  ;
N1675 G65 P9104 A101 B02  ;
N1676 G0X298.03Y370.03  ;
N1677 G65 P9102 A101 B02  ;
N1678 G1X295.94Y372.11  ;
N1679 G3X295.98Y372.15I6.68J-6.61  ;
N1680 G65 P9104 A101 B02  ;
N1681 G0X358.03Y370.03  ;
N1682 G65 P9102 A101 B02  ;
N1683 G1X355.94Y372.11  ;
N1684 G3X355.98Y372.15I6.68J-6.61  ;
N1685 G65 P9104 A101 B02  ;
N1686 G0X176.48Y251.95  ;
N1687 G65 P9102 A101 B02  ;
N1688 G1X174.39Y254.04  ;
N1689 G3X174.43Y254.07I3.61J-3.54  ;
N1690 G65 P9104 A101 B02  ;
N1691 G0X173.67Y152.76  ;
N1692 G65 P9102 A101 B02  ;
N1693 G1X171.58Y154.85  ;
N1694 G3X171.62Y154.88I4.42J-4.35  ;
N1695 G65 P9104 A101 B02  ;
N1696 G0X221.14Y128.29  ;
N1697 G65 P9102 A101 B02  ;
N1698 G1X219.05Y130.38  ;
N1699 G3X219.09Y130.41I4.95J-4.88  ;
N1700 G65 P9104 A101 B02  ;
N1701 G0X298.03Y195.03  ;
N1702 G65 P9102 A101 B02  ;
N1703 G1X295.94Y197.11  ;
N1704 G3X295.98Y197.15I6.68J-6.61  ;
N1705 G65 P9104 A101 B02  ;
N1706 G0X358.03Y195.03  ;
N1707 G65 P9102 A101 B02  ;
N1708 G1X355.94Y197.11  ;
N1709 G3X355.98Y197.15I6.68J-6.61  ;
N1710 G65 P9104 A101 B02  ;
N1711 G0X303.12Y96.55  ;
N1712 G65 P9102 A101 B02  ;
N1713 G1X300.12Y96.55  ;
N1714 G2X299.17Y97.5I0J0.95  ;
N1715 G1X299.17Y100.45  ;
N1716 G1X341.07Y100.45  ;
N1717 G1X341.07Y94.55  ;
N1718 G1X299.17Y94.55  ;
N1719 G1X299.17Y97.5  ;
N1720 G65 P9104 A101 B02  ;
N1721 G0X436.97Y48.21  ;
N1722 G65 P9102 A101 B02  ;
N1723 G1X434.88Y50.29  ;
N1724 G3X434.92Y50.33I6.37J-6.29  ;
N1725 G65 P9104 A101 B01  ;
N1726 G0X484.25Y14.95  ;
N1727 G65 P9102 A101 B01  ;
N1728 G1X481.25Y14.95  ;
N1729 G1X158.95Y14.95  ;
N1730 G1X158.95Y138.5  ;
N1731 G1X164.15Y138.5  ;
N1732 G1X164.15Y143.6  ;
N1733 G1X158.95Y143.6  ;
N1734 G1X158.95Y2037.05  ;
N1735 G1X481.3Y2037.05  ;
N1736 G1X481.3Y143.6  ;
N1737 G1X476.1Y143.6  ;
N1738 G1X476.1Y138.5  ;
N1739 G1X481.3Y138.5  ;
N1740 G1X481.3Y15  ;
N1741 G65 P9104 A101 B01  ;
N1742 M98 P9103  ;
(P16:ID2:W86011514)  ;
N1743 M98 P9101  ;
N1744 G0X123.95Y1866.5  ;
N1745 G65 P9102 A101 B01  ;
N1746 G1X123.95Y1869.45  ;
N1747 G3X124Y1869.45I0.05J-9.95  ;
N1748 G65 P9104 A101 B01  ;
N1749 G0X123.95Y1943.5  ;
N1750 G65 P9102 A101 B01  ;
N1751 G1X123.95Y1946.45  ;
N1752 G3X124Y1946.45I0.05J-9.95  ;
N1753 G65 P9104 A101 B01  ;
N1754 G0X146.03Y1813.5  ;
N1755 G65 P9102 A101 B01  ;
N1756 G1X146.03Y1818.45  ;
N1757 G1X143.95Y1818.45  ;
N1758 G1X143.95Y1823.45  ;
N1759 G1X140.95Y1823.45  ;
N1760 G1X140.95Y1823.95  ;
N1761 G1X103.98Y1823.95  ;
N1762 G1X79.98Y1848.45  ;
N1763 G1X76.98Y1848.45  ;
N1764 G1X75.95Y1849.48  ;
N1765 G1X75.95Y1852.52  ;
N1766 G1X76.98Y1853.55  ;
N1767 G1X79.45Y1853.55  ;
N1768 G1X79.45Y1856.55  ;
N1769 G1X79.95Y1856.55  ;
N1770 G1X79.95Y1883.05  ;
N1771 G3X79.95Y1912.95I0.05J14.95  ;
N1772 G1X79.95Y1944.45  ;
N1773 G1X79.45Y1944.45  ;
N1774 G1X79.45Y1947.55  ;
N1775 G1X79.98Y1947.55  ;
N1776 G1X103.98Y1972.05  ;
N1777 G1X140.95Y1972.05  ;
N1778 G1X140.95Y1972.55  ;
N1779 G1X143.95Y1972.55  ;
N1780 G1X143.95Y1977.55  ;
N1781 G1X149.05Y1977.55  ;
N1782 G1X149.05Y1818.45  ;
N1783 G1X146.73Y1818.45  ;
N1784 G65 P9104 A101 B01  ;
N1785 M98 P9103  ;
(P17:ID1:W86011517)  ;
N1786 M98 P9101  ;
N1787 G0X268.99Y2125.98  ;
N1788 G65 P9102 A101 B01  ;
N1789 G1X273.93Y2125.7  ;
N1790 G3X259Y2141.45I-14.93J0.8  ;
N1791 G1X255.98Y2141.45  ;
N1792 G1X254.95Y2142.48  ;
N1793 G1X254.95Y2145.52  ;
N1794 G1X255.98Y2146.55  ;
N1795 G1X258.95Y2146.55  ;
N1796 G1X258.95Y2168.45  ;
N1797 G1X258.45Y2168.45  ;
N1798 G1X258.45Y2171.55  ;
N1799 G1X258.98Y2171.55  ;
N1800 G1X286.98Y2200.55  ;
N1801 G1X329.95Y2200.55  ;
N1802 G1X329.95Y2201.05  ;
N1803 G1X332.95Y2201.05  ;
N1804 G1X332.95Y2206.05  ;
N1805 G1X338.05Y2206.05  ;
N1806 G1X338.05Y2046.95  ;
N1807 G1X332.95Y2046.95  ;
N1808 G1X332.95Y2051.95  ;
N1809 G1X329.95Y2051.95  ;
N1810 G1X329.95Y2052.45  ;
N1811 G1X286.98Y2052.45  ;
N1812 G1X258.98Y2081.45  ;
N1813 G1X258.45Y2081.45  ;
N1814 G1X258.45Y2084.55  ;
N1815 G1X258.95Y2084.55  ;
N1816 G1X258.95Y2111.55  ;
N1817 G3X273.87Y2125I0.05J14.95  ;
N1818 G65 P9104 A102 B04  ;
N1819 M98 P9103  ;
(P18:ID4:W86011506)  ;
N1820 M98 P9101  ;
N1821 G0X1253.68Y2183.76  ;
N1822 G65 P9102 A102 B04  ;
N1823 G1X1255.73Y2183.76  ;
N1824 G65 P9104 A102 B04  ;
N1825 G0X1256.63Y2183.76  ;
N1826 G65 P9102 A102 B04  ;
N1827 G1X1262.34Y2183.76  ;
N1828 G1X1263.77Y2185.19  ;
N1829 G1X1263.77Y2186.62  ;
N1830 G1X1262.34Y2188.05  ;
N1831 G1X1256.63Y2188.05  ;
N1832 G1X1256.63Y2193.76  ;
N1833 G1X1263.77Y2193.76  ;
N1834 G65 P9104 A102 B04  ;
N1835 G0X1264.66Y2192.33  ;
N1836 G65 P9102 A102 B04  ;
N1837 G1X1264.66Y2185.19  ;
N1838 G1X1266.09Y2183.76  ;
N1839 G1X1270.38Y2193.76  ;
N1840 G1X1266.09Y2193.76  ;
N1841 G1X1264.66Y2192.33  ;
N1842 G65 P9104 A102 B04  ;
N1843 G0X1270.38Y2193.76  ;
N1844 G65 P9102 A102 B04  ;
N1845 G1X1271.8Y2192.33  ;
N1846 G1X1271.8Y2185.19  ;
N1847 G1X1270.38Y2183.76  ;
N1848 G1X1266.09Y2183.76  ;
N1849 G65 P9104 A102 B04  ;
N1850 G0X1272.7Y2188.05  ;
N1851 G65 P9102 A102 B04  ;
N1852 G1X1278.41Y2188.05  ;
N1853 G1X1279.84Y2186.62  ;
N1854 G1X1279.84Y2185.19  ;
N1855 G1X1278.41Y2183.76  ;
N1856 G1X1274.13Y2183.76  ;
N1857 G1X1272.7Y2185.19  ;
N1858 G1X1272.7Y2192.33  ;
N1859 G1X1274.13Y2193.76  ;
N1860 G1X1278.41Y2193.76  ;
N1861 G65 P9104 A102 B04  ;
N1862 G0X1253.68Y2192.74  ;
N1863 G65 P9102 A102 B04  ;
N1864 G1X1254.71Y2193.76  ;
N1865 G1X1254.71Y2183.76  ;
N1866 G65 P9104 A101 B01  ;
N1867 G0X1160Y2193.18  ;
N1868 G65 P9102 A101 B01  ;
N1869 G1X1162.95Y2193.18  ;
N1870 G3X1162.95Y2193.13I-29.95J-0.05  ;
N1871 G65 P9104 A101 B01  ;
N1872 G0X1410Y2193.18  ;
N1873 G65 P9102 A101 B01  ;
N1874 G1X1412.95Y2193.18  ;
N1875 G3X1412.95Y2193.13I-29.95J-0.05  ;
N1876 G65 P9104 A101 B01  ;
N1877 G0X935.84Y2155.21  ;
N1878 G65 P9102 A101 B01  ;
N1879 G1X937.96Y2153.09  ;
N1880 G1X971.98Y2119.08  ;
N1881 G1X1068.05Y2119.08  ;
N1882 G1X1068.05Y2123.08  ;
N1883 G1X1071.45Y2123.08  ;
N1884 G1X1071.45Y2112.05  ;
N1885 G1X1068.95Y2112.05  ;
N1886 G1X1068.95Y2053.05  ;
N1887 G1X1067.95Y2053.05  ;
N1888 G1X1067.95Y2046.95  ;
N1889 G1X1483.55Y2046.95  ;
N1890 G1X1483.55Y2112.05  ;
N1891 G1X1462.55Y2112.05  ;
N1892 G1X1462.55Y2123.13  ;
N1893 G2X1482.55Y2143.08I19.95J0  ;
N1894 G1X1482.55Y2178.18  ;
N1895 G2X1482.55Y2208.08I-0.05J14.95  ;
N1896 G1X1482.55Y2243.18  ;
N1897 G2X1462.55Y2263.13I-0.05J19.95  ;
N1898 G1X1462.55Y2274.21  ;
N1899 G1X1483.55Y2274.21  ;
N1900 G1X1483.55Y2339.31  ;
N1901 G1X1067.95Y2339.31  ;
N1902 G1X1067.95Y2333.21  ;
N1903 G1X1068.95Y2333.21  ;
N1904 G1X1068.95Y2274.21  ;
N1905 G1X1071.45Y2274.21  ;
N1906 G1X1071.45Y2263.18  ;
N1907 G1X1068.05Y2263.18  ;
N1908 G1X1068.05Y2267.18  ;
N1909 G1X971.98Y2267.18  ;
N1910 G1X937.95Y2233.15  ;
N1911 G1X937.95Y2212.68  ;
N1912 G1X935.5Y2212.68  ;
N1913 G3X934.95Y2212.13I0J-0.55  ;
N1914 G1X934.95Y2174.13  ;
N1915 G3X935.5Y2173.58I0.55J0  ;
N1916 G1X937.95Y2173.58  ;
N1917 G1X937.95Y2153.13  ;
N1918 G65 P9104 A102 B04  ;
N1919 M98 P9103  ;
(P19:ID4:W86011506)  ;
N1920 M98 P9101  ;
N1921 G0X695.68Y2183.76  ;
N1922 G65 P9102 A102 B04  ;
N1923 G1X697.73Y2183.76  ;
N1924 G65 P9104 A102 B04  ;
N1925 G0X698.63Y2183.76  ;
N1926 G65 P9102 A102 B04  ;
N1927 G1X704.34Y2183.76  ;
N1928 G1X705.77Y2185.19  ;
N1929 G1X705.77Y2186.62  ;
N1930 G1X704.34Y2188.05  ;
N1931 G1X698.63Y2188.05  ;
N1932 G1X698.63Y2193.76  ;
N1933 G1X705.77Y2193.76  ;
N1934 G65 P9104 A102 B04  ;
N1935 G0X706.66Y2192.33  ;
N1936 G65 P9102 A102 B04  ;
N1937 G1X706.66Y2185.19  ;
N1938 G1X708.09Y2183.76  ;
N1939 G1X712.38Y2193.76  ;
N1940 G1X708.09Y2193.76  ;
N1941 G1X706.66Y2192.33  ;
N1942 G65 P9104 A102 B04  ;
N1943 G0X712.38Y2193.76  ;
N1944 G65 P9102 A102 B04  ;
N1945 G1X713.8Y2192.33  ;
N1946 G1X713.8Y2185.19  ;
N1947 G1X712.38Y2183.76  ;
N1948 G1X708.09Y2183.76  ;
N1949 G65 P9104 A102 B04  ;
N1950 G0X714.7Y2188.05  ;
N1951 G65 P9102 A102 B04  ;
N1952 G1X720.41Y2188.05  ;
N1953 G1X721.84Y2186.62  ;
N1954 G1X721.84Y2185.19  ;
N1955 G1X720.41Y2183.76  ;
N1956 G1X716.13Y2183.76  ;
N1957 G1X714.7Y2185.19  ;
N1958 G1X714.7Y2192.33  ;
N1959 G1X716.13Y2193.76  ;
N1960 G1X720.41Y2193.76  ;
N1961 G65 P9104 A102 B04  ;
N1962 G0X695.68Y2192.74  ;
N1963 G65 P9102 A102 B04  ;
N1964 G1X696.71Y2193.76  ;
N1965 G1X696.71Y2183.76  ;
N1966 G65 P9104 A101 B01  ;
N1967 G0X602Y2193.18  ;
N1968 G65 P9102 A101 B01  ;
N1969 G1X604.95Y2193.18  ;
N1970 G3X604.95Y2193.13I-29.95J-0.05  ;
N1971 G65 P9104 A101 B01  ;
N1972 G0X852Y2193.18  ;
N1973 G65 P9102 A101 B01  ;
N1974 G1X854.95Y2193.18  ;
N1975 G3X854.95Y2193.13I-29.95J-0.05  ;
N1976 G65 P9104 A101 B01  ;
N1977 G0X377.84Y2155.21  ;
N1978 G65 P9102 A101 B01  ;
N1979 G1X379.96Y2153.09  ;
N1980 G1X413.98Y2119.08  ;
N1981 G1X510.05Y2119.08  ;
N1982 G1X510.05Y2123.08  ;
N1983 G1X513.45Y2123.08  ;
N1984 G1X513.45Y2112.05  ;
N1985 G1X510.95Y2112.05  ;
N1986 G1X510.95Y2053.05  ;
N1987 G1X509.95Y2053.05  ;
N1988 G1X509.95Y2046.95  ;
N1989 G1X925.55Y2046.95  ;
N1990 G1X925.55Y2112.05  ;
N1991 G1X904.55Y2112.05  ;
N1992 G1X904.55Y2123.13  ;
N1993 G2X924.55Y2143.08I19.95J0  ;
N1994 G1X924.55Y2178.18  ;
N1995 G2X924.55Y2208.08I-0.05J14.95  ;
N1996 G1X924.55Y2243.18  ;
N1997 G2X904.55Y2263.13I-0.05J19.95  ;
N1998 G1X904.55Y2274.21  ;
N1999 G1X925.55Y2274.21  ;
N2000 G1X925.55Y2339.31  ;
N2001 G1X509.95Y2339.31  ;
N2002 G1X509.95Y2333.21  ;
N2003 G1X510.95Y2333.21  ;
N2004 G1X510.95Y2274.21  ;
N2005 G1X513.45Y2274.21  ;
N2006 G1X513.45Y2263.18  ;
N2007 G1X510.05Y2263.18  ;
N2008 G1X510.05Y2267.18  ;
N2009 G1X413.98Y2267.18  ;
N2010 G1X379.95Y2233.15  ;
N2011 G1X379.95Y2212.68  ;
N2012 G1X377.5Y2212.68  ;
N2013 G3X376.95Y2212.13I0J-0.55  ;
N2014 G1X376.95Y2174.13  ;
N2015 G3X377.5Y2173.58I0.55J0  ;
N2016 G1X379.95Y2173.58  ;
N2017 G1X379.95Y2153.13  ;
N2018 G65 P9104 A101 B01  ;
N2019 M98 P9103  ;
(P20:ID1:W86011517)  ;
N2020 M98 P9101  ;
N2021 G0X244.99Y2316.98  ;
N2022 G65 P9102 A101 B01  ;
N2023 G1X249.93Y2316.7  ;
N2024 G3X235Y2332.45I-14.93J0.8  ;
N2025 G1X231.98Y2332.45  ;
N2026 G1X230.95Y2333.48  ;
N2027 G1X230.95Y2336.52  ;
N2028 G1X231.98Y2337.55  ;
N2029 G1X234.95Y2337.55  ;
N2030 G1X234.95Y2359.45  ;
N2031 G1X234.45Y2359.45  ;
N2032 G1X234.45Y2362.55  ;
N2033 G1X234.98Y2362.55  ;
N2034 G1X262.98Y2391.55  ;
N2035 G1X305.95Y2391.55  ;
N2036 G1X305.95Y2392.05  ;
N2037 G1X308.95Y2392.05  ;
N2038 G1X308.95Y2397.05  ;
N2039 G1X314.05Y2397.05  ;
N2040 G1X314.05Y2237.95  ;
N2041 G1X308.95Y2237.95  ;
N2042 G1X308.95Y2242.95  ;
N2043 G1X305.95Y2242.95  ;
N2044 G1X305.95Y2243.45  ;
N2045 G1X262.98Y2243.45  ;
N2046 G1X234.98Y2272.45  ;
N2047 G1X234.45Y2272.45  ;
N2048 G1X234.45Y2275.55  ;
N2049 G1X234.95Y2275.55  ;
N2050 G1X234.95Y2302.55  ;
N2051 G3X249.87Y2316I0.05J14.95  ;
N2052 G65 P9104 A101 B01  ;
N2053 M98 P9103  ;
(P21:ID1:W86011517)  ;
N2054 M98 P9101  ;
N2055 G0X260.99Y2480.48  ;
N2056 G65 P9102 A101 B01  ;
N2057 G1X265.93Y2480.2  ;
N2058 G3X251Y2495.95I-14.93J0.8  ;
N2059 G1X247.98Y2495.95  ;
N2060 G1X246.95Y2496.98  ;
N2061 G1X246.95Y2500.02  ;
N2062 G1X247.98Y2501.05  ;
N2063 G1X250.95Y2501.05  ;
N2064 G1X250.95Y2522.95  ;
N2065 G1X250.45Y2522.95  ;
N2066 G1X250.45Y2526.05  ;
N2067 G1X250.98Y2526.05  ;
N2068 G1X278.98Y2555.05  ;
N2069 G1X321.95Y2555.05  ;
N2070 G1X321.95Y2555.55  ;
N2071 G1X324.95Y2555.55  ;
N2072 G1X324.95Y2560.55  ;
N2073 G1X330.05Y2560.55  ;
N2074 G1X330.05Y2401.45  ;
N2075 G1X324.95Y2401.45  ;
N2076 G1X324.95Y2406.45  ;
N2077 G1X321.95Y2406.45  ;
N2078 G1X321.95Y2406.95  ;
N2079 G1X278.98Y2406.95  ;
N2080 G1X250.98Y2435.95  ;
N2081 G1X250.45Y2435.95  ;
N2082 G1X250.45Y2439.05  ;
N2083 G1X250.95Y2439.05  ;
N2084 G1X250.95Y2466.05  ;
N2085 G3X265.87Y2479.5I0.05J14.95  ;
N2086 G65 P9104 A102 B04  ;
N2087 M98 P9103  ;
(P22:ID4:W86011506)  ;
N2088 M98 P9101  ;
N2089 G0X1346.49Y2755.18  ;
N2090 G65 P9102 A102 B04  ;
N2091 G1X1346.49Y2757.23  ;
N2092 G65 P9104 A102 B04  ;
N2093 G0X1346.49Y2758.13  ;
N2094 G65 P9102 A102 B04  ;
N2095 G1X1346.49Y2763.84  ;
N2096 G1X1345.07Y2765.27  ;
N2097 G1X1343.64Y2765.27  ;
N2098 G1X1342.21Y2763.84  ;
N2099 G1X1342.21Y2758.13  ;
N2100 G1X1336.49Y2758.13  ;
N2101 G1X1336.49Y2765.27  ;
N2102 G65 P9104 A102 B04  ;
N2103 G0X1337.92Y2766.16  ;
N2104 G65 P9102 A102 B04  ;
N2105 G1X1345.07Y2766.16  ;
N2106 G1X1346.49Y2767.59  ;
N2107 G1X1336.49Y2771.88  ;
N2108 G1X1336.49Y2767.59  ;
N2109 G1X1337.92Y2766.16  ;
N2110 G65 P9104 A102 B04  ;
N2111 G0X1336.49Y2771.88  ;
N2112 G65 P9102 A102 B04  ;
N2113 G1X1337.92Y2773.3  ;
N2114 G1X1345.07Y2773.3  ;
N2115 G1X1346.49Y2771.88  ;
N2116 G1X1346.49Y2767.59  ;
N2117 G65 P9104 A102 B04  ;
N2118 G0X1342.21Y2774.2  ;
N2119 G65 P9102 A102 B04  ;
N2120 G1X1342.21Y2779.91  ;
N2121 G1X1343.64Y2781.34  ;
N2122 G1X1345.07Y2781.34  ;
N2123 G1X1346.49Y2779.91  ;
N2124 G1X1346.49Y2775.63  ;
N2125 G1X1345.07Y2774.2  ;
N2126 G1X1337.92Y2774.2  ;
N2127 G1X1336.49Y2775.63  ;
N2128 G1X1336.49Y2779.91  ;
N2129 G65 P9104 A102 B04  ;
N2130 G0X1337.52Y2755.18  ;
N2131 G65 P9102 A102 B04  ;
N2132 G1X1336.49Y2756.21  ;
N2133 G1X1346.49Y2756.21  ;
N2134 G65 P9104 A101 B01  ;
N2135 G0X1337.08Y2661.5  ;
N2136 G65 P9102 A101 B01  ;
N2137 G1X1337.08Y2664.45  ;
N2138 G3X1337.13Y2664.45I0.05J-29.95  ;
N2139 G65 P9104 A101 B01  ;
N2140 G0X1337.08Y2911.5  ;
N2141 G65 P9102 A101 B01  ;
N2142 G1X1337.08Y2914.45  ;
N2143 G3X1337.13Y2914.45I0.05J-29.95  ;
N2144 G65 P9104 A101 B01  ;
N2145 G0X1375.04Y2437.34  ;
N2146 G65 P9102 A101 B01  ;
N2147 G1X1377.16Y2439.46  ;
N2148 G1X1411.18Y2473.48  ;
N2149 G1X1411.18Y2569.55  ;
N2150 G1X1407.18Y2569.55  ;
N2151 G1X1407.18Y2572.95  ;
N2152 G1X1418.21Y2572.95  ;
N2153 G1X1418.21Y2570.45  ;
N2154 G1X1477.21Y2570.45  ;
N2155 G1X1477.21Y2569.45  ;
N2156 G1X1483.31Y2569.45  ;
N2157 G1X1483.31Y2985.05  ;
N2158 G1X1418.21Y2985.05  ;
N2159 G1X1418.21Y2964.05  ;
N2160 G1X1407.13Y2964.05  ;
N2161 G2X1387.18Y2984.05I0J19.95  ;
N2162 G1X1352.08Y2984.05  ;
N2163 G2X1322.18Y2984.05I-14.95J-0.05  ;
N2164 G1X1287.08Y2984.05  ;
N2165 G2X1267.13Y2964.05I-19.95J-0.05  ;
N2166 G1X1256.05Y2964.05  ;
N2167 G1X1256.05Y2985.05  ;
N2168 G1X1190.95Y2985.05  ;
N2169 G1X1190.95Y2569.45  ;
N2170 G1X1197.05Y2569.45  ;
N2171 G1X1197.05Y2570.45  ;
N2172 G1X1256.05Y2570.45  ;
N2173 G1X1256.05Y2572.95  ;
N2174 G1X1267.08Y2572.95  ;
N2175 G1X1267.08Y2569.55  ;
N2176 G1X1263.08Y2569.55  ;
N2177 G1X1263.08Y2473.48  ;
N2178 G1X1297.11Y2439.45  ;
N2179 G1X1317.58Y2439.45  ;
N2180 G1X1317.58Y2437  ;
N2181 G3X1318.13Y2436.45I0.55J0  ;
N2182 G1X1356.13Y2436.45  ;
N2183 G3X1356.68Y2437I0J0.55  ;
N2184 G1X1356.68Y2439.45  ;
N2185 G1X1377.13Y2439.45  ;
N2186 G65 P9104 A102 B04  ;
N2187 M98 P9103  ;
(P23:ID4:W86011506)  ;
N2188 M98 P9101  ;
N2189 G0X1042.49Y2755.18  ;
N2190 G65 P9102 A102 B04  ;
N2191 G1X1042.49Y2757.23  ;
N2192 G65 P9104 A102 B04  ;
N2193 G0X1042.49Y2758.13  ;
N2194 G65 P9102 A102 B04  ;
N2195 G1X1042.49Y2763.84  ;
N2196 G1X1041.07Y2765.27  ;
N2197 G1X1039.64Y2765.27  ;
N2198 G1X1038.21Y2763.84  ;
N2199 G1X1038.21Y2758.13  ;
N2200 G1X1032.49Y2758.13  ;
N2201 G1X1032.49Y2765.27  ;
N2202 G65 P9104 A102 B04  ;
N2203 G0X1033.92Y2766.16  ;
N2204 G65 P9102 A102 B04  ;
N2205 G1X1041.07Y2766.16  ;
N2206 G1X1042.49Y2767.59  ;
N2207 G1X1032.49Y2771.88  ;
N2208 G1X1032.49Y2767.59  ;
N2209 G1X1033.92Y2766.16  ;
N2210 G65 P9104 A102 B04  ;
N2211 G0X1032.49Y2771.88  ;
N2212 G65 P9102 A102 B04  ;
N2213 G1X1033.92Y2773.3  ;
N2214 G1X1041.07Y2773.3  ;
N2215 G1X1042.49Y2771.88  ;
N2216 G1X1042.49Y2767.59  ;
N2217 G65 P9104 A102 B04  ;
N2218 G0X1038.21Y2774.2  ;
N2219 G65 P9102 A102 B04  ;
N2220 G1X1038.21Y2779.91  ;
N2221 G1X1039.64Y2781.34  ;
N2222 G1X1041.07Y2781.34  ;
N2223 G1X1042.49Y2779.91  ;
N2224 G1X1042.49Y2775.63  ;
N2225 G1X1041.07Y2774.2  ;
N2226 G1X1033.92Y2774.2  ;
N2227 G1X1032.49Y2775.63  ;
N2228 G1X1032.49Y2779.91  ;
N2229 G65 P9104 A102 B04  ;
N2230 G0X1033.52Y2755.18  ;
N2231 G65 P9102 A102 B04  ;
N2232 G1X1032.49Y2756.21  ;
N2233 G1X1042.49Y2756.21  ;
N2234 G65 P9104 A101 B01  ;
N2235 G0X1033.08Y2661.5  ;
N2236 G65 P9102 A101 B01  ;
N2237 G1X1033.08Y2664.45  ;
N2238 G3X1033.13Y2664.45I0.05J-29.95  ;
N2239 G65 P9104 A101 B01  ;
N2240 G0X1033.08Y2911.5  ;
N2241 G65 P9102 A101 B01  ;
N2242 G1X1033.08Y2914.45  ;
N2243 G3X1033.13Y2914.45I0.05J-29.95  ;
N2244 G65 P9104 A101 B01  ;
N2245 G0X1071.04Y2437.34  ;
N2246 G65 P9102 A101 B01  ;
N2247 G1X1073.16Y2439.46  ;
N2248 G1X1107.18Y2473.48  ;
N2249 G1X1107.18Y2569.55  ;
N2250 G1X1103.18Y2569.55  ;
N2251 G1X1103.18Y2572.95  ;
N2252 G1X1114.21Y2572.95  ;
N2253 G1X1114.21Y2570.45  ;
N2254 G1X1173.21Y2570.45  ;
N2255 G1X1173.21Y2569.45  ;
N2256 G1X1179.31Y2569.45  ;
N2257 G1X1179.31Y2985.05  ;
N2258 G1X1114.21Y2985.05  ;
N2259 G1X1114.21Y2964.05  ;
N2260 G1X1103.13Y2964.05  ;
N2261 G2X1083.18Y2984.05I0J19.95  ;
N2262 G1X1048.08Y2984.05  ;
N2263 G2X1018.18Y2984.05I-14.95J-0.05  ;
N2264 G1X983.08Y2984.05  ;
N2265 G2X963.13Y2964.05I-19.95J-0.05  ;
N2266 G1X952.05Y2964.05  ;
N2267 G1X952.05Y2985.05  ;
N2268 G1X886.95Y2985.05  ;
N2269 G1X886.95Y2569.45  ;
N2270 G1X893.05Y2569.45  ;
N2271 G1X893.05Y2570.45  ;
N2272 G1X952.05Y2570.45  ;
N2273 G1X952.05Y2572.95  ;
N2274 G1X963.08Y2572.95  ;
N2275 G1X963.08Y2569.55  ;
N2276 G1X959.08Y2569.55  ;
N2277 G1X959.08Y2473.48  ;
N2278 G1X993.11Y2439.45  ;
N2279 G1X1013.58Y2439.45  ;
N2280 G1X1013.58Y2437  ;
N2281 G3X1014.13Y2436.45I0.55J0  ;
N2282 G1X1052.13Y2436.45  ;
N2283 G3X1052.68Y2437I0J0.55  ;
N2284 G1X1052.68Y2439.45  ;
N2285 G1X1073.13Y2439.45  ;
N2286 G65 P9104 A102 B04  ;
N2287 M98 P9103  ;
(P24:ID4:W86011506)  ;
N2288 M98 P9101  ;
N2289 G0X738.49Y2755.18  ;
N2290 G65 P9102 A102 B04  ;
N2291 G1X738.49Y2757.23  ;
N2292 G65 P9104 A102 B04  ;
N2293 G0X738.49Y2758.13  ;
N2294 G65 P9102 A102 B04  ;
N2295 G1X738.49Y2763.84  ;
N2296 G1X737.07Y2765.27  ;
N2297 G1X735.64Y2765.27  ;
N2298 G1X734.21Y2763.84  ;
N2299 G1X734.21Y2758.13  ;
N2300 G1X728.49Y2758.13  ;
N2301 G1X728.49Y2765.27  ;
N2302 G65 P9104 A102 B04  ;
N2303 G0X729.92Y2766.16  ;
N2304 G65 P9102 A102 B04  ;
N2305 G1X737.07Y2766.16  ;
N2306 G1X738.49Y2767.59  ;
N2307 G1X728.49Y2771.88  ;
N2308 G1X728.49Y2767.59  ;
N2309 G1X729.92Y2766.16  ;
N2310 G65 P9104 A102 B04  ;
N2311 G0X728.49Y2771.88  ;
N2312 G65 P9102 A102 B04  ;
N2313 G1X729.92Y2773.3  ;
N2314 G1X737.07Y2773.3  ;
N2315 G1X738.49Y2771.88  ;
N2316 G1X738.49Y2767.59  ;
N2317 G65 P9104 A102 B04  ;
N2318 G0X734.21Y2774.2  ;
N2319 G65 P9102 A102 B04  ;
N2320 G1X734.21Y2779.91  ;
N2321 G1X735.64Y2781.34  ;
N2322 G1X737.07Y2781.34  ;
N2323 G1X738.49Y2779.91  ;
N2324 G1X738.49Y2775.63  ;
N2325 G1X737.07Y2774.2  ;
N2326 G1X729.92Y2774.2  ;
N2327 G1X728.49Y2775.63  ;
N2328 G1X728.49Y2779.91  ;
N2329 G65 P9104 A102 B04  ;
N2330 G0X729.52Y2755.18  ;
N2331 G65 P9102 A102 B04  ;
N2332 G1X728.49Y2756.21  ;
N2333 G1X738.49Y2756.21  ;
N2334 G65 P9104 A101 B01  ;
N2335 G0X729.08Y2661.5  ;
N2336 G65 P9102 A101 B01  ;
N2337 G1X729.08Y2664.45  ;
N2338 G3X729.13Y2664.45I0.05J-29.95  ;
N2339 G65 P9104 A101 B01  ;
N2340 G0X729.08Y2911.5  ;
N2341 G65 P9102 A101 B01  ;
N2342 G1X729.08Y2914.45  ;
N2343 G3X729.13Y2914.45I0.05J-29.95  ;
N2344 G65 P9104 A101 B01  ;
N2345 G0X767.04Y2437.34  ;
N2346 G65 P9102 A101 B01  ;
N2347 G1X769.16Y2439.46  ;
N2348 G1X803.18Y2473.48  ;
N2349 G1X803.18Y2569.55  ;
N2350 G1X799.18Y2569.55  ;
N2351 G1X799.18Y2572.95  ;
N2352 G1X810.21Y2572.95  ;
N2353 G1X810.21Y2570.45  ;
N2354 G1X869.21Y2570.45  ;
N2355 G1X869.21Y2569.45  ;
N2356 G1X875.31Y2569.45  ;
N2357 G1X875.31Y2985.05  ;
N2358 G1X810.21Y2985.05  ;
N2359 G1X810.21Y2964.05  ;
N2360 G1X799.13Y2964.05  ;
N2361 G2X779.18Y2984.05I0J19.95  ;
N2362 G1X744.08Y2984.05  ;
N2363 G2X714.18Y2984.05I-14.95J-0.05  ;
N2364 G1X679.08Y2984.05  ;
N2365 G2X659.13Y2964.05I-19.95J-0.05  ;
N2366 G1X648.05Y2964.05  ;
N2367 G1X648.05Y2985.05  ;
N2368 G1X582.95Y2985.05  ;
N2369 G1X582.95Y2569.45  ;
N2370 G1X589.05Y2569.45  ;
N2371 G1X589.05Y2570.45  ;
N2372 G1X648.05Y2570.45  ;
N2373 G1X648.05Y2572.95  ;
N2374 G1X659.08Y2572.95  ;
N2375 G1X659.08Y2569.55  ;
N2376 G1X655.08Y2569.55  ;
N2377 G1X655.08Y2473.48  ;
N2378 G1X689.11Y2439.45  ;
N2379 G1X709.58Y2439.45  ;
N2380 G1X709.58Y2437  ;
N2381 G3X710.13Y2436.45I0.55J0  ;
N2382 G1X748.13Y2436.45  ;
N2383 G3X748.68Y2437I0J0.55  ;
N2384 G1X748.68Y2439.45  ;
N2385 G1X769.13Y2439.45  ;
N2386 G65 P9104 A102 B04  ;
N2387 M98 P9103  ;
(P25:ID4:W86011506)  ;
N2388 M98 P9101  ;
N2389 G0X434.49Y2755.18  ;
N2390 G65 P9102 A102 B04  ;
N2391 G1X434.49Y2757.23  ;
N2392 G65 P9104 A102 B04  ;
N2393 G0X434.49Y2758.13  ;
N2394 G65 P9102 A102 B04  ;
N2395 G1X434.49Y2763.84  ;
N2396 G1X433.07Y2765.27  ;
N2397 G1X431.64Y2765.27  ;
N2398 G1X430.21Y2763.84  ;
N2399 G1X430.21Y2758.13  ;
N2400 G1X424.49Y2758.13  ;
N2401 G1X424.49Y2765.27  ;
N2402 G65 P9104 A102 B04  ;
N2403 G0X425.92Y2766.16  ;
N2404 G65 P9102 A102 B04  ;
N2405 G1X433.07Y2766.16  ;
N2406 G1X434.49Y2767.59  ;
N2407 G1X424.49Y2771.88  ;
N2408 G1X424.49Y2767.59  ;
N2409 G1X425.92Y2766.16  ;
N2410 G65 P9104 A102 B04  ;
N2411 G0X424.49Y2771.88  ;
N2412 G65 P9102 A102 B04  ;
N2413 G1X425.92Y2773.3  ;
N2414 G1X433.07Y2773.3  ;
N2415 G1X434.49Y2771.88  ;
N2416 G1X434.49Y2767.59  ;
N2417 G65 P9104 A102 B04  ;
N2418 G0X430.21Y2774.2  ;
N2419 G65 P9102 A102 B04  ;
N2420 G1X430.21Y2779.91  ;
N2421 G1X431.64Y2781.34  ;
N2422 G1X433.07Y2781.34  ;
N2423 G1X434.49Y2779.91  ;
N2424 G1X434.49Y2775.63  ;
N2425 G1X433.07Y2774.2  ;
N2426 G1X425.92Y2774.2  ;
N2427 G1X424.49Y2775.63  ;
N2428 G1X424.49Y2779.91  ;
N2429 G65 P9104 A102 B04  ;
N2430 G0X425.52Y2755.18  ;
N2431 G65 P9102 A102 B04  ;
N2432 G1X424.49Y2756.21  ;
N2433 G1X434.49Y2756.21  ;
N2434 G65 P9104 A101 B01  ;
N2435 G0X425.08Y2661.5  ;
N2436 G65 P9102 A101 B01  ;
N2437 G1X425.08Y2664.45  ;
N2438 G3X425.13Y2664.45I0.05J-29.95  ;
N2439 G65 P9104 A101 B01  ;
N2440 G0X425.08Y2911.5  ;
N2441 G65 P9102 A101 B01  ;
N2442 G1X425.08Y2914.45  ;
N2443 G3X425.13Y2914.45I0.05J-29.95  ;
N2444 G65 P9104 A101 B01  ;
N2445 G0X463.04Y2437.34  ;
N2446 G65 P9102 A101 B01  ;
N2447 G1X465.16Y2439.46  ;
N2448 G1X499.18Y2473.48  ;
N2449 G1X499.18Y2569.55  ;
N2450 G1X495.18Y2569.55  ;
N2451 G1X495.18Y2572.95  ;
N2452 G1X506.21Y2572.95  ;
N2453 G1X506.21Y2570.45  ;
N2454 G1X565.21Y2570.45  ;
N2455 G1X565.21Y2569.45  ;
N2456 G1X571.31Y2569.45  ;
N2457 G1X571.31Y2985.05  ;
N2458 G1X506.21Y2985.05  ;
N2459 G1X506.21Y2964.05  ;
N2460 G1X495.13Y2964.05  ;
N2461 G2X475.18Y2984.05I0J19.95  ;
N2462 G1X440.08Y2984.05  ;
N2463 G2X410.18Y2984.05I-14.95J-0.05  ;
N2464 G1X375.08Y2984.05  ;
N2465 G2X355.13Y2964.05I-19.95J-0.05  ;
N2466 G1X344.05Y2964.05  ;
N2467 G1X344.05Y2985.05  ;
N2468 G1X278.95Y2985.05  ;
N2469 G1X278.95Y2569.45  ;
N2470 G1X285.05Y2569.45  ;
N2471 G1X285.05Y2570.45  ;
N2472 G1X344.05Y2570.45  ;
N2473 G1X344.05Y2572.95  ;
N2474 G1X355.08Y2572.95  ;
N2475 G1X355.08Y2569.55  ;
N2476 G1X351.08Y2569.55  ;
N2477 G1X351.08Y2473.48  ;
N2478 G1X385.11Y2439.45  ;
N2479 G1X405.58Y2439.45  ;
N2480 G1X405.58Y2437  ;
N2481 G3X406.13Y2436.45I0.55J0  ;
N2482 G1X444.13Y2436.45  ;
N2483 G3X444.68Y2437I0J0.55  ;
N2484 G1X444.68Y2439.45  ;
N2485 G1X465.13Y2439.45  ;
N2486 G65 P9104 A101 B01  ;
N2487 M98 P9103  ;
(P26:ID5:W86011507)  ;
N2488 M98 P9101  ;
N2489 G0X184.13Y2253.95  ;
N2490 G65 P9102 A101 B01  ;
N2491 G1X181.13Y2253.95  ;
N2492 G1X141.08Y2253.95  ;
N2493 G1X141.08Y2257.95  ;
N2494 G1X121.11Y2257.95  ;
N2495 G1X86.08Y2292.98  ;
N2496 G1X86.08Y2343.05  ;
N2497 G1X91.08Y2343.05  ;
N2498 G1X91.08Y2348.95  ;
N2499 G1X80.05Y2348.95  ;
N2500 G1X80.05Y2344.45  ;
N2501 G1X21.05Y2344.45  ;
N2502 G1X21.05Y2342.95  ;
N2503 G1X14.95Y2342.95  ;
N2504 G1X14.95Y2985.05  ;
N2505 G1X181.18Y2985.05  ;
N2506 G1X181.18Y2254  ;
N2507 M98 P9104  ;
N2508 M98 P9103  ;
(FOOTER)
N2509 M98 P9110  ;
N2510 M30  ;
%
