O0099  ;
( MACHINE : TCI Laser )  ;
( MATERIAL : Galvanizado )  ;
( THICKNESS : 2 )  ;
( REPETITIONS : 1 )  ;
( SIMULATION TIME : 00:12:47 )  ;
( FORMAT : 1250x1900 )  ;
( JOB NUMBER : VARS8600\K860276gv20 )  ;
( PROGRAM NUMBER : 11693 )  ;
( TYPE : 0 )  ;
( NUMBER OF SHEETS : 1 )  ;
( CUTTING HEADS : 1 )  ;
#516= 1  ;
#517= 1  ;
N105 G65 P9100 A103 B02  ;
(P1:ID1:W86009414)  ;
N106 M98 P9101  ;
N107 G0X45.01Y40.19  ;
N108 G65 P9102 A101 B02  ;
N109 G1X43.48Y42.16  ;
N110 G3X42.8Y42.2I-0.36J-0.28  ;
N111 G3X42.8Y42.2I3.2J-3.2  ;
N112 G65 P9104 A101 B02  ;
N113 G0X87.01Y40.19  ;
N114 G65 P9102 A101 B02  ;
N115 G1X85.48Y42.16  ;
N116 G3X84.8Y42.2I-0.36J-0.28  ;
N117 G3X84.8Y42.2I3.2J-3.2  ;
N118 G65 P9104 A101 B01  ;
N119 G0X66.26Y14  ;
N120 G65 P9102 A101 B01  ;
N121 G1X66.26Y18.95  ;
N122 G1X51Y18.95  ;
N123 G3X46.05Y14I0J-4.95  ;
N124 G1X46.05Y10.95  ;
N125 G1X32.91Y10.95  ;
N126 G1X32.91Y9.95  ;
N127 G1X29.81Y9.95  ;
N128 G1X29.81Y22.01  ;
N129 G1X31.42Y26.42  ;
N130 G1X27.01Y24.81  ;
N131 G1X14.95Y24.81  ;
N132 G1X14.95Y48.55  ;
N133 G1X41Y48.55  ;
N134 G3X45.95Y53.5I0J4.95  ;
N135 G1X45.95Y68.55  ;
N136 G1X88.05Y68.55  ;
N137 G1X88.05Y53.5  ;
N138 G3X93Y48.55I4.95J0  ;
N139 G1X119.06Y48.55  ;
N140 G1X119.06Y24.81  ;
N141 G1X107Y24.81  ;
N142 G1X102.59Y26.42  ;
N143 G1X104.2Y22.01  ;
N144 G1X104.2Y9.95  ;
N145 G1X101.1Y9.95  ;
N146 G1X101.1Y10.95  ;
N147 G1X87.95Y10.95  ;
N148 G1X87.95Y14  ;
N149 G3X83Y18.95I-4.95J0  ;
N150 G1X67.01Y18.95  ;
N151 G65 P9104 A101 B02  ;
N152 M98 P9103  ;
(P2:ID1:W86009414)  ;
N153 M98 P9101  ;
N154 G0X159.01Y40.19  ;
N155 G65 P9102 A101 B02  ;
N156 G1X157.48Y42.16  ;
N157 G3X156.8Y42.2I-0.36J-0.28  ;
N158 G3X156.8Y42.2I3.2J-3.2  ;
N159 G65 P9104 A101 B02  ;
N160 G0X201.01Y40.19  ;
N161 G65 P9102 A101 B02  ;
N162 G1X199.48Y42.16  ;
N163 G3X198.8Y42.2I-0.36J-0.28  ;
N164 G3X198.8Y42.2I3.2J-3.2  ;
N165 G65 P9104 A101 B01  ;
N166 G0X180.26Y14  ;
N167 G65 P9102 A101 B01  ;
N168 G1X180.26Y18.95  ;
N169 G1X165Y18.95  ;
N170 G3X160.05Y14I0J-4.95  ;
N171 G1X160.05Y10.95  ;
N172 G1X146.91Y10.95  ;
N173 G1X146.91Y9.95  ;
N174 G1X143.81Y9.95  ;
N175 G1X143.81Y22.01  ;
N176 G1X145.42Y26.42  ;
N177 G1X141.01Y24.81  ;
N178 G1X128.95Y24.81  ;
N179 G1X128.95Y48.55  ;
N180 G1X155Y48.55  ;
N181 G3X159.95Y53.5I0J4.95  ;
N182 G1X159.95Y68.55  ;
N183 G1X202.05Y68.55  ;
N184 G1X202.05Y53.5  ;
N185 G3X207Y48.55I4.95J0  ;
N186 G1X233.06Y48.55  ;
N187 G1X233.06Y24.81  ;
N188 G1X221Y24.81  ;
N189 G1X216.59Y26.42  ;
N190 G1X218.2Y22.01  ;
N191 G1X218.2Y9.95  ;
N192 G1X215.1Y9.95  ;
N193 G1X215.1Y10.95  ;
N194 G1X201.95Y10.95  ;
N195 G1X201.95Y14  ;
N196 G3X197Y18.95I-4.95J0  ;
N197 G1X181.01Y18.95  ;
N198 G65 P9104 A101 B02  ;
N199 M98 P9103  ;
(P3:ID1:W86009414)  ;
N200 M98 P9101  ;
N201 G0X185.69Y132.41  ;
N202 G65 P9102 A101 B02  ;
N203 G1X187.23Y130.44  ;
N204 G3X187.9Y130.4I0.35J0.28  ;
N205 G3X187.9Y130.4I-3.2J3.2  ;
N206 G65 P9104 A101 B02  ;
N207 G0X227.69Y132.41  ;
N208 G65 P9102 A101 B02  ;
N209 G1X229.23Y130.44  ;
N210 G3X229.9Y130.4I0.35J0.28  ;
N211 G3X229.9Y130.4I-3.2J3.2  ;
N212 G65 P9104 A101 B01  ;
N213 G0X206.44Y158.6  ;
N214 G65 P9102 A101 B01  ;
N215 G1X206.44Y153.65  ;
N216 G1X221.7Y153.65  ;
N217 G3X226.65Y158.6I0J4.95  ;
N218 G1X226.65Y161.65  ;
N219 G1X239.8Y161.65  ;
N220 G1X239.8Y162.65  ;
N221 G1X242.9Y162.65  ;
N222 G1X242.9Y150.59  ;
N223 G1X241.29Y146.18  ;
N224 G1X245.7Y147.8  ;
N225 G1X257.76Y147.8  ;
N226 G1X257.76Y124.05  ;
N227 G1X231.7Y124.05  ;
N228 G3X226.75Y119.1I0J-4.95  ;
N229 G1X226.75Y104.05  ;
N230 G1X184.65Y104.05  ;
N231 G1X184.65Y119.1  ;
N232 G3X179.7Y124.05I-4.95J0  ;
N233 G1X153.65Y124.05  ;
N234 G1X153.65Y147.8  ;
N235 G1X165.71Y147.8  ;
N236 G1X170.12Y146.18  ;
N237 G1X168.51Y150.59  ;
N238 G1X168.51Y162.65  ;
N239 G1X171.61Y162.65  ;
N240 G1X171.61Y161.65  ;
N241 G1X184.75Y161.65  ;
N242 G1X184.75Y158.6  ;
N243 G3X189.7Y153.65I4.95J0  ;
N244 G1X205.69Y153.65  ;
N245 G65 P9104 A101 B02  ;
N246 M98 P9103  ;
(P4:ID1:W86009414)  ;
N247 M98 P9101  ;
N248 G0X273.01Y40.19  ;
N249 G65 P9102 A101 B02  ;
N250 G1X271.48Y42.16  ;
N251 G3X270.8Y42.2I-0.36J-0.28  ;
N252 G3X270.8Y42.2I3.2J-3.2  ;
N253 G65 P9104 A101 B02  ;
N254 G0X315.01Y40.19  ;
N255 G65 P9102 A101 B02  ;
N256 G1X313.48Y42.16  ;
N257 G3X312.8Y42.2I-0.36J-0.28  ;
N258 G3X312.8Y42.2I3.2J-3.2  ;
N259 G65 P9104 A101 B01  ;
N260 G0X294.26Y14  ;
N261 G65 P9102 A101 B01  ;
N262 G1X294.26Y18.95  ;
N263 G1X279Y18.95  ;
N264 G3X274.05Y14I0J-4.95  ;
N265 G1X274.05Y10.95  ;
N266 G1X260.91Y10.95  ;
N267 G1X260.91Y9.95  ;
N268 G1X257.81Y9.95  ;
N269 G1X257.81Y22.01  ;
N270 G1X259.42Y26.42  ;
N271 G1X255.01Y24.81  ;
N272 G1X242.95Y24.81  ;
N273 G1X242.95Y48.55  ;
N274 G1X269Y48.55  ;
N275 G3X273.95Y53.5I0J4.95  ;
N276 G1X273.95Y68.55  ;
N277 G1X316.05Y68.55  ;
N278 G1X316.05Y53.5  ;
N279 G3X321Y48.55I4.95J0  ;
N280 G1X347.06Y48.55  ;
N281 G1X347.06Y24.81  ;
N282 G1X335Y24.81  ;
N283 G1X330.59Y26.42  ;
N284 G1X332.2Y22.01  ;
N285 G1X332.2Y9.95  ;
N286 G1X329.1Y9.95  ;
N287 G1X329.1Y10.95  ;
N288 G1X315.95Y10.95  ;
N289 G1X315.95Y14  ;
N290 G3X311Y18.95I-4.95J0  ;
N291 G1X295.01Y18.95  ;
N292 G65 P9104 A101 B02  ;
N293 M98 P9103  ;
(P5:ID1:W86009414)  ;
N294 M98 P9101  ;
N295 G0X387.01Y40.19  ;
N296 G65 P9102 A101 B02  ;
N297 G1X385.48Y42.16  ;
N298 G3X384.8Y42.2I-0.36J-0.28  ;
N299 G3X384.8Y42.2I3.2J-3.2  ;
N300 G65 P9104 A101 B02  ;
N301 G0X429.01Y40.19  ;
N302 G65 P9102 A101 B02  ;
N303 G1X427.48Y42.16  ;
N304 G3X426.8Y42.2I-0.36J-0.28  ;
N305 G3X426.8Y42.2I3.2J-3.2  ;
N306 G65 P9104 A101 B01  ;
N307 G0X408.26Y14  ;
N308 G65 P9102 A101 B01  ;
N309 G1X408.26Y18.95  ;
N310 G1X393Y18.95  ;
N311 G3X388.05Y14I0J-4.95  ;
N312 G1X388.05Y10.95  ;
N313 G1X374.91Y10.95  ;
N314 G1X374.91Y9.95  ;
N315 G1X371.81Y9.95  ;
N316 G1X371.81Y22.01  ;
N317 G1X373.42Y26.42  ;
N318 G1X369.01Y24.81  ;
N319 G1X356.95Y24.81  ;
N320 G1X356.95Y48.55  ;
N321 G1X383Y48.55  ;
N322 G3X387.95Y53.5I0J4.95  ;
N323 G1X387.95Y68.55  ;
N324 G1X430.05Y68.55  ;
N325 G1X430.05Y53.5  ;
N326 G3X435Y48.55I4.95J0  ;
N327 G1X461.06Y48.55  ;
N328 G1X461.06Y24.81  ;
N329 G1X449Y24.81  ;
N330 G1X444.59Y26.42  ;
N331 G1X446.2Y22.01  ;
N332 G1X446.2Y9.95  ;
N333 G1X443.1Y9.95  ;
N334 G1X443.1Y10.95  ;
N335 G1X429.95Y10.95  ;
N336 G1X429.95Y14  ;
N337 G3X425Y18.95I-4.95J0  ;
N338 G1X409.01Y18.95  ;
N339 G65 P9104 A101 B02  ;
N340 M98 P9103  ;
(P6:ID1:W86009414)  ;
N341 M98 P9101  ;
N342 G0X501.01Y40.19  ;
N343 G65 P9102 A101 B02  ;
N344 G1X499.48Y42.16  ;
N345 G3X498.8Y42.2I-0.36J-0.28  ;
N346 G3X498.8Y42.2I3.2J-3.2  ;
N347 G65 P9104 A101 B02  ;
N348 G0X543.01Y40.19  ;
N349 G65 P9102 A101 B02  ;
N350 G1X541.48Y42.16  ;
N351 G3X540.8Y42.2I-0.36J-0.28  ;
N352 G3X540.8Y42.2I3.2J-3.2  ;
N353 G65 P9104 A101 B01  ;
N354 G0X522.26Y14  ;
N355 G65 P9102 A101 B01  ;
N356 G1X522.26Y18.95  ;
N357 G1X507Y18.95  ;
N358 G3X502.05Y14I0J-4.95  ;
N359 G1X502.05Y10.95  ;
N360 G1X488.91Y10.95  ;
N361 G1X488.91Y9.95  ;
N362 G1X485.81Y9.95  ;
N363 G1X485.81Y22.01  ;
N364 G1X487.42Y26.42  ;
N365 G1X483.01Y24.81  ;
N366 G1X470.95Y24.81  ;
N367 G1X470.95Y48.55  ;
N368 G1X497Y48.55  ;
N369 G3X501.95Y53.5I0J4.95  ;
N370 G1X501.95Y68.55  ;
N371 G1X544.05Y68.55  ;
N372 G1X544.05Y53.5  ;
N373 G3X549Y48.55I4.95J0  ;
N374 G1X575.06Y48.55  ;
N375 G1X575.06Y24.81  ;
N376 G1X563Y24.81  ;
N377 G1X558.59Y26.42  ;
N378 G1X560.2Y22.01  ;
N379 G1X560.2Y9.95  ;
N380 G1X557.1Y9.95  ;
N381 G1X557.1Y10.95  ;
N382 G1X543.95Y10.95  ;
N383 G1X543.95Y14  ;
N384 G3X539Y18.95I-4.95J0  ;
N385 G1X523.01Y18.95  ;
N386 G65 P9104 A101 B02  ;
N387 M98 P9103  ;
(P7:ID1:W86009414)  ;
N388 M98 P9101  ;
N389 G0X590.99Y106.81  ;
N390 G65 P9102 A101 B02  ;
N391 G1X592.53Y104.84  ;
N392 G3X593.2Y104.8I0.35J0.28  ;
N393 G3X593.2Y104.8I-3.2J3.2  ;
N394 G65 P9104 A101 B02  ;
N395 G0X632.99Y106.81  ;
N396 G65 P9102 A101 B02  ;
N397 G1X634.53Y104.84  ;
N398 G3X635.2Y104.8I0.35J0.28  ;
N399 G3X635.2Y104.8I-3.2J3.2  ;
N400 G65 P9104 A101 B01  ;
N401 G0X611.74Y133  ;
N402 G65 P9102 A101 B01  ;
N403 G1X611.74Y128.05  ;
N404 G1X627Y128.05  ;
N405 G3X631.95Y133I0J4.95  ;
N406 G1X631.95Y136.05  ;
N407 G1X645.1Y136.05  ;
N408 G1X645.1Y137.05  ;
N409 G1X648.2Y137.05  ;
N410 G1X648.2Y124.99  ;
N411 G1X646.59Y120.58  ;
N412 G1X651Y122.2  ;
N413 G1X663.06Y122.2  ;
N414 G1X663.06Y98.45  ;
N415 G1X637Y98.45  ;
N416 G3X632.05Y93.5I0J-4.95  ;
N417 G1X632.05Y78.45  ;
N418 G1X589.95Y78.45  ;
N419 G1X589.95Y93.5  ;
N420 G3X585Y98.45I-4.95J0  ;
N421 G1X558.95Y98.45  ;
N422 G1X558.95Y122.2  ;
N423 G1X571.01Y122.2  ;
N424 G1X575.42Y120.58  ;
N425 G1X573.81Y124.99  ;
N426 G1X573.81Y137.05  ;
N427 G1X576.91Y137.05  ;
N428 G1X576.91Y136.05  ;
N429 G1X590.05Y136.05  ;
N430 G1X590.05Y133  ;
N431 G3X595Y128.05I4.95J0  ;
N432 G1X610.99Y128.05  ;
N433 G65 P9104 A101 B02  ;
N434 M98 P9103  ;
(P8:ID1:W86009414)  ;
N435 M98 P9101  ;
N436 G0X615.01Y40.19  ;
N437 G65 P9102 A101 B02  ;
N438 G1X613.48Y42.16  ;
N439 G3X612.8Y42.2I-0.36J-0.28  ;
N440 G3X612.8Y42.2I3.2J-3.2  ;
N441 G65 P9104 A101 B02  ;
N442 G0X657.01Y40.19  ;
N443 G65 P9102 A101 B02  ;
N444 G1X655.48Y42.16  ;
N445 G3X654.8Y42.2I-0.36J-0.28  ;
N446 G3X654.8Y42.2I3.2J-3.2  ;
N447 G65 P9104 A101 B01  ;
N448 G0X636.26Y14  ;
N449 G65 P9102 A101 B01  ;
N450 G1X636.26Y18.95  ;
N451 G1X621Y18.95  ;
N452 G3X616.05Y14I0J-4.95  ;
N453 G1X616.05Y10.95  ;
N454 G1X602.91Y10.95  ;
N455 G1X602.91Y9.95  ;
N456 G1X599.81Y9.95  ;
N457 G1X599.81Y22.01  ;
N458 G1X601.42Y26.42  ;
N459 G1X597.01Y24.81  ;
N460 G1X584.95Y24.81  ;
N461 G1X584.95Y48.55  ;
N462 G1X611Y48.55  ;
N463 G3X615.95Y53.5I0J4.95  ;
N464 G1X615.95Y68.55  ;
N465 G1X658.05Y68.55  ;
N466 G1X658.05Y53.5  ;
N467 G3X663Y48.55I4.95J0  ;
N468 G1X689.06Y48.55  ;
N469 G1X689.06Y24.81  ;
N470 G1X677Y24.81  ;
N471 G1X672.59Y26.42  ;
N472 G1X674.2Y22.01  ;
N473 G1X674.2Y9.95  ;
N474 G1X671.1Y9.95  ;
N475 G1X671.1Y10.95  ;
N476 G1X657.95Y10.95  ;
N477 G1X657.95Y14  ;
N478 G3X653Y18.95I-4.95J0  ;
N479 G1X637.01Y18.95  ;
N480 G65 P9104 A101 B02  ;
N481 M98 P9103  ;
(P9:ID1:W86009414)  ;
N482 M98 P9101  ;
N483 G0X729.01Y40.19  ;
N484 G65 P9102 A101 B02  ;
N485 G1X727.48Y42.16  ;
N486 G3X726.8Y42.2I-0.36J-0.28  ;
N487 G3X726.8Y42.2I3.2J-3.2  ;
N488 G65 P9104 A101 B02  ;
N489 G0X771.01Y40.19  ;
N490 G65 P9102 A101 B02  ;
N491 G1X769.48Y42.16  ;
N492 G3X768.8Y42.2I-0.36J-0.28  ;
N493 G3X768.8Y42.2I3.2J-3.2  ;
N494 G65 P9104 A101 B01  ;
N495 G0X750.26Y14  ;
N496 G65 P9102 A101 B01  ;
N497 G1X750.26Y18.95  ;
N498 G1X735Y18.95  ;
N499 G3X730.05Y14I0J-4.95  ;
N500 G1X730.05Y10.95  ;
N501 G1X716.91Y10.95  ;
N502 G1X716.91Y9.95  ;
N503 G1X713.81Y9.95  ;
N504 G1X713.81Y22.01  ;
N505 G1X715.42Y26.42  ;
N506 G1X711.01Y24.81  ;
N507 G1X698.95Y24.81  ;
N508 G1X698.95Y48.55  ;
N509 G1X725Y48.55  ;
N510 G3X729.95Y53.5I0J4.95  ;
N511 G1X729.95Y68.55  ;
N512 G1X772.05Y68.55  ;
N513 G1X772.05Y53.5  ;
N514 G3X777Y48.55I4.95J0  ;
N515 G1X803.06Y48.55  ;
N516 G1X803.06Y24.81  ;
N517 G1X791Y24.81  ;
N518 G1X786.59Y26.42  ;
N519 G1X788.2Y22.01  ;
N520 G1X788.2Y9.95  ;
N521 G1X785.1Y9.95  ;
N522 G1X785.1Y10.95  ;
N523 G1X771.95Y10.95  ;
N524 G1X771.95Y14  ;
N525 G3X767Y18.95I-4.95J0  ;
N526 G1X751.01Y18.95  ;
N527 G65 P9104 A101 B02  ;
N528 M98 P9103  ;
(P10:ID1:W86009414)  ;
N529 M98 P9101  ;
N530 G0X866.81Y40.01  ;
N531 G65 P9102 A101 B02  ;
N532 G1X864.84Y38.48  ;
N533 G3X864.8Y37.8I0.28J-0.36  ;
N534 G3X864.8Y37.8I3.2J3.2  ;
N535 G65 P9104 A101 B02  ;
N536 G0X866.81Y82.01  ;
N537 G65 P9102 A101 B02  ;
N538 G1X864.84Y80.48  ;
N539 G3X864.8Y79.8I0.28J-0.36  ;
N540 G3X864.8Y79.8I3.2J3.2  ;
N541 G65 P9104 A101 B01  ;
N542 G0X893Y61.26  ;
N543 G65 P9102 A101 B01  ;
N544 G1X888.05Y61.26  ;
N545 G1X888.05Y46  ;
N546 G3X893Y41.05I4.95J0  ;
N547 G1X896.05Y41.05  ;
N548 G1X896.05Y27.91  ;
N549 G1X897.05Y27.91  ;
N550 G1X897.05Y24.81  ;
N551 G1X884.99Y24.81  ;
N552 G1X880.58Y26.42  ;
N553 G1X882.2Y22.01  ;
N554 G1X882.2Y9.95  ;
N555 G1X858.45Y9.95  ;
N556 G1X858.45Y36  ;
N557 G3X853.5Y40.95I-4.95J0  ;
N558 G1X838.45Y40.95  ;
N559 G1X838.45Y83.05  ;
N560 G1X853.5Y83.05  ;
N561 G3X858.45Y88I0J4.95  ;
N562 G1X858.45Y114.06  ;
N563 G1X882.2Y114.06  ;
N564 G1X882.2Y102  ;
N565 G1X880.58Y97.59  ;
N566 G1X884.99Y99.2  ;
N567 G1X897.05Y99.2  ;
N568 G1X897.05Y96.1  ;
N569 G1X896.05Y96.1  ;
N570 G1X896.05Y82.95  ;
N571 G1X893Y82.95  ;
N572 G3X888.05Y78I0J-4.95  ;
N573 G1X888.05Y62.01  ;
N574 G65 P9104 A101 B02  ;
N575 M98 P9103  ;
(P11:ID1:W86009414)  ;
N576 M98 P9101  ;
N577 G0X934.81Y82.01  ;
N578 G65 P9102 A101 B02  ;
N579 G1X932.84Y80.48  ;
N580 G3X932.8Y79.8I0.28J-0.36  ;
N581 G3X932.8Y79.8I3.2J3.2  ;
N582 G65 P9104 A101 B02  ;
N583 G0X934.81Y40.01  ;
N584 G65 P9102 A101 B02  ;
N585 G1X932.84Y38.48  ;
N586 G3X932.8Y37.8I0.28J-0.36  ;
N587 G3X932.8Y37.8I3.2J3.2  ;
N588 G65 P9104 A101 B01  ;
N589 G0X961Y61.26  ;
N590 G65 P9102 A101 B01  ;
N591 G1X956.05Y61.26  ;
N592 G1X956.05Y46  ;
N593 G3X961Y41.05I4.95J0  ;
N594 G1X964.05Y41.05  ;
N595 G1X964.05Y27.91  ;
N596 G1X965.05Y27.91  ;
N597 G1X965.05Y24.81  ;
N598 G1X952.99Y24.81  ;
N599 G1X948.58Y26.42  ;
N600 G1X950.2Y22.01  ;
N601 G1X950.2Y9.95  ;
N602 G1X926.45Y9.95  ;
N603 G1X926.45Y36  ;
N604 G3X921.5Y40.95I-4.95J0  ;
N605 G1X906.45Y40.95  ;
N606 G1X906.45Y83.05  ;
N607 G1X921.5Y83.05  ;
N608 G3X926.45Y88I0J4.95  ;
N609 G1X926.45Y114.06  ;
N610 G1X950.2Y114.06  ;
N611 G1X950.2Y102  ;
N612 G1X948.58Y97.59  ;
N613 G1X952.99Y99.2  ;
N614 G1X965.05Y99.2  ;
N615 G1X965.05Y96.1  ;
N616 G1X964.05Y96.1  ;
N617 G1X964.05Y82.95  ;
N618 G1X961Y82.95  ;
N619 G3X956.05Y78I0J-4.95  ;
N620 G1X956.05Y62.01  ;
N621 G65 P9104 A101 B02  ;
N622 M98 P9103  ;
(P12:ID1:W86009414)  ;
N623 M98 P9101  ;
N624 G0X1002.81Y82.01  ;
N625 G65 P9102 A101 B02  ;
N626 G1X1000.84Y80.48  ;
N627 G3X1000.8Y79.8I0.28J-0.36  ;
N628 G3X1000.8Y79.8I3.2J3.2  ;
N629 G65 P9104 A101 B02  ;
N630 G0X1002.81Y40.01  ;
N631 G65 P9102 A101 B02  ;
N632 G1X1000.84Y38.48  ;
N633 G3X1000.8Y37.8I0.28J-0.36  ;
N634 G3X1000.8Y37.8I3.2J3.2  ;
N635 G65 P9104 A101 B01  ;
N636 G0X1029Y61.26  ;
N637 G65 P9102 A101 B01  ;
N638 G1X1024.05Y61.26  ;
N639 G1X1024.05Y46  ;
N640 G3X1029Y41.05I4.95J0  ;
N641 G1X1032.05Y41.05  ;
N642 G1X1032.05Y27.91  ;
N643 G1X1033.05Y27.91  ;
N644 G1X1033.05Y24.81  ;
N645 G1X1020.99Y24.81  ;
N646 G1X1016.58Y26.42  ;
N647 G1X1018.2Y22.01  ;
N648 G1X1018.2Y9.95  ;
N649 G1X994.45Y9.95  ;
N650 G1X994.45Y36  ;
N651 G3X989.5Y40.95I-4.95J0  ;
N652 G1X974.45Y40.95  ;
N653 G1X974.45Y83.05  ;
N654 G1X989.5Y83.05  ;
N655 G3X994.45Y88I0J4.95  ;
N656 G1X994.45Y114.06  ;
N657 G1X1018.2Y114.06  ;
N658 G1X1018.2Y102  ;
N659 G1X1016.58Y97.59  ;
N660 G1X1020.99Y99.2  ;
N661 G1X1033.05Y99.2  ;
N662 G1X1033.05Y96.1  ;
N663 G1X1032.05Y96.1  ;
N664 G1X1032.05Y82.95  ;
N665 G1X1029Y82.95  ;
N666 G3X1024.05Y78I0J-4.95  ;
N667 G1X1024.05Y62.01  ;
N668 G65 P9104 A101 B02  ;
N669 M98 P9103  ;
(P13:ID1:W86009414)  ;
N670 M98 P9101  ;
N671 G0X1070.81Y82.01  ;
N672 G65 P9102 A101 B02  ;
N673 G1X1068.84Y80.48  ;
N674 G3X1068.8Y79.8I0.28J-0.36  ;
N675 G3X1068.8Y79.8I3.2J3.2  ;
N676 G65 P9104 A101 B02  ;
N677 G0X1070.81Y40.01  ;
N678 G65 P9102 A101 B02  ;
N679 G1X1068.84Y38.48  ;
N680 G3X1068.8Y37.8I0.28J-0.36  ;
N681 G3X1068.8Y37.8I3.2J3.2  ;
N682 G65 P9104 A101 B01  ;
N683 G0X1097Y61.26  ;
N684 G65 P9102 A101 B01  ;
N685 G1X1092.05Y61.26  ;
N686 G1X1092.05Y46  ;
N687 G3X1097Y41.05I4.95J0  ;
N688 G1X1100.05Y41.05  ;
N689 G1X1100.05Y27.91  ;
N690 G1X1101.05Y27.91  ;
N691 G1X1101.05Y24.81  ;
N692 G1X1088.99Y24.81  ;
N693 G1X1084.58Y26.42  ;
N694 G1X1086.2Y22.01  ;
N695 G1X1086.2Y9.95  ;
N696 G1X1062.45Y9.95  ;
N697 G1X1062.45Y36  ;
N698 G3X1057.5Y40.95I-4.95J0  ;
N699 G1X1042.45Y40.95  ;
N700 G1X1042.45Y83.05  ;
N701 G1X1057.5Y83.05  ;
N702 G3X1062.45Y88I0J4.95  ;
N703 G1X1062.45Y114.06  ;
N704 G1X1086.2Y114.06  ;
N705 G1X1086.2Y102  ;
N706 G1X1084.58Y97.59  ;
N707 G1X1088.99Y99.2  ;
N708 G1X1101.05Y99.2  ;
N709 G1X1101.05Y96.1  ;
N710 G1X1100.05Y96.1  ;
N711 G1X1100.05Y82.95  ;
N712 G1X1097Y82.95  ;
N713 G3X1092.05Y78I0J-4.95  ;
N714 G1X1092.05Y62.01  ;
N715 G65 P9104 A101 B02  ;
N716 M98 P9103  ;
(P14:ID1:W86009414)  ;
N717 M98 P9101  ;
N718 G0X1138.81Y82.01  ;
N719 G65 P9102 A101 B02  ;
N720 G1X1136.84Y80.48  ;
N721 G3X1136.8Y79.8I0.28J-0.36  ;
N722 G3X1136.8Y79.8I3.2J3.2  ;
N723 G65 P9104 A101 B02  ;
N724 G0X1138.81Y40.01  ;
N725 G65 P9102 A101 B02  ;
N726 G1X1136.84Y38.48  ;
N727 G3X1136.8Y37.8I0.28J-0.36  ;
N728 G3X1136.8Y37.8I3.2J3.2  ;
N729 G65 P9104 A101 B01  ;
N730 G0X1165Y61.26  ;
N731 G65 P9102 A101 B01  ;
N732 G1X1160.05Y61.26  ;
N733 G1X1160.05Y46  ;
N734 G3X1165Y41.05I4.95J0  ;
N735 G1X1168.05Y41.05  ;
N736 G1X1168.05Y27.91  ;
N737 G1X1169.05Y27.91  ;
N738 G1X1169.05Y24.81  ;
N739 G1X1156.99Y24.81  ;
N740 G1X1152.58Y26.42  ;
N741 G1X1154.2Y22.01  ;
N742 G1X1154.2Y9.95  ;
N743 G1X1130.45Y9.95  ;
N744 G1X1130.45Y36  ;
N745 G3X1125.5Y40.95I-4.95J0  ;
N746 G1X1110.45Y40.95  ;
N747 G1X1110.45Y83.05  ;
N748 G1X1125.5Y83.05  ;
N749 G3X1130.45Y88I0J4.95  ;
N750 G1X1130.45Y114.06  ;
N751 G1X1154.2Y114.06  ;
N752 G1X1154.2Y102  ;
N753 G1X1152.58Y97.59  ;
N754 G1X1156.99Y99.2  ;
N755 G1X1169.05Y99.2  ;
N756 G1X1169.05Y96.1  ;
N757 G1X1168.05Y96.1  ;
N758 G1X1168.05Y82.95  ;
N759 G1X1165Y82.95  ;
N760 G3X1160.05Y78I0J-4.95  ;
N761 G1X1160.05Y62.01  ;
N762 G65 P9104 A101 B02  ;
N763 M98 P9103  ;
(P15:ID1:W86009414)  ;
N764 M98 P9101  ;
N765 G0X1206.81Y82.01  ;
N766 G65 P9102 A101 B02  ;
N767 G1X1204.84Y80.48  ;
N768 G3X1204.8Y79.8I0.28J-0.36  ;
N769 G3X1204.8Y79.8I3.2J3.2  ;
N770 G65 P9104 A101 B02  ;
N771 G0X1206.81Y40.01  ;
N772 G65 P9102 A101 B02  ;
N773 G1X1204.84Y38.48  ;
N774 G3X1204.8Y37.8I0.28J-0.36  ;
N775 G3X1204.8Y37.8I3.2J3.2  ;
N776 G65 P9104 A101 B01  ;
N777 G0X1233Y61.26  ;
N778 G65 P9102 A101 B01  ;
N779 G1X1228.05Y61.26  ;
N780 G1X1228.05Y46  ;
N781 G3X1233Y41.05I4.95J0  ;
N782 G1X1236.05Y41.05  ;
N783 G1X1236.05Y27.91  ;
N784 G1X1237.05Y27.91  ;
N785 G1X1237.05Y24.81  ;
N786 G1X1224.99Y24.81  ;
N787 G1X1220.58Y26.42  ;
N788 G1X1222.2Y22.01  ;
N789 G1X1222.2Y9.95  ;
N790 G1X1198.45Y9.95  ;
N791 G1X1198.45Y36  ;
N792 G3X1193.5Y40.95I-4.95J0  ;
N793 G1X1178.45Y40.95  ;
N794 G1X1178.45Y83.05  ;
N795 G1X1193.5Y83.05  ;
N796 G3X1198.45Y88I0J4.95  ;
N797 G1X1198.45Y114.06  ;
N798 G1X1222.2Y114.06  ;
N799 G1X1222.2Y102  ;
N800 G1X1220.58Y97.59  ;
N801 G1X1224.99Y99.2  ;
N802 G1X1237.05Y99.2  ;
N803 G1X1237.05Y96.1  ;
N804 G1X1236.05Y96.1  ;
N805 G1X1236.05Y82.95  ;
N806 G1X1233Y82.95  ;
N807 G3X1228.05Y78I0J-4.95  ;
N808 G1X1228.05Y62.01  ;
N809 G65 P9104 A101 B02  ;
N810 M98 P9103  ;
(P16:ID1:W86009414)  ;
N811 M98 P9101  ;
N812 G0X1184.69Y138.59  ;
N813 G65 P9102 A101 B02  ;
N814 G1X1186.66Y140.13  ;
N815 G3X1186.7Y140.8I-0.28J0.35  ;
N816 G3X1186.7Y140.8I-3.2J-3.2  ;
N817 G65 P9104 A101 B02  ;
N818 G0X1184.69Y180.59  ;
N819 G65 P9102 A101 B02  ;
N820 G1X1186.66Y182.13  ;
N821 G3X1186.7Y182.8I-0.28J0.35  ;
N822 G3X1186.7Y182.8I-3.2J-3.2  ;
N823 G65 P9104 A101 B01  ;
N824 G0X1158.5Y159.34  ;
N825 G65 P9102 A101 B01  ;
N826 G1X1163.45Y159.34  ;
N827 G1X1163.45Y174.6  ;
N828 G3X1158.5Y179.55I-4.95J0  ;
N829 G1X1155.45Y179.55  ;
N830 G1X1155.45Y192.7  ;
N831 G1X1154.45Y192.7  ;
N832 G1X1154.45Y195.8  ;
N833 G1X1166.51Y195.8  ;
N834 G1X1170.92Y194.19  ;
N835 G1X1169.31Y198.6  ;
N836 G1X1169.31Y210.66  ;
N837 G1X1193.05Y210.66  ;
N838 G1X1193.05Y184.6  ;
N839 G3X1198Y179.65I4.95J0  ;
N840 G1X1213.05Y179.65  ;
N841 G1X1213.05Y137.55  ;
N842 G1X1198Y137.55  ;
N843 G3X1193.05Y132.6I0J-4.95  ;
N844 G1X1193.05Y106.55  ;
N845 G1X1169.31Y106.55  ;
N846 G1X1169.31Y118.61  ;
N847 G1X1170.92Y123.02  ;
N848 G1X1166.51Y121.41  ;
N849 G1X1154.45Y121.41  ;
N850 G1X1154.45Y124.51  ;
N851 G1X1155.45Y124.51  ;
N852 G1X1155.45Y137.65  ;
N853 G1X1158.5Y137.65  ;
N854 G3X1163.45Y142.6I0J4.95  ;
N855 G1X1163.45Y158.59  ;
N856 G65 P9104 A101 B02  ;
N857 M98 P9103  ;
(P17:ID1:W86009414)  ;
N858 M98 P9101  ;
N859 G0X1116.69Y139.09  ;
N860 G65 P9102 A101 B02  ;
N861 G1X1118.66Y140.63  ;
N862 G3X1118.7Y141.3I-0.28J0.35  ;
N863 G3X1118.7Y141.3I-3.2J-3.2  ;
N864 G65 P9104 A101 B02  ;
N865 G0X1116.69Y181.09  ;
N866 G65 P9102 A101 B02  ;
N867 G1X1118.66Y182.63  ;
N868 G3X1118.7Y183.3I-0.28J0.35  ;
N869 G3X1118.7Y183.3I-3.2J-3.2  ;
N870 G65 P9104 A101 B01  ;
N871 G0X1090.5Y159.84  ;
N872 G65 P9102 A101 B01  ;
N873 G1X1095.45Y159.84  ;
N874 G1X1095.45Y175.1  ;
N875 G3X1090.5Y180.05I-4.95J0  ;
N876 G1X1087.45Y180.05  ;
N877 G1X1087.45Y193.2  ;
N878 G1X1086.45Y193.2  ;
N879 G1X1086.45Y196.3  ;
N880 G1X1098.51Y196.3  ;
N881 G1X1102.92Y194.69  ;
N882 G1X1101.31Y199.1  ;
N883 G1X1101.31Y211.16  ;
N884 G1X1125.05Y211.16  ;
N885 G1X1125.05Y185.1  ;
N886 G3X1130Y180.15I4.95J0  ;
N887 G1X1145.05Y180.15  ;
N888 G1X1145.05Y138.05  ;
N889 G1X1130Y138.05  ;
N890 G3X1125.05Y133.1I0J-4.95  ;
N891 G1X1125.05Y107.05  ;
N892 G1X1101.31Y107.05  ;
N893 G1X1101.31Y119.11  ;
N894 G1X1102.92Y123.52  ;
N895 G1X1098.51Y121.91  ;
N896 G1X1086.45Y121.91  ;
N897 G1X1086.45Y125.01  ;
N898 G1X1087.45Y125.01  ;
N899 G1X1087.45Y138.15  ;
N900 G1X1090.5Y138.15  ;
N901 G3X1095.45Y143.1I0J4.95  ;
N902 G1X1095.45Y159.09  ;
N903 G65 P9104 A101 B02  ;
N904 M98 P9103  ;
(P18:ID1:W86009414)  ;
N905 M98 P9101  ;
N906 G0X972.19Y178.19  ;
N907 G65 P9102 A101 B02  ;
N908 G1X974.16Y179.73  ;
N909 G3X974.2Y180.4I-0.28J0.35  ;
N910 G3X974.2Y180.4I-3.2J-3.2  ;
N911 G65 P9104 A101 B02  ;
N912 G0X972.19Y136.19  ;
N913 G65 P9102 A101 B02  ;
N914 G1X974.16Y137.73  ;
N915 G3X974.2Y138.4I-0.28J0.35  ;
N916 G3X974.2Y138.4I-3.2J-3.2  ;
N917 G65 P9104 A101 B01  ;
N918 G0X946Y156.94  ;
N919 G65 P9102 A101 B01  ;
N920 G1X950.95Y156.94  ;
N921 G1X950.95Y172.2  ;
N922 G3X946Y177.15I-4.95J0  ;
N923 G1X942.95Y177.15  ;
N924 G1X942.95Y190.3  ;
N925 G1X941.95Y190.3  ;
N926 G1X941.95Y193.4  ;
N927 G1X954.01Y193.4  ;
N928 G1X958.42Y191.79  ;
N929 G1X956.81Y196.2  ;
N930 G1X956.81Y208.26  ;
N931 G1X980.55Y208.26  ;
N932 G1X980.55Y182.2  ;
N933 G3X985.5Y177.25I4.95J0  ;
N934 G1X1000.55Y177.25  ;
N935 G1X1000.55Y135.15  ;
N936 G1X985.5Y135.15  ;
N937 G3X980.55Y130.2I0J-4.95  ;
N938 G1X980.55Y104.15  ;
N939 G1X956.81Y104.15  ;
N940 G1X956.81Y116.21  ;
N941 G1X958.42Y120.62  ;
N942 G1X954.01Y119.01  ;
N943 G1X941.95Y119.01  ;
N944 G1X941.95Y122.11  ;
N945 G1X942.95Y122.11  ;
N946 G1X942.95Y135.25  ;
N947 G1X946Y135.25  ;
N948 G3X950.95Y140.2I0J4.95  ;
N949 G1X950.95Y156.19  ;
N950 G65 P9104 A101 B02  ;
N951 M98 P9103  ;
(P19:ID1:W86009414)  ;
N952 M98 P9101  ;
N953 G0X904.19Y136.19  ;
N954 G65 P9102 A101 B02  ;
N955 G1X906.16Y137.73  ;
N956 G3X906.2Y138.4I-0.28J0.35  ;
N957 G3X906.2Y138.4I-3.2J-3.2  ;
N958 G65 P9104 A101 B02  ;
N959 G0X904.19Y178.19  ;
N960 G65 P9102 A101 B02  ;
N961 G1X906.16Y179.73  ;
N962 G3X906.2Y180.4I-0.28J0.35  ;
N963 G3X906.2Y180.4I-3.2J-3.2  ;
N964 G65 P9104 A101 B01  ;
N965 G0X878Y156.94  ;
N966 G65 P9102 A101 B01  ;
N967 G1X882.95Y156.94  ;
N968 G1X882.95Y172.2  ;
N969 G3X878Y177.15I-4.95J0  ;
N970 G1X874.95Y177.15  ;
N971 G1X874.95Y190.3  ;
N972 G1X873.95Y190.3  ;
N973 G1X873.95Y193.4  ;
N974 G1X886.01Y193.4  ;
N975 G1X890.42Y191.79  ;
N976 G1X888.81Y196.2  ;
N977 G1X888.81Y208.26  ;
N978 G1X912.55Y208.26  ;
N979 G1X912.55Y182.2  ;
N980 G3X917.5Y177.25I4.95J0  ;
N981 G1X932.55Y177.25  ;
N982 G1X932.55Y135.15  ;
N983 G1X917.5Y135.15  ;
N984 G3X912.55Y130.2I0J-4.95  ;
N985 G1X912.55Y104.15  ;
N986 G1X888.81Y104.15  ;
N987 G1X888.81Y116.21  ;
N988 G1X890.42Y120.62  ;
N989 G1X886.01Y119.01  ;
N990 G1X873.95Y119.01  ;
N991 G1X873.95Y122.11  ;
N992 G1X874.95Y122.11  ;
N993 G1X874.95Y135.25  ;
N994 G1X878Y135.25  ;
N995 G3X882.95Y140.2I0J4.95  ;
N996 G1X882.95Y156.19  ;
N997 G65 P9104 A101 B02  ;
N998 M98 P9103  ;
(P20:ID1:W86009414)  ;
N999 M98 P9101  ;
N1000 G0X838.69Y175.29  ;
N1001 G65 P9102 A101 B02  ;
N1002 G1X840.66Y176.83  ;
N1003 G3X840.7Y177.5I-0.28J0.35  ;
N1004 G3X840.7Y177.5I-3.2J-3.2  ;
N1005 G65 P9104 A101 B02  ;
N1006 G0X838.69Y133.29  ;
N1007 G65 P9102 A101 B02  ;
N1008 G1X840.66Y134.83  ;
N1009 G3X840.7Y135.5I-0.28J0.35  ;
N1010 G3X840.7Y135.5I-3.2J-3.2  ;
N1011 G65 P9104 A101 B01  ;
N1012 G0X812.5Y154.04  ;
N1013 G65 P9102 A101 B01  ;
N1014 G1X817.45Y154.04  ;
N1015 G1X817.45Y169.3  ;
N1016 G3X812.5Y174.25I-4.95J0  ;
N1017 G1X809.45Y174.25  ;
N1018 G1X809.45Y187.4  ;
N1019 G1X808.45Y187.4  ;
N1020 G1X808.45Y190.5  ;
N1021 G1X820.51Y190.5  ;
N1022 G1X824.92Y188.89  ;
N1023 G1X823.31Y193.3  ;
N1024 G1X823.31Y205.36  ;
N1025 G1X847.05Y205.36  ;
N1026 G1X847.05Y179.3  ;
N1027 G3X852Y174.35I4.95J0  ;
N1028 G1X867.05Y174.35  ;
N1029 G1X867.05Y132.25  ;
N1030 G1X852Y132.25  ;
N1031 G3X847.05Y127.3I0J-4.95  ;
N1032 G1X847.05Y101.25  ;
N1033 G1X823.31Y101.25  ;
N1034 G1X823.31Y113.31  ;
N1035 G1X824.92Y117.72  ;
N1036 G1X820.51Y116.11  ;
N1037 G1X808.45Y116.11  ;
N1038 G1X808.45Y119.21  ;
N1039 G1X809.45Y119.21  ;
N1040 G1X809.45Y132.35  ;
N1041 G1X812.5Y132.35  ;
N1042 G3X817.45Y137.3I0J4.95  ;
N1043 G1X817.45Y153.29  ;
N1044 G65 P9104 A102 B04  ;
N1045 M98 P9103  ;
(P21:ID2:W86027605)  ;
N1046 M98 P9101  ;
N1047 G0X127.04Y1868.5  ;
N1048 G65 P9102 A102 B04  ;
N1049 G1X135.04Y1863.93  ;
N1050 G1X135.04Y1869.64  ;
N1051 G65 P9104 A102 B04  ;
N1052 G0X130.47Y1868.5  ;
N1053 G65 P9102 A102 B04  ;
N1054 G1X130.47Y1865.07  ;
N1055 G65 P9104 A102 B04  ;
N1056 G0X130.47Y1863.21  ;
N1057 G65 P9102 A102 B04  ;
N1058 G1X130.47Y1858.64  ;
N1059 G1X129.32Y1857.5  ;
N1060 G1X128.18Y1857.5  ;
N1061 G1X127.04Y1858.64  ;
N1062 G1X127.04Y1862.07  ;
N1063 G1X128.18Y1863.21  ;
N1064 G1X133.89Y1863.21  ;
N1065 G1X135.04Y1862.07  ;
N1066 G1X135.04Y1858.64  ;
N1067 G65 P9104 A102 B04  ;
N1068 G0X128.18Y1870.36  ;
N1069 G65 P9102 A102 B04  ;
N1070 G1X127.04Y1871.5  ;
N1071 G1X127.04Y1876.07  ;
N1072 G1X129.32Y1876.07  ;
N1073 G1X130.47Y1874.93  ;
N1074 G1X130.47Y1871.5  ;
N1075 G1X131.61Y1870.36  ;
N1076 G1X133.89Y1870.36  ;
N1077 G1X135.04Y1871.5  ;
N1078 G1X135.04Y1874.93  ;
N1079 G1X133.89Y1876.07  ;
N1080 G65 P9104 A102 B04  ;
N1081 G0X126.3Y1755  ;
N1082 G65 P9102 A102 B04  ;
N1083 G1X100.3Y1755  ;
N1084 G1X100.3Y1676  ;
N1085 G1X126.3Y1676  ;
N1086 G65 P9104 A102 B04  ;
N1087 G0X126.3Y1396  ;
N1088 G65 P9102 A102 B04  ;
N1089 G1X100.3Y1396  ;
N1090 G1X100.3Y1317  ;
N1091 G1X126.3Y1317  ;
N1092 G65 P9104 A102 B04  ;
N1093 G0X126.3Y1037  ;
N1094 G65 P9102 A102 B04  ;
N1095 G1X100.3Y1037  ;
N1096 G1X100.3Y958  ;
N1097 G1X126.3Y958  ;
N1098 G65 P9104 A102 B04  ;
N1099 G0X126.3Y678  ;
N1100 G65 P9102 A102 B04  ;
N1101 G1X100.3Y678  ;
N1102 G1X100.3Y599  ;
N1103 G1X126.3Y599  ;
N1104 G65 P9104 A102 B04  ;
N1105 G0X126.3Y319  ;
N1106 G65 P9102 A102 B04  ;
N1107 G1X100.3Y319  ;
N1108 G1X100.3Y240  ;
N1109 G1X126.3Y240  ;
N1110 G65 P9104 A101 B02  ;
N1111 G0X47.56Y246.12  ;
N1112 G65 P9102 A101 B02  ;
N1113 G1X47.06Y243.16  ;
N1114 G3X48Y242.05I0.94J-0.16  ;
N1115 G3X54.95Y249I0J6.95  ;
N1116 G1X54.95Y259  ;
N1117 G3X41.05Y259I-6.95J0  ;
N1118 G1X41.05Y249  ;
N1119 G3X48Y242.05I6.95J0  ;
N1120 G65 P9104 A101 B02  ;
N1121 G0X28.54Y164.04  ;
N1122 G65 P9102 A101 B02  ;
N1123 G1X30.37Y162.2  ;
N1124 G3X30.34Y162.16I-1.87J1.8  ;
N1125 G65 P9104 A101 B02  ;
N1126 G0X35.04Y120.04  ;
N1127 G65 P9102 A101 B02  ;
N1128 G1X36.94Y118.13  ;
N1129 G3X36.91Y118.09I-1.94J1.87  ;
N1130 G65 P9104 A101 B02  ;
N1131 G0X35.04Y100.04  ;
N1132 G65 P9102 A101 B02  ;
N1133 G1X36.94Y98.13  ;
N1134 G3X36.91Y98.09I-1.94J1.87  ;
N1135 G65 P9104 A101 B02  ;
N1136 G0X60.04Y120.04  ;
N1137 G65 P9102 A101 B02  ;
N1138 G1X61.94Y118.13  ;
N1139 G3X61.91Y118.09I-1.94J1.87  ;
N1140 G65 P9104 A101 B02  ;
N1141 G0X48.44Y736.12  ;
N1142 G65 P9102 A101 B02  ;
N1143 G1X48.94Y733.16  ;
N1144 G2X48Y732.05I-0.94J-0.16  ;
N1145 G2X41.05Y739I0J6.95  ;
N1146 G1X41.05Y749  ;
N1147 G2X54.95Y749I6.95J0  ;
N1148 G1X54.95Y739  ;
N1149 G2X48Y732.05I-6.95J0  ;
N1150 G65 P9104 A101 B02  ;
N1151 G0X28.54Y987.04  ;
N1152 G65 P9102 A101 B02  ;
N1153 G1X30.37Y985.2  ;
N1154 G3X30.34Y985.16I-1.87J1.8  ;
N1155 G65 P9104 A101 B02  ;
N1156 G0X47.56Y1226.12  ;
N1157 G65 P9102 A101 B02  ;
N1158 G1X47.06Y1223.16  ;
N1159 G3X48Y1222.05I0.94J-0.16  ;
N1160 G3X54.95Y1229I0J6.95  ;
N1161 G1X54.95Y1239  ;
N1162 G3X41.05Y1239I-6.95J0  ;
N1163 G1X41.05Y1229  ;
N1164 G3X48Y1222.05I6.95J0  ;
N1165 G65 P9104 A101 B02  ;
N1166 G0X47.56Y1286.12  ;
N1167 G65 P9102 A101 B02  ;
N1168 G1X47.06Y1283.16  ;
N1169 G3X48Y1282.05I0.94J-0.16  ;
N1170 G3X54.95Y1289I0J6.95  ;
N1171 G1X54.95Y1299  ;
N1172 G3X41.05Y1299I-6.95J0  ;
N1173 G1X41.05Y1289  ;
N1174 G3X48Y1282.05I6.95J0  ;
N1175 G65 P9104 A101 B02  ;
N1176 G0X54.04Y1364.54  ;
N1177 G65 P9102 A101 B02  ;
N1178 G1X55.94Y1362.63  ;
N1179 G3X55.91Y1362.59I-1.94J1.87  ;
N1180 G65 P9104 A101 B02  ;
N1181 G0X29.04Y1364.54  ;
N1182 G65 P9102 A101 B02  ;
N1183 G1X30.94Y1362.63  ;
N1184 G3X30.91Y1362.59I-1.94J1.87  ;
N1185 G65 P9104 A101 B02  ;
N1186 G0X29.04Y1384.54  ;
N1187 G65 P9102 A101 B02  ;
N1188 G1X30.94Y1382.63  ;
N1189 G3X30.91Y1382.59I-1.94J1.87  ;
N1190 G65 P9104 A101 B02  ;
N1191 G0X25.54Y1576.63  ;
N1192 G65 P9102 A101 B02  ;
N1193 G1X27.44Y1574.72  ;
N1194 G3X27.41Y1574.68I-1.94J1.87  ;
N1195 G65 P9104 A101 B02  ;
N1196 G0X36.04Y1587.13  ;
N1197 G65 P9102 A101 B02  ;
N1198 G1X37.94Y1585.22  ;
N1199 G3X37.91Y1585.18I-1.94J1.87  ;
N1200 G65 P9104 A101 B02  ;
N1201 G0X28.93Y1648.09  ;
N1202 G65 P9102 A101 B02  ;
N1203 G1X30.83Y1646.18  ;
N1204 G3X30.8Y1646.15I-1.94J1.88  ;
N1205 G65 P9104 A101 B02  ;
N1206 G0X36.93Y1658.59  ;
N1207 G65 P9102 A101 B02  ;
N1208 G1X38.83Y1656.68  ;
N1209 G3X38.8Y1656.65I-1.94J1.88  ;
N1210 G65 P9104 A101 B02  ;
N1211 G0X48.44Y1716.12  ;
N1212 G65 P9102 A101 B02  ;
N1213 G1X48.94Y1713.16  ;
N1214 G2X48Y1712.05I-0.94J-0.16  ;
N1215 G2X41.05Y1719I0J6.95  ;
N1216 G1X41.05Y1729  ;
N1217 G2X54.95Y1729I6.95J0  ;
N1218 G1X54.95Y1719  ;
N1219 G2X48Y1712.05I-6.95J0  ;
N1220 G65 P9104 A101 B02  ;
N1221 G0X28.54Y1810.04  ;
N1222 G65 P9102 A101 B02  ;
N1223 G1X30.37Y1808.2  ;
N1224 G3X30.34Y1808.16I-1.87J1.8  ;
N1225 G65 P9104 A101 B02  ;
N1226 G0X35.04Y1854.04  ;
N1227 G65 P9102 A101 B02  ;
N1228 G1X36.94Y1852.13  ;
N1229 G3X36.91Y1852.09I-1.94J1.87  ;
N1230 G65 P9104 A101 B02  ;
N1231 G0X35.04Y1874.04  ;
N1232 G65 P9102 A101 B02  ;
N1233 G1X36.94Y1872.13  ;
N1234 G3X36.91Y1872.09I-1.94J1.87  ;
N1235 G65 P9104 A101 B02  ;
N1236 G0X60.04Y1874.04  ;
N1237 G65 P9102 A101 B02  ;
N1238 G1X61.94Y1872.13  ;
N1239 G3X61.91Y1872.09I-1.94J1.87  ;
N1240 G65 P9104 A101 B01  ;
N1241 G0X146.3Y1890.05  ;
N1242 G65 P9102 A101 B01  ;
N1243 G1X143.3Y1890.05  ;
N1244 G1X20Y1890.05  ;
N1245 G3X14.95Y1885I0J-5.05  ;
N1246 G1X14.95Y89  ;
N1247 G3X20Y83.95I5.05J0  ;
N1248 G1X143.35Y83.95  ;
N1249 G1X143.35Y176.98  ;
N1250 G1X148.3Y181.92  ;
N1251 G1X148.6Y181.95  ;
N1252 G1X178.58Y181.95  ;
N1253 G1X182.66Y178.27  ;
N1254 G1X182.86Y177.96  ;
N1255 G1X184.3Y176.52  ;
N1256 G1X184.66Y176.88  ;
N1257 G1X188.12Y173.41  ;
N1258 G1X187.77Y173.06  ;
N1259 G1X189.25Y171.57  ;
N1260 G3X203.95Y207I-35.35J35.43  ;
N1261 G1X203.95Y1816  ;
N1262 G3X189.25Y1851.43I-50.05J0  ;
N1263 G1X187.77Y1849.94  ;
N1264 G1X188.12Y1849.59  ;
N1265 G1X184.66Y1846.12  ;
N1266 G1X184.3Y1846.48  ;
N1267 G1X178.89Y1841.08  ;
N1268 G1X178.6Y1841.05  ;
N1269 G1X148.62Y1841.05  ;
N1270 G1X144.54Y1844.73  ;
N1271 G1X144.33Y1845.04  ;
N1272 G1X143.35Y1846.02  ;
N1273 G1X143.35Y1890  ;
N1274 G65 P9104 A102 B04  ;
N1275 M98 P9103  ;
(P22:ID3:W86027604)  ;
N1276 M98 P9101  ;
N1277 G0X292Y101.33  ;
N1278 G65 P9102 A102 B04  ;
N1279 G1X284Y105.9  ;
N1280 G1X284Y100.19  ;
N1281 G65 P9104 A102 B04  ;
N1282 G0X288.57Y101.33  ;
N1283 G65 P9102 A102 B04  ;
N1284 G1X288.57Y104.76  ;
N1285 G65 P9104 A102 B04  ;
N1286 G0X288.57Y106.62  ;
N1287 G65 P9102 A102 B04  ;
N1288 G1X288.57Y111.19  ;
N1289 G1X289.71Y112.33  ;
N1290 G1X290.86Y112.33  ;
N1291 G1X292Y111.19  ;
N1292 G1X292Y107.76  ;
N1293 G1X290.86Y106.62  ;
N1294 G1X285.14Y106.62  ;
N1295 G1X284Y107.76  ;
N1296 G1X284Y111.19  ;
N1297 G65 P9104 A102 B04  ;
N1298 G0X290.86Y99.48  ;
N1299 G65 P9102 A102 B04  ;
N1300 G1X292Y98.33  ;
N1301 G1X292Y93.76  ;
N1302 G1X289.71Y93.76  ;
N1303 G1X288.57Y94.9  ;
N1304 G1X288.57Y98.33  ;
N1305 G1X287.43Y99.48  ;
N1306 G1X285.14Y99.48  ;
N1307 G1X284Y98.33  ;
N1308 G1X284Y94.9  ;
N1309 G1X285.14Y93.76  ;
N1310 G65 P9104 A102 B04  ;
N1311 G0X291.4Y240  ;
N1312 G65 P9102 A102 B04  ;
N1313 G1X317.4Y240  ;
N1314 G1X317.4Y319  ;
N1315 G1X291.4Y319  ;
N1316 G65 P9104 A102 B04  ;
N1317 G0X291.4Y599  ;
N1318 G65 P9102 A102 B04  ;
N1319 G1X317.4Y599  ;
N1320 G1X317.4Y678  ;
N1321 G1X291.4Y678  ;
N1322 G65 P9104 A102 B04  ;
N1323 G0X291.4Y958  ;
N1324 G65 P9102 A102 B04  ;
N1325 G1X317.4Y958  ;
N1326 G1X317.4Y1037  ;
N1327 G1X291.4Y1037  ;
N1328 G65 P9104 A102 B04  ;
N1329 G0X291.4Y1317  ;
N1330 G65 P9102 A102 B04  ;
N1331 G1X317.4Y1317  ;
N1332 G1X317.4Y1396  ;
N1333 G1X291.4Y1396  ;
N1334 G65 P9104 A102 B04  ;
N1335 G0X291.4Y1676  ;
N1336 G65 P9102 A102 B04  ;
N1337 G1X317.4Y1676  ;
N1338 G1X317.4Y1755  ;
N1339 G1X291.4Y1755  ;
N1340 G65 P9104 A101 B02  ;
N1341 G0X369.26Y1731.88  ;
N1342 G65 P9102 A101 B02  ;
N1343 G1X368.76Y1734.84  ;
N1344 G2X369.7Y1735.95I0.94J0.16  ;
N1345 G2X376.65Y1729I0J-6.95  ;
N1346 G1X376.65Y1719  ;
N1347 G2X362.75Y1719I-6.95J0  ;
N1348 G1X362.75Y1729  ;
N1349 G2X369.7Y1735.95I6.95J0  ;
N1350 G65 P9104 A101 B02  ;
N1351 G0X389.16Y1809.96  ;
N1352 G65 P9102 A101 B02  ;
N1353 G1X387.32Y1811.8  ;
N1354 G3X387.36Y1811.84I1.88J-1.8  ;
N1355 G65 P9104 A101 B02  ;
N1356 G0X382.66Y1853.96  ;
N1357 G65 P9102 A101 B02  ;
N1358 G1X380.75Y1855.87  ;
N1359 G3X380.79Y1855.91I1.95J-1.87  ;
N1360 G65 P9104 A101 B02  ;
N1361 G0X382.66Y1873.96  ;
N1362 G65 P9102 A101 B02  ;
N1363 G1X380.75Y1875.87  ;
N1364 G3X380.79Y1875.91I1.95J-1.87  ;
N1365 G65 P9104 A101 B02  ;
N1366 G0X357.66Y1873.96  ;
N1367 G65 P9102 A101 B02  ;
N1368 G1X355.75Y1875.87  ;
N1369 G3X355.79Y1875.91I1.95J-1.87  ;
N1370 G65 P9104 A101 B02  ;
N1371 G0X381.16Y1658.52  ;
N1372 G65 P9102 A101 B02  ;
N1373 G1X379.25Y1660.43  ;
N1374 G3X379.29Y1660.47I1.95J-1.87  ;
N1375 G65 P9104 A101 B02  ;
N1376 G0X389.16Y1648.02  ;
N1377 G65 P9102 A101 B02  ;
N1378 G1X387.25Y1649.93  ;
N1379 G3X387.29Y1649.97I1.95J-1.87  ;
N1380 G65 P9104 A101 B02  ;
N1381 G0X381.66Y1587.06  ;
N1382 G65 P9102 A101 B02  ;
N1383 G1X379.75Y1588.97  ;
N1384 G3X379.79Y1589I1.95J-1.88  ;
N1385 G65 P9104 A101 B02  ;
N1386 G0X392.16Y1576.56  ;
N1387 G65 P9102 A101 B02  ;
N1388 G1X390.25Y1578.47  ;
N1389 G3X390.29Y1578.5I1.95J-1.88  ;
N1390 G65 P9104 A101 B02  ;
N1391 G0X388.66Y1384.46  ;
N1392 G65 P9102 A101 B02  ;
N1393 G1X386.75Y1386.37  ;
N1394 G3X386.79Y1386.41I1.95J-1.87  ;
N1395 G65 P9104 A101 B02  ;
N1396 G0X388.66Y1364.46  ;
N1397 G65 P9102 A101 B02  ;
N1398 G1X386.75Y1366.37  ;
N1399 G3X386.79Y1366.41I1.95J-1.87  ;
N1400 G65 P9104 A101 B02  ;
N1401 G0X363.66Y1364.46  ;
N1402 G65 P9102 A101 B02  ;
N1403 G1X361.75Y1366.37  ;
N1404 G3X361.79Y1366.41I1.95J-1.87  ;
N1405 G65 P9104 A101 B02  ;
N1406 G0X370.13Y1241.88  ;
N1407 G65 P9102 A101 B02  ;
N1408 G1X370.63Y1244.84  ;
N1409 G3X369.7Y1245.95I-0.93J0.16  ;
N1410 G3X362.75Y1239I0J-6.95  ;
N1411 G1X362.75Y1229  ;
N1412 G3X376.65Y1229I6.95J0  ;
N1413 G1X376.65Y1239  ;
N1414 G3X369.7Y1245.95I-6.95J0  ;
N1415 G65 P9104 A101 B02  ;
N1416 G0X389.16Y986.96  ;
N1417 G65 P9102 A101 B02  ;
N1418 G1X387.32Y988.8  ;
N1419 G3X387.36Y988.84I1.88J-1.8  ;
N1420 G65 P9104 A101 B02  ;
N1421 G0X370.13Y751.88  ;
N1422 G65 P9102 A101 B02  ;
N1423 G1X370.63Y754.84  ;
N1424 G3X369.7Y755.95I-0.93J0.16  ;
N1425 G3X362.75Y749I0J-6.95  ;
N1426 G1X362.75Y739  ;
N1427 G3X376.65Y739I6.95J0  ;
N1428 G1X376.65Y749  ;
N1429 G3X369.7Y755.95I-6.95J0  ;
N1430 G65 P9104 A101 B02  ;
N1431 G0X369.26Y261.88  ;
N1432 G65 P9102 A101 B02  ;
N1433 G1X368.76Y264.84  ;
N1434 G2X369.7Y265.95I0.94J0.16  ;
N1435 G2X376.65Y259I0J-6.95  ;
N1436 G1X376.65Y249  ;
N1437 G2X362.75Y249I-6.95J0  ;
N1438 G1X362.75Y259  ;
N1439 G2X369.7Y265.95I6.95J0  ;
N1440 G65 P9104 A101 B02  ;
N1441 G0X389.16Y163.96  ;
N1442 G65 P9102 A101 B02  ;
N1443 G1X387.32Y165.8  ;
N1444 G3X387.36Y165.84I1.88J-1.8  ;
N1445 G65 P9104 A101 B02  ;
N1446 G0X382.66Y119.96  ;
N1447 G65 P9102 A101 B02  ;
N1448 G1X380.75Y121.87  ;
N1449 G3X380.79Y121.91I1.95J-1.87  ;
N1450 G65 P9104 A101 B02  ;
N1451 G0X382.66Y99.96  ;
N1452 G65 P9102 A101 B02  ;
N1453 G1X380.75Y101.87  ;
N1454 G3X380.79Y101.91I1.95J-1.87  ;
N1455 G65 P9104 A101 B02  ;
N1456 G0X357.66Y119.96  ;
N1457 G65 P9102 A101 B02  ;
N1458 G1X355.75Y121.87  ;
N1459 G3X355.79Y121.91I1.95J-1.87  ;
N1460 G65 P9104 A101 B01  ;
N1461 G0X271.4Y83.95  ;
N1462 G65 P9102 A101 B01  ;
N1463 G1X274.4Y83.95  ;
N1464 G1X397.7Y83.95  ;
N1465 G3X402.75Y89I0J5.05  ;
N1466 G1X402.75Y1885  ;
N1467 G3X397.7Y1890.05I-5.05J0  ;
N1468 G1X274.35Y1890.05  ;
N1469 G1X274.35Y1846.02  ;
N1470 G1X271.21Y1842.89  ;
N1471 G1X269.39Y1841.08  ;
N1472 G1X269.1Y1841.05  ;
N1473 G1X239.12Y1841.05  ;
N1474 G1X235.04Y1844.73  ;
N1475 G1X234.84Y1845.04  ;
N1476 G1X233.39Y1846.48  ;
N1477 G1X233.04Y1846.12  ;
N1478 G1X229.58Y1849.59  ;
N1479 G1X229.93Y1849.94  ;
N1480 G1X228.44Y1851.43  ;
N1481 G3X213.75Y1816I35.36J-35.43  ;
N1482 G1X213.75Y207  ;
N1483 G3X228.44Y171.57I50.05J0  ;
N1484 G1X229.93Y173.06  ;
N1485 G1X229.58Y173.41  ;
N1486 G1X233.04Y176.88  ;
N1487 G1X233.39Y176.52  ;
N1488 G1X236.99Y180.11  ;
N1489 G1X238.8Y181.92  ;
N1490 G1X239.1Y181.95  ;
N1491 G1X269.08Y181.95  ;
N1492 G1X273.16Y178.27  ;
N1493 G1X273.36Y177.96  ;
N1494 G1X274.35Y176.98  ;
N1495 G1X274.35Y84  ;
N1496 G65 P9104 A102 B04  ;
N1497 M98 P9103  ;
(P23:ID2:W86027605)  ;
N1498 M98 P9101  ;
N1499 G0X527.04Y1868.5  ;
N1500 G65 P9102 A102 B04  ;
N1501 G1X535.04Y1863.93  ;
N1502 G1X535.04Y1869.64  ;
N1503 G65 P9104 A102 B04  ;
N1504 G0X530.47Y1868.5  ;
N1505 G65 P9102 A102 B04  ;
N1506 G1X530.47Y1865.07  ;
N1507 G65 P9104 A102 B04  ;
N1508 G0X530.47Y1863.21  ;
N1509 G65 P9102 A102 B04  ;
N1510 G1X530.47Y1858.64  ;
N1511 G1X529.32Y1857.5  ;
N1512 G1X528.18Y1857.5  ;
N1513 G1X527.04Y1858.64  ;
N1514 G1X527.04Y1862.07  ;
N1515 G1X528.18Y1863.21  ;
N1516 G1X533.89Y1863.21  ;
N1517 G1X535.04Y1862.07  ;
N1518 G1X535.04Y1858.64  ;
N1519 G65 P9104 A102 B04  ;
N1520 G0X528.18Y1870.36  ;
N1521 G65 P9102 A102 B04  ;
N1522 G1X527.04Y1871.5  ;
N1523 G1X527.04Y1876.07  ;
N1524 G1X529.32Y1876.07  ;
N1525 G1X530.47Y1874.93  ;
N1526 G1X530.47Y1871.5  ;
N1527 G1X531.61Y1870.36  ;
N1528 G1X533.89Y1870.36  ;
N1529 G1X535.04Y1871.5  ;
N1530 G1X535.04Y1874.93  ;
N1531 G1X533.89Y1876.07  ;
N1532 G65 P9104 A102 B04  ;
N1533 G0X526.3Y1755  ;
N1534 G65 P9102 A102 B04  ;
N1535 G1X500.3Y1755  ;
N1536 G1X500.3Y1676  ;
N1537 G1X526.3Y1676  ;
N1538 G65 P9104 A102 B04  ;
N1539 G0X526.3Y1396  ;
N1540 G65 P9102 A102 B04  ;
N1541 G1X500.3Y1396  ;
N1542 G1X500.3Y1317  ;
N1543 G1X526.3Y1317  ;
N1544 G65 P9104 A102 B04  ;
N1545 G0X526.3Y1037  ;
N1546 G65 P9102 A102 B04  ;
N1547 G1X500.3Y1037  ;
N1548 G1X500.3Y958  ;
N1549 G1X526.3Y958  ;
N1550 G65 P9104 A102 B04  ;
N1551 G0X526.3Y678  ;
N1552 G65 P9102 A102 B04  ;
N1553 G1X500.3Y678  ;
N1554 G1X500.3Y599  ;
N1555 G1X526.3Y599  ;
N1556 G65 P9104 A102 B04  ;
N1557 G0X526.3Y319  ;
N1558 G65 P9102 A102 B04  ;
N1559 G1X500.3Y319  ;
N1560 G1X500.3Y240  ;
N1561 G1X526.3Y240  ;
N1562 G65 P9104 A101 B02  ;
N1563 G0X447.56Y246.12  ;
N1564 G65 P9102 A101 B02  ;
N1565 G1X447.06Y243.16  ;
N1566 G3X448Y242.05I0.94J-0.16  ;
N1567 G3X454.95Y249I0J6.95  ;
N1568 G1X454.95Y259  ;
N1569 G3X441.05Y259I-6.95J0  ;
N1570 G1X441.05Y249  ;
N1571 G3X448Y242.05I6.95J0  ;
N1572 G65 P9104 A101 B02  ;
N1573 G0X428.54Y164.04  ;
N1574 G65 P9102 A101 B02  ;
N1575 G1X430.37Y162.2  ;
N1576 G3X430.34Y162.16I-1.87J1.8  ;
N1577 G65 P9104 A101 B02  ;
N1578 G0X435.04Y120.04  ;
N1579 G65 P9102 A101 B02  ;
N1580 G1X436.94Y118.13  ;
N1581 G3X436.91Y118.09I-1.94J1.87  ;
N1582 G65 P9104 A101 B02  ;
N1583 G0X435.04Y100.04  ;
N1584 G65 P9102 A101 B02  ;
N1585 G1X436.94Y98.13  ;
N1586 G3X436.91Y98.09I-1.94J1.87  ;
N1587 G65 P9104 A101 B02  ;
N1588 G0X460.04Y120.04  ;
N1589 G65 P9102 A101 B02  ;
N1590 G1X461.94Y118.13  ;
N1591 G3X461.91Y118.09I-1.94J1.87  ;
N1592 G65 P9104 A101 B02  ;
N1593 G0X448.44Y736.12  ;
N1594 G65 P9102 A101 B02  ;
N1595 G1X448.94Y733.16  ;
N1596 G2X448Y732.05I-0.94J-0.16  ;
N1597 G2X441.05Y739I0J6.95  ;
N1598 G1X441.05Y749  ;
N1599 G2X454.95Y749I6.95J0  ;
N1600 G1X454.95Y739  ;
N1601 G2X448Y732.05I-6.95J0  ;
N1602 G65 P9104 A101 B02  ;
N1603 G0X428.54Y987.04  ;
N1604 G65 P9102 A101 B02  ;
N1605 G1X430.37Y985.2  ;
N1606 G3X430.34Y985.16I-1.87J1.8  ;
N1607 G65 P9104 A101 B02  ;
N1608 G0X447.56Y1226.12  ;
N1609 G65 P9102 A101 B02  ;
N1610 G1X447.06Y1223.16  ;
N1611 G3X448Y1222.05I0.94J-0.16  ;
N1612 G3X454.95Y1229I0J6.95  ;
N1613 G1X454.95Y1239  ;
N1614 G3X441.05Y1239I-6.95J0  ;
N1615 G1X441.05Y1229  ;
N1616 G3X448Y1222.05I6.95J0  ;
N1617 G65 P9104 A101 B02  ;
N1618 G0X447.56Y1286.12  ;
N1619 G65 P9102 A101 B02  ;
N1620 G1X447.06Y1283.16  ;
N1621 G3X448Y1282.05I0.94J-0.16  ;
N1622 G3X454.95Y1289I0J6.95  ;
N1623 G1X454.95Y1299  ;
N1624 G3X441.05Y1299I-6.95J0  ;
N1625 G1X441.05Y1289  ;
N1626 G3X448Y1282.05I6.95J0  ;
N1627 G65 P9104 A101 B02  ;
N1628 G0X454.04Y1364.54  ;
N1629 G65 P9102 A101 B02  ;
N1630 G1X455.94Y1362.63  ;
N1631 G3X455.91Y1362.59I-1.94J1.87  ;
N1632 G65 P9104 A101 B02  ;
N1633 G0X429.04Y1364.54  ;
N1634 G65 P9102 A101 B02  ;
N1635 G1X430.94Y1362.63  ;
N1636 G3X430.91Y1362.59I-1.94J1.87  ;
N1637 G65 P9104 A101 B02  ;
N1638 G0X429.04Y1384.54  ;
N1639 G65 P9102 A101 B02  ;
N1640 G1X430.94Y1382.63  ;
N1641 G3X430.91Y1382.59I-1.94J1.87  ;
N1642 G65 P9104 A101 B02  ;
N1643 G0X425.54Y1576.63  ;
N1644 G65 P9102 A101 B02  ;
N1645 G1X427.44Y1574.72  ;
N1646 G3X427.41Y1574.68I-1.94J1.87  ;
N1647 G65 P9104 A101 B02  ;
N1648 G0X436.04Y1587.13  ;
N1649 G65 P9102 A101 B02  ;
N1650 G1X437.94Y1585.22  ;
N1651 G3X437.91Y1585.18I-1.94J1.87  ;
N1652 G65 P9104 A101 B02  ;
N1653 G0X428.93Y1648.09  ;
N1654 G65 P9102 A101 B02  ;
N1655 G1X430.83Y1646.18  ;
N1656 G3X430.8Y1646.15I-1.94J1.88  ;
N1657 G65 P9104 A101 B02  ;
N1658 G0X436.93Y1658.59  ;
N1659 G65 P9102 A101 B02  ;
N1660 G1X438.83Y1656.68  ;
N1661 G3X438.8Y1656.65I-1.94J1.88  ;
N1662 G65 P9104 A101 B02  ;
N1663 G0X448.44Y1716.12  ;
N1664 G65 P9102 A101 B02  ;
N1665 G1X448.94Y1713.16  ;
N1666 G2X448Y1712.05I-0.94J-0.16  ;
N1667 G2X441.05Y1719I0J6.95  ;
N1668 G1X441.05Y1729  ;
N1669 G2X454.95Y1729I6.95J0  ;
N1670 G1X454.95Y1719  ;
N1671 G2X448Y1712.05I-6.95J0  ;
N1672 G65 P9104 A101 B02  ;
N1673 G0X428.54Y1810.04  ;
N1674 G65 P9102 A101 B02  ;
N1675 G1X430.37Y1808.2  ;
N1676 G3X430.34Y1808.16I-1.87J1.8  ;
N1677 G65 P9104 A101 B02  ;
N1678 G0X435.04Y1854.04  ;
N1679 G65 P9102 A101 B02  ;
N1680 G1X436.94Y1852.13  ;
N1681 G3X436.91Y1852.09I-1.94J1.87  ;
N1682 G65 P9104 A101 B02  ;
N1683 G0X435.04Y1874.04  ;
N1684 G65 P9102 A101 B02  ;
N1685 G1X436.94Y1872.13  ;
N1686 G3X436.91Y1872.09I-1.94J1.87  ;
N1687 G65 P9104 A101 B02  ;
N1688 G0X460.04Y1874.04  ;
N1689 G65 P9102 A101 B02  ;
N1690 G1X461.94Y1872.13  ;
N1691 G3X461.91Y1872.09I-1.94J1.87  ;
N1692 G65 P9104 A101 B01  ;
N1693 G0X546.3Y1890.05  ;
N1694 G65 P9102 A101 B01  ;
N1695 G1X543.3Y1890.05  ;
N1696 G1X420Y1890.05  ;
N1697 G3X414.95Y1885I0J-5.05  ;
N1698 G1X414.95Y89  ;
N1699 G3X420Y83.95I5.05J0  ;
N1700 G1X543.35Y83.95  ;
N1701 G1X543.35Y176.98  ;
N1702 G1X548.3Y181.92  ;
N1703 G1X548.6Y181.95  ;
N1704 G1X578.58Y181.95  ;
N1705 G1X582.66Y178.27  ;
N1706 G1X582.86Y177.96  ;
N1707 G1X584.3Y176.52  ;
N1708 G1X584.66Y176.88  ;
N1709 G1X588.12Y173.41  ;
N1710 G1X587.77Y173.06  ;
N1711 G1X589.25Y171.57  ;
N1712 G3X603.95Y207I-35.35J35.43  ;
N1713 G1X603.95Y1816  ;
N1714 G3X589.25Y1851.43I-50.05J0  ;
N1715 G1X587.77Y1849.94  ;
N1716 G1X588.12Y1849.59  ;
N1717 G1X584.66Y1846.12  ;
N1718 G1X584.3Y1846.48  ;
N1719 G1X578.89Y1841.08  ;
N1720 G1X578.6Y1841.05  ;
N1721 G1X548.62Y1841.05  ;
N1722 G1X544.54Y1844.73  ;
N1723 G1X544.33Y1845.04  ;
N1724 G1X543.35Y1846.02  ;
N1725 G1X543.35Y1890  ;
N1726 G65 P9104 A102 B04  ;
N1727 M98 P9103  ;
(P24:ID3:W86027604)  ;
N1728 M98 P9101  ;
N1729 G0X692Y101.33  ;
N1730 G65 P9102 A102 B04  ;
N1731 G1X684Y105.9  ;
N1732 G1X684Y100.19  ;
N1733 G65 P9104 A102 B04  ;
N1734 G0X688.57Y101.33  ;
N1735 G65 P9102 A102 B04  ;
N1736 G1X688.57Y104.76  ;
N1737 G65 P9104 A102 B04  ;
N1738 G0X688.57Y106.62  ;
N1739 G65 P9102 A102 B04  ;
N1740 G1X688.57Y111.19  ;
N1741 G1X689.71Y112.33  ;
N1742 G1X690.86Y112.33  ;
N1743 G1X692Y111.19  ;
N1744 G1X692Y107.76  ;
N1745 G1X690.86Y106.62  ;
N1746 G1X685.14Y106.62  ;
N1747 G1X684Y107.76  ;
N1748 G1X684Y111.19  ;
N1749 G65 P9104 A102 B04  ;
N1750 G0X690.86Y99.48  ;
N1751 G65 P9102 A102 B04  ;
N1752 G1X692Y98.33  ;
N1753 G1X692Y93.76  ;
N1754 G1X689.71Y93.76  ;
N1755 G1X688.57Y94.9  ;
N1756 G1X688.57Y98.33  ;
N1757 G1X687.43Y99.48  ;
N1758 G1X685.14Y99.48  ;
N1759 G1X684Y98.33  ;
N1760 G1X684Y94.9  ;
N1761 G1X685.14Y93.76  ;
N1762 G65 P9104 A102 B04  ;
N1763 G0X691.4Y240  ;
N1764 G65 P9102 A102 B04  ;
N1765 G1X717.4Y240  ;
N1766 G1X717.4Y319  ;
N1767 G1X691.4Y319  ;
N1768 G65 P9104 A102 B04  ;
N1769 G0X691.4Y599  ;
N1770 G65 P9102 A102 B04  ;
N1771 G1X717.4Y599  ;
N1772 G1X717.4Y678  ;
N1773 G1X691.4Y678  ;
N1774 G65 P9104 A102 B04  ;
N1775 G0X691.4Y958  ;
N1776 G65 P9102 A102 B04  ;
N1777 G1X717.4Y958  ;
N1778 G1X717.4Y1037  ;
N1779 G1X691.4Y1037  ;
N1780 G65 P9104 A102 B04  ;
N1781 G0X691.4Y1317  ;
N1782 G65 P9102 A102 B04  ;
N1783 G1X717.4Y1317  ;
N1784 G1X717.4Y1396  ;
N1785 G1X691.4Y1396  ;
N1786 G65 P9104 A102 B04  ;
N1787 G0X691.4Y1676  ;
N1788 G65 P9102 A102 B04  ;
N1789 G1X717.4Y1676  ;
N1790 G1X717.4Y1755  ;
N1791 G1X691.4Y1755  ;
N1792 G65 P9104 A101 B02  ;
N1793 G0X769.26Y1731.88  ;
N1794 G65 P9102 A101 B02  ;
N1795 G1X768.76Y1734.84  ;
N1796 G2X769.7Y1735.95I0.94J0.16  ;
N1797 G2X776.65Y1729I0J-6.95  ;
N1798 G1X776.65Y1719  ;
N1799 G2X762.75Y1719I-6.95J0  ;
N1800 G1X762.75Y1729  ;
N1801 G2X769.7Y1735.95I6.95J0  ;
N1802 G65 P9104 A101 B02  ;
N1803 G0X789.16Y1809.96  ;
N1804 G65 P9102 A101 B02  ;
N1805 G1X787.32Y1811.8  ;
N1806 G3X787.36Y1811.84I1.88J-1.8  ;
N1807 G65 P9104 A101 B02  ;
N1808 G0X782.66Y1853.96  ;
N1809 G65 P9102 A101 B02  ;
N1810 G1X780.75Y1855.87  ;
N1811 G3X780.79Y1855.91I1.95J-1.87  ;
N1812 G65 P9104 A101 B02  ;
N1813 G0X782.66Y1873.96  ;
N1814 G65 P9102 A101 B02  ;
N1815 G1X780.75Y1875.87  ;
N1816 G3X780.79Y1875.91I1.95J-1.87  ;
N1817 G65 P9104 A101 B02  ;
N1818 G0X757.66Y1873.96  ;
N1819 G65 P9102 A101 B02  ;
N1820 G1X755.75Y1875.87  ;
N1821 G3X755.79Y1875.91I1.95J-1.87  ;
N1822 G65 P9104 A101 B02  ;
N1823 G0X781.16Y1658.52  ;
N1824 G65 P9102 A101 B02  ;
N1825 G1X779.25Y1660.43  ;
N1826 G3X779.29Y1660.47I1.95J-1.87  ;
N1827 G65 P9104 A101 B02  ;
N1828 G0X789.16Y1648.02  ;
N1829 G65 P9102 A101 B02  ;
N1830 G1X787.25Y1649.93  ;
N1831 G3X787.29Y1649.97I1.95J-1.87  ;
N1832 G65 P9104 A101 B02  ;
N1833 G0X781.66Y1587.06  ;
N1834 G65 P9102 A101 B02  ;
N1835 G1X779.75Y1588.97  ;
N1836 G3X779.79Y1589I1.95J-1.88  ;
N1837 G65 P9104 A101 B02  ;
N1838 G0X792.16Y1576.56  ;
N1839 G65 P9102 A101 B02  ;
N1840 G1X790.25Y1578.47  ;
N1841 G3X790.29Y1578.5I1.95J-1.88  ;
N1842 G65 P9104 A101 B02  ;
N1843 G0X788.66Y1384.46  ;
N1844 G65 P9102 A101 B02  ;
N1845 G1X786.75Y1386.37  ;
N1846 G3X786.79Y1386.41I1.95J-1.87  ;
N1847 G65 P9104 A101 B02  ;
N1848 G0X788.66Y1364.46  ;
N1849 G65 P9102 A101 B02  ;
N1850 G1X786.75Y1366.37  ;
N1851 G3X786.79Y1366.41I1.95J-1.87  ;
N1852 G65 P9104 A101 B02  ;
N1853 G0X763.66Y1364.46  ;
N1854 G65 P9102 A101 B02  ;
N1855 G1X761.75Y1366.37  ;
N1856 G3X761.79Y1366.41I1.95J-1.87  ;
N1857 G65 P9104 A101 B02  ;
N1858 G0X770.13Y1241.88  ;
N1859 G65 P9102 A101 B02  ;
N1860 G1X770.63Y1244.84  ;
N1861 G3X769.7Y1245.95I-0.93J0.16  ;
N1862 G3X762.75Y1239I0J-6.95  ;
N1863 G1X762.75Y1229  ;
N1864 G3X776.65Y1229I6.95J0  ;
N1865 G1X776.65Y1239  ;
N1866 G3X769.7Y1245.95I-6.95J0  ;
N1867 G65 P9104 A101 B02  ;
N1868 G0X789.16Y986.96  ;
N1869 G65 P9102 A101 B02  ;
N1870 G1X787.32Y988.8  ;
N1871 G3X787.36Y988.84I1.88J-1.8  ;
N1872 G65 P9104 A101 B02  ;
N1873 G0X770.13Y751.88  ;
N1874 G65 P9102 A101 B02  ;
N1875 G1X770.63Y754.84  ;
N1876 G3X769.7Y755.95I-0.93J0.16  ;
N1877 G3X762.75Y749I0J-6.95  ;
N1878 G1X762.75Y739  ;
N1879 G3X776.65Y739I6.95J0  ;
N1880 G1X776.65Y749  ;
N1881 G3X769.7Y755.95I-6.95J0  ;
N1882 G65 P9104 A101 B02  ;
N1883 G0X769.26Y261.88  ;
N1884 G65 P9102 A101 B02  ;
N1885 G1X768.76Y264.84  ;
N1886 G2X769.7Y265.95I0.94J0.16  ;
N1887 G2X776.65Y259I0J-6.95  ;
N1888 G1X776.65Y249  ;
N1889 G2X762.75Y249I-6.95J0  ;
N1890 G1X762.75Y259  ;
N1891 G2X769.7Y265.95I6.95J0  ;
N1892 G65 P9104 A101 B02  ;
N1893 G0X789.16Y163.96  ;
N1894 G65 P9102 A101 B02  ;
N1895 G1X787.32Y165.8  ;
N1896 G3X787.36Y165.84I1.88J-1.8  ;
N1897 G65 P9104 A101 B02  ;
N1898 G0X782.66Y119.96  ;
N1899 G65 P9102 A101 B02  ;
N1900 G1X780.75Y121.87  ;
N1901 G3X780.79Y121.91I1.95J-1.87  ;
N1902 G65 P9104 A101 B02  ;
N1903 G0X782.66Y99.96  ;
N1904 G65 P9102 A101 B02  ;
N1905 G1X780.75Y101.87  ;
N1906 G3X780.79Y101.91I1.95J-1.87  ;
N1907 G65 P9104 A101 B02  ;
N1908 G0X757.66Y119.96  ;
N1909 G65 P9102 A101 B02  ;
N1910 G1X755.75Y121.87  ;
N1911 G3X755.79Y121.91I1.95J-1.87  ;
N1912 G65 P9104 A101 B01  ;
N1913 G0X671.4Y83.95  ;
N1914 G65 P9102 A101 B01  ;
N1915 G1X674.4Y83.95  ;
N1916 G1X797.7Y83.95  ;
N1917 G3X802.75Y89I0J5.05  ;
N1918 G1X802.75Y1885  ;
N1919 G3X797.7Y1890.05I-5.05J0  ;
N1920 G1X674.35Y1890.05  ;
N1921 G1X674.35Y1846.02  ;
N1922 G1X671.21Y1842.89  ;
N1923 G1X669.39Y1841.08  ;
N1924 G1X669.1Y1841.05  ;
N1925 G1X639.12Y1841.05  ;
N1926 G1X635.04Y1844.73  ;
N1927 G1X634.84Y1845.04  ;
N1928 G1X633.39Y1846.48  ;
N1929 G1X633.04Y1846.12  ;
N1930 G1X629.58Y1849.59  ;
N1931 G1X629.93Y1849.94  ;
N1932 G1X628.44Y1851.43  ;
N1933 G3X613.75Y1816I35.36J-35.43  ;
N1934 G1X613.75Y207  ;
N1935 G3X628.44Y171.57I50.05J0  ;
N1936 G1X629.93Y173.06  ;
N1937 G1X629.58Y173.41  ;
N1938 G1X633.04Y176.88  ;
N1939 G1X633.39Y176.52  ;
N1940 G1X636.99Y180.11  ;
N1941 G1X638.8Y181.92  ;
N1942 G1X639.1Y181.95  ;
N1943 G1X669.08Y181.95  ;
N1944 G1X673.16Y178.27  ;
N1945 G1X673.36Y177.96  ;
N1946 G1X674.35Y176.98  ;
N1947 G1X674.35Y84  ;
N1948 G65 P9104 A102 B04  ;
N1949 M98 P9103  ;
(P25:ID4:W86027601)  ;
N1950 M98 P9101  ;
N1951 G0X911.17Y1855.25  ;
N1952 G65 P9102 A102 B04  ;
N1953 G1X921.17Y1849.54  ;
N1954 G1X921.17Y1856.68  ;
N1955 G65 P9104 A102 B04  ;
N1956 G0X915.45Y1855.25  ;
N1957 G65 P9102 A102 B04  ;
N1958 G1X915.45Y1850.97  ;
N1959 G65 P9104 A102 B04  ;
N1960 G0X915.45Y1848.64  ;
N1961 G65 P9102 A102 B04  ;
N1962 G1X915.45Y1842.93  ;
N1963 G1X914.02Y1841.5  ;
N1964 G1X912.59Y1841.5  ;
N1965 G1X911.17Y1842.93  ;
N1966 G1X911.17Y1847.22  ;
N1967 G1X912.59Y1848.64  ;
N1968 G1X919.74Y1848.64  ;
N1969 G1X921.17Y1847.22  ;
N1970 G1X921.17Y1842.93  ;
N1971 G65 P9104 A102 B04  ;
N1972 G0X921.17Y1834.89  ;
N1973 G65 P9102 A102 B04  ;
N1974 G1X911.17Y1839.18  ;
N1975 G65 P9104 A102 B04  ;
N1976 G0X911.17Y1839.18  ;
N1977 G65 P9102 A102 B04  ;
N1978 G1X912.59Y1840.61  ;
N1979 G1X919.74Y1840.61  ;
N1980 G1X921.17Y1839.18  ;
N1981 G1X921.17Y1834.89  ;
N1982 G1X919.74Y1833.47  ;
N1983 G1X912.59Y1833.47  ;
N1984 G1X911.17Y1834.89  ;
N1985 G1X911.17Y1839.18  ;
N1986 G65 P9104 A102 B04  ;
N1987 G0X911.17Y1832.57  ;
N1988 G65 P9102 A102 B04  ;
N1989 G1X911.17Y1830.52  ;
N1990 G65 P9104 A102 B04  ;
N1991 G0X911.17Y1831.55  ;
N1992 G65 P9102 A102 B04  ;
N1993 G1X921.17Y1831.55  ;
N1994 G1X920.14Y1832.57  ;
N1995 G65 P9104 A102 B04  ;
N1996 G0X912.59Y1857.57  ;
N1997 G65 P9102 A102 B04  ;
N1998 G1X911.17Y1859  ;
N1999 G1X911.17Y1864.72  ;
N2000 G1X914.02Y1864.72  ;
N2001 G1X915.45Y1863.29  ;
N2002 G1X915.45Y1859  ;
N2003 G1X916.88Y1857.57  ;
N2004 G1X919.74Y1857.57  ;
N2005 G1X921.17Y1859  ;
N2006 G1X921.17Y1863.29  ;
N2007 G1X919.74Y1864.72  ;
N2008 G65 P9104 A101 B01  ;
N2009 M98 P9103  ;
N2010 G0X825.56Y1892.17  ;
N2011 G65 P9102 A101 B01  ;
N2012 G1X827.68Y1890.05  ;
N2013 G1X829.13Y1888.6  ;
N2014 G1X828.78Y1888.24  ;
N2015 G1X832.24Y1884.78  ;
N2016 G1X832.59Y1885.13  ;
N2017 G1X834.04Y1883.69  ;
N2018 G1X838.01Y1879.73  ;
N2019 G1X838.3Y1879.71  ;
N2020 G1X868.28Y1879.71  ;
N2021 G1X872.37Y1883.4  ;
N2022 G1X872.56Y1883.69  ;
N2023 G1X874.08Y1885.21  ;
N2024 G1X875.65Y1885.21  ;
N2025 G1X875.65Y1884.71  ;
N2026 G1X956.1Y1884.71  ;
N2027 G1X956.1Y1885.21  ;
N2028 G1X957.66Y1885.21  ;
N2029 G1X963.16Y1879.73  ;
N2030 G1X963.45Y1879.71  ;
N2031 G1X993.43Y1879.71  ;
N2032 G1X997.52Y1883.4  ;
N2033 G1X997.71Y1883.69  ;
N2034 G1X999.15Y1885.13  ;
N2035 G1X999.51Y1884.78  ;
N2036 G1X1002.97Y1888.24  ;
N2037 G1X1002.62Y1888.6  ;
N2038 G1X1004.1Y1890.08  ;
N2039 G2X1018.8Y1854.66I-35.35J-35.42  ;
N2040 G1X1018.8Y245.66  ;
N2041 G2X1004.1Y210.23I-50.05J0  ;
N2042 G1X1002.62Y211.71  ;
N2043 G1X1002.97Y212.07  ;
N2044 G1X999.51Y215.53  ;
N2045 G1X999.15Y215.18  ;
N2046 G1X997.71Y216.62  ;
N2047 G1X993.74Y220.58  ;
N2048 G1X993.45Y220.61  ;
N2049 G1X963.47Y220.61  ;
N2050 G1X959.38Y216.91  ;
N2051 G1X959.18Y216.62  ;
N2052 G1X957.67Y215.11  ;
N2053 G1X956.1Y215.11  ;
N2054 G1X956.1Y215.61  ;
N2055 G1X875.65Y215.61  ;
N2056 G1X875.65Y215.11  ;
N2057 G1X874.08Y215.11  ;
N2058 G1X868.59Y220.58  ;
N2059 G1X868.3Y220.61  ;
N2060 G1X838.32Y220.61  ;
N2061 G1X834.23Y216.91  ;
N2062 G1X834.04Y216.62  ;
N2063 G1X832.59Y215.18  ;
N2064 G1X832.24Y215.53  ;
N2065 G1X828.78Y212.07  ;
N2066 G1X829.13Y211.71  ;
N2067 G1X827.64Y210.23  ;
N2068 G2X812.95Y245.66I35.36J35.43  ;
N2069 G1X812.95Y1854.66  ;
N2070 G2X827.61Y1890.05I50.05J0  ;
N2071 G65 P9104 A102 B04  ;
N2072 M98 P9103  ;
(P26:ID4:W86027601)  ;
N2073 M98 P9101  ;
N2074 G0X1127.17Y1855.25  ;
N2075 G65 P9102 A102 B04  ;
N2076 G1X1137.17Y1849.54  ;
N2077 G1X1137.17Y1856.68  ;
N2078 G65 P9104 A102 B04  ;
N2079 G0X1131.45Y1855.25  ;
N2080 G65 P9102 A102 B04  ;
N2081 G1X1131.45Y1850.97  ;
N2082 G65 P9104 A102 B04  ;
N2083 G0X1131.45Y1848.64  ;
N2084 G65 P9102 A102 B04  ;
N2085 G1X1131.45Y1842.93  ;
N2086 G1X1130.02Y1841.5  ;
N2087 G1X1128.59Y1841.5  ;
N2088 G1X1127.17Y1842.93  ;
N2089 G1X1127.17Y1847.22  ;
N2090 G1X1128.59Y1848.64  ;
N2091 G1X1135.74Y1848.64  ;
N2092 G1X1137.17Y1847.22  ;
N2093 G1X1137.17Y1842.93  ;
N2094 G65 P9104 A102 B04  ;
N2095 G0X1137.17Y1834.89  ;
N2096 G65 P9102 A102 B04  ;
N2097 G1X1127.17Y1839.18  ;
N2098 G65 P9104 A102 B04  ;
N2099 G0X1127.17Y1839.18  ;
N2100 G65 P9102 A102 B04  ;
N2101 G1X1128.59Y1840.61  ;
N2102 G1X1135.74Y1840.61  ;
N2103 G1X1137.17Y1839.18  ;
N2104 G1X1137.17Y1834.89  ;
N2105 G1X1135.74Y1833.47  ;
N2106 G1X1128.59Y1833.47  ;
N2107 G1X1127.17Y1834.89  ;
N2108 G1X1127.17Y1839.18  ;
N2109 G65 P9104 A102 B04  ;
N2110 G0X1127.17Y1832.57  ;
N2111 G65 P9102 A102 B04  ;
N2112 G1X1127.17Y1830.52  ;
N2113 G65 P9104 A102 B04  ;
N2114 G0X1127.17Y1831.55  ;
N2115 G65 P9102 A102 B04  ;
N2116 G1X1137.17Y1831.55  ;
N2117 G1X1136.14Y1832.57  ;
N2118 G65 P9104 A102 B04  ;
N2119 G0X1128.59Y1857.57  ;
N2120 G65 P9102 A102 B04  ;
N2121 G1X1127.17Y1859  ;
N2122 G1X1127.17Y1864.72  ;
N2123 G1X1130.02Y1864.72  ;
N2124 G1X1131.45Y1863.29  ;
N2125 G1X1131.45Y1859  ;
N2126 G1X1132.88Y1857.57  ;
N2127 G1X1135.74Y1857.57  ;
N2128 G1X1137.17Y1859  ;
N2129 G1X1137.17Y1863.29  ;
N2130 G1X1135.74Y1864.72  ;
N2131 G65 P9104 A101 B01  ;
N2132 M98 P9103  ;
N2133 G0X1041.56Y1892.17  ;
N2134 G65 P9102 A101 B01  ;
N2135 G1X1043.68Y1890.05  ;
N2136 G1X1045.13Y1888.6  ;
N2137 G1X1044.78Y1888.24  ;
N2138 G1X1048.24Y1884.78  ;
N2139 G1X1048.59Y1885.13  ;
N2140 G1X1050.04Y1883.69  ;
N2141 G1X1054.01Y1879.73  ;
N2142 G1X1054.3Y1879.71  ;
N2143 G1X1084.28Y1879.71  ;
N2144 G1X1088.37Y1883.4  ;
N2145 G1X1088.56Y1883.69  ;
N2146 G1X1090.08Y1885.21  ;
N2147 G1X1091.65Y1885.21  ;
N2148 G1X1091.65Y1884.71  ;
N2149 G1X1172.1Y1884.71  ;
N2150 G1X1172.1Y1885.21  ;
N2151 G1X1173.66Y1885.21  ;
N2152 G1X1179.16Y1879.73  ;
N2153 G1X1179.45Y1879.71  ;
N2154 G1X1209.43Y1879.71  ;
N2155 G1X1213.52Y1883.4  ;
N2156 G1X1213.71Y1883.69  ;
N2157 G1X1215.15Y1885.13  ;
N2158 G1X1215.51Y1884.78  ;
N2159 G1X1218.97Y1888.24  ;
N2160 G1X1218.62Y1888.6  ;
N2161 G1X1220.1Y1890.08  ;
N2162 G2X1234.8Y1854.66I-35.35J-35.42  ;
N2163 G1X1234.8Y245.66  ;
N2164 G2X1220.1Y210.23I-50.05J0  ;
N2165 G1X1218.62Y211.71  ;
N2166 G1X1218.97Y212.07  ;
N2167 G1X1215.51Y215.53  ;
N2168 G1X1215.15Y215.18  ;
N2169 G1X1213.71Y216.62  ;
N2170 G1X1209.74Y220.58  ;
N2171 G1X1209.45Y220.61  ;
N2172 G1X1179.47Y220.61  ;
N2173 G1X1175.38Y216.91  ;
N2174 G1X1175.18Y216.62  ;
N2175 G1X1173.67Y215.11  ;
N2176 G1X1172.1Y215.11  ;
N2177 G1X1172.1Y215.61  ;
N2178 G1X1091.65Y215.61  ;
N2179 G1X1091.65Y215.11  ;
N2180 G1X1090.08Y215.11  ;
N2181 G1X1084.59Y220.58  ;
N2182 G1X1084.3Y220.61  ;
N2183 G1X1054.32Y220.61  ;
N2184 G1X1050.23Y216.91  ;
N2185 G1X1050.04Y216.62  ;
N2186 G1X1048.59Y215.18  ;
N2187 G1X1048.24Y215.53  ;
N2188 G1X1044.78Y212.07  ;
N2189 G1X1045.13Y211.71  ;
N2190 G1X1043.64Y210.23  ;
N2191 G2X1028.95Y245.66I35.36J35.43  ;
N2192 G1X1028.95Y1854.66  ;
N2193 G2X1043.61Y1890.05I50.05J0  ;
N2194 M98 P9104  ;
N2195 M98 P9103  ;
(FOOTER)
N2196 M98 P9110  ;
N2197 M30  ;
%
