O0099  ;
( MACHINE : TCI Laser )  ;
( MATERIAL : Acero al Carbono )  ;
( THICKNESS : 5 )  ;
( REPETITIONS : 5 )  ;
( SIMULATION TIME : 00:34:25 )  ;
( FORMAT : 1500x3050 )  ;
( JOB NUMBER : VARS8600\K860115 )  ;
( PROGRAM NUMBER : 12096 )  ;
( TYPE : 0 )  ;
( NUMBER OF SHEETS : 1 )  ;
( CUTTING HEADS : 1 )  ;
#516= 1  ;
#517= 1  ;
N105 G65 P9100 A103 B04  ;
(P1:ID1:W86011519)  ;
N106 M98 P9101  ;
N107 G0X262.69Y110.5  ;
N108 G65 P9102 A102 B04  ;
N109 G1X111.56Y110.5  ;
N110 G65 P9104 A102 B04  ;
N111 G0X111.56Y135.5  ;
N112 G65 P9102 A102 B04  ;
N113 G1X262.69Y135.5  ;
N114 G65 P9104 A102 B04  ;
N115 G0X197.24Y191  ;
N116 G65 P9102 A102 B04  ;
N117 G1X197.24Y206  ;
N118 G1X177.24Y206  ;
N119 G1X177.24Y191  ;
N120 G65 P9104 A102 B04  ;
N121 G0X177.24Y55  ;
N122 G65 P9102 A102 B04  ;
N123 G1X177.24Y40  ;
N124 G1X197.24Y40  ;
N125 G1X197.24Y55  ;
N126 G65 P9104 A102 B04  ;
N127 G0X188.69Y1472.12  ;
N128 G65 P9102 A102 B04  ;
N129 G1X188.69Y1474.98  ;
N130 G65 P9104 A102 B04  ;
N131 G0X188.69Y1475.87  ;
N132 G65 P9102 A102 B04  ;
N133 G1X178.69Y1475.87  ;
N134 G1X188.69Y1483.02  ;
N135 G1X178.69Y1483.02  ;
N136 G65 P9104 A102 B04  ;
N137 G0X178.69Y1483.91  ;
N138 G65 P9102 A102 B04  ;
N139 G1X178.69Y1491.05  ;
N140 G65 P9104 A102 B04  ;
N141 G0X178.69Y1487.48  ;
N142 G65 P9102 A102 B04  ;
N143 G1X188.69Y1487.48  ;
N144 G65 P9104 A102 B04  ;
N145 G0X188.69Y1473.55  ;
N146 G65 P9102 A102 B04  ;
N147 G1X178.69Y1473.55  ;
N148 G65 P9104 A102 B04  ;
N149 G0X178.69Y1472.12  ;
N150 G65 P9102 A102 B04  ;
N151 G1X178.69Y1474.98  ;
N152 G65 P9104 A102 B04  ;
N153 G0X177.24Y2836.2  ;
N154 G65 P9102 A102 B04  ;
N155 G1X177.24Y2821.2  ;
N156 G1X197.24Y2821.2  ;
N157 G1X197.24Y2836.2  ;
N158 G65 P9104 A102 B04  ;
N159 G0X262.69Y2891.7  ;
N160 G65 P9102 A102 B04  ;
N161 G1X111.56Y2891.7  ;
N162 G65 P9104 A102 B04  ;
N163 G0X111.56Y2916.7  ;
N164 G65 P9102 A102 B04  ;
N165 G1X262.69Y2916.7  ;
N166 G65 P9104 A102 B04  ;
N167 G0X197.24Y2972.2  ;
N168 G65 P9102 A102 B04  ;
N169 G1X197.24Y2987.2  ;
N170 G1X177.24Y2987.2  ;
N171 G1X177.24Y2972.2  ;
N172 G65 P9104 A101 B02  ;
N173 G0X309.98Y2848.41  ;
N174 G65 P9102 A101 B02  ;
N175 G1X307.89Y2850.49  ;
N176 G3X307.93Y2850.53I6.37J-6.29  ;
N177 G65 P9104 A101 B02  ;
N178 G0X178.61Y2722.65  ;
N179 G65 P9102 A101 B02  ;
N180 G1X176.52Y2724.74  ;
N181 G3X176.56Y2724.77I10.61J-10.54  ;
N182 G65 P9104 A101 B02  ;
N183 G0X57.14Y2716.99  ;
N184 G65 P9102 A101 B02  ;
N185 G1X55.05Y2719.08  ;
N186 G3X55.09Y2719.11I4.95J-4.88  ;
N187 G65 P9104 A101 B02  ;
N188 G0X110.63Y2530.55  ;
N189 G65 P9102 A101 B02  ;
N190 G1X113.63Y2530.55  ;
N191 G1X117.08Y2530.55  ;
N192 G1X117.08Y2531.95  ;
N193 G1X107.18Y2531.95  ;
N194 G1X107.18Y2522.05  ;
N195 G1X110.72Y2522.05  ;
N196 G1X111.75Y2521.02  ;
N197 G1X111.75Y2416.98  ;
N198 G1X110.72Y2415.95  ;
N199 G1X107.18Y2415.95  ;
N200 G1X107.18Y2406.05  ;
N201 G1X117.08Y2406.05  ;
N202 G1X117.08Y2407.45  ;
N203 G1X113.58Y2407.45  ;
N204 G1X113.58Y2530.5  ;
N205 G65 P9104 A101 B02  ;
N206 G0X169.81Y2462.14  ;
N207 G65 P9102 A101 B02  ;
N208 G1X167.74Y2462.14  ;
N209 G2X166.88Y2463I0J0.86  ;
N210 G1X166.88Y2465.55  ;
N211 G1X172.38Y2465.55  ;
N212 G1X172.38Y2460.45  ;
N213 G1X166.88Y2460.45  ;
N214 G1X166.88Y2463  ;
N215 G65 P9104 A101 B02  ;
N216 G0X263.63Y2530.55  ;
N217 G65 P9102 A101 B02  ;
N218 G1X260.63Y2530.55  ;
N219 G1X257.18Y2530.55  ;
N220 G1X257.18Y2531.95  ;
N221 G1X267.08Y2531.95  ;
N222 G1X267.08Y2522.05  ;
N223 G1X263.54Y2522.05  ;
N224 G1X262.51Y2521.02  ;
N225 G1X262.51Y2416.98  ;
N226 G1X263.54Y2415.95  ;
N227 G1X267.08Y2415.95  ;
N228 G1X267.08Y2406.05  ;
N229 G1X257.18Y2406.05  ;
N230 G1X257.18Y2407.45  ;
N231 G1X260.68Y2407.45  ;
N232 G1X260.68Y2530.5  ;
N233 G65 P9104 A101 B02  ;
N234 G0X57.14Y2216.79  ;
N235 G65 P9102 A101 B02  ;
N236 G1X55.05Y2218.88  ;
N237 G3X55.09Y2218.91I4.95J-4.88  ;
N238 G65 P9104 A101 B02  ;
N239 G0X178.61Y2172.45  ;
N240 G65 P9102 A101 B02  ;
N241 G1X176.52Y2174.54  ;
N242 G3X176.56Y2174.57I10.61J-10.54  ;
N243 G65 P9104 A101 B02  ;
N244 G0X110.63Y1980.35  ;
N245 G65 P9102 A101 B02  ;
N246 G1X113.63Y1980.35  ;
N247 G1X117.08Y1980.35  ;
N248 G1X117.08Y1981.75  ;
N249 G1X107.18Y1981.75  ;
N250 G1X107.18Y1971.85  ;
N251 G1X110.72Y1971.85  ;
N252 G1X111.75Y1970.82  ;
N253 G1X111.75Y1866.78  ;
N254 G1X110.72Y1865.75  ;
N255 G1X107.18Y1865.75  ;
N256 G1X107.18Y1855.85  ;
N257 G1X117.08Y1855.85  ;
N258 G1X117.08Y1857.25  ;
N259 G1X113.58Y1857.25  ;
N260 G1X113.58Y1980.3  ;
N261 G65 P9104 A101 B02  ;
N262 G0X169.81Y1912.14  ;
N263 G65 P9102 A101 B02  ;
N264 G1X167.74Y1912.14  ;
N265 G2X166.88Y1913I0J0.86  ;
N266 G1X166.88Y1915.55  ;
N267 G1X172.38Y1915.55  ;
N268 G1X172.38Y1910.45  ;
N269 G1X166.88Y1910.45  ;
N270 G1X166.88Y1913  ;
N271 G65 P9104 A101 B02  ;
N272 G0X263.63Y1980.35  ;
N273 G65 P9102 A101 B02  ;
N274 G1X260.63Y1980.35  ;
N275 G1X257.18Y1980.35  ;
N276 G1X257.18Y1981.75  ;
N277 G1X267.08Y1981.75  ;
N278 G1X267.08Y1971.85  ;
N279 G1X263.54Y1971.85  ;
N280 G1X262.51Y1970.82  ;
N281 G1X262.51Y1866.78  ;
N282 G1X263.54Y1865.75  ;
N283 G1X267.08Y1865.75  ;
N284 G1X267.08Y1855.85  ;
N285 G1X257.18Y1855.85  ;
N286 G1X257.18Y1857.25  ;
N287 G1X260.68Y1857.25  ;
N288 G1X260.68Y1980.3  ;
N289 G65 P9104 A101 B02  ;
N290 G0X309.98Y1988.01  ;
N291 G65 P9102 A101 B02  ;
N292 G1X307.89Y1990.09  ;
N293 G3X307.93Y1990.13I6.37J-6.29  ;
N294 G65 P9104 A101 B02  ;
N295 G0X309.98Y1868.01  ;
N296 G65 P9102 A101 B02  ;
N297 G1X307.89Y1870.09  ;
N298 G3X307.93Y1870.13I6.37J-6.29  ;
N299 G65 P9104 A101 B02  ;
N300 G0X178.61Y1672.25  ;
N301 G65 P9102 A101 B02  ;
N302 G1X176.52Y1674.34  ;
N303 G3X176.56Y1674.37I10.61J-10.54  ;
N304 G65 P9104 A101 B02  ;
N305 G0X57.14Y1716.59  ;
N306 G65 P9102 A101 B02  ;
N307 G1X55.05Y1718.68  ;
N308 G3X55.09Y1718.71I4.95J-4.88  ;
N309 G65 P9104 A101 B02  ;
N310 G0X110.63Y1430.15  ;
N311 G65 P9102 A101 B02  ;
N312 G1X113.63Y1430.15  ;
N313 G1X117.08Y1430.15  ;
N314 G1X117.08Y1431.55  ;
N315 G1X107.18Y1431.55  ;
N316 G1X107.18Y1421.65  ;
N317 G1X110.72Y1421.65  ;
N318 G1X111.75Y1420.62  ;
N319 G1X111.75Y1316.58  ;
N320 G1X110.72Y1315.55  ;
N321 G1X107.18Y1315.55  ;
N322 G1X107.18Y1305.65  ;
N323 G1X117.08Y1305.65  ;
N324 G1X117.08Y1307.05  ;
N325 G1X113.58Y1307.05  ;
N326 G1X113.58Y1430.1  ;
N327 G65 P9104 A101 B02  ;
N328 G0X169.81Y1363.86  ;
N329 G65 P9102 A101 B02  ;
N330 G1X167.74Y1363.86  ;
N331 G3X166.88Y1363I0J-0.86  ;
N332 G1X166.88Y1360.45  ;
N333 G1X172.38Y1360.45  ;
N334 G1X172.38Y1365.55  ;
N335 G1X166.88Y1365.55  ;
N336 G1X166.88Y1363  ;
N337 G65 P9104 A101 B02  ;
N338 G0X263.63Y1430.15  ;
N339 G65 P9102 A101 B02  ;
N340 G1X260.63Y1430.15  ;
N341 G1X257.18Y1430.15  ;
N342 G1X257.18Y1431.55  ;
N343 G1X267.08Y1431.55  ;
N344 G1X267.08Y1421.65  ;
N345 G1X263.54Y1421.65  ;
N346 G1X262.51Y1420.62  ;
N347 G1X262.51Y1316.58  ;
N348 G1X263.54Y1315.55  ;
N349 G1X267.08Y1315.55  ;
N350 G1X267.08Y1305.65  ;
N351 G1X257.18Y1305.65  ;
N352 G1X257.18Y1307.05  ;
N353 G1X260.68Y1307.05  ;
N354 G1X260.68Y1430.1  ;
N355 G65 P9104 A101 B02  ;
N356 G0X57.14Y1216.39  ;
N357 G65 P9102 A101 B02  ;
N358 G1X55.05Y1218.48  ;
N359 G3X55.09Y1218.51I4.95J-4.88  ;
N360 G65 P9104 A101 B02  ;
N361 G0X178.61Y1172.05  ;
N362 G65 P9102 A101 B02  ;
N363 G1X176.52Y1174.14  ;
N364 G3X176.56Y1174.17I10.61J-10.54  ;
N365 G65 P9104 A101 B02  ;
N366 G0X110.63Y879.95  ;
N367 G65 P9102 A101 B02  ;
N368 G1X113.63Y879.95  ;
N369 G1X117.08Y879.95  ;
N370 G1X117.08Y881.35  ;
N371 G1X107.18Y881.35  ;
N372 G1X107.18Y871.45  ;
N373 G1X110.72Y871.45  ;
N374 G1X111.75Y870.42  ;
N375 G1X111.75Y766.38  ;
N376 G1X110.72Y765.35  ;
N377 G1X107.18Y765.35  ;
N378 G1X107.18Y755.45  ;
N379 G1X117.08Y755.45  ;
N380 G1X117.08Y756.85  ;
N381 G1X113.58Y756.85  ;
N382 G1X113.58Y879.9  ;
N383 G65 P9104 A101 B02  ;
N384 G0X169.81Y812.14  ;
N385 G65 P9102 A101 B02  ;
N386 G1X167.74Y812.14  ;
N387 G2X166.88Y813I0J0.86  ;
N388 G1X166.88Y815.55  ;
N389 G1X172.38Y815.55  ;
N390 G1X172.38Y810.45  ;
N391 G1X166.88Y810.45  ;
N392 G1X166.88Y813  ;
N393 G65 P9104 A101 B02  ;
N394 G0X263.63Y879.95  ;
N395 G65 P9102 A101 B02  ;
N396 G1X260.63Y879.95  ;
N397 G1X257.18Y879.95  ;
N398 G1X257.18Y881.35  ;
N399 G1X267.08Y881.35  ;
N400 G1X267.08Y871.45  ;
N401 G1X263.54Y871.45  ;
N402 G1X262.51Y870.42  ;
N403 G1X262.51Y766.38  ;
N404 G1X263.54Y765.35  ;
N405 G1X267.08Y765.35  ;
N406 G1X267.08Y755.45  ;
N407 G1X257.18Y755.45  ;
N408 G1X257.18Y756.85  ;
N409 G1X260.68Y756.85  ;
N410 G1X260.68Y879.9  ;
N411 G65 P9104 A101 B02  ;
N412 G0X309.98Y877.61  ;
N413 G65 P9102 A101 B02  ;
N414 G1X307.89Y879.69  ;
N415 G3X307.93Y879.73I6.37J-6.29  ;
N416 G65 P9104 A101 B02  ;
N417 G0X309.98Y757.61  ;
N418 G65 P9102 A101 B02  ;
N419 G1X307.89Y759.69  ;
N420 G3X307.93Y759.73I6.37J-6.29  ;
N421 G65 P9104 A101 B02  ;
N422 G0X178.61Y718.85  ;
N423 G65 P9102 A101 B02  ;
N424 G1X176.52Y720.94  ;
N425 G3X176.56Y720.97I10.61J-10.54  ;
N426 G65 P9104 A101 B02  ;
N427 G0X57.14Y716.19  ;
N428 G65 P9102 A101 B02  ;
N429 G1X55.05Y718.28  ;
N430 G3X55.09Y718.31I4.95J-4.88  ;
N431 G65 P9104 A101 B02  ;
N432 G0X178.61Y418.65  ;
N433 G65 P9102 A101 B02  ;
N434 G1X176.52Y420.74  ;
N435 G3X176.56Y420.77I10.61J-10.54  ;
N436 G65 P9104 A101 B02  ;
N437 G0X57.14Y315.79  ;
N438 G65 P9102 A101 B02  ;
N439 G1X55.05Y317.88  ;
N440 G3X55.09Y317.91I4.95J-4.88  ;
N441 G65 P9104 A101 B02  ;
N442 G0X309.98Y187.21  ;
N443 G65 P9102 A101 B02  ;
N444 G1X307.89Y189.29  ;
N445 G3X307.93Y189.33I6.37J-6.29  ;
N446 G65 P9104 A101 B01  ;
N447 G0X343.31Y100  ;
N448 G65 P9102 A101 B01  ;
N449 G1X343.31Y103  ;
N450 G1X343.31Y810.45  ;
N451 G1X337.61Y810.45  ;
N452 G1X337.61Y815.55  ;
N453 G1X343.31Y815.55  ;
N454 G1X343.31Y1360.45  ;
N455 G1X337.61Y1360.45  ;
N456 G1X337.61Y1365.55  ;
N457 G1X343.31Y1365.55  ;
N458 G1X343.31Y1910.45  ;
N459 G1X337.61Y1910.45  ;
N460 G1X337.61Y1915.55  ;
N461 G1X343.31Y1915.55  ;
N462 G1X343.31Y2460.45  ;
N463 G1X337.61Y2460.45  ;
N464 G1X337.61Y2465.55  ;
N465 G1X343.31Y2465.55  ;
N466 G1X343.31Y2924.25  ;
N467 G1X337.21Y2924.25  ;
N468 G1X337.21Y2922.75  ;
N469 G1X268.21Y2922.75  ;
N470 G1X268.21Y2918.25  ;
N471 G1X257.18Y2918.25  ;
N472 G1X257.18Y2924.15  ;
N473 G1X261.68Y2924.15  ;
N474 G1X261.68Y2974.22  ;
N475 G1X227.15Y3009.25  ;
N476 G1X207.18Y3009.25  ;
N477 G1X207.18Y3011.7  ;
N478 G3X206.63Y3012.25I-0.55J0  ;
N479 G1X167.63Y3012.25  ;
N480 G3X167.08Y3011.7I0J-0.55  ;
N481 G1X167.08Y3009.25  ;
N482 G1X147.11Y3009.25  ;
N483 G1X112.58Y2974.22  ;
N484 G1X112.58Y2924.15  ;
N485 G1X117.08Y2924.15  ;
N486 G1X117.08Y2918.25  ;
N487 G1X106.05Y2918.25  ;
N488 G1X106.05Y2922.75  ;
N489 G1X37.05Y2922.75  ;
N490 G1X37.05Y2924.25  ;
N491 G1X30.95Y2924.25  ;
N492 G1X30.95Y2465.55  ;
N493 G1X36.65Y2465.55  ;
N494 G1X36.65Y2460.45  ;
N495 G1X30.95Y2460.45  ;
N496 G1X30.95Y1915.55  ;
N497 G1X36.65Y1915.55  ;
N498 G1X36.65Y1910.45  ;
N499 G1X30.95Y1910.45  ;
N500 G1X30.95Y1365.55  ;
N501 G1X36.65Y1365.55  ;
N502 G1X36.65Y1360.45  ;
N503 G1X30.95Y1360.45  ;
N504 G1X30.95Y815.55  ;
N505 G1X36.65Y815.55  ;
N506 G1X36.65Y810.45  ;
N507 G1X30.95Y810.45  ;
N508 G1X30.95Y102.95  ;
N509 G1X37.05Y102.95  ;
N510 G1X37.05Y104.45  ;
N511 G1X106.05Y104.45  ;
N512 G1X106.05Y108.95  ;
N513 G1X117.08Y108.95  ;
N514 G1X117.08Y103.05  ;
N515 G1X112.58Y103.05  ;
N516 G1X112.58Y52.98  ;
N517 G1X147.11Y17.95  ;
N518 G1X167.08Y17.95  ;
N519 G1X167.08Y15.5  ;
N520 G3X167.63Y14.95I0.55J0  ;
N521 G1X206.63Y14.95  ;
N522 G3X207.18Y15.5I0J0.55  ;
N523 G1X207.18Y17.95  ;
N524 G1X227.15Y17.95  ;
N525 G1X261.68Y52.98  ;
N526 G1X261.68Y103.05  ;
N527 G1X257.18Y103.05  ;
N528 G1X257.18Y108.95  ;
N529 G1X268.21Y108.95  ;
N530 G1X268.21Y104.45  ;
N531 G1X337.21Y104.45  ;
N532 G1X337.21Y102.95  ;
N533 G1X343.26Y102.95  ;
N534 G65 P9104 A102 B04  ;
N535 M98 P9103  ;
(P2:ID1:W86011519)  ;
N536 M98 P9101  ;
N537 G0X622.69Y110.5  ;
N538 G65 P9102 A102 B04  ;
N539 G1X471.56Y110.5  ;
N540 G65 P9104 A102 B04  ;
N541 G0X471.56Y135.5  ;
N542 G65 P9102 A102 B04  ;
N543 G1X622.69Y135.5  ;
N544 G65 P9104 A102 B04  ;
N545 G0X557.24Y191  ;
N546 G65 P9102 A102 B04  ;
N547 G1X557.24Y206  ;
N548 G1X537.24Y206  ;
N549 G1X537.24Y191  ;
N550 G65 P9104 A102 B04  ;
N551 G0X537.24Y55  ;
N552 G65 P9102 A102 B04  ;
N553 G1X537.24Y40  ;
N554 G1X557.24Y40  ;
N555 G1X557.24Y55  ;
N556 G65 P9104 A102 B04  ;
N557 G0X548.69Y1472.12  ;
N558 G65 P9102 A102 B04  ;
N559 G1X548.69Y1474.98  ;
N560 G65 P9104 A102 B04  ;
N561 G0X548.69Y1475.87  ;
N562 G65 P9102 A102 B04  ;
N563 G1X538.69Y1475.87  ;
N564 G1X548.69Y1483.02  ;
N565 G1X538.69Y1483.02  ;
N566 G65 P9104 A102 B04  ;
N567 G0X538.69Y1483.91  ;
N568 G65 P9102 A102 B04  ;
N569 G1X538.69Y1491.05  ;
N570 G65 P9104 A102 B04  ;
N571 G0X538.69Y1487.48  ;
N572 G65 P9102 A102 B04  ;
N573 G1X548.69Y1487.48  ;
N574 G65 P9104 A102 B04  ;
N575 G0X548.69Y1473.55  ;
N576 G65 P9102 A102 B04  ;
N577 G1X538.69Y1473.55  ;
N578 G65 P9104 A102 B04  ;
N579 G0X538.69Y1472.12  ;
N580 G65 P9102 A102 B04  ;
N581 G1X538.69Y1474.98  ;
N582 G65 P9104 A102 B04  ;
N583 G0X537.24Y2836.2  ;
N584 G65 P9102 A102 B04  ;
N585 G1X537.24Y2821.2  ;
N586 G1X557.24Y2821.2  ;
N587 G1X557.24Y2836.2  ;
N588 G65 P9104 A102 B04  ;
N589 G0X622.69Y2891.7  ;
N590 G65 P9102 A102 B04  ;
N591 G1X471.56Y2891.7  ;
N592 G65 P9104 A102 B04  ;
N593 G0X471.56Y2916.7  ;
N594 G65 P9102 A102 B04  ;
N595 G1X622.69Y2916.7  ;
N596 G65 P9104 A102 B04  ;
N597 G0X557.24Y2972.2  ;
N598 G65 P9102 A102 B04  ;
N599 G1X557.24Y2987.2  ;
N600 G1X537.24Y2987.2  ;
N601 G1X537.24Y2972.2  ;
N602 G65 P9104 A101 B02  ;
N603 G0X669.98Y2848.41  ;
N604 G65 P9102 A101 B02  ;
N605 G1X667.89Y2850.49  ;
N606 G3X667.93Y2850.53I6.37J-6.29  ;
N607 G65 P9104 A101 B02  ;
N608 G0X538.61Y2722.65  ;
N609 G65 P9102 A101 B02  ;
N610 G1X536.52Y2724.74  ;
N611 G3X536.56Y2724.77I10.61J-10.54  ;
N612 G65 P9104 A101 B02  ;
N613 G0X417.14Y2716.99  ;
N614 G65 P9102 A101 B02  ;
N615 G1X415.05Y2719.08  ;
N616 G3X415.09Y2719.11I4.95J-4.88  ;
N617 G65 P9104 A101 B02  ;
N618 G0X470.63Y2530.55  ;
N619 G65 P9102 A101 B02  ;
N620 G1X473.63Y2530.55  ;
N621 G1X477.08Y2530.55  ;
N622 G1X477.08Y2531.95  ;
N623 G1X467.18Y2531.95  ;
N624 G1X467.18Y2522.05  ;
N625 G1X470.72Y2522.05  ;
N626 G1X471.75Y2521.02  ;
N627 G1X471.75Y2416.98  ;
N628 G1X470.72Y2415.95  ;
N629 G1X467.18Y2415.95  ;
N630 G1X467.18Y2406.05  ;
N631 G1X477.08Y2406.05  ;
N632 G1X477.08Y2407.45  ;
N633 G1X473.58Y2407.45  ;
N634 G1X473.58Y2530.5  ;
N635 G65 P9104 A101 B02  ;
N636 G0X529.81Y2462.14  ;
N637 G65 P9102 A101 B02  ;
N638 G1X527.74Y2462.14  ;
N639 G2X526.88Y2463I0J0.86  ;
N640 G1X526.88Y2465.55  ;
N641 G1X532.38Y2465.55  ;
N642 G1X532.38Y2460.45  ;
N643 G1X526.88Y2460.45  ;
N644 G1X526.88Y2463  ;
N645 G65 P9104 A101 B02  ;
N646 G0X623.63Y2530.55  ;
N647 G65 P9102 A101 B02  ;
N648 G1X620.63Y2530.55  ;
N649 G1X617.18Y2530.55  ;
N650 G1X617.18Y2531.95  ;
N651 G1X627.08Y2531.95  ;
N652 G1X627.08Y2522.05  ;
N653 G1X623.54Y2522.05  ;
N654 G1X622.51Y2521.02  ;
N655 G1X622.51Y2416.98  ;
N656 G1X623.54Y2415.95  ;
N657 G1X627.08Y2415.95  ;
N658 G1X627.08Y2406.05  ;
N659 G1X617.18Y2406.05  ;
N660 G1X617.18Y2407.45  ;
N661 G1X620.68Y2407.45  ;
N662 G1X620.68Y2530.5  ;
N663 G65 P9104 A101 B02  ;
N664 G0X417.14Y2216.79  ;
N665 G65 P9102 A101 B02  ;
N666 G1X415.05Y2218.88  ;
N667 G3X415.09Y2218.91I4.95J-4.88  ;
N668 G65 P9104 A101 B02  ;
N669 G0X538.61Y2172.45  ;
N670 G65 P9102 A101 B02  ;
N671 G1X536.52Y2174.54  ;
N672 G3X536.56Y2174.57I10.61J-10.54  ;
N673 G65 P9104 A101 B02  ;
N674 G0X470.63Y1980.35  ;
N675 G65 P9102 A101 B02  ;
N676 G1X473.63Y1980.35  ;
N677 G1X477.08Y1980.35  ;
N678 G1X477.08Y1981.75  ;
N679 G1X467.18Y1981.75  ;
N680 G1X467.18Y1971.85  ;
N681 G1X470.72Y1971.85  ;
N682 G1X471.75Y1970.82  ;
N683 G1X471.75Y1866.78  ;
N684 G1X470.72Y1865.75  ;
N685 G1X467.18Y1865.75  ;
N686 G1X467.18Y1855.85  ;
N687 G1X477.08Y1855.85  ;
N688 G1X477.08Y1857.25  ;
N689 G1X473.58Y1857.25  ;
N690 G1X473.58Y1980.3  ;
N691 G65 P9104 A101 B02  ;
N692 G0X529.81Y1912.14  ;
N693 G65 P9102 A101 B02  ;
N694 G1X527.74Y1912.14  ;
N695 G2X526.88Y1913I0J0.86  ;
N696 G1X526.88Y1915.55  ;
N697 G1X532.38Y1915.55  ;
N698 G1X532.38Y1910.45  ;
N699 G1X526.88Y1910.45  ;
N700 G1X526.88Y1913  ;
N701 G65 P9104 A101 B02  ;
N702 G0X623.63Y1980.35  ;
N703 G65 P9102 A101 B02  ;
N704 G1X620.63Y1980.35  ;
N705 G1X617.18Y1980.35  ;
N706 G1X617.18Y1981.75  ;
N707 G1X627.08Y1981.75  ;
N708 G1X627.08Y1971.85  ;
N709 G1X623.54Y1971.85  ;
N710 G1X622.51Y1970.82  ;
N711 G1X622.51Y1866.78  ;
N712 G1X623.54Y1865.75  ;
N713 G1X627.08Y1865.75  ;
N714 G1X627.08Y1855.85  ;
N715 G1X617.18Y1855.85  ;
N716 G1X617.18Y1857.25  ;
N717 G1X620.68Y1857.25  ;
N718 G1X620.68Y1980.3  ;
N719 G65 P9104 A101 B02  ;
N720 G0X669.98Y1988.01  ;
N721 G65 P9102 A101 B02  ;
N722 G1X667.89Y1990.09  ;
N723 G3X667.93Y1990.13I6.37J-6.29  ;
N724 G65 P9104 A101 B02  ;
N725 G0X669.98Y1868.01  ;
N726 G65 P9102 A101 B02  ;
N727 G1X667.89Y1870.09  ;
N728 G3X667.93Y1870.13I6.37J-6.29  ;
N729 G65 P9104 A101 B02  ;
N730 G0X538.61Y1672.25  ;
N731 G65 P9102 A101 B02  ;
N732 G1X536.52Y1674.34  ;
N733 G3X536.56Y1674.37I10.61J-10.54  ;
N734 G65 P9104 A101 B02  ;
N735 G0X417.14Y1716.59  ;
N736 G65 P9102 A101 B02  ;
N737 G1X415.05Y1718.68  ;
N738 G3X415.09Y1718.71I4.95J-4.88  ;
N739 G65 P9104 A101 B02  ;
N740 G0X470.63Y1430.15  ;
N741 G65 P9102 A101 B02  ;
N742 G1X473.63Y1430.15  ;
N743 G1X477.08Y1430.15  ;
N744 G1X477.08Y1431.55  ;
N745 G1X467.18Y1431.55  ;
N746 G1X467.18Y1421.65  ;
N747 G1X470.72Y1421.65  ;
N748 G1X471.75Y1420.62  ;
N749 G1X471.75Y1316.58  ;
N750 G1X470.72Y1315.55  ;
N751 G1X467.18Y1315.55  ;
N752 G1X467.18Y1305.65  ;
N753 G1X477.08Y1305.65  ;
N754 G1X477.08Y1307.05  ;
N755 G1X473.58Y1307.05  ;
N756 G1X473.58Y1430.1  ;
N757 G65 P9104 A101 B02  ;
N758 G0X529.81Y1363.86  ;
N759 G65 P9102 A101 B02  ;
N760 G1X527.74Y1363.86  ;
N761 G3X526.88Y1363I0J-0.86  ;
N762 G1X526.88Y1360.45  ;
N763 G1X532.38Y1360.45  ;
N764 G1X532.38Y1365.55  ;
N765 G1X526.88Y1365.55  ;
N766 G1X526.88Y1363  ;
N767 G65 P9104 A101 B02  ;
N768 G0X623.63Y1430.15  ;
N769 G65 P9102 A101 B02  ;
N770 G1X620.63Y1430.15  ;
N771 G1X617.18Y1430.15  ;
N772 G1X617.18Y1431.55  ;
N773 G1X627.08Y1431.55  ;
N774 G1X627.08Y1421.65  ;
N775 G1X623.54Y1421.65  ;
N776 G1X622.51Y1420.62  ;
N777 G1X622.51Y1316.58  ;
N778 G1X623.54Y1315.55  ;
N779 G1X627.08Y1315.55  ;
N780 G1X627.08Y1305.65  ;
N781 G1X617.18Y1305.65  ;
N782 G1X617.18Y1307.05  ;
N783 G1X620.68Y1307.05  ;
N784 G1X620.68Y1430.1  ;
N785 G65 P9104 A101 B02  ;
N786 G0X417.14Y1216.39  ;
N787 G65 P9102 A101 B02  ;
N788 G1X415.05Y1218.48  ;
N789 G3X415.09Y1218.51I4.95J-4.88  ;
N790 G65 P9104 A101 B02  ;
N791 G0X538.61Y1172.05  ;
N792 G65 P9102 A101 B02  ;
N793 G1X536.52Y1174.14  ;
N794 G3X536.56Y1174.17I10.61J-10.54  ;
N795 G65 P9104 A101 B02  ;
N796 G0X470.63Y879.95  ;
N797 G65 P9102 A101 B02  ;
N798 G1X473.63Y879.95  ;
N799 G1X477.08Y879.95  ;
N800 G1X477.08Y881.35  ;
N801 G1X467.18Y881.35  ;
N802 G1X467.18Y871.45  ;
N803 G1X470.72Y871.45  ;
N804 G1X471.75Y870.42  ;
N805 G1X471.75Y766.38  ;
N806 G1X470.72Y765.35  ;
N807 G1X467.18Y765.35  ;
N808 G1X467.18Y755.45  ;
N809 G1X477.08Y755.45  ;
N810 G1X477.08Y756.85  ;
N811 G1X473.58Y756.85  ;
N812 G1X473.58Y879.9  ;
N813 G65 P9104 A101 B02  ;
N814 G0X529.81Y812.14  ;
N815 G65 P9102 A101 B02  ;
N816 G1X527.74Y812.14  ;
N817 G2X526.88Y813I0J0.86  ;
N818 G1X526.88Y815.55  ;
N819 G1X532.38Y815.55  ;
N820 G1X532.38Y810.45  ;
N821 G1X526.88Y810.45  ;
N822 G1X526.88Y813  ;
N823 G65 P9104 A101 B02  ;
N824 G0X623.63Y879.95  ;
N825 G65 P9102 A101 B02  ;
N826 G1X620.63Y879.95  ;
N827 G1X617.18Y879.95  ;
N828 G1X617.18Y881.35  ;
N829 G1X627.08Y881.35  ;
N830 G1X627.08Y871.45  ;
N831 G1X623.54Y871.45  ;
N832 G1X622.51Y870.42  ;
N833 G1X622.51Y766.38  ;
N834 G1X623.54Y765.35  ;
N835 G1X627.08Y765.35  ;
N836 G1X627.08Y755.45  ;
N837 G1X617.18Y755.45  ;
N838 G1X617.18Y756.85  ;
N839 G1X620.68Y756.85  ;
N840 G1X620.68Y879.9  ;
N841 G65 P9104 A101 B02  ;
N842 G0X669.98Y877.61  ;
N843 G65 P9102 A101 B02  ;
N844 G1X667.89Y879.69  ;
N845 G3X667.93Y879.73I6.37J-6.29  ;
N846 G65 P9104 A101 B02  ;
N847 G0X669.98Y757.61  ;
N848 G65 P9102 A101 B02  ;
N849 G1X667.89Y759.69  ;
N850 G3X667.93Y759.73I6.37J-6.29  ;
N851 G65 P9104 A101 B02  ;
N852 G0X538.61Y718.85  ;
N853 G65 P9102 A101 B02  ;
N854 G1X536.52Y720.94  ;
N855 G3X536.56Y720.97I10.61J-10.54  ;
N856 G65 P9104 A101 B02  ;
N857 G0X417.14Y716.19  ;
N858 G65 P9102 A101 B02  ;
N859 G1X415.05Y718.28  ;
N860 G3X415.09Y718.31I4.95J-4.88  ;
N861 G65 P9104 A101 B02  ;
N862 G0X538.61Y418.65  ;
N863 G65 P9102 A101 B02  ;
N864 G1X536.52Y420.74  ;
N865 G3X536.56Y420.77I10.61J-10.54  ;
N866 G65 P9104 A101 B02  ;
N867 G0X417.14Y315.79  ;
N868 G65 P9102 A101 B02  ;
N869 G1X415.05Y317.88  ;
N870 G3X415.09Y317.91I4.95J-4.88  ;
N871 G65 P9104 A101 B02  ;
N872 G0X669.98Y187.21  ;
N873 G65 P9102 A101 B02  ;
N874 G1X667.89Y189.29  ;
N875 G3X667.93Y189.33I6.37J-6.29  ;
N876 G65 P9104 A101 B01  ;
N877 G0X703.31Y100  ;
N878 G65 P9102 A101 B01  ;
N879 G1X703.31Y103  ;
N880 G1X703.31Y810.45  ;
N881 G1X697.61Y810.45  ;
N882 G1X697.61Y815.55  ;
N883 G1X703.31Y815.55  ;
N884 G1X703.31Y1360.45  ;
N885 G1X697.61Y1360.45  ;
N886 G1X697.61Y1365.55  ;
N887 G1X703.31Y1365.55  ;
N888 G1X703.31Y1910.45  ;
N889 G1X697.61Y1910.45  ;
N890 G1X697.61Y1915.55  ;
N891 G1X703.31Y1915.55  ;
N892 G1X703.31Y2460.45  ;
N893 G1X697.61Y2460.45  ;
N894 G1X697.61Y2465.55  ;
N895 G1X703.31Y2465.55  ;
N896 G1X703.31Y2924.25  ;
N897 G1X697.21Y2924.25  ;
N898 G1X697.21Y2922.75  ;
N899 G1X628.21Y2922.75  ;
N900 G1X628.21Y2918.25  ;
N901 G1X617.18Y2918.25  ;
N902 G1X617.18Y2924.15  ;
N903 G1X621.68Y2924.15  ;
N904 G1X621.68Y2974.22  ;
N905 G1X587.15Y3009.25  ;
N906 G1X567.18Y3009.25  ;
N907 G1X567.18Y3011.7  ;
N908 G3X566.63Y3012.25I-0.55J0  ;
N909 G1X527.63Y3012.25  ;
N910 G3X527.08Y3011.7I0J-0.55  ;
N911 G1X527.08Y3009.25  ;
N912 G1X507.11Y3009.25  ;
N913 G1X472.58Y2974.22  ;
N914 G1X472.58Y2924.15  ;
N915 G1X477.08Y2924.15  ;
N916 G1X477.08Y2918.25  ;
N917 G1X466.05Y2918.25  ;
N918 G1X466.05Y2922.75  ;
N919 G1X397.05Y2922.75  ;
N920 G1X397.05Y2924.25  ;
N921 G1X390.95Y2924.25  ;
N922 G1X390.95Y2465.55  ;
N923 G1X396.65Y2465.55  ;
N924 G1X396.65Y2460.45  ;
N925 G1X390.95Y2460.45  ;
N926 G1X390.95Y1915.55  ;
N927 G1X396.65Y1915.55  ;
N928 G1X396.65Y1910.45  ;
N929 G1X390.95Y1910.45  ;
N930 G1X390.95Y1365.55  ;
N931 G1X396.65Y1365.55  ;
N932 G1X396.65Y1360.45  ;
N933 G1X390.95Y1360.45  ;
N934 G1X390.95Y815.55  ;
N935 G1X396.65Y815.55  ;
N936 G1X396.65Y810.45  ;
N937 G1X390.95Y810.45  ;
N938 G1X390.95Y102.95  ;
N939 G1X397.05Y102.95  ;
N940 G1X397.05Y104.45  ;
N941 G1X466.05Y104.45  ;
N942 G1X466.05Y108.95  ;
N943 G1X477.08Y108.95  ;
N944 G1X477.08Y103.05  ;
N945 G1X472.58Y103.05  ;
N946 G1X472.58Y52.98  ;
N947 G1X507.11Y17.95  ;
N948 G1X527.08Y17.95  ;
N949 G1X527.08Y15.5  ;
N950 G3X527.63Y14.95I0.55J0  ;
N951 G1X566.63Y14.95  ;
N952 G3X567.18Y15.5I0J0.55  ;
N953 G1X567.18Y17.95  ;
N954 G1X587.15Y17.95  ;
N955 G1X621.68Y52.98  ;
N956 G1X621.68Y103.05  ;
N957 G1X617.18Y103.05  ;
N958 G1X617.18Y108.95  ;
N959 G1X628.21Y108.95  ;
N960 G1X628.21Y104.45  ;
N961 G1X697.21Y104.45  ;
N962 G1X697.21Y102.95  ;
N963 G1X703.26Y102.95  ;
N964 G65 P9104 A102 B04  ;
N965 M98 P9103  ;
(P3:ID2:W86011520)  ;
N966 M98 P9101  ;
N967 G0X937.13Y202.5  ;
N968 G65 P9102 A102 B04  ;
N969 G1X937.13Y187.5  ;
N970 G1X917.13Y187.5  ;
N971 G1X917.13Y202.5  ;
N972 G65 P9104 A102 B04  ;
N973 G0X851.56Y258  ;
N974 G65 P9102 A102 B04  ;
N975 G1X1002.69Y258  ;
N976 G65 P9104 A102 B04  ;
N977 G0X1002.69Y283  ;
N978 G65 P9102 A102 B04  ;
N979 G1X851.56Y283  ;
N980 G65 P9104 A102 B04  ;
N981 G0X917.13Y338.5  ;
N982 G65 P9102 A102 B04  ;
N983 G1X917.13Y353.5  ;
N984 G1X937.13Y353.5  ;
N985 G1X937.13Y338.5  ;
N986 G65 P9104 A102 B04  ;
N987 G0X914.61Y1473.69  ;
N988 G65 P9102 A102 B04  ;
N989 G1X914.61Y1476.55  ;
N990 G65 P9104 A102 B04  ;
N991 G0X914.61Y1477.44  ;
N992 G65 P9102 A102 B04  ;
N993 G1X904.61Y1477.44  ;
N994 G1X914.61Y1484.58  ;
N995 G1X904.61Y1484.58  ;
N996 G65 P9104 A102 B04  ;
N997 G0X904.61Y1485.48  ;
N998 G65 P9102 A102 B04  ;
N999 G1X904.61Y1492.62  ;
N1000 G65 P9104 A102 B04  ;
N1001 G0X904.61Y1489.05  ;
N1002 G65 P9102 A102 B04  ;
N1003 G1X914.61Y1489.05  ;
N1004 G65 P9104 A102 B04  ;
N1005 G0X914.61Y1475.12  ;
N1006 G65 P9102 A102 B04  ;
N1007 G1X904.61Y1475.12  ;
N1008 G65 P9104 A102 B04  ;
N1009 G0X904.61Y1473.69  ;
N1010 G65 P9102 A102 B04  ;
N1011 G1X904.61Y1476.55  ;
N1012 G65 P9104 A102 B04  ;
N1013 G0X917.13Y2688.7  ;
N1014 G65 P9102 A102 B04  ;
N1015 G1X917.13Y2673.7  ;
N1016 G1X937.13Y2673.7  ;
N1017 G1X937.13Y2688.7  ;
N1018 G65 P9104 A102 B04  ;
N1019 G0X1002.69Y2744.2  ;
N1020 G65 P9102 A102 B04  ;
N1021 G1X851.56Y2744.2  ;
N1022 G65 P9104 A102 B04  ;
N1023 G0X851.56Y2769.2  ;
N1024 G65 P9102 A102 B04  ;
N1025 G1X1002.69Y2769.2  ;
N1026 G65 P9104 A102 B04  ;
N1027 G0X937.13Y2824.7  ;
N1028 G65 P9102 A102 B04  ;
N1029 G1X937.13Y2839.7  ;
N1030 G1X917.13Y2839.7  ;
N1031 G1X917.13Y2824.7  ;
N1032 G65 P9104 A101 B02  ;
N1033 G0X1049.98Y2848.41  ;
N1034 G65 P9102 A101 B02  ;
N1035 G1X1047.89Y2850.49  ;
N1036 G3X1047.93Y2850.53I6.37J-6.29  ;
N1037 G65 P9104 A101 B02  ;
N1038 G0X918.61Y2625.65  ;
N1039 G65 P9102 A101 B02  ;
N1040 G1X916.52Y2627.74  ;
N1041 G3X916.56Y2627.77I10.61J-10.54  ;
N1042 G65 P9104 A101 B02  ;
N1043 G0X797.14Y2716.99  ;
N1044 G65 P9102 A101 B02  ;
N1045 G1X795.05Y2719.08  ;
N1046 G3X795.09Y2719.11I4.95J-4.88  ;
N1047 G65 P9104 A101 B02  ;
N1048 G0X797.14Y2316.79  ;
N1049 G65 P9102 A101 B02  ;
N1050 G1X795.05Y2318.88  ;
N1051 G3X795.09Y2318.91I4.95J-4.88  ;
N1052 G65 P9104 A101 B02  ;
N1053 G0X850.63Y2270.35  ;
N1054 G65 P9102 A101 B02  ;
N1055 G1X853.63Y2270.35  ;
N1056 G1X857.08Y2270.35  ;
N1057 G1X857.08Y2271.75  ;
N1058 G1X847.18Y2271.75  ;
N1059 G1X847.18Y2261.85  ;
N1060 G1X850.72Y2261.85  ;
N1061 G1X851.75Y2260.82  ;
N1062 G1X851.75Y2156.78  ;
N1063 G1X850.72Y2155.75  ;
N1064 G1X847.18Y2155.75  ;
N1065 G1X847.18Y2145.85  ;
N1066 G1X857.08Y2145.85  ;
N1067 G1X857.08Y2147.25  ;
N1068 G1X853.58Y2147.25  ;
N1069 G1X853.58Y2270.3  ;
N1070 G65 P9104 A101 B02  ;
N1071 G0X918.61Y2325.45  ;
N1072 G65 P9102 A101 B02  ;
N1073 G1X916.52Y2327.54  ;
N1074 G3X916.56Y2327.57I10.61J-10.54  ;
N1075 G65 P9104 A101 B02  ;
N1076 G0X1003.63Y2270.35  ;
N1077 G65 P9102 A101 B02  ;
N1078 G1X1000.63Y2270.35  ;
N1079 G1X997.18Y2270.35  ;
N1080 G1X997.18Y2271.75  ;
N1081 G1X1007.08Y2271.75  ;
N1082 G1X1007.08Y2261.85  ;
N1083 G1X1003.54Y2261.85  ;
N1084 G1X1002.51Y2260.82  ;
N1085 G1X1002.51Y2156.78  ;
N1086 G1X1003.54Y2155.75  ;
N1087 G1X1007.08Y2155.75  ;
N1088 G1X1007.08Y2145.85  ;
N1089 G1X997.18Y2145.85  ;
N1090 G1X997.18Y2147.25  ;
N1091 G1X1000.68Y2147.25  ;
N1092 G1X1000.68Y2270.3  ;
N1093 G65 P9104 A101 B02  ;
N1094 G0X1049.98Y2278.01  ;
N1095 G65 P9102 A101 B02  ;
N1096 G1X1047.89Y2280.09  ;
N1097 G3X1047.93Y2280.13I6.37J-6.29  ;
N1098 G65 P9104 A101 B02  ;
N1099 G0X1049.98Y2158.01  ;
N1100 G65 P9102 A101 B02  ;
N1101 G1X1047.89Y2160.09  ;
N1102 G3X1047.93Y2160.13I6.37J-6.29  ;
N1103 G65 P9104 A101 B02  ;
N1104 G0X909.85Y2213.13  ;
N1105 G65 P9102 A101 B02  ;
N1106 G1X907.75Y2213.13  ;
N1107 G2X906.88Y2214I0J0.87  ;
N1108 G1X906.88Y2216.55  ;
N1109 G1X912.48Y2216.55  ;
N1110 G1X912.48Y2211.45  ;
N1111 G1X906.88Y2211.45  ;
N1112 G1X906.88Y2214  ;
N1113 G65 P9104 A101 B02  ;
N1114 G0X918.61Y1872.25  ;
N1115 G65 P9102 A101 B02  ;
N1116 G1X916.52Y1874.34  ;
N1117 G3X916.56Y1874.37I10.61J-10.54  ;
N1118 G65 P9104 A101 B02  ;
N1119 G0X797.14Y1816.39  ;
N1120 G65 P9102 A101 B02  ;
N1121 G1X795.05Y1818.48  ;
N1122 G3X795.09Y1818.51I4.95J-4.88  ;
N1123 G65 P9104 A101 B02  ;
N1124 G0X909.85Y1663.13  ;
N1125 G65 P9102 A101 B02  ;
N1126 G1X907.75Y1663.13  ;
N1127 G2X906.88Y1664I0J0.87  ;
N1128 G1X906.88Y1666.55  ;
N1129 G1X912.48Y1666.55  ;
N1130 G1X912.48Y1661.45  ;
N1131 G1X906.88Y1661.45  ;
N1132 G1X906.88Y1664  ;
N1133 G65 P9104 A101 B02  ;
N1134 G0X918.61Y1372.05  ;
N1135 G65 P9102 A101 B02  ;
N1136 G1X916.52Y1374.14  ;
N1137 G3X916.56Y1374.17I10.61J-10.54  ;
N1138 G65 P9104 A101 B02  ;
N1139 G0X797.14Y1316.19  ;
N1140 G65 P9102 A101 B02  ;
N1141 G1X795.05Y1318.28  ;
N1142 G3X795.09Y1318.31I4.95J-4.88  ;
N1143 G65 P9104 A101 B02  ;
N1144 G0X909.85Y1113.13  ;
N1145 G65 P9102 A101 B02  ;
N1146 G1X907.75Y1113.13  ;
N1147 G2X906.88Y1114I0J0.87  ;
N1148 G1X906.88Y1116.55  ;
N1149 G1X912.48Y1116.55  ;
N1150 G1X912.48Y1111.45  ;
N1151 G1X906.88Y1111.45  ;
N1152 G1X906.88Y1114  ;
N1153 G65 P9104 A101 B02  ;
N1154 G0X918.61Y871.85  ;
N1155 G65 P9102 A101 B02  ;
N1156 G1X916.52Y873.94  ;
N1157 G3X916.56Y873.97I10.61J-10.54  ;
N1158 G65 P9104 A101 B02  ;
N1159 G0X797.14Y815.99  ;
N1160 G65 P9102 A101 B02  ;
N1161 G1X795.05Y818.08  ;
N1162 G3X795.09Y818.11I4.95J-4.88  ;
N1163 G65 P9104 A101 B02  ;
N1164 G0X909.85Y563.13  ;
N1165 G65 P9102 A101 B02  ;
N1166 G1X907.75Y563.13  ;
N1167 G2X906.88Y564I0J0.87  ;
N1168 G1X906.88Y566.55  ;
N1169 G1X912.48Y566.55  ;
N1170 G1X912.48Y561.45  ;
N1171 G1X906.88Y561.45  ;
N1172 G1X906.88Y564  ;
N1173 G65 P9104 A101 B02  ;
N1174 G0X918.61Y471.65  ;
N1175 G65 P9102 A101 B02  ;
N1176 G1X916.52Y473.74  ;
N1177 G3X916.56Y473.77I10.61J-10.54  ;
N1178 G65 P9104 A101 B02  ;
N1179 G0X797.14Y315.79  ;
N1180 G65 P9102 A101 B02  ;
N1181 G1X795.05Y317.88  ;
N1182 G3X795.09Y317.91I4.95J-4.88  ;
N1183 G65 P9104 A101 B02  ;
N1184 G0X918.61Y121.45  ;
N1185 G65 P9102 A101 B02  ;
N1186 G1X916.52Y123.54  ;
N1187 G3X916.56Y123.57I10.61J-10.54  ;
N1188 G65 P9104 A101 B02  ;
N1189 G0X1049.98Y187.21  ;
N1190 G65 P9102 A101 B02  ;
N1191 G1X1047.89Y189.29  ;
N1192 G3X1047.93Y189.33I6.37J-6.29  ;
N1193 G65 P9104 A101 B01  ;
N1194 G0X1086.26Y102.95  ;
N1195 G65 P9102 A101 B01  ;
N1196 G1X1083.26Y102.95  ;
N1197 G1X1077.21Y102.95  ;
N1198 G1X1077.21Y104.45  ;
N1199 G1X1008.21Y104.45  ;
N1200 G1X1008.21Y108.95  ;
N1201 G1X997.18Y108.95  ;
N1202 G1X997.18Y103.05  ;
N1203 G1X1001.68Y103.05  ;
N1204 G1X1001.68Y52.98  ;
N1205 G1X967.15Y17.95  ;
N1206 G1X947.18Y17.95  ;
N1207 G1X947.18Y15.5  ;
N1208 G2X946.63Y14.95I-0.55J0  ;
N1209 G1X907.63Y14.95  ;
N1210 G2X907.08Y15.5I0J0.55  ;
N1211 G1X907.08Y17.95  ;
N1212 G1X887.11Y17.95  ;
N1213 G1X852.58Y52.98  ;
N1214 G1X852.58Y103.05  ;
N1215 G1X857.08Y103.05  ;
N1216 G1X857.08Y108.95  ;
N1217 G1X846.05Y108.95  ;
N1218 G1X846.05Y104.45  ;
N1219 G1X777.05Y104.45  ;
N1220 G1X777.05Y102.95  ;
N1221 G1X770.95Y102.95  ;
N1222 G1X770.95Y561.45  ;
N1223 G1X776.65Y561.45  ;
N1224 G1X776.65Y566.55  ;
N1225 G1X770.95Y566.55  ;
N1226 G1X770.95Y1111.45  ;
N1227 G1X776.65Y1111.45  ;
N1228 G1X776.65Y1116.55  ;
N1229 G1X770.95Y1116.55  ;
N1230 G1X770.95Y1661.45  ;
N1231 G1X776.65Y1661.45  ;
N1232 G1X776.65Y1666.55  ;
N1233 G1X770.95Y1666.55  ;
N1234 G1X770.95Y2211.45  ;
N1235 G1X776.65Y2211.45  ;
N1236 G1X776.65Y2216.55  ;
N1237 G1X770.95Y2216.55  ;
N1238 G1X770.95Y2924.25  ;
N1239 G1X777.05Y2924.25  ;
N1240 G1X777.05Y2922.75  ;
N1241 G1X846.05Y2922.75  ;
N1242 G1X846.05Y2918.25  ;
N1243 G1X857.08Y2918.25  ;
N1244 G1X857.08Y2924.15  ;
N1245 G1X852.58Y2924.15  ;
N1246 G1X852.58Y2977.22  ;
N1247 G1X887.11Y3009.25  ;
N1248 G1X907.08Y3009.25  ;
N1249 G1X907.08Y3012.25  ;
N1250 G1X947.18Y3012.25  ;
N1251 G1X947.18Y3009.25  ;
N1252 G1X967.15Y3009.25  ;
N1253 G1X1001.68Y2977.22  ;
N1254 G1X1001.68Y2924.15  ;
N1255 G1X997.18Y2924.15  ;
N1256 G1X997.18Y2918.25  ;
N1257 G1X1008.21Y2918.25  ;
N1258 G1X1008.21Y2922.75  ;
N1259 G1X1077.21Y2922.75  ;
N1260 G1X1077.21Y2924.25  ;
N1261 G1X1083.31Y2924.25  ;
N1262 G1X1083.31Y2216.55  ;
N1263 G1X1077.61Y2216.55  ;
N1264 G1X1077.61Y2211.45  ;
N1265 G1X1083.31Y2211.45  ;
N1266 G1X1083.31Y1666.55  ;
N1267 G1X1077.61Y1666.55  ;
N1268 G1X1077.61Y1661.45  ;
N1269 G1X1083.31Y1661.45  ;
N1270 G1X1083.31Y1116.55  ;
N1271 G1X1077.61Y1116.55  ;
N1272 G1X1077.61Y1111.45  ;
N1273 G1X1083.31Y1111.45  ;
N1274 G1X1083.31Y566.55  ;
N1275 G1X1077.61Y566.55  ;
N1276 G1X1077.61Y561.45  ;
N1277 G1X1083.31Y561.45  ;
N1278 G1X1083.31Y103  ;
N1279 G65 P9104 A102 B04  ;
N1280 M98 P9103  ;
(P4:ID2:W86011520)  ;
N1281 M98 P9101  ;
N1282 G0X1295.13Y202.5  ;
N1283 G65 P9102 A102 B04  ;
N1284 G1X1295.13Y187.5  ;
N1285 G1X1275.13Y187.5  ;
N1286 G1X1275.13Y202.5  ;
N1287 G65 P9104 A102 B04  ;
N1288 G0X1209.56Y258  ;
N1289 G65 P9102 A102 B04  ;
N1290 G1X1360.69Y258  ;
N1291 G65 P9104 A102 B04  ;
N1292 G0X1360.69Y283  ;
N1293 G65 P9102 A102 B04  ;
N1294 G1X1209.56Y283  ;
N1295 G65 P9104 A102 B04  ;
N1296 G0X1275.13Y338.5  ;
N1297 G65 P9102 A102 B04  ;
N1298 G1X1275.13Y353.5  ;
N1299 G1X1295.13Y353.5  ;
N1300 G1X1295.13Y338.5  ;
N1301 G65 P9104 A102 B04  ;
N1302 G0X1272.61Y1473.69  ;
N1303 G65 P9102 A102 B04  ;
N1304 G1X1272.61Y1476.55  ;
N1305 G65 P9104 A102 B04  ;
N1306 G0X1272.61Y1477.44  ;
N1307 G65 P9102 A102 B04  ;
N1308 G1X1262.61Y1477.44  ;
N1309 G1X1272.61Y1484.58  ;
N1310 G1X1262.61Y1484.58  ;
N1311 G65 P9104 A102 B04  ;
N1312 G0X1262.61Y1485.48  ;
N1313 G65 P9102 A102 B04  ;
N1314 G1X1262.61Y1492.62  ;
N1315 G65 P9104 A102 B04  ;
N1316 G0X1262.61Y1489.05  ;
N1317 G65 P9102 A102 B04  ;
N1318 G1X1272.61Y1489.05  ;
N1319 G65 P9104 A102 B04  ;
N1320 G0X1272.61Y1475.12  ;
N1321 G65 P9102 A102 B04  ;
N1322 G1X1262.61Y1475.12  ;
N1323 G65 P9104 A102 B04  ;
N1324 G0X1262.61Y1473.69  ;
N1325 G65 P9102 A102 B04  ;
N1326 G1X1262.61Y1476.55  ;
N1327 G65 P9104 A102 B04  ;
N1328 G0X1275.13Y2688.7  ;
N1329 G65 P9102 A102 B04  ;
N1330 G1X1275.13Y2673.7  ;
N1331 G1X1295.13Y2673.7  ;
N1332 G1X1295.13Y2688.7  ;
N1333 G65 P9104 A102 B04  ;
N1334 G0X1360.69Y2744.2  ;
N1335 G65 P9102 A102 B04  ;
N1336 G1X1209.56Y2744.2  ;
N1337 G65 P9104 A102 B04  ;
N1338 G0X1209.56Y2769.2  ;
N1339 G65 P9102 A102 B04  ;
N1340 G1X1360.69Y2769.2  ;
N1341 G65 P9104 A102 B04  ;
N1342 G0X1295.13Y2824.7  ;
N1343 G65 P9102 A102 B04  ;
N1344 G1X1295.13Y2839.7  ;
N1345 G1X1275.13Y2839.7  ;
N1346 G1X1275.13Y2824.7  ;
N1347 G65 P9104 A101 B02  ;
N1348 G0X1407.98Y2848.41  ;
N1349 G65 P9102 A101 B02  ;
N1350 G1X1405.89Y2850.49  ;
N1351 G3X1405.93Y2850.53I6.37J-6.29  ;
N1352 G65 P9104 A101 B02  ;
N1353 G0X1276.61Y2625.65  ;
N1354 G65 P9102 A101 B02  ;
N1355 G1X1274.52Y2627.74  ;
N1356 G3X1274.56Y2627.77I10.61J-10.54  ;
N1357 G65 P9104 A101 B02  ;
N1358 G0X1155.14Y2716.99  ;
N1359 G65 P9102 A101 B02  ;
N1360 G1X1153.05Y2719.08  ;
N1361 G3X1153.09Y2719.11I4.95J-4.88  ;
N1362 G65 P9104 A101 B02  ;
N1363 G0X1155.14Y2316.79  ;
N1364 G65 P9102 A101 B02  ;
N1365 G1X1153.05Y2318.88  ;
N1366 G3X1153.09Y2318.91I4.95J-4.88  ;
N1367 G65 P9104 A101 B02  ;
N1368 G0X1208.63Y2270.35  ;
N1369 G65 P9102 A101 B02  ;
N1370 G1X1211.63Y2270.35  ;
N1371 G1X1215.08Y2270.35  ;
N1372 G1X1215.08Y2271.75  ;
N1373 G1X1205.18Y2271.75  ;
N1374 G1X1205.18Y2261.85  ;
N1375 G1X1208.72Y2261.85  ;
N1376 G1X1209.75Y2260.82  ;
N1377 G1X1209.75Y2156.78  ;
N1378 G1X1208.72Y2155.75  ;
N1379 G1X1205.18Y2155.75  ;
N1380 G1X1205.18Y2145.85  ;
N1381 G1X1215.08Y2145.85  ;
N1382 G1X1215.08Y2147.25  ;
N1383 G1X1211.58Y2147.25  ;
N1384 G1X1211.58Y2270.3  ;
N1385 G65 P9104 A101 B02  ;
N1386 G0X1276.61Y2325.45  ;
N1387 G65 P9102 A101 B02  ;
N1388 G1X1274.52Y2327.54  ;
N1389 G3X1274.56Y2327.57I10.61J-10.54  ;
N1390 G65 P9104 A101 B02  ;
N1391 G0X1361.63Y2270.35  ;
N1392 G65 P9102 A101 B02  ;
N1393 G1X1358.63Y2270.35  ;
N1394 G1X1355.18Y2270.35  ;
N1395 G1X1355.18Y2271.75  ;
N1396 G1X1365.08Y2271.75  ;
N1397 G1X1365.08Y2261.85  ;
N1398 G1X1361.54Y2261.85  ;
N1399 G1X1360.51Y2260.82  ;
N1400 G1X1360.51Y2156.78  ;
N1401 G1X1361.54Y2155.75  ;
N1402 G1X1365.08Y2155.75  ;
N1403 G1X1365.08Y2145.85  ;
N1404 G1X1355.18Y2145.85  ;
N1405 G1X1355.18Y2147.25  ;
N1406 G1X1358.68Y2147.25  ;
N1407 G1X1358.68Y2270.3  ;
N1408 G65 P9104 A101 B02  ;
N1409 G0X1407.98Y2278.01  ;
N1410 G65 P9102 A101 B02  ;
N1411 G1X1405.89Y2280.09  ;
N1412 G3X1405.93Y2280.13I6.37J-6.29  ;
N1413 G65 P9104 A101 B02  ;
N1414 G0X1407.98Y2158.01  ;
N1415 G65 P9102 A101 B02  ;
N1416 G1X1405.89Y2160.09  ;
N1417 G3X1405.93Y2160.13I6.37J-6.29  ;
N1418 G65 P9104 A101 B02  ;
N1419 G0X1267.85Y2213.13  ;
N1420 G65 P9102 A101 B02  ;
N1421 G1X1265.75Y2213.13  ;
N1422 G2X1264.88Y2214I0J0.87  ;
N1423 G1X1264.88Y2216.55  ;
N1424 G1X1270.48Y2216.55  ;
N1425 G1X1270.48Y2211.45  ;
N1426 G1X1264.88Y2211.45  ;
N1427 G1X1264.88Y2214  ;
N1428 G65 P9104 A101 B02  ;
N1429 G0X1276.61Y1872.25  ;
N1430 G65 P9102 A101 B02  ;
N1431 G1X1274.52Y1874.34  ;
N1432 G3X1274.56Y1874.37I10.61J-10.54  ;
N1433 G65 P9104 A101 B02  ;
N1434 G0X1155.14Y1816.39  ;
N1435 G65 P9102 A101 B02  ;
N1436 G1X1153.05Y1818.48  ;
N1437 G3X1153.09Y1818.51I4.95J-4.88  ;
N1438 G65 P9104 A101 B02  ;
N1439 G0X1267.85Y1663.13  ;
N1440 G65 P9102 A101 B02  ;
N1441 G1X1265.75Y1663.13  ;
N1442 G2X1264.88Y1664I0J0.87  ;
N1443 G1X1264.88Y1666.55  ;
N1444 G1X1270.48Y1666.55  ;
N1445 G1X1270.48Y1661.45  ;
N1446 G1X1264.88Y1661.45  ;
N1447 G1X1264.88Y1664  ;
N1448 G65 P9104 A101 B02  ;
N1449 G0X1276.61Y1372.05  ;
N1450 G65 P9102 A101 B02  ;
N1451 G1X1274.52Y1374.14  ;
N1452 G3X1274.56Y1374.17I10.61J-10.54  ;
N1453 G65 P9104 A101 B02  ;
N1454 G0X1155.14Y1316.19  ;
N1455 G65 P9102 A101 B02  ;
N1456 G1X1153.05Y1318.28  ;
N1457 G3X1153.09Y1318.31I4.95J-4.88  ;
N1458 G65 P9104 A101 B02  ;
N1459 G0X1267.85Y1113.13  ;
N1460 G65 P9102 A101 B02  ;
N1461 G1X1265.75Y1113.13  ;
N1462 G2X1264.88Y1114I0J0.87  ;
N1463 G1X1264.88Y1116.55  ;
N1464 G1X1270.48Y1116.55  ;
N1465 G1X1270.48Y1111.45  ;
N1466 G1X1264.88Y1111.45  ;
N1467 G1X1264.88Y1114  ;
N1468 G65 P9104 A101 B02  ;
N1469 G0X1276.61Y871.85  ;
N1470 G65 P9102 A101 B02  ;
N1471 G1X1274.52Y873.94  ;
N1472 G3X1274.56Y873.97I10.61J-10.54  ;
N1473 G65 P9104 A101 B02  ;
N1474 G0X1155.14Y815.99  ;
N1475 G65 P9102 A101 B02  ;
N1476 G1X1153.05Y818.08  ;
N1477 G3X1153.09Y818.11I4.95J-4.88  ;
N1478 G65 P9104 A101 B02  ;
N1479 G0X1267.85Y563.13  ;
N1480 G65 P9102 A101 B02  ;
N1481 G1X1265.75Y563.13  ;
N1482 G2X1264.88Y564I0J0.87  ;
N1483 G1X1264.88Y566.55  ;
N1484 G1X1270.48Y566.55  ;
N1485 G1X1270.48Y561.45  ;
N1486 G1X1264.88Y561.45  ;
N1487 G1X1264.88Y564  ;
N1488 G65 P9104 A101 B02  ;
N1489 G0X1276.61Y471.65  ;
N1490 G65 P9102 A101 B02  ;
N1491 G1X1274.52Y473.74  ;
N1492 G3X1274.56Y473.77I10.61J-10.54  ;
N1493 G65 P9104 A101 B02  ;
N1494 G0X1155.14Y315.79  ;
N1495 G65 P9102 A101 B02  ;
N1496 G1X1153.05Y317.88  ;
N1497 G3X1153.09Y317.91I4.95J-4.88  ;
N1498 G65 P9104 A101 B02  ;
N1499 G0X1276.61Y121.45  ;
N1500 G65 P9102 A101 B02  ;
N1501 G1X1274.52Y123.54  ;
N1502 G3X1274.56Y123.57I10.61J-10.54  ;
N1503 G65 P9104 A101 B02  ;
N1504 G0X1407.98Y187.21  ;
N1505 G65 P9102 A101 B02  ;
N1506 G1X1405.89Y189.29  ;
N1507 G3X1405.93Y189.33I6.37J-6.29  ;
N1508 G65 P9104 A101 B01  ;
N1509 G0X1444.26Y102.95  ;
N1510 G65 P9102 A101 B01  ;
N1511 G1X1441.26Y102.95  ;
N1512 G1X1435.21Y102.95  ;
N1513 G1X1435.21Y104.45  ;
N1514 G1X1366.21Y104.45  ;
N1515 G1X1366.21Y108.95  ;
N1516 G1X1355.18Y108.95  ;
N1517 G1X1355.18Y103.05  ;
N1518 G1X1359.68Y103.05  ;
N1519 G1X1359.68Y52.98  ;
N1520 G1X1325.15Y17.95  ;
N1521 G1X1305.18Y17.95  ;
N1522 G1X1305.18Y15.5  ;
N1523 G2X1304.63Y14.95I-0.55J0  ;
N1524 G1X1265.63Y14.95  ;
N1525 G2X1265.08Y15.5I0J0.55  ;
N1526 G1X1265.08Y17.95  ;
N1527 G1X1245.11Y17.95  ;
N1528 G1X1210.58Y52.98  ;
N1529 G1X1210.58Y103.05  ;
N1530 G1X1215.08Y103.05  ;
N1531 G1X1215.08Y108.95  ;
N1532 G1X1204.05Y108.95  ;
N1533 G1X1204.05Y104.45  ;
N1534 G1X1135.05Y104.45  ;
N1535 G1X1135.05Y102.95  ;
N1536 G1X1128.95Y102.95  ;
N1537 G1X1128.95Y561.45  ;
N1538 G1X1134.65Y561.45  ;
N1539 G1X1134.65Y566.55  ;
N1540 G1X1128.95Y566.55  ;
N1541 G1X1128.95Y1111.45  ;
N1542 G1X1134.65Y1111.45  ;
N1543 G1X1134.65Y1116.55  ;
N1544 G1X1128.95Y1116.55  ;
N1545 G1X1128.95Y1661.45  ;
N1546 G1X1134.65Y1661.45  ;
N1547 G1X1134.65Y1666.55  ;
N1548 G1X1128.95Y1666.55  ;
N1549 G1X1128.95Y2211.45  ;
N1550 G1X1134.65Y2211.45  ;
N1551 G1X1134.65Y2216.55  ;
N1552 G1X1128.95Y2216.55  ;
N1553 G1X1128.95Y2924.25  ;
N1554 G1X1135.05Y2924.25  ;
N1555 G1X1135.05Y2922.75  ;
N1556 G1X1204.05Y2922.75  ;
N1557 G1X1204.05Y2918.25  ;
N1558 G1X1215.08Y2918.25  ;
N1559 G1X1215.08Y2924.15  ;
N1560 G1X1210.58Y2924.15  ;
N1561 G1X1210.58Y2977.22  ;
N1562 G1X1245.11Y3009.25  ;
N1563 G1X1265.08Y3009.25  ;
N1564 G1X1265.08Y3012.25  ;
N1565 G1X1305.18Y3012.25  ;
N1566 G1X1305.18Y3009.25  ;
N1567 G1X1325.15Y3009.25  ;
N1568 G1X1359.68Y2977.22  ;
N1569 G1X1359.68Y2924.15  ;
N1570 G1X1355.18Y2924.15  ;
N1571 G1X1355.18Y2918.25  ;
N1572 G1X1366.21Y2918.25  ;
N1573 G1X1366.21Y2922.75  ;
N1574 G1X1435.21Y2922.75  ;
N1575 G1X1435.21Y2924.25  ;
N1576 G1X1441.31Y2924.25  ;
N1577 G1X1441.31Y2216.55  ;
N1578 G1X1435.61Y2216.55  ;
N1579 G1X1435.61Y2211.45  ;
N1580 G1X1441.31Y2211.45  ;
N1581 G1X1441.31Y1666.55  ;
N1582 G1X1435.61Y1666.55  ;
N1583 G1X1435.61Y1661.45  ;
N1584 G1X1441.31Y1661.45  ;
N1585 G1X1441.31Y1116.55  ;
N1586 G1X1435.61Y1116.55  ;
N1587 G1X1435.61Y1111.45  ;
N1588 G1X1441.31Y1111.45  ;
N1589 G1X1441.31Y566.55  ;
N1590 G1X1435.61Y566.55  ;
N1591 G1X1435.61Y561.45  ;
N1592 G1X1441.31Y561.45  ;
N1593 G1X1441.31Y103  ;
N1594 M98 P9104  ;
N1595 M98 P9103  ;
(FOOTER)
N1596 M98 P9110  ;
N1597 M30  ;
%
