O0099  ;
( MACHINE : TCI Laser )  ;
( MATERIAL : Acero al Carbono )  ;
( THICKNESS : 5 )  ;
( REPETITIONS : 1 )  ;
( SIMULATION TIME : 00:47:04 )  ;
( FORMAT : 1500x3000 )  ;
( JOB NUMBER : VARS8600\K860115 )  ;
( PROGRAM NUMBER : 12092 )  ;
( TYPE : 0 )  ;
( NUMBER OF SHEETS : 1 )  ;
( CUTTING HEADS : 1 )  ;
#516= 1  ;
#517= 1  ;
N105 G65 P9100 A103 B01  ;
(P1:ID1:W86011517)  ;
N106 M98 P9101  ;
N107 G0X474.99Y93.98  ;
N108 G65 P9102 A101 B01  ;
N109 G1X479.93Y93.7  ;
N110 G3X465Y109.45I-14.93J0.8  ;
N111 G1X461.98Y109.45  ;
N112 G1X460.95Y110.48  ;
N113 G1X460.95Y113.52  ;
N114 G1X461.98Y114.55  ;
N115 G1X464.95Y114.55  ;
N116 G1X464.95Y136.45  ;
N117 G1X464.45Y136.45  ;
N118 G1X464.45Y139.55  ;
N119 G1X464.98Y139.55  ;
N120 G1X492.98Y168.55  ;
N121 G1X535.95Y168.55  ;
N122 G1X535.95Y169.05  ;
N123 G1X538.95Y169.05  ;
N124 G1X538.95Y174.05  ;
N125 G1X544.05Y174.05  ;
N126 G1X544.05Y14.95  ;
N127 G1X538.95Y14.95  ;
N128 G1X538.95Y19.95  ;
N129 G1X535.95Y19.95  ;
N130 G1X535.95Y20.45  ;
N131 G1X492.98Y20.45  ;
N132 G1X464.98Y49.45  ;
N133 G1X464.45Y49.45  ;
N134 G1X464.45Y52.55  ;
N135 G1X464.95Y52.55  ;
N136 G1X464.95Y79.55  ;
N137 G3X479.87Y93I0.05J14.95  ;
N138 G65 P9104 A101 B01  ;
N139 M98 P9103  ;
(P2:ID1:W86011517)  ;
N140 M98 P9101  ;
N141 G0X568.99Y93.98  ;
N142 G65 P9102 A101 B01  ;
N143 G1X573.93Y93.7  ;
N144 G3X559Y109.45I-14.93J0.8  ;
N145 G1X555.98Y109.45  ;
N146 G1X554.95Y110.48  ;
N147 G1X554.95Y113.52  ;
N148 G1X555.98Y114.55  ;
N149 G1X558.95Y114.55  ;
N150 G1X558.95Y136.45  ;
N151 G1X558.45Y136.45  ;
N152 G1X558.45Y139.55  ;
N153 G1X558.98Y139.55  ;
N154 G1X586.98Y168.55  ;
N155 G1X629.95Y168.55  ;
N156 G1X629.95Y169.05  ;
N157 G1X632.95Y169.05  ;
N158 G1X632.95Y174.05  ;
N159 G1X638.05Y174.05  ;
N160 G1X638.05Y14.95  ;
N161 G1X632.95Y14.95  ;
N162 G1X632.95Y19.95  ;
N163 G1X629.95Y19.95  ;
N164 G1X629.95Y20.45  ;
N165 G1X586.98Y20.45  ;
N166 G1X558.98Y49.45  ;
N167 G1X558.45Y49.45  ;
N168 G1X558.45Y52.55  ;
N169 G1X558.95Y52.55  ;
N170 G1X558.95Y79.55  ;
N171 G3X573.87Y93I0.05J14.95  ;
N172 G65 P9104 A101 B01  ;
N173 M98 P9103  ;
(P3:ID1:W86011517)  ;
N174 M98 P9101  ;
N175 G0X663.09Y93.98  ;
N176 G65 P9102 A101 B01  ;
N177 G1X668.03Y93.7  ;
N178 G3X653.1Y109.45I-14.93J0.8  ;
N179 G1X650.08Y109.45  ;
N180 G1X649.05Y110.48  ;
N181 G1X649.05Y113.52  ;
N182 G1X650.08Y114.55  ;
N183 G1X653.05Y114.55  ;
N184 G1X653.05Y136.45  ;
N185 G1X652.55Y136.45  ;
N186 G1X652.55Y139.55  ;
N187 G1X653.08Y139.55  ;
N188 G1X681.08Y168.55  ;
N189 G1X724.05Y168.55  ;
N190 G1X724.05Y169.05  ;
N191 G1X727.05Y169.05  ;
N192 G1X727.05Y174.05  ;
N193 G1X732.15Y174.05  ;
N194 G1X732.15Y14.95  ;
N195 G1X727.05Y14.95  ;
N196 G1X727.05Y19.95  ;
N197 G1X724.05Y19.95  ;
N198 G1X724.05Y20.45  ;
N199 G1X681.08Y20.45  ;
N200 G1X653.08Y49.45  ;
N201 G1X652.55Y49.45  ;
N202 G1X652.55Y52.55  ;
N203 G1X653.05Y52.55  ;
N204 G1X653.05Y79.55  ;
N205 G3X667.97Y93I0.05J14.95  ;
N206 G65 P9104 A101 B01  ;
N207 M98 P9103  ;
(P4:ID1:W86011517)  ;
N208 M98 P9101  ;
N209 G0X756.99Y93.98  ;
N210 G65 P9102 A101 B01  ;
N211 G1X761.93Y93.7  ;
N212 G3X747Y109.45I-14.93J0.8  ;
N213 G1X743.98Y109.45  ;
N214 G1X742.95Y110.48  ;
N215 G1X742.95Y113.52  ;
N216 G1X743.98Y114.55  ;
N217 G1X746.95Y114.55  ;
N218 G1X746.95Y136.45  ;
N219 G1X746.45Y136.45  ;
N220 G1X746.45Y139.55  ;
N221 G1X746.98Y139.55  ;
N222 G1X774.98Y168.55  ;
N223 G1X817.95Y168.55  ;
N224 G1X817.95Y169.05  ;
N225 G1X820.95Y169.05  ;
N226 G1X820.95Y174.05  ;
N227 G1X826.05Y174.05  ;
N228 G1X826.05Y14.95  ;
N229 G1X820.95Y14.95  ;
N230 G1X820.95Y19.95  ;
N231 G1X817.95Y19.95  ;
N232 G1X817.95Y20.45  ;
N233 G1X774.98Y20.45  ;
N234 G1X746.98Y49.45  ;
N235 G1X746.45Y49.45  ;
N236 G1X746.45Y52.55  ;
N237 G1X746.95Y52.55  ;
N238 G1X746.95Y79.55  ;
N239 G3X761.87Y93I0.05J14.95  ;
N240 G65 P9104 A101 B01  ;
N241 M98 P9103  ;
(P5:ID1:W86011517)  ;
N242 M98 P9101  ;
N243 G0X850.99Y93.98  ;
N244 G65 P9102 A101 B01  ;
N245 G1X855.93Y93.7  ;
N246 G3X841Y109.45I-14.93J0.8  ;
N247 G1X837.98Y109.45  ;
N248 G1X836.95Y110.48  ;
N249 G1X836.95Y113.52  ;
N250 G1X837.98Y114.55  ;
N251 G1X840.95Y114.55  ;
N252 G1X840.95Y136.45  ;
N253 G1X840.45Y136.45  ;
N254 G1X840.45Y139.55  ;
N255 G1X840.98Y139.55  ;
N256 G1X868.98Y168.55  ;
N257 G1X911.95Y168.55  ;
N258 G1X911.95Y169.05  ;
N259 G1X914.95Y169.05  ;
N260 G1X914.95Y174.05  ;
N261 G1X920.05Y174.05  ;
N262 G1X920.05Y14.95  ;
N263 G1X914.95Y14.95  ;
N264 G1X914.95Y19.95  ;
N265 G1X911.95Y19.95  ;
N266 G1X911.95Y20.45  ;
N267 G1X868.98Y20.45  ;
N268 G1X840.98Y49.45  ;
N269 G1X840.45Y49.45  ;
N270 G1X840.45Y52.55  ;
N271 G1X840.95Y52.55  ;
N272 G1X840.95Y79.55  ;
N273 G3X855.87Y93I0.05J14.95  ;
N274 G65 P9104 A101 B01  ;
N275 M98 P9103  ;
(P6:ID1:W86011517)  ;
N276 M98 P9101  ;
N277 G0X944.99Y93.98  ;
N278 G65 P9102 A101 B01  ;
N279 G1X949.93Y93.7  ;
N280 G3X935Y109.45I-14.93J0.8  ;
N281 G1X931.98Y109.45  ;
N282 G1X930.95Y110.48  ;
N283 G1X930.95Y113.52  ;
N284 G1X931.98Y114.55  ;
N285 G1X934.95Y114.55  ;
N286 G1X934.95Y136.45  ;
N287 G1X934.45Y136.45  ;
N288 G1X934.45Y139.55  ;
N289 G1X934.98Y139.55  ;
N290 G1X962.98Y168.55  ;
N291 G1X1005.95Y168.55  ;
N292 G1X1005.95Y169.05  ;
N293 G1X1008.95Y169.05  ;
N294 G1X1008.95Y174.05  ;
N295 G1X1014.05Y174.05  ;
N296 G1X1014.05Y14.95  ;
N297 G1X1008.95Y14.95  ;
N298 G1X1008.95Y19.95  ;
N299 G1X1005.95Y19.95  ;
N300 G1X1005.95Y20.45  ;
N301 G1X962.98Y20.45  ;
N302 G1X934.98Y49.45  ;
N303 G1X934.45Y49.45  ;
N304 G1X934.45Y52.55  ;
N305 G1X934.95Y52.55  ;
N306 G1X934.95Y79.55  ;
N307 G3X949.87Y93I0.05J14.95  ;
N308 G65 P9104 A101 B01  ;
N309 M98 P9103  ;
(P7:ID1:W86011517)  ;
N310 M98 P9101  ;
N311 G0X1038.99Y93.98  ;
N312 G65 P9102 A101 B01  ;
N313 G1X1043.93Y93.7  ;
N314 G3X1029Y109.45I-14.93J0.8  ;
N315 G1X1025.98Y109.45  ;
N316 G1X1024.95Y110.48  ;
N317 G1X1024.95Y113.52  ;
N318 G1X1025.98Y114.55  ;
N319 G1X1028.95Y114.55  ;
N320 G1X1028.95Y136.45  ;
N321 G1X1028.45Y136.45  ;
N322 G1X1028.45Y139.55  ;
N323 G1X1028.98Y139.55  ;
N324 G1X1056.98Y168.55  ;
N325 G1X1099.95Y168.55  ;
N326 G1X1099.95Y169.05  ;
N327 G1X1102.95Y169.05  ;
N328 G1X1102.95Y174.05  ;
N329 G1X1108.05Y174.05  ;
N330 G1X1108.05Y14.95  ;
N331 G1X1102.95Y14.95  ;
N332 G1X1102.95Y19.95  ;
N333 G1X1099.95Y19.95  ;
N334 G1X1099.95Y20.45  ;
N335 G1X1056.98Y20.45  ;
N336 G1X1028.98Y49.45  ;
N337 G1X1028.45Y49.45  ;
N338 G1X1028.45Y52.55  ;
N339 G1X1028.95Y52.55  ;
N340 G1X1028.95Y79.55  ;
N341 G3X1043.87Y93I0.05J14.95  ;
N342 G65 P9104 A101 B01  ;
N343 M98 P9103  ;
(P8:ID1:W86011517)  ;
N344 M98 P9101  ;
N345 G0X1132.99Y93.98  ;
N346 G65 P9102 A101 B01  ;
N347 G1X1137.93Y93.7  ;
N348 G3X1123Y109.45I-14.93J0.8  ;
N349 G1X1119.98Y109.45  ;
N350 G1X1118.95Y110.48  ;
N351 G1X1118.95Y113.52  ;
N352 G1X1119.98Y114.55  ;
N353 G1X1122.95Y114.55  ;
N354 G1X1122.95Y136.45  ;
N355 G1X1122.45Y136.45  ;
N356 G1X1122.45Y139.55  ;
N357 G1X1122.98Y139.55  ;
N358 G1X1150.98Y168.55  ;
N359 G1X1193.95Y168.55  ;
N360 G1X1193.95Y169.05  ;
N361 G1X1196.95Y169.05  ;
N362 G1X1196.95Y174.05  ;
N363 G1X1202.05Y174.05  ;
N364 G1X1202.05Y14.95  ;
N365 G1X1196.95Y14.95  ;
N366 G1X1196.95Y19.95  ;
N367 G1X1193.95Y19.95  ;
N368 G1X1193.95Y20.45  ;
N369 G1X1150.98Y20.45  ;
N370 G1X1122.98Y49.45  ;
N371 G1X1122.45Y49.45  ;
N372 G1X1122.45Y52.55  ;
N373 G1X1122.95Y52.55  ;
N374 G1X1122.95Y79.55  ;
N375 G3X1137.87Y93I0.05J14.95  ;
N376 G65 P9104 A101 B01  ;
N377 M98 P9103  ;
(P9:ID1:W86011517)  ;
N378 M98 P9101  ;
N379 G0X1226.99Y93.98  ;
N380 G65 P9102 A101 B01  ;
N381 G1X1231.93Y93.7  ;
N382 G3X1217Y109.45I-14.93J0.8  ;
N383 G1X1213.98Y109.45  ;
N384 G1X1212.95Y110.48  ;
N385 G1X1212.95Y113.52  ;
N386 G1X1213.98Y114.55  ;
N387 G1X1216.95Y114.55  ;
N388 G1X1216.95Y136.45  ;
N389 G1X1216.45Y136.45  ;
N390 G1X1216.45Y139.55  ;
N391 G1X1216.98Y139.55  ;
N392 G1X1244.98Y168.55  ;
N393 G1X1287.95Y168.55  ;
N394 G1X1287.95Y169.05  ;
N395 G1X1290.95Y169.05  ;
N396 G1X1290.95Y174.05  ;
N397 G1X1296.05Y174.05  ;
N398 G1X1296.05Y14.95  ;
N399 G1X1290.95Y14.95  ;
N400 G1X1290.95Y19.95  ;
N401 G1X1287.95Y19.95  ;
N402 G1X1287.95Y20.45  ;
N403 G1X1244.98Y20.45  ;
N404 G1X1216.98Y49.45  ;
N405 G1X1216.45Y49.45  ;
N406 G1X1216.45Y52.55  ;
N407 G1X1216.95Y52.55  ;
N408 G1X1216.95Y79.55  ;
N409 G3X1231.87Y93I0.05J14.95  ;
N410 G65 P9104 A101 B01  ;
N411 M98 P9103  ;
(P10:ID1:W86011517)  ;
N412 M98 P9101  ;
N413 G0X1320.99Y93.98  ;
N414 G65 P9102 A101 B01  ;
N415 G1X1325.93Y93.7  ;
N416 G3X1311Y109.45I-14.93J0.8  ;
N417 G1X1307.98Y109.45  ;
N418 G1X1306.95Y110.48  ;
N419 G1X1306.95Y113.52  ;
N420 G1X1307.98Y114.55  ;
N421 G1X1310.95Y114.55  ;
N422 G1X1310.95Y136.45  ;
N423 G1X1310.45Y136.45  ;
N424 G1X1310.45Y139.55  ;
N425 G1X1310.98Y139.55  ;
N426 G1X1338.98Y168.55  ;
N427 G1X1381.95Y168.55  ;
N428 G1X1381.95Y169.05  ;
N429 G1X1384.95Y169.05  ;
N430 G1X1384.95Y174.05  ;
N431 G1X1390.05Y174.05  ;
N432 G1X1390.05Y14.95  ;
N433 G1X1384.95Y14.95  ;
N434 G1X1384.95Y19.95  ;
N435 G1X1381.95Y19.95  ;
N436 G1X1381.95Y20.45  ;
N437 G1X1338.98Y20.45  ;
N438 G1X1310.98Y49.45  ;
N439 G1X1310.45Y49.45  ;
N440 G1X1310.45Y52.55  ;
N441 G1X1310.95Y52.55  ;
N442 G1X1310.95Y79.55  ;
N443 G3X1325.87Y93I0.05J14.95  ;
N444 G65 P9104 A101 B01  ;
N445 M98 P9103  ;
(P11:ID1:W86011517)  ;
N446 M98 P9101  ;
N447 G0X1414.99Y93.98  ;
N448 G65 P9102 A101 B01  ;
N449 G1X1419.93Y93.7  ;
N450 G3X1405Y109.45I-14.93J0.8  ;
N451 G1X1401.98Y109.45  ;
N452 G1X1400.95Y110.48  ;
N453 G1X1400.95Y113.52  ;
N454 G1X1401.98Y114.55  ;
N455 G1X1404.95Y114.55  ;
N456 G1X1404.95Y136.45  ;
N457 G1X1404.45Y136.45  ;
N458 G1X1404.45Y139.55  ;
N459 G1X1404.98Y139.55  ;
N460 G1X1432.98Y168.55  ;
N461 G1X1475.95Y168.55  ;
N462 G1X1475.95Y169.05  ;
N463 G1X1478.95Y169.05  ;
N464 G1X1478.95Y174.05  ;
N465 G1X1484.05Y174.05  ;
N466 G1X1484.05Y14.95  ;
N467 G1X1478.95Y14.95  ;
N468 G1X1478.95Y19.95  ;
N469 G1X1475.95Y19.95  ;
N470 G1X1475.95Y20.45  ;
N471 G1X1432.98Y20.45  ;
N472 G1X1404.98Y49.45  ;
N473 G1X1404.45Y49.45  ;
N474 G1X1404.45Y52.55  ;
N475 G1X1404.95Y52.55  ;
N476 G1X1404.95Y79.55  ;
N477 G3X1419.87Y93I0.05J14.95  ;
N478 G65 P9104 A101 B01  ;
N479 M98 P9103  ;
(P12:ID2:W86011507)  ;
N480 M98 P9101  ;
N481 G0X9Y743.05  ;
N482 G65 P9102 A101 B01  ;
N483 G1X12Y743.05  ;
N484 G1X52.05Y743.05  ;
N485 G1X52.05Y739.05  ;
N486 G1X72.02Y739.05  ;
N487 G1X107.05Y704.02  ;
N488 G1X107.05Y653.95  ;
N489 G1X102.05Y653.95  ;
N490 G1X102.05Y648.05  ;
N491 G1X113.08Y648.05  ;
N492 G1X113.08Y652.55  ;
N493 G1X172.08Y652.55  ;
N494 G1X172.08Y654.05  ;
N495 G1X178.18Y654.05  ;
N496 G1X178.18Y11.95  ;
N497 G1X11.95Y11.95  ;
N498 G1X11.95Y743  ;
N499 G65 P9104 A101 B01  ;
N500 M98 P9103  ;
(P13:ID2:W86011507)  ;
N501 M98 P9101  ;
N502 G0X183.13Y702.95  ;
N503 G65 P9102 A101 B01  ;
N504 G1X180.13Y702.95  ;
N505 G1X140.08Y702.95  ;
N506 G1X140.08Y706.95  ;
N507 G1X120.11Y706.95  ;
N508 G1X85.08Y741.98  ;
N509 G1X85.08Y792.05  ;
N510 G1X90.08Y792.05  ;
N511 G1X90.08Y797.95  ;
N512 G1X79.05Y797.95  ;
N513 G1X79.05Y793.45  ;
N514 G1X20.05Y793.45  ;
N515 G1X20.05Y791.95  ;
N516 G1X13.95Y791.95  ;
N517 G1X13.95Y1434.05  ;
N518 G1X180.18Y1434.05  ;
N519 G1X180.18Y703  ;
N520 G65 P9104 A102 B04  ;
N521 M98 P9103  ;
(P14:ID3:W86011503)  ;
N522 M98 P9101  ;
N523 G0X1367.62Y400.74  ;
N524 G65 P9102 A102 B04  ;
N525 G1X1379.62Y407.67  ;
N526 G1X1379.62Y421.53  ;
N527 G1X1367.62Y428.46  ;
N528 G1X1355.62Y421.53  ;
N529 G1X1355.62Y407.67  ;
N530 G1X1367.62Y400.74  ;
N531 G65 P9104 A102 B04  ;
N532 G0X1319.62Y407.67  ;
N533 G65 P9102 A102 B04  ;
N534 G1X1319.62Y421.53  ;
N535 G1X1307.62Y428.46  ;
N536 G1X1295.62Y421.53  ;
N537 G1X1295.62Y407.67  ;
N538 G1X1307.62Y400.74  ;
N539 G1X1319.62Y407.67  ;
N540 G65 P9104 A102 B04  ;
N541 G0X1189.5Y329.51  ;
N542 G65 P9102 A102 B04  ;
N543 G1X1181Y334.41  ;
N544 G1X1172.5Y329.51  ;
N545 G1X1172.5Y319.69  ;
N546 G1X1181Y314.79  ;
N547 G1X1189.5Y319.69  ;
N548 G1X1189.5Y329.51  ;
N549 G65 P9104 A102 B04  ;
N550 G0X1307.62Y575.74  ;
N551 G65 P9102 A102 B04  ;
N552 G1X1319.62Y582.67  ;
N553 G1X1319.62Y596.53  ;
N554 G1X1307.62Y603.46  ;
N555 G1X1295.62Y596.53  ;
N556 G1X1295.62Y582.67  ;
N557 G1X1307.62Y575.74  ;
N558 G65 P9104 A102 B04  ;
N559 G0X1355.62Y582.67  ;
N560 G65 P9102 A102 B04  ;
N561 G1X1367.62Y575.74  ;
N562 G1X1379.62Y582.67  ;
N563 G1X1379.62Y596.53  ;
N564 G1X1367.62Y603.46  ;
N565 G1X1355.62Y596.53  ;
N566 G1X1355.62Y582.67  ;
N567 G65 P9104 A102 B04  ;
N568 G0X1189.5Y692.69  ;
N569 G65 P9102 A102 B04  ;
N570 G1X1189.5Y702.51  ;
N571 G1X1181Y707.41  ;
N572 G1X1172.5Y702.51  ;
N573 G1X1172.5Y692.69  ;
N574 G1X1181Y687.79  ;
N575 G1X1189.5Y692.69  ;
N576 G65 P9104 A102 B04  ;
N577 G0X1320.37Y1064.48  ;
N578 G65 P9102 A102 B04  ;
N579 G1X1319.35Y1065.5  ;
N580 G1X1329.35Y1065.5  ;
N581 G65 P9104 A102 B04  ;
N582 G0X1329.35Y1064.48  ;
N583 G65 P9102 A102 B04  ;
N584 G1X1329.35Y1066.53  ;
N585 G65 P9104 A102 B04  ;
N586 G0X1329.35Y1067.42  ;
N587 G65 P9102 A102 B04  ;
N588 G1X1329.35Y1073.13  ;
N589 G1X1327.92Y1074.56  ;
N590 G1X1326.49Y1074.56  ;
N591 G1X1325.06Y1073.13  ;
N592 G1X1325.06Y1067.42  ;
N593 G1X1319.35Y1067.42  ;
N594 G1X1319.35Y1074.56  ;
N595 G65 P9104 A102 B04  ;
N596 G0X1319.35Y1081.17  ;
N597 G65 P9102 A102 B04  ;
N598 G1X1329.35Y1076.88  ;
N599 G65 P9104 A102 B04  ;
N600 G0X1329.35Y1076.88  ;
N601 G65 P9102 A102 B04  ;
N602 G1X1327.92Y1075.45  ;
N603 G1X1320.77Y1075.45  ;
N604 G1X1319.35Y1076.88  ;
N605 G1X1319.35Y1081.17  ;
N606 G1X1320.77Y1082.6  ;
N607 G1X1327.92Y1082.6  ;
N608 G1X1329.35Y1081.17  ;
N609 G1X1329.35Y1076.88  ;
N610 G65 P9104 A102 B04  ;
N611 G0X1327.92Y1083.49  ;
N612 G65 P9102 A102 B04  ;
N613 G1X1329.35Y1084.92  ;
N614 G1X1329.35Y1089.2  ;
N615 G1X1327.92Y1090.63  ;
N616 G1X1326.49Y1090.63  ;
N617 G1X1325.06Y1089.2  ;
N618 G1X1323.63Y1090.63  ;
N619 G1X1320.77Y1090.63  ;
N620 G1X1319.35Y1089.2  ;
N621 G1X1319.35Y1084.92  ;
N622 G1X1320.77Y1083.49  ;
N623 G65 P9104 A102 B04  ;
N624 G0X1325.06Y1084.92  ;
N625 G65 P9102 A102 B04  ;
N626 G1X1325.06Y1089.2  ;
N627 G65 P9104 A102 B04  ;
N628 G0X1189.5Y1102.69  ;
N629 G65 P9102 A102 B04  ;
N630 G1X1189.5Y1112.51  ;
N631 G1X1181Y1117.41  ;
N632 G1X1172.5Y1112.51  ;
N633 G1X1172.5Y1102.69  ;
N634 G1X1181Y1097.79  ;
N635 G1X1189.5Y1102.69  ;
N636 G65 P9104 A102 B04  ;
N637 G0X1181Y1281.79  ;
N638 G65 P9102 A102 B04  ;
N639 G1X1189.5Y1286.69  ;
N640 G1X1189.5Y1296.51  ;
N641 G1X1181Y1301.41  ;
N642 G1X1172.5Y1296.51  ;
N643 G1X1172.5Y1286.69  ;
N644 G1X1181Y1281.79  ;
N645 G65 P9104 A102 B04  ;
N646 G0X1307.62Y1795.74  ;
N647 G65 P9102 A102 B04  ;
N648 G1X1319.62Y1802.67  ;
N649 G1X1319.62Y1816.53  ;
N650 G1X1307.62Y1823.46  ;
N651 G1X1295.62Y1816.53  ;
N652 G1X1295.62Y1802.67  ;
N653 G1X1307.62Y1795.74  ;
N654 G65 P9104 A102 B04  ;
N655 G0X1355.62Y1802.67  ;
N656 G65 P9102 A102 B04  ;
N657 G1X1367.62Y1795.74  ;
N658 G1X1379.62Y1802.67  ;
N659 G1X1379.62Y1816.53  ;
N660 G1X1367.62Y1823.46  ;
N661 G1X1355.62Y1816.53  ;
N662 G1X1355.62Y1802.67  ;
N663 G65 P9104 A102 B04  ;
N664 G0X1307.62Y1970.74  ;
N665 G65 P9102 A102 B04  ;
N666 G1X1319.62Y1977.67  ;
N667 G1X1319.62Y1991.53  ;
N668 G1X1307.62Y1998.46  ;
N669 G1X1295.62Y1991.53  ;
N670 G1X1295.62Y1977.67  ;
N671 G1X1307.62Y1970.74  ;
N672 G65 P9104 A102 B04  ;
N673 G0X1355.62Y1977.67  ;
N674 G65 P9102 A102 B04  ;
N675 G1X1367.62Y1970.74  ;
N676 G1X1379.62Y1977.67  ;
N677 G1X1379.62Y1991.53  ;
N678 G1X1367.62Y1998.46  ;
N679 G1X1355.62Y1991.53  ;
N680 G1X1355.62Y1977.67  ;
N681 G65 P9104 A102 B04  ;
N682 G0X1189.5Y2069.69  ;
N683 G65 P9102 A102 B04  ;
N684 G1X1189.5Y2079.51  ;
N685 G1X1181Y2084.41  ;
N686 G1X1172.5Y2079.51  ;
N687 G1X1172.5Y2069.69  ;
N688 G1X1181Y2064.79  ;
N689 G1X1189.5Y2069.69  ;
N690 G65 P9104 A101 B02  ;
N691 G0X1178.67Y2076.86  ;
N692 G65 P9102 A101 B02  ;
N693 G1X1176.58Y2078.95  ;
N694 G3X1176.62Y2078.98I4.42J-4.35  ;
N695 G65 P9104 A101 B02  ;
N696 G0X1226.14Y2102.39  ;
N697 G65 P9102 A101 B02  ;
N698 G1X1224.05Y2104.48  ;
N699 G3X1224.09Y2104.51I4.95J-4.88  ;
N700 G65 P9104 A101 B02  ;
N701 G0X1308.12Y2126.65  ;
N702 G65 P9102 A101 B02  ;
N703 G1X1305.12Y2126.65  ;
N704 G2X1304.17Y2127.6I0J0.95  ;
N705 G1X1304.17Y2130.55  ;
N706 G1X1346.07Y2130.55  ;
N707 G1X1346.07Y2124.65  ;
N708 G1X1304.17Y2124.65  ;
N709 G1X1304.17Y2127.6  ;
N710 G65 P9104 A101 B02  ;
N711 G0X1441.97Y2185.31  ;
N712 G65 P9102 A101 B02  ;
N713 G1X1439.88Y2187.39  ;
N714 G3X1439.92Y2187.43I6.36J-6.29  ;
N715 G65 P9104 A101 B02  ;
N716 G0X1363.03Y1989.13  ;
N717 G65 P9102 A101 B02  ;
N718 G1X1360.94Y1991.21  ;
N719 G3X1360.98Y1991.25I6.68J-6.61  ;
N720 G65 P9104 A101 B02  ;
N721 G0X1303.03Y1989.13  ;
N722 G65 P9102 A101 B02  ;
N723 G1X1300.94Y1991.21  ;
N724 G3X1300.98Y1991.25I6.68J-6.61  ;
N725 G65 P9104 A101 B02  ;
N726 G0X1303.03Y1814.13  ;
N727 G65 P9102 A101 B02  ;
N728 G1X1300.94Y1816.21  ;
N729 G3X1300.98Y1816.25I6.68J-6.61  ;
N730 G65 P9104 A101 B02  ;
N731 G0X1363.03Y1814.13  ;
N732 G65 P9102 A101 B02  ;
N733 G1X1360.94Y1816.21  ;
N734 G3X1360.98Y1816.25I6.68J-6.61  ;
N735 G65 P9104 A101 B02  ;
N736 G0X1178.49Y1704.04  ;
N737 G65 P9102 A101 B02  ;
N738 G1X1176.4Y1706.13  ;
N739 G3X1176.44Y1706.16I4.6J-4.53  ;
N740 G65 P9104 A101 B02  ;
N741 G0X1226.14Y1652.39  ;
N742 G65 P9102 A101 B02  ;
N743 G1X1224.05Y1654.48  ;
N744 G3X1224.09Y1654.51I4.95J-4.88  ;
N745 G65 P9104 A101 B02  ;
N746 G0X1181.48Y1461.05  ;
N747 G65 P9102 A101 B02  ;
N748 G1X1179.39Y1463.14  ;
N749 G3X1179.43Y1463.17I3.61J-3.54  ;
N750 G65 P9104 A101 B02  ;
N751 G0X1178.67Y1293.86  ;
N752 G65 P9102 A101 B02  ;
N753 G1X1176.58Y1295.95  ;
N754 G3X1176.62Y1295.98I4.42J-4.35  ;
N755 G65 P9104 A101 B02  ;
N756 G0X1226.14Y1202.39  ;
N757 G65 P9102 A101 B02  ;
N758 G1X1224.05Y1204.48  ;
N759 G3X1224.09Y1204.51I4.95J-4.88  ;
N760 G65 P9104 A101 B02  ;
N761 G0X1308.12Y1238.65  ;
N762 G65 P9102 A101 B02  ;
N763 G1X1305.12Y1238.65  ;
N764 G2X1304.17Y1239.6I0J0.95  ;
N765 G1X1304.17Y1242.55  ;
N766 G1X1346.07Y1242.55  ;
N767 G1X1346.07Y1236.65  ;
N768 G1X1304.17Y1236.65  ;
N769 G1X1304.17Y1239.6  ;
N770 G65 P9104 A101 B02  ;
N771 G0X1178.67Y1109.86  ;
N772 G65 P9102 A101 B02  ;
N773 G1X1176.58Y1111.95  ;
N774 G3X1176.62Y1111.98I4.42J-4.35  ;
N775 G65 P9104 A101 B02  ;
N776 G0X1181.48Y941.05  ;
N777 G65 P9102 A101 B02  ;
N778 G1X1179.39Y943.14  ;
N779 G3X1179.43Y943.17I3.61J-3.54  ;
N780 G65 P9104 A101 B02  ;
N781 G0X1226.14Y752.39  ;
N782 G65 P9102 A101 B02  ;
N783 G1X1224.05Y754.48  ;
N784 G3X1224.09Y754.51I4.95J-4.88  ;
N785 G65 P9104 A101 B02  ;
N786 G0X1178.67Y699.86  ;
N787 G65 P9102 A101 B02  ;
N788 G1X1176.58Y701.95  ;
N789 G3X1176.62Y701.98I4.42J-4.35  ;
N790 G65 P9104 A101 B02  ;
N791 G0X1308.12Y644.15  ;
N792 G65 P9102 A101 B02  ;
N793 G1X1305.12Y644.15  ;
N794 G2X1304.17Y645.1I0J0.95  ;
N795 G1X1304.17Y648.05  ;
N796 G1X1346.07Y648.05  ;
N797 G1X1346.07Y642.15  ;
N798 G1X1304.17Y642.15  ;
N799 G1X1304.17Y645.1  ;
N800 G65 P9104 A101 B02  ;
N801 G0X1303.03Y594.13  ;
N802 G65 P9102 A101 B02  ;
N803 G1X1300.94Y596.21  ;
N804 G3X1300.98Y596.25I6.68J-6.61  ;
N805 G65 P9104 A101 B02  ;
N806 G0X1363.03Y594.13  ;
N807 G65 P9102 A101 B02  ;
N808 G1X1360.94Y596.21  ;
N809 G3X1360.98Y596.25I6.68J-6.61  ;
N810 G65 P9104 A101 B02  ;
N811 G0X1363.03Y419.13  ;
N812 G65 P9102 A101 B02  ;
N813 G1X1360.94Y421.21  ;
N814 G3X1360.98Y421.25I6.68J-6.61  ;
N815 G65 P9104 A101 B02  ;
N816 G0X1303.03Y419.13  ;
N817 G65 P9102 A101 B02  ;
N818 G1X1300.94Y421.21  ;
N819 G3X1300.98Y421.25I6.68J-6.61  ;
N820 G65 P9104 A101 B02  ;
N821 G0X1178.67Y326.86  ;
N822 G65 P9102 A101 B02  ;
N823 G1X1176.58Y328.95  ;
N824 G3X1176.62Y328.98I4.42J-4.35  ;
N825 G65 P9104 A101 B02  ;
N826 G0X1226.14Y302.39  ;
N827 G65 P9102 A101 B02  ;
N828 G1X1224.05Y304.48  ;
N829 G3X1224.09Y304.51I4.95J-4.88  ;
N830 G65 P9104 A101 B02  ;
N831 G0X1308.12Y269.65  ;
N832 G65 P9102 A101 B02  ;
N833 G1X1305.12Y269.65  ;
N834 G2X1304.17Y270.6I0J0.95  ;
N835 G1X1304.17Y273.55  ;
N836 G1X1346.07Y273.55  ;
N837 G1X1346.07Y267.65  ;
N838 G1X1304.17Y267.65  ;
N839 G1X1304.17Y270.6  ;
N840 G65 P9104 A101 B02  ;
N841 G0X1441.97Y222.31  ;
N842 G65 P9102 A101 B02  ;
N843 G1X1439.88Y224.39  ;
N844 G3X1439.92Y224.43I6.36J-6.29  ;
N845 G65 P9104 A101 B01  ;
N846 G0X1489.24Y188.05  ;
N847 G65 P9102 A101 B01  ;
N848 G1X1486.24Y188.05  ;
N849 G1X1163.95Y188.05  ;
N850 G1X1163.95Y2210.15  ;
N851 G1X1486.29Y2210.15  ;
N852 G1X1486.29Y188.1  ;
N853 G65 P9104 A102 B04  ;
N854 M98 P9103  ;
(P15:ID4:W86011501)  ;
N855 M98 P9101  ;
N856 G0X1045.62Y356.67  ;
N857 G65 P9102 A102 B04  ;
N858 G1X1045.62Y370.53  ;
N859 G1X1033.62Y377.46  ;
N860 G1X1021.62Y370.53  ;
N861 G1X1021.62Y356.67  ;
N862 G1X1033.62Y349.74  ;
N863 G1X1045.62Y356.67  ;
N864 G65 P9104 A102 B04  ;
N865 G0X985.62Y356.67  ;
N866 G65 P9102 A102 B04  ;
N867 G1X985.62Y370.53  ;
N868 G1X973.62Y377.46  ;
N869 G1X961.62Y370.53  ;
N870 G1X961.62Y356.67  ;
N871 G1X973.62Y349.74  ;
N872 G1X985.62Y356.67  ;
N873 G65 P9104 A102 B04  ;
N874 G0X855.5Y328.51  ;
N875 G65 P9102 A102 B04  ;
N876 G1X847Y333.41  ;
N877 G1X838.5Y328.51  ;
N878 G1X838.5Y318.69  ;
N879 G1X847Y313.79  ;
N880 G1X855.5Y318.69  ;
N881 G1X855.5Y328.51  ;
N882 G65 P9104 A102 B04  ;
N883 G0X973.62Y524.74  ;
N884 G65 P9102 A102 B04  ;
N885 G1X985.62Y531.67  ;
N886 G1X985.62Y545.53  ;
N887 G1X973.62Y552.46  ;
N888 G1X961.62Y545.53  ;
N889 G1X961.62Y531.67  ;
N890 G1X973.62Y524.74  ;
N891 G65 P9104 A102 B04  ;
N892 G0X1021.62Y531.67  ;
N893 G65 P9102 A102 B04  ;
N894 G1X1033.62Y524.74  ;
N895 G1X1045.62Y531.67  ;
N896 G1X1045.62Y545.53  ;
N897 G1X1033.62Y552.46  ;
N898 G1X1021.62Y545.53  ;
N899 G1X1021.62Y531.67  ;
N900 G65 P9104 A102 B04  ;
N901 G0X991.12Y777.24  ;
N902 G65 P9102 A102 B04  ;
N903 G1X1003.12Y784.17  ;
N904 G1X1003.12Y798.03  ;
N905 G1X991.12Y804.96  ;
N906 G1X979.12Y798.03  ;
N907 G1X979.12Y784.17  ;
N908 G1X991.12Y777.24  ;
N909 G65 P9104 A102 B04  ;
N910 G0X847Y1096.79  ;
N911 G65 P9102 A102 B04  ;
N912 G1X855.5Y1101.69  ;
N913 G1X855.5Y1111.51  ;
N914 G1X847Y1116.41  ;
N915 G1X838.5Y1111.51  ;
N916 G1X838.5Y1101.69  ;
N917 G1X847Y1096.79  ;
N918 G65 P9104 A102 B04  ;
N919 G0X847Y1280.79  ;
N920 G65 P9102 A102 B04  ;
N921 G1X855.5Y1285.69  ;
N922 G1X855.5Y1295.51  ;
N923 G1X847Y1300.41  ;
N924 G1X838.5Y1295.51  ;
N925 G1X838.5Y1285.69  ;
N926 G1X847Y1280.79  ;
N927 G65 P9104 A102 B04  ;
N928 G0X991.12Y1592.24  ;
N929 G65 P9102 A102 B04  ;
N930 G1X1003.12Y1599.17  ;
N931 G1X1003.12Y1613.03  ;
N932 G1X991.12Y1619.96  ;
N933 G1X979.12Y1613.03  ;
N934 G1X979.12Y1599.17  ;
N935 G1X991.12Y1592.24  ;
N936 G65 P9104 A102 B04  ;
N937 G0X1033.62Y1844.74  ;
N938 G65 P9102 A102 B04  ;
N939 G1X1045.62Y1851.67  ;
N940 G1X1045.62Y1865.53  ;
N941 G1X1033.62Y1872.46  ;
N942 G1X1021.62Y1865.53  ;
N943 G1X1021.62Y1851.67  ;
N944 G1X1033.62Y1844.74  ;
N945 G65 P9104 A102 B04  ;
N946 G0X985.62Y1851.67  ;
N947 G65 P9102 A102 B04  ;
N948 G1X985.62Y1865.53  ;
N949 G1X973.62Y1872.46  ;
N950 G1X961.62Y1865.53  ;
N951 G1X961.62Y1851.67  ;
N952 G1X973.62Y1844.74  ;
N953 G1X985.62Y1851.67  ;
N954 G65 P9104 A102 B04  ;
N955 G0X973.62Y2019.74  ;
N956 G65 P9102 A102 B04  ;
N957 G1X985.62Y2026.67  ;
N958 G1X985.62Y2040.53  ;
N959 G1X973.62Y2047.46  ;
N960 G1X961.62Y2040.53  ;
N961 G1X961.62Y2026.67  ;
N962 G1X973.62Y2019.74  ;
N963 G65 P9104 A102 B04  ;
N964 G0X1021.62Y2026.67  ;
N965 G65 P9102 A102 B04  ;
N966 G1X1033.62Y2019.74  ;
N967 G1X1045.62Y2026.67  ;
N968 G1X1045.62Y2040.53  ;
N969 G1X1033.62Y2047.46  ;
N970 G1X1021.62Y2040.53  ;
N971 G1X1021.62Y2026.67  ;
N972 G65 P9104 A102 B04  ;
N973 G0X855.5Y2068.69  ;
N974 G65 P9102 A102 B04  ;
N975 G1X855.5Y2078.51  ;
N976 G1X847Y2083.41  ;
N977 G1X838.5Y2078.51  ;
N978 G1X838.5Y2068.69  ;
N979 G1X847Y2063.79  ;
N980 G1X855.5Y2068.69  ;
N981 G65 P9104 A101 B02  ;
N982 G0X844.67Y2075.86  ;
N983 G65 P9102 A101 B02  ;
N984 G1X842.58Y2077.95  ;
N985 G3X842.62Y2077.98I4.42J-4.35  ;
N986 G65 P9104 A101 B02  ;
N987 G0X892.14Y2101.39  ;
N988 G65 P9102 A101 B02  ;
N989 G1X890.05Y2103.48  ;
N990 G3X890.09Y2103.51I4.95J-4.88  ;
N991 G65 P9104 A101 B02  ;
N992 G0X974.12Y2126.65  ;
N993 G65 P9102 A101 B02  ;
N994 G1X971.12Y2126.65  ;
N995 G2X970.17Y2127.6I0J0.95  ;
N996 G1X970.17Y2130.55  ;
N997 G1X1012.07Y2130.55  ;
N998 G1X1012.07Y2124.65  ;
N999 G1X970.17Y2124.65  ;
N1000 G1X970.17Y2127.6  ;
N1001 G65 P9104 A101 B02  ;
N1002 G0X969.03Y2038.13  ;
N1003 G65 P9102 A101 B02  ;
N1004 G1X966.94Y2040.21  ;
N1005 G3X966.98Y2040.25I6.68J-6.61  ;
N1006 G65 P9104 A101 B02  ;
N1007 G0X1029.03Y2038.13  ;
N1008 G65 P9102 A101 B02  ;
N1009 G1X1026.94Y2040.21  ;
N1010 G3X1026.98Y2040.25I6.68J-6.61  ;
N1011 G65 P9104 A101 B02  ;
N1012 G0X1107.97Y2184.31  ;
N1013 G65 P9102 A101 B02  ;
N1014 G1X1105.88Y2186.39  ;
N1015 G3X1105.92Y2186.43I6.37J-6.29  ;
N1016 G65 P9104 A101 B02  ;
N1017 G0X847.48Y1975.05  ;
N1018 G65 P9102 A101 B02  ;
N1019 G1X845.39Y1977.14  ;
N1020 G3X845.43Y1977.17I3.61J-3.54  ;
N1021 G65 P9104 A101 B02  ;
N1022 G0X969.03Y1863.13  ;
N1023 G65 P9102 A101 B02  ;
N1024 G1X966.94Y1865.21  ;
N1025 G3X966.98Y1865.25I6.68J-6.61  ;
N1026 G65 P9104 A101 B02  ;
N1027 G0X1029.03Y1863.13  ;
N1028 G65 P9102 A101 B02  ;
N1029 G1X1026.94Y1865.21  ;
N1030 G3X1026.98Y1865.25I6.68J-6.61  ;
N1031 G65 P9104 A101 B02  ;
N1032 G0X974.12Y1752.15  ;
N1033 G65 P9102 A101 B02  ;
N1034 G1X971.12Y1752.15  ;
N1035 G2X970.17Y1753.1I0J0.95  ;
N1036 G1X970.17Y1756.05  ;
N1037 G1X1012.07Y1756.05  ;
N1038 G1X1012.07Y1750.15  ;
N1039 G1X970.17Y1750.15  ;
N1040 G1X970.17Y1753.1  ;
N1041 G65 P9104 A101 B02  ;
N1042 G0X892.14Y1651.39  ;
N1043 G65 P9102 A101 B02  ;
N1044 G1X890.05Y1653.48  ;
N1045 G3X890.09Y1653.51I4.95J-4.88  ;
N1046 G65 P9104 A101 B02  ;
N1047 G0X986.53Y1610.63  ;
N1048 G65 P9102 A101 B02  ;
N1049 G1X984.44Y1612.71  ;
N1050 G3X984.48Y1612.75I6.68J-6.61  ;
N1051 G65 P9104 A101 B02  ;
N1052 G0X844.67Y1292.86  ;
N1053 G65 P9102 A101 B02  ;
N1054 G1X842.58Y1294.95  ;
N1055 G3X842.62Y1294.98I4.42J-4.35  ;
N1056 G65 P9104 A101 B02  ;
N1057 G0X892.14Y1201.39  ;
N1058 G65 P9102 A101 B02  ;
N1059 G1X890.05Y1203.48  ;
N1060 G3X890.09Y1203.51I4.95J-4.88  ;
N1061 G65 P9104 A101 B02  ;
N1062 G0X974.12Y1163.15  ;
N1063 G65 P9102 A101 B02  ;
N1064 G1X971.12Y1163.15  ;
N1065 G2X970.17Y1164.1I0J0.95  ;
N1066 G1X970.17Y1167.05  ;
N1067 G1X1012.07Y1167.05  ;
N1068 G1X1012.07Y1161.15  ;
N1069 G1X970.17Y1161.15  ;
N1070 G1X970.17Y1164.1  ;
N1071 G65 P9104 A101 B02  ;
N1072 G0X844.67Y1108.86  ;
N1073 G65 P9102 A101 B02  ;
N1074 G1X842.58Y1110.95  ;
N1075 G3X842.62Y1110.98I4.42J-4.35  ;
N1076 G65 P9104 A101 B02  ;
N1077 G0X986.53Y795.63  ;
N1078 G65 P9102 A101 B02  ;
N1079 G1X984.44Y797.71  ;
N1080 G3X984.48Y797.75I6.68J-6.61  ;
N1081 G65 P9104 A101 B02  ;
N1082 G0X892.14Y751.39  ;
N1083 G65 P9102 A101 B02  ;
N1084 G1X890.05Y753.48  ;
N1085 G3X890.09Y753.51I4.95J-4.88  ;
N1086 G65 P9104 A101 B02  ;
N1087 G0X974.12Y600.15  ;
N1088 G65 P9102 A101 B02  ;
N1089 G1X971.12Y600.15  ;
N1090 G2X970.17Y601.1I0J0.95  ;
N1091 G1X970.17Y604.05  ;
N1092 G1X1012.07Y604.05  ;
N1093 G1X1012.07Y598.15  ;
N1094 G1X970.17Y598.15  ;
N1095 G1X970.17Y601.1  ;
N1096 G65 P9104 A101 B02  ;
N1097 G0X969.03Y543.13  ;
N1098 G65 P9102 A101 B02  ;
N1099 G1X966.94Y545.21  ;
N1100 G3X966.98Y545.25I6.68J-6.61  ;
N1101 G65 P9104 A101 B02  ;
N1102 G0X1029.03Y543.13  ;
N1103 G65 P9102 A101 B02  ;
N1104 G1X1026.94Y545.21  ;
N1105 G3X1026.98Y545.25I6.68J-6.61  ;
N1106 G65 P9104 A101 B02  ;
N1107 G0X847.48Y425.05  ;
N1108 G65 P9102 A101 B02  ;
N1109 G1X845.39Y427.14  ;
N1110 G3X845.43Y427.17I3.61J-3.54  ;
N1111 G65 P9104 A101 B02  ;
N1112 G0X844.67Y325.86  ;
N1113 G65 P9102 A101 B02  ;
N1114 G1X842.58Y327.95  ;
N1115 G3X842.62Y327.98I4.42J-4.35  ;
N1116 G65 P9104 A101 B02  ;
N1117 G0X892.14Y301.39  ;
N1118 G65 P9102 A101 B02  ;
N1119 G1X890.05Y303.48  ;
N1120 G3X890.09Y303.51I4.95J-4.88  ;
N1121 G65 P9104 A101 B02  ;
N1122 G0X969.03Y368.13  ;
N1123 G65 P9102 A101 B02  ;
N1124 G1X966.94Y370.21  ;
N1125 G3X966.98Y370.25I6.68J-6.61  ;
N1126 G65 P9104 A101 B02  ;
N1127 G0X1029.03Y368.13  ;
N1128 G65 P9102 A101 B02  ;
N1129 G1X1026.94Y370.21  ;
N1130 G3X1026.98Y370.25I6.68J-6.61  ;
N1131 G65 P9104 A101 B02  ;
N1132 G0X974.12Y269.65  ;
N1133 G65 P9102 A101 B02  ;
N1134 G1X971.12Y269.65  ;
N1135 G2X970.17Y270.6I0J0.95  ;
N1136 G1X970.17Y273.55  ;
N1137 G1X1012.07Y273.55  ;
N1138 G1X1012.07Y267.65  ;
N1139 G1X970.17Y267.65  ;
N1140 G1X970.17Y270.6  ;
N1141 G65 P9104 A101 B02  ;
N1142 G0X1107.97Y221.31  ;
N1143 G65 P9102 A101 B02  ;
N1144 G1X1105.88Y223.39  ;
N1145 G3X1105.92Y223.43I6.37J-6.29  ;
N1146 G65 P9104 A101 B01  ;
N1147 G0X1155.25Y188.05  ;
N1148 G65 P9102 A101 B01  ;
N1149 G1X1152.25Y188.05  ;
N1150 G1X829.95Y188.05  ;
N1151 G1X829.95Y311.6  ;
N1152 G1X835.15Y311.6  ;
N1153 G1X835.15Y316.7  ;
N1154 G1X829.95Y316.7  ;
N1155 G1X829.95Y2210.15  ;
N1156 G1X1152.3Y2210.15  ;
N1157 G1X1152.3Y316.7  ;
N1158 G1X1147.1Y316.7  ;
N1159 G1X1147.1Y311.6  ;
N1160 G1X1152.3Y311.6  ;
N1161 G1X1152.3Y188.1  ;
N1162 G65 P9104 A102 B04  ;
N1163 M98 P9103  ;
(P16:ID4:W86011501)  ;
N1164 M98 P9101  ;
N1165 G0X711.62Y356.67  ;
N1166 G65 P9102 A102 B04  ;
N1167 G1X711.62Y370.53  ;
N1168 G1X699.62Y377.46  ;
N1169 G1X687.62Y370.53  ;
N1170 G1X687.62Y356.67  ;
N1171 G1X699.62Y349.74  ;
N1172 G1X711.62Y356.67  ;
N1173 G65 P9104 A102 B04  ;
N1174 G0X651.62Y356.67  ;
N1175 G65 P9102 A102 B04  ;
N1176 G1X651.62Y370.53  ;
N1177 G1X639.62Y377.46  ;
N1178 G1X627.62Y370.53  ;
N1179 G1X627.62Y356.67  ;
N1180 G1X639.62Y349.74  ;
N1181 G1X651.62Y356.67  ;
N1182 G65 P9104 A102 B04  ;
N1183 G0X521.5Y328.51  ;
N1184 G65 P9102 A102 B04  ;
N1185 G1X513Y333.41  ;
N1186 G1X504.5Y328.51  ;
N1187 G1X504.5Y318.69  ;
N1188 G1X513Y313.79  ;
N1189 G1X521.5Y318.69  ;
N1190 G1X521.5Y328.51  ;
N1191 G65 P9104 A102 B04  ;
N1192 G0X639.62Y524.74  ;
N1193 G65 P9102 A102 B04  ;
N1194 G1X651.62Y531.67  ;
N1195 G1X651.62Y545.53  ;
N1196 G1X639.62Y552.46  ;
N1197 G1X627.62Y545.53  ;
N1198 G1X627.62Y531.67  ;
N1199 G1X639.62Y524.74  ;
N1200 G65 P9104 A102 B04  ;
N1201 G0X687.62Y531.67  ;
N1202 G65 P9102 A102 B04  ;
N1203 G1X699.62Y524.74  ;
N1204 G1X711.62Y531.67  ;
N1205 G1X711.62Y545.53  ;
N1206 G1X699.62Y552.46  ;
N1207 G1X687.62Y545.53  ;
N1208 G1X687.62Y531.67  ;
N1209 G65 P9104 A102 B04  ;
N1210 G0X657.12Y777.24  ;
N1211 G65 P9102 A102 B04  ;
N1212 G1X669.12Y784.17  ;
N1213 G1X669.12Y798.03  ;
N1214 G1X657.12Y804.96  ;
N1215 G1X645.12Y798.03  ;
N1216 G1X645.12Y784.17  ;
N1217 G1X657.12Y777.24  ;
N1218 G65 P9104 A102 B04  ;
N1219 G0X513Y1096.79  ;
N1220 G65 P9102 A102 B04  ;
N1221 G1X521.5Y1101.69  ;
N1222 G1X521.5Y1111.51  ;
N1223 G1X513Y1116.41  ;
N1224 G1X504.5Y1111.51  ;
N1225 G1X504.5Y1101.69  ;
N1226 G1X513Y1096.79  ;
N1227 G65 P9104 A102 B04  ;
N1228 G0X513Y1280.79  ;
N1229 G65 P9102 A102 B04  ;
N1230 G1X521.5Y1285.69  ;
N1231 G1X521.5Y1295.51  ;
N1232 G1X513Y1300.41  ;
N1233 G1X504.5Y1295.51  ;
N1234 G1X504.5Y1285.69  ;
N1235 G1X513Y1280.79  ;
N1236 G65 P9104 A102 B04  ;
N1237 G0X657.12Y1592.24  ;
N1238 G65 P9102 A102 B04  ;
N1239 G1X669.12Y1599.17  ;
N1240 G1X669.12Y1613.03  ;
N1241 G1X657.12Y1619.96  ;
N1242 G1X645.12Y1613.03  ;
N1243 G1X645.12Y1599.17  ;
N1244 G1X657.12Y1592.24  ;
N1245 G65 P9104 A102 B04  ;
N1246 G0X699.62Y1844.74  ;
N1247 G65 P9102 A102 B04  ;
N1248 G1X711.62Y1851.67  ;
N1249 G1X711.62Y1865.53  ;
N1250 G1X699.62Y1872.46  ;
N1251 G1X687.62Y1865.53  ;
N1252 G1X687.62Y1851.67  ;
N1253 G1X699.62Y1844.74  ;
N1254 G65 P9104 A102 B04  ;
N1255 G0X651.62Y1851.67  ;
N1256 G65 P9102 A102 B04  ;
N1257 G1X651.62Y1865.53  ;
N1258 G1X639.62Y1872.46  ;
N1259 G1X627.62Y1865.53  ;
N1260 G1X627.62Y1851.67  ;
N1261 G1X639.62Y1844.74  ;
N1262 G1X651.62Y1851.67  ;
N1263 G65 P9104 A102 B04  ;
N1264 G0X639.62Y2019.74  ;
N1265 G65 P9102 A102 B04  ;
N1266 G1X651.62Y2026.67  ;
N1267 G1X651.62Y2040.53  ;
N1268 G1X639.62Y2047.46  ;
N1269 G1X627.62Y2040.53  ;
N1270 G1X627.62Y2026.67  ;
N1271 G1X639.62Y2019.74  ;
N1272 G65 P9104 A102 B04  ;
N1273 G0X687.62Y2026.67  ;
N1274 G65 P9102 A102 B04  ;
N1275 G1X699.62Y2019.74  ;
N1276 G1X711.62Y2026.67  ;
N1277 G1X711.62Y2040.53  ;
N1278 G1X699.62Y2047.46  ;
N1279 G1X687.62Y2040.53  ;
N1280 G1X687.62Y2026.67  ;
N1281 G65 P9104 A102 B04  ;
N1282 G0X521.5Y2068.69  ;
N1283 G65 P9102 A102 B04  ;
N1284 G1X521.5Y2078.51  ;
N1285 G1X513Y2083.41  ;
N1286 G1X504.5Y2078.51  ;
N1287 G1X504.5Y2068.69  ;
N1288 G1X513Y2063.79  ;
N1289 G1X521.5Y2068.69  ;
N1290 G65 P9104 A101 B02  ;
N1291 G0X510.67Y2075.86  ;
N1292 G65 P9102 A101 B02  ;
N1293 G1X508.58Y2077.95  ;
N1294 G3X508.62Y2077.98I4.42J-4.35  ;
N1295 G65 P9104 A101 B02  ;
N1296 G0X558.14Y2101.39  ;
N1297 G65 P9102 A101 B02  ;
N1298 G1X556.05Y2103.48  ;
N1299 G3X556.09Y2103.51I4.95J-4.88  ;
N1300 G65 P9104 A101 B02  ;
N1301 G0X640.12Y2126.65  ;
N1302 G65 P9102 A101 B02  ;
N1303 G1X637.12Y2126.65  ;
N1304 G2X636.17Y2127.6I0J0.95  ;
N1305 G1X636.17Y2130.55  ;
N1306 G1X678.07Y2130.55  ;
N1307 G1X678.07Y2124.65  ;
N1308 G1X636.17Y2124.65  ;
N1309 G1X636.17Y2127.6  ;
N1310 G65 P9104 A101 B02  ;
N1311 G0X635.03Y2038.13  ;
N1312 G65 P9102 A101 B02  ;
N1313 G1X632.94Y2040.21  ;
N1314 G3X632.98Y2040.25I6.68J-6.61  ;
N1315 G65 P9104 A101 B02  ;
N1316 G0X695.03Y2038.13  ;
N1317 G65 P9102 A101 B02  ;
N1318 G1X692.94Y2040.21  ;
N1319 G3X692.98Y2040.25I6.68J-6.61  ;
N1320 G65 P9104 A101 B02  ;
N1321 G0X773.97Y2184.31  ;
N1322 G65 P9102 A101 B02  ;
N1323 G1X771.88Y2186.39  ;
N1324 G3X771.92Y2186.43I6.37J-6.29  ;
N1325 G65 P9104 A101 B02  ;
N1326 G0X513.48Y1975.05  ;
N1327 G65 P9102 A101 B02  ;
N1328 G1X511.39Y1977.14  ;
N1329 G3X511.43Y1977.17I3.61J-3.54  ;
N1330 G65 P9104 A101 B02  ;
N1331 G0X635.03Y1863.13  ;
N1332 G65 P9102 A101 B02  ;
N1333 G1X632.94Y1865.21  ;
N1334 G3X632.98Y1865.25I6.68J-6.61  ;
N1335 G65 P9104 A101 B02  ;
N1336 G0X695.03Y1863.13  ;
N1337 G65 P9102 A101 B02  ;
N1338 G1X692.94Y1865.21  ;
N1339 G3X692.98Y1865.25I6.68J-6.61  ;
N1340 G65 P9104 A101 B02  ;
N1341 G0X640.12Y1752.15  ;
N1342 G65 P9102 A101 B02  ;
N1343 G1X637.12Y1752.15  ;
N1344 G2X636.17Y1753.1I0J0.95  ;
N1345 G1X636.17Y1756.05  ;
N1346 G1X678.07Y1756.05  ;
N1347 G1X678.07Y1750.15  ;
N1348 G1X636.17Y1750.15  ;
N1349 G1X636.17Y1753.1  ;
N1350 G65 P9104 A101 B02  ;
N1351 G0X558.14Y1651.39  ;
N1352 G65 P9102 A101 B02  ;
N1353 G1X556.05Y1653.48  ;
N1354 G3X556.09Y1653.51I4.95J-4.88  ;
N1355 G65 P9104 A101 B02  ;
N1356 G0X652.53Y1610.63  ;
N1357 G65 P9102 A101 B02  ;
N1358 G1X650.44Y1612.71  ;
N1359 G3X650.48Y1612.75I6.68J-6.61  ;
N1360 G65 P9104 A101 B02  ;
N1361 G0X510.67Y1292.86  ;
N1362 G65 P9102 A101 B02  ;
N1363 G1X508.58Y1294.95  ;
N1364 G3X508.62Y1294.98I4.42J-4.35  ;
N1365 G65 P9104 A101 B02  ;
N1366 G0X558.14Y1201.39  ;
N1367 G65 P9102 A101 B02  ;
N1368 G1X556.05Y1203.48  ;
N1369 G3X556.09Y1203.51I4.95J-4.88  ;
N1370 G65 P9104 A101 B02  ;
N1371 G0X640.12Y1163.15  ;
N1372 G65 P9102 A101 B02  ;
N1373 G1X637.12Y1163.15  ;
N1374 G2X636.17Y1164.1I0J0.95  ;
N1375 G1X636.17Y1167.05  ;
N1376 G1X678.07Y1167.05  ;
N1377 G1X678.07Y1161.15  ;
N1378 G1X636.17Y1161.15  ;
N1379 G1X636.17Y1164.1  ;
N1380 G65 P9104 A101 B02  ;
N1381 G0X510.67Y1108.86  ;
N1382 G65 P9102 A101 B02  ;
N1383 G1X508.58Y1110.95  ;
N1384 G3X508.62Y1110.98I4.42J-4.35  ;
N1385 G65 P9104 A101 B02  ;
N1386 G0X652.53Y795.63  ;
N1387 G65 P9102 A101 B02  ;
N1388 G1X650.44Y797.71  ;
N1389 G3X650.48Y797.75I6.68J-6.61  ;
N1390 G65 P9104 A101 B02  ;
N1391 G0X558.14Y751.39  ;
N1392 G65 P9102 A101 B02  ;
N1393 G1X556.05Y753.48  ;
N1394 G3X556.09Y753.51I4.95J-4.88  ;
N1395 G65 P9104 A101 B02  ;
N1396 G0X640.12Y600.15  ;
N1397 G65 P9102 A101 B02  ;
N1398 G1X637.12Y600.15  ;
N1399 G2X636.17Y601.1I0J0.95  ;
N1400 G1X636.17Y604.05  ;
N1401 G1X678.07Y604.05  ;
N1402 G1X678.07Y598.15  ;
N1403 G1X636.17Y598.15  ;
N1404 G1X636.17Y601.1  ;
N1405 G65 P9104 A101 B02  ;
N1406 G0X635.03Y543.13  ;
N1407 G65 P9102 A101 B02  ;
N1408 G1X632.94Y545.21  ;
N1409 G3X632.98Y545.25I6.68J-6.61  ;
N1410 G65 P9104 A101 B02  ;
N1411 G0X695.03Y543.13  ;
N1412 G65 P9102 A101 B02  ;
N1413 G1X692.94Y545.21  ;
N1414 G3X692.98Y545.25I6.68J-6.61  ;
N1415 G65 P9104 A101 B02  ;
N1416 G0X513.48Y425.05  ;
N1417 G65 P9102 A101 B02  ;
N1418 G1X511.39Y427.14  ;
N1419 G3X511.43Y427.17I3.61J-3.54  ;
N1420 G65 P9104 A101 B02  ;
N1421 G0X510.67Y325.86  ;
N1422 G65 P9102 A101 B02  ;
N1423 G1X508.58Y327.95  ;
N1424 G3X508.62Y327.98I4.42J-4.35  ;
N1425 G65 P9104 A101 B02  ;
N1426 G0X558.14Y301.39  ;
N1427 G65 P9102 A101 B02  ;
N1428 G1X556.05Y303.48  ;
N1429 G3X556.09Y303.51I4.95J-4.88  ;
N1430 G65 P9104 A101 B02  ;
N1431 G0X635.03Y368.13  ;
N1432 G65 P9102 A101 B02  ;
N1433 G1X632.94Y370.21  ;
N1434 G3X632.98Y370.25I6.68J-6.61  ;
N1435 G65 P9104 A101 B02  ;
N1436 G0X695.03Y368.13  ;
N1437 G65 P9102 A101 B02  ;
N1438 G1X692.94Y370.21  ;
N1439 G3X692.98Y370.25I6.68J-6.61  ;
N1440 G65 P9104 A101 B02  ;
N1441 G0X640.12Y269.65  ;
N1442 G65 P9102 A101 B02  ;
N1443 G1X637.12Y269.65  ;
N1444 G2X636.17Y270.6I0J0.95  ;
N1445 G1X636.17Y273.55  ;
N1446 G1X678.07Y273.55  ;
N1447 G1X678.07Y267.65  ;
N1448 G1X636.17Y267.65  ;
N1449 G1X636.17Y270.6  ;
N1450 G65 P9104 A101 B02  ;
N1451 G0X773.97Y221.31  ;
N1452 G65 P9102 A101 B02  ;
N1453 G1X771.88Y223.39  ;
N1454 G3X771.92Y223.43I6.37J-6.29  ;
N1455 G65 P9104 A101 B01  ;
N1456 G0X821.25Y188.05  ;
N1457 G65 P9102 A101 B01  ;
N1458 G1X818.25Y188.05  ;
N1459 G1X495.95Y188.05  ;
N1460 G1X495.95Y311.6  ;
N1461 G1X501.15Y311.6  ;
N1462 G1X501.15Y316.7  ;
N1463 G1X495.95Y316.7  ;
N1464 G1X495.95Y2210.15  ;
N1465 G1X818.3Y2210.15  ;
N1466 G1X818.3Y316.7  ;
N1467 G1X813.1Y316.7  ;
N1468 G1X813.1Y311.6  ;
N1469 G1X818.3Y311.6  ;
N1470 G1X818.3Y188.1  ;
N1471 G65 P9104 A101 B01  ;
N1472 M98 P9103  ;
(P17:ID2:W86011507)  ;
N1473 M98 P9101  ;
N1474 G0X9Y2175.05  ;
N1475 G65 P9102 A101 B01  ;
N1476 G1X12Y2175.05  ;
N1477 G1X52.05Y2175.05  ;
N1478 G1X52.05Y2171.05  ;
N1479 G1X72.02Y2171.05  ;
N1480 G1X107.05Y2136.02  ;
N1481 G1X107.05Y2085.95  ;
N1482 G1X102.05Y2085.95  ;
N1483 G1X102.05Y2080.05  ;
N1484 G1X113.08Y2080.05  ;
N1485 G1X113.08Y2084.55  ;
N1486 G1X172.08Y2084.55  ;
N1487 G1X172.08Y2086.05  ;
N1488 G1X178.18Y2086.05  ;
N1489 G1X178.18Y1443.95  ;
N1490 G1X11.95Y1443.95  ;
N1491 G1X11.95Y2175  ;
N1492 G65 P9104 A102 B04  ;
N1493 M98 P9103  ;
(P18:ID5:W86011518)  ;
N1494 M98 P9101  ;
N1495 G0X457.26Y285.89  ;
N1496 G65 P9102 A102 B04  ;
N1497 G1X465.76Y290.79  ;
N1498 G1X465.76Y300.61  ;
N1499 G1X457.26Y305.51  ;
N1500 G1X448.76Y300.61  ;
N1501 G1X448.76Y290.79  ;
N1502 G1X457.26Y285.89  ;
N1503 G65 P9104 A102 B04  ;
N1504 G0X457.26Y735.89  ;
N1505 G65 P9102 A102 B04  ;
N1506 G1X465.76Y740.79  ;
N1507 G1X465.76Y750.61  ;
N1508 G1X457.26Y755.51  ;
N1509 G1X448.76Y750.61  ;
N1510 G1X448.76Y740.79  ;
N1511 G1X457.26Y735.89  ;
N1512 G65 P9104 A102 B04  ;
N1513 G0X457.26Y1185.89  ;
N1514 G65 P9102 A102 B04  ;
N1515 G1X465.76Y1190.79  ;
N1516 G1X465.76Y1200.61  ;
N1517 G1X457.26Y1205.51  ;
N1518 G1X448.76Y1200.61  ;
N1519 G1X448.76Y1190.79  ;
N1520 G1X457.26Y1185.89  ;
N1521 G65 P9104 A102 B04  ;
N1522 G0X346.9Y1225.53  ;
N1523 G65 P9102 A102 B04  ;
N1524 G1X346.9Y1228.39  ;
N1525 G65 P9104 A102 B04  ;
N1526 G0X346.9Y1229.28  ;
N1527 G65 P9102 A102 B04  ;
N1528 G1X336.9Y1229.28  ;
N1529 G1X346.9Y1236.43  ;
N1530 G1X336.9Y1236.43  ;
N1531 G65 P9104 A102 B04  ;
N1532 G0X336.9Y1237.32  ;
N1533 G65 P9102 A102 B04  ;
N1534 G1X336.9Y1244.46  ;
N1535 G65 P9104 A102 B04  ;
N1536 G0X336.9Y1240.89  ;
N1537 G65 P9102 A102 B04  ;
N1538 G1X346.9Y1240.89  ;
N1539 G65 P9104 A102 B04  ;
N1540 G0X346.9Y1226.96  ;
N1541 G65 P9102 A102 B04  ;
N1542 G1X336.9Y1226.96  ;
N1543 G65 P9104 A102 B04  ;
N1544 G0X336.9Y1225.53  ;
N1545 G65 P9102 A102 B04  ;
N1546 G1X336.9Y1228.39  ;
N1547 G65 P9104 A102 B04  ;
N1548 G0X457.26Y1635.89  ;
N1549 G65 P9102 A102 B04  ;
N1550 G1X465.76Y1640.79  ;
N1551 G1X465.76Y1650.61  ;
N1552 G1X457.26Y1655.51  ;
N1553 G1X448.76Y1650.61  ;
N1554 G1X448.76Y1640.79  ;
N1555 G1X457.26Y1635.89  ;
N1556 G65 P9104 A102 B04  ;
N1557 G0X457.26Y2085.89  ;
N1558 G65 P9102 A102 B04  ;
N1559 G1X465.76Y2090.79  ;
N1560 G1X465.76Y2100.61  ;
N1561 G1X457.26Y2105.51  ;
N1562 G1X448.76Y2100.61  ;
N1563 G1X448.76Y2090.79  ;
N1564 G1X457.26Y2085.89  ;
N1565 G65 P9104 A101 B02  ;
N1566 G0X454.92Y2097.96  ;
N1567 G65 P9102 A101 B02  ;
N1568 G1X452.84Y2100.05  ;
N1569 G3X452.87Y2100.08I4.42J-4.35  ;
N1570 G65 P9104 A101 B02  ;
N1571 G0X319Y2178.26  ;
N1572 G65 P9102 A101 B02  ;
N1573 G1X316.92Y2180.34  ;
N1574 G3X316.95Y2180.38I21.21J-21.14  ;
N1575 G65 P9104 A101 B02  ;
N1576 G0X319Y1878.26  ;
N1577 G65 P9102 A101 B02  ;
N1578 G1X316.92Y1880.34  ;
N1579 G3X316.95Y1880.38I21.21J-21.14  ;
N1580 G65 P9104 A101 B02  ;
N1581 G0X261.63Y1825.75  ;
N1582 G65 P9102 A101 B02  ;
N1583 G1X264.63Y1825.75  ;
N1584 G1X268.08Y1825.75  ;
N1585 G1X268.08Y1827.15  ;
N1586 G1X258.18Y1827.15  ;
N1587 G1X258.18Y1817.25  ;
N1588 G1X261.72Y1817.25  ;
N1589 G1X262.75Y1816.22  ;
N1590 G1X262.75Y1712.18  ;
N1591 G1X261.72Y1711.15  ;
N1592 G1X258.18Y1711.15  ;
N1593 G1X258.18Y1701.25  ;
N1594 G1X268.08Y1701.25  ;
N1595 G1X268.08Y1702.65  ;
N1596 G1X264.58Y1702.65  ;
N1597 G1X264.58Y1825.7  ;
N1598 G65 P9104 A101 B02  ;
N1599 G0X291.3Y1763.33  ;
N1600 G65 P9102 A101 B02  ;
N1601 G1X289.15Y1763.33  ;
N1602 G2X288.28Y1764.2I0J0.87  ;
N1603 G1X288.28Y1766.75  ;
N1604 G1X293.98Y1766.75  ;
N1605 G1X293.98Y1761.65  ;
N1606 G1X288.28Y1761.65  ;
N1607 G1X288.28Y1764.2  ;
N1608 G65 P9104 A101 B02  ;
N1609 G0X414.63Y1825.75  ;
N1610 G65 P9102 A101 B02  ;
N1611 G1X411.63Y1825.75  ;
N1612 G1X408.18Y1825.75  ;
N1613 G1X408.18Y1827.15  ;
N1614 G1X418.08Y1827.15  ;
N1615 G1X418.08Y1817.25  ;
N1616 G1X414.54Y1817.25  ;
N1617 G1X413.51Y1816.22  ;
N1618 G1X413.51Y1712.18  ;
N1619 G1X414.54Y1711.15  ;
N1620 G1X418.08Y1711.15  ;
N1621 G1X418.08Y1701.25  ;
N1622 G1X408.18Y1701.25  ;
N1623 G1X408.18Y1702.65  ;
N1624 G1X411.68Y1702.65  ;
N1625 G1X411.68Y1825.7  ;
N1626 G65 P9104 A101 B02  ;
N1627 G0X454.92Y1647.96  ;
N1628 G65 P9102 A101 B02  ;
N1629 G1X452.84Y1650.05  ;
N1630 G3X452.87Y1650.08I4.42J-4.35  ;
N1631 G65 P9104 A101 B02  ;
N1632 G0X319Y1528.26  ;
N1633 G65 P9102 A101 B02  ;
N1634 G1X316.92Y1530.34  ;
N1635 G3X316.95Y1530.38I21.21J-21.14  ;
N1636 G65 P9104 A101 B02  ;
N1637 G0X261.63Y1275.75  ;
N1638 G65 P9102 A101 B02  ;
N1639 G1X264.63Y1275.75  ;
N1640 G1X268.08Y1275.75  ;
N1641 G1X268.08Y1277.15  ;
N1642 G1X258.18Y1277.15  ;
N1643 G1X258.18Y1267.25  ;
N1644 G1X261.72Y1267.25  ;
N1645 G1X262.75Y1266.22  ;
N1646 G1X262.75Y1162.18  ;
N1647 G1X261.72Y1161.15  ;
N1648 G1X258.18Y1161.15  ;
N1649 G1X258.18Y1151.25  ;
N1650 G1X268.08Y1151.25  ;
N1651 G1X268.08Y1152.65  ;
N1652 G1X264.58Y1152.65  ;
N1653 G1X264.58Y1275.7  ;
N1654 G65 P9104 A101 B02  ;
N1655 G0X291.3Y1213.33  ;
N1656 G65 P9102 A101 B02  ;
N1657 G1X289.15Y1213.33  ;
N1658 G2X288.28Y1214.2I0J0.87  ;
N1659 G1X288.28Y1216.75  ;
N1660 G1X293.98Y1216.75  ;
N1661 G1X293.98Y1211.65  ;
N1662 G1X288.28Y1211.65  ;
N1663 G1X288.28Y1214.2  ;
N1664 G65 P9104 A101 B02  ;
N1665 G0X414.63Y1275.75  ;
N1666 G65 P9102 A101 B02  ;
N1667 G1X411.63Y1275.75  ;
N1668 G1X408.18Y1275.75  ;
N1669 G1X408.18Y1277.15  ;
N1670 G1X418.08Y1277.15  ;
N1671 G1X418.08Y1267.25  ;
N1672 G1X414.54Y1267.25  ;
N1673 G1X413.51Y1266.22  ;
N1674 G1X413.51Y1162.18  ;
N1675 G1X414.54Y1161.15  ;
N1676 G1X418.08Y1161.15  ;
N1677 G1X418.08Y1151.25  ;
N1678 G1X408.18Y1151.25  ;
N1679 G1X408.18Y1152.65  ;
N1680 G1X411.68Y1152.65  ;
N1681 G1X411.68Y1275.7  ;
N1682 G65 P9104 A101 B02  ;
N1683 G0X454.92Y1197.96  ;
N1684 G65 P9102 A101 B02  ;
N1685 G1X452.84Y1200.05  ;
N1686 G3X452.87Y1200.08I4.42J-4.35  ;
N1687 G65 P9104 A101 B02  ;
N1688 G0X319Y860.76  ;
N1689 G65 P9102 A101 B02  ;
N1690 G1X316.92Y862.84  ;
N1691 G3X316.95Y862.88I21.21J-21.14  ;
N1692 G65 P9104 A101 B02  ;
N1693 G0X261.63Y725.75  ;
N1694 G65 P9102 A101 B02  ;
N1695 G1X264.63Y725.75  ;
N1696 G1X268.08Y725.75  ;
N1697 G1X268.08Y727.15  ;
N1698 G1X258.18Y727.15  ;
N1699 G1X258.18Y717.25  ;
N1700 G1X261.72Y717.25  ;
N1701 G1X262.75Y716.22  ;
N1702 G1X262.75Y612.18  ;
N1703 G1X261.72Y611.15  ;
N1704 G1X258.18Y611.15  ;
N1705 G1X258.18Y601.25  ;
N1706 G1X268.08Y601.25  ;
N1707 G1X268.08Y602.65  ;
N1708 G1X264.58Y602.65  ;
N1709 G1X264.58Y725.7  ;
N1710 G65 P9104 A101 B02  ;
N1711 G0X291.3Y663.33  ;
N1712 G65 P9102 A101 B02  ;
N1713 G1X289.15Y663.33  ;
N1714 G2X288.28Y664.2I0J0.87  ;
N1715 G1X288.28Y666.75  ;
N1716 G1X293.98Y666.75  ;
N1717 G1X293.98Y661.65  ;
N1718 G1X288.28Y661.65  ;
N1719 G1X288.28Y664.2  ;
N1720 G65 P9104 A101 B02  ;
N1721 G0X414.63Y725.75  ;
N1722 G65 P9102 A101 B02  ;
N1723 G1X411.63Y725.75  ;
N1724 G1X408.18Y725.75  ;
N1725 G1X408.18Y727.15  ;
N1726 G1X418.08Y727.15  ;
N1727 G1X418.08Y717.25  ;
N1728 G1X414.54Y717.25  ;
N1729 G1X413.51Y716.22  ;
N1730 G1X413.51Y612.18  ;
N1731 G1X414.54Y611.15  ;
N1732 G1X418.08Y611.15  ;
N1733 G1X418.08Y601.25  ;
N1734 G1X408.18Y601.25  ;
N1735 G1X408.18Y602.65  ;
N1736 G1X411.68Y602.65  ;
N1737 G1X411.68Y725.7  ;
N1738 G65 P9104 A101 B02  ;
N1739 G0X454.92Y747.96  ;
N1740 G65 P9102 A101 B02  ;
N1741 G1X452.84Y750.05  ;
N1742 G3X452.87Y750.08I4.42J-4.35  ;
N1743 G65 P9104 A101 B02  ;
N1744 G0X319Y510.76  ;
N1745 G65 P9102 A101 B02  ;
N1746 G1X316.92Y512.84  ;
N1747 G3X316.95Y512.88I21.21J-21.14  ;
N1748 G65 P9104 A101 B02  ;
N1749 G0X454.92Y297.96  ;
N1750 G65 P9102 A101 B02  ;
N1751 G1X452.84Y300.05  ;
N1752 G3X452.87Y300.08I4.42J-4.35  ;
N1753 G65 P9104 A101 B02  ;
N1754 G0X319Y210.76  ;
N1755 G65 P9102 A101 B02  ;
N1756 G1X316.92Y212.84  ;
N1757 G3X316.95Y212.88I21.21J-21.14  ;
N1758 G65 P9104 A101 B01  ;
N1759 G0X382.13Y47.65  ;
N1760 G65 P9102 A101 B01  ;
N1761 G1X379.13Y47.65  ;
N1762 G1X357.68Y47.65  ;
N1763 G1X357.68Y44.2  ;
N1764 G2X357.13Y43.65I-0.55J0  ;
N1765 G1X319.13Y43.65  ;
N1766 G2X318.58Y44.2I0J0.55  ;
N1767 G1X318.58Y47.65  ;
N1768 G1X297.11Y47.65  ;
N1769 G1X263.58Y81.68  ;
N1770 G1X263.58Y176.75  ;
N1771 G1X268.08Y176.75  ;
N1772 G1X268.08Y182.65  ;
N1773 G1X257.05Y182.65  ;
N1774 G1X257.05Y178.15  ;
N1775 G1X198.05Y178.15  ;
N1776 G1X198.05Y176.65  ;
N1777 G1X191.95Y176.65  ;
N1778 G1X191.95Y661.65  ;
N1779 G1X197.65Y661.65  ;
N1780 G1X197.65Y666.75  ;
N1781 G1X191.95Y666.75  ;
N1782 G1X191.95Y1211.65  ;
N1783 G1X197.65Y1211.65  ;
N1784 G1X197.65Y1216.75  ;
N1785 G1X191.95Y1216.75  ;
N1786 G1X191.95Y1761.65  ;
N1787 G1X197.65Y1761.65  ;
N1788 G1X197.65Y1766.75  ;
N1789 G1X191.95Y1766.75  ;
N1790 G1X191.95Y2217.75  ;
N1791 G1X198.05Y2217.75  ;
N1792 G1X198.05Y2216.25  ;
N1793 G1X257.05Y2216.25  ;
N1794 G1X257.05Y2213.25  ;
N1795 G1X268.08Y2213.25  ;
N1796 G1X268.08Y2219.15  ;
N1797 G1X263.58Y2219.15  ;
N1798 G1X263.58Y2269.22  ;
N1799 G1X297.11Y2302.25  ;
N1800 G1X318.58Y2302.25  ;
N1801 G1X318.58Y2306.7  ;
N1802 G2X319.13Y2307.25I0.55J0  ;
N1803 G1X357.13Y2307.25  ;
N1804 G2X357.68Y2306.7I0J-0.55  ;
N1805 G1X357.68Y2302.25  ;
N1806 G1X379.15Y2302.25  ;
N1807 G1X412.68Y2269.22  ;
N1808 G1X412.68Y2219.15  ;
N1809 G1X408.18Y2219.15  ;
N1810 G1X408.18Y2213.25  ;
N1811 G1X419.21Y2213.25  ;
N1812 G1X419.21Y2216.25  ;
N1813 G1X478.21Y2216.25  ;
N1814 G1X478.21Y2217.75  ;
N1815 G1X484.31Y2217.75  ;
N1816 G1X484.31Y1766.75  ;
N1817 G1X478.61Y1766.75  ;
N1818 G1X478.61Y1761.65  ;
N1819 G1X484.31Y1761.65  ;
N1820 G1X484.31Y1216.75  ;
N1821 G1X478.61Y1216.75  ;
N1822 G1X478.61Y1211.65  ;
N1823 G1X484.31Y1211.65  ;
N1824 G1X484.31Y666.75  ;
N1825 G1X478.61Y666.75  ;
N1826 G1X478.61Y661.65  ;
N1827 G1X484.31Y661.65  ;
N1828 G1X484.31Y176.65  ;
N1829 G1X478.21Y176.65  ;
N1830 G1X478.21Y178.15  ;
N1831 G1X419.21Y178.15  ;
N1832 G1X419.21Y182.65  ;
N1833 G1X408.18Y182.65  ;
N1834 G1X408.18Y176.75  ;
N1835 G1X412.68Y176.75  ;
N1836 G1X412.68Y81.68  ;
N1837 G1X379.16Y47.66  ;
N1838 G65 P9104 A101 B01  ;
N1839 M98 P9103  ;
(P19:ID1:W86011517)  ;
N1840 M98 P9101  ;
N1841 G0X355.99Y2385.68  ;
N1842 G65 P9102 A101 B01  ;
N1843 G1X360.93Y2385.4  ;
N1844 G3X346Y2401.15I-14.93J0.8  ;
N1845 G1X342.98Y2401.15  ;
N1846 G1X341.95Y2402.18  ;
N1847 G1X341.95Y2405.22  ;
N1848 G1X342.98Y2406.25  ;
N1849 G1X345.95Y2406.25  ;
N1850 G1X345.95Y2428.15  ;
N1851 G1X345.45Y2428.15  ;
N1852 G1X345.45Y2431.25  ;
N1853 G1X345.98Y2431.25  ;
N1854 G1X373.98Y2460.25  ;
N1855 G1X416.95Y2460.25  ;
N1856 G1X416.95Y2460.75  ;
N1857 G1X419.95Y2460.75  ;
N1858 G1X419.95Y2465.75  ;
N1859 G1X425.05Y2465.75  ;
N1860 G1X425.05Y2306.65  ;
N1861 G1X419.95Y2306.65  ;
N1862 G1X419.95Y2311.65  ;
N1863 G1X416.95Y2311.65  ;
N1864 G1X416.95Y2312.15  ;
N1865 G1X373.98Y2312.15  ;
N1866 G1X345.98Y2341.15  ;
N1867 G1X345.45Y2341.15  ;
N1868 G1X345.45Y2344.25  ;
N1869 G1X345.95Y2344.25  ;
N1870 G1X345.95Y2371.25  ;
N1871 G3X360.87Y2384.7I0.05J14.95  ;
N1872 G65 P9104 A101 B01  ;
N1873 M98 P9103  ;
(P20:ID1:W86011517)  ;
N1874 M98 P9101  ;
N1875 G0X261.99Y2409.28  ;
N1876 G65 P9102 A101 B01  ;
N1877 G1X266.93Y2409  ;
N1878 G3X252Y2424.75I-14.93J0.8  ;
N1879 G1X248.98Y2424.75  ;
N1880 G1X247.95Y2425.78  ;
N1881 G1X247.95Y2428.82  ;
N1882 G1X248.98Y2429.85  ;
N1883 G1X251.95Y2429.85  ;
N1884 G1X251.95Y2451.75  ;
N1885 G1X251.45Y2451.75  ;
N1886 G1X251.45Y2454.85  ;
N1887 G1X251.98Y2454.85  ;
N1888 G1X279.98Y2483.85  ;
N1889 G1X322.95Y2483.85  ;
N1890 G1X322.95Y2484.35  ;
N1891 G1X325.95Y2484.35  ;
N1892 G1X325.95Y2489.35  ;
N1893 G1X331.05Y2489.35  ;
N1894 G1X331.05Y2330.25  ;
N1895 G1X325.95Y2330.25  ;
N1896 G1X325.95Y2335.25  ;
N1897 G1X322.95Y2335.25  ;
N1898 G1X322.95Y2335.75  ;
N1899 G1X279.98Y2335.75  ;
N1900 G1X251.98Y2364.75  ;
N1901 G1X251.45Y2364.75  ;
N1902 G1X251.45Y2367.85  ;
N1903 G1X251.95Y2367.85  ;
N1904 G1X251.95Y2394.85  ;
N1905 G3X266.87Y2408.3I0.05J14.95  ;
N1906 G65 P9104 A101 B01  ;
N1907 M98 P9103  ;
(P21:ID1:W86011517)  ;
N1908 M98 P9101  ;
N1909 G0X241.99Y2578.78  ;
N1910 G65 P9102 A101 B01  ;
N1911 G1X246.93Y2578.5  ;
N1912 G3X232Y2594.25I-14.93J0.8  ;
N1913 G1X228.98Y2594.25  ;
N1914 G1X227.95Y2595.28  ;
N1915 G1X227.95Y2598.32  ;
N1916 G1X228.98Y2599.35  ;
N1917 G1X231.95Y2599.35  ;
N1918 G1X231.95Y2621.25  ;
N1919 G1X231.45Y2621.25  ;
N1920 G1X231.45Y2624.35  ;
N1921 G1X231.98Y2624.35  ;
N1922 G1X259.98Y2653.35  ;
N1923 G1X302.95Y2653.35  ;
N1924 G1X302.95Y2653.85  ;
N1925 G1X305.95Y2653.85  ;
N1926 G1X305.95Y2658.85  ;
N1927 G1X311.05Y2658.85  ;
N1928 G1X311.05Y2499.75  ;
N1929 G1X305.95Y2499.75  ;
N1930 G1X305.95Y2504.75  ;
N1931 G1X302.95Y2504.75  ;
N1932 G1X302.95Y2505.25  ;
N1933 G1X259.98Y2505.25  ;
N1934 G1X231.98Y2534.25  ;
N1935 G1X231.45Y2534.25  ;
N1936 G1X231.45Y2537.35  ;
N1937 G1X231.95Y2537.35  ;
N1938 G1X231.95Y2564.35  ;
N1939 G3X246.87Y2577.8I0.05J14.95  ;
N1940 G65 P9104 A101 B01  ;
N1941 M98 P9103  ;
(P22:ID1:W86011517)  ;
N1942 M98 P9101  ;
N1943 G0X341.99Y2549.18  ;
N1944 G65 P9102 A101 B01  ;
N1945 G1X346.93Y2548.9  ;
N1946 G3X332Y2564.65I-14.93J0.8  ;
N1947 G1X328.98Y2564.65  ;
N1948 G1X327.95Y2565.68  ;
N1949 G1X327.95Y2568.72  ;
N1950 G1X328.98Y2569.75  ;
N1951 G1X331.95Y2569.75  ;
N1952 G1X331.95Y2591.65  ;
N1953 G1X331.45Y2591.65  ;
N1954 G1X331.45Y2594.75  ;
N1955 G1X331.98Y2594.75  ;
N1956 G1X359.98Y2623.75  ;
N1957 G1X402.95Y2623.75  ;
N1958 G1X402.95Y2624.25  ;
N1959 G1X405.95Y2624.25  ;
N1960 G1X405.95Y2629.25  ;
N1961 G1X411.05Y2629.25  ;
N1962 G1X411.05Y2470.15  ;
N1963 G1X405.95Y2470.15  ;
N1964 G1X405.95Y2475.15  ;
N1965 G1X402.95Y2475.15  ;
N1966 G1X402.95Y2475.65  ;
N1967 G1X359.98Y2475.65  ;
N1968 G1X331.98Y2504.65  ;
N1969 G1X331.45Y2504.65  ;
N1970 G1X331.45Y2507.75  ;
N1971 G1X331.95Y2507.75  ;
N1972 G1X331.95Y2534.75  ;
N1973 G3X346.87Y2548.2I0.05J14.95  ;
N1974 G65 P9104 A101 B01  ;
N1975 M98 P9103  ;
(P23:ID1:W86011517)  ;
N1976 M98 P9101  ;
N1977 G0X355.99Y2715.18  ;
N1978 G65 P9102 A101 B01  ;
N1979 G1X360.93Y2714.9  ;
N1980 G3X346Y2730.65I-14.93J0.8  ;
N1981 G1X342.98Y2730.65  ;
N1982 G1X341.95Y2731.68  ;
N1983 G1X341.95Y2734.72  ;
N1984 G1X342.98Y2735.75  ;
N1985 G1X345.95Y2735.75  ;
N1986 G1X345.95Y2757.65  ;
N1987 G1X345.45Y2757.65  ;
N1988 G1X345.45Y2760.75  ;
N1989 G1X345.98Y2760.75  ;
N1990 G1X373.98Y2789.75  ;
N1991 G1X416.95Y2789.75  ;
N1992 G1X416.95Y2790.25  ;
N1993 G1X419.95Y2790.25  ;
N1994 G1X419.95Y2795.25  ;
N1995 G1X425.05Y2795.25  ;
N1996 G1X425.05Y2636.15  ;
N1997 G1X419.95Y2636.15  ;
N1998 G1X419.95Y2641.15  ;
N1999 G1X416.95Y2641.15  ;
N2000 G1X416.95Y2641.65  ;
N2001 G1X373.98Y2641.65  ;
N2002 G1X345.98Y2670.65  ;
N2003 G1X345.45Y2670.65  ;
N2004 G1X345.45Y2673.75  ;
N2005 G1X345.95Y2673.75  ;
N2006 G1X345.95Y2700.75  ;
N2007 G3X360.87Y2714.2I0.05J14.95  ;
N2008 G65 P9104 A101 B01  ;
N2009 M98 P9103  ;
(P24:ID1:W86011517)  ;
N2010 M98 P9101  ;
N2011 G0X257.99Y2742.28  ;
N2012 G65 P9102 A101 B01  ;
N2013 G1X262.93Y2742  ;
N2014 G3X248Y2757.75I-14.93J0.8  ;
N2015 G1X244.98Y2757.75  ;
N2016 G1X243.95Y2758.78  ;
N2017 G1X243.95Y2761.82  ;
N2018 G1X244.98Y2762.85  ;
N2019 G1X247.95Y2762.85  ;
N2020 G1X247.95Y2784.75  ;
N2021 G1X247.45Y2784.75  ;
N2022 G1X247.45Y2787.85  ;
N2023 G1X247.98Y2787.85  ;
N2024 G1X275.98Y2816.85  ;
N2025 G1X318.95Y2816.85  ;
N2026 G1X318.95Y2817.35  ;
N2027 G1X321.95Y2817.35  ;
N2028 G1X321.95Y2822.35  ;
N2029 G1X327.05Y2822.35  ;
N2030 G1X327.05Y2663.25  ;
N2031 G1X321.95Y2663.25  ;
N2032 G1X321.95Y2668.25  ;
N2033 G1X318.95Y2668.25  ;
N2034 G1X318.95Y2668.75  ;
N2035 G1X275.98Y2668.75  ;
N2036 G1X247.98Y2697.75  ;
N2037 G1X247.45Y2697.75  ;
N2038 G1X247.45Y2700.85  ;
N2039 G1X247.95Y2700.85  ;
N2040 G1X247.95Y2727.85  ;
N2041 G3X262.87Y2741.3I0.05J14.95  ;
N2042 G65 P9104 A101 B01  ;
N2043 M98 P9103  ;
(P25:ID2:W86011507)  ;
N2044 M98 P9101  ;
N2045 G0X197.13Y2256.95  ;
N2046 G65 P9102 A101 B01  ;
N2047 G1X194.13Y2256.95  ;
N2048 G1X154.08Y2256.95  ;
N2049 G1X154.08Y2260.95  ;
N2050 G1X134.11Y2260.95  ;
N2051 G1X99.08Y2295.98  ;
N2052 G1X99.08Y2346.05  ;
N2053 G1X104.08Y2346.05  ;
N2054 G1X104.08Y2351.95  ;
N2055 G1X93.05Y2351.95  ;
N2056 G1X93.05Y2347.45  ;
N2057 G1X34.05Y2347.45  ;
N2058 G1X34.05Y2345.95  ;
N2059 G1X27.95Y2345.95  ;
N2060 G1X27.95Y2988.05  ;
N2061 G1X194.18Y2988.05  ;
N2062 G1X194.18Y2257  ;
N2063 G65 P9104 A101 B01  ;
N2064 M98 P9103  ;
(P26:ID1:W86011517)  ;
N2065 M98 P9101  ;
N2066 G0X247.99Y2907.98  ;
N2067 G65 P9102 A101 B01  ;
N2068 G1X252.93Y2907.7  ;
N2069 G3X238Y2923.45I-14.93J0.8  ;
N2070 G1X234.98Y2923.45  ;
N2071 G1X233.95Y2924.48  ;
N2072 G1X233.95Y2927.52  ;
N2073 G1X234.98Y2928.55  ;
N2074 G1X237.95Y2928.55  ;
N2075 G1X237.95Y2950.45  ;
N2076 G1X237.45Y2950.45  ;
N2077 G1X237.45Y2953.55  ;
N2078 G1X237.98Y2953.55  ;
N2079 G1X265.98Y2982.55  ;
N2080 G1X308.95Y2982.55  ;
N2081 G1X308.95Y2983.05  ;
N2082 G1X311.95Y2983.05  ;
N2083 G1X311.95Y2988.05  ;
N2084 G1X317.05Y2988.05  ;
N2085 G1X317.05Y2828.95  ;
N2086 G1X311.95Y2828.95  ;
N2087 G1X311.95Y2833.95  ;
N2088 G1X308.95Y2833.95  ;
N2089 G1X308.95Y2834.45  ;
N2090 G1X265.98Y2834.45  ;
N2091 G1X237.98Y2863.45  ;
N2092 G1X237.45Y2863.45  ;
N2093 G1X237.45Y2866.55  ;
N2094 G1X237.95Y2866.55  ;
N2095 G1X237.95Y2893.55  ;
N2096 G3X252.87Y2907I0.05J14.95  ;
N2097 G65 P9104 A101 B01  ;
N2098 M98 P9103  ;
(P27:ID1:W86011517)  ;
N2099 M98 P9101  ;
N2100 G0X341.99Y2878.68  ;
N2101 G65 P9102 A101 B01  ;
N2102 G1X346.93Y2878.4  ;
N2103 G3X332Y2894.15I-14.93J0.8  ;
N2104 G1X328.98Y2894.15  ;
N2105 G1X327.95Y2895.18  ;
N2106 G1X327.95Y2898.22  ;
N2107 G1X328.98Y2899.25  ;
N2108 G1X331.95Y2899.25  ;
N2109 G1X331.95Y2921.15  ;
N2110 G1X331.45Y2921.15  ;
N2111 G1X331.45Y2924.25  ;
N2112 G1X331.98Y2924.25  ;
N2113 G1X359.98Y2953.25  ;
N2114 G1X402.95Y2953.25  ;
N2115 G1X402.95Y2953.75  ;
N2116 G1X405.95Y2953.75  ;
N2117 G1X405.95Y2958.75  ;
N2118 G1X411.05Y2958.75  ;
N2119 G1X411.05Y2799.65  ;
N2120 G1X405.95Y2799.65  ;
N2121 G1X405.95Y2804.65  ;
N2122 G1X402.95Y2804.65  ;
N2123 G1X402.95Y2805.15  ;
N2124 G1X359.98Y2805.15  ;
N2125 G1X331.98Y2834.15  ;
N2126 G1X331.45Y2834.15  ;
N2127 G1X331.45Y2837.25  ;
N2128 G1X331.95Y2837.25  ;
N2129 G1X331.95Y2864.25  ;
N2130 G3X346.87Y2877.7I0.05J14.95  ;
N2131 G65 P9104 A101 B01  ;
N2132 M98 P9103  ;
(P28:ID2:W86011507)  ;
N2133 M98 P9101  ;
N2134 G0X605.13Y2256.95  ;
N2135 G65 P9102 A101 B01  ;
N2136 G1X602.13Y2256.95  ;
N2137 G1X562.08Y2256.95  ;
N2138 G1X562.08Y2260.95  ;
N2139 G1X542.11Y2260.95  ;
N2140 G1X507.08Y2295.98  ;
N2141 G1X507.08Y2346.05  ;
N2142 G1X512.08Y2346.05  ;
N2143 G1X512.08Y2351.95  ;
N2144 G1X501.05Y2351.95  ;
N2145 G1X501.05Y2347.45  ;
N2146 G1X442.05Y2347.45  ;
N2147 G1X442.05Y2345.95  ;
N2148 G1X435.95Y2345.95  ;
N2149 G1X435.95Y2988.05  ;
N2150 G1X602.18Y2988.05  ;
N2151 G1X602.18Y2257  ;
N2152 G65 P9104 A101 B01  ;
N2153 M98 P9103  ;
(P29:ID2:W86011507)  ;
N2154 M98 P9101  ;
N2155 G0X782.13Y2256.95  ;
N2156 G65 P9102 A101 B01  ;
N2157 G1X779.13Y2256.95  ;
N2158 G1X739.08Y2256.95  ;
N2159 G1X739.08Y2260.95  ;
N2160 G1X719.11Y2260.95  ;
N2161 G1X684.08Y2295.98  ;
N2162 G1X684.08Y2346.05  ;
N2163 G1X689.08Y2346.05  ;
N2164 G1X689.08Y2351.95  ;
N2165 G1X678.05Y2351.95  ;
N2166 G1X678.05Y2347.45  ;
N2167 G1X619.05Y2347.45  ;
N2168 G1X619.05Y2345.95  ;
N2169 G1X612.95Y2345.95  ;
N2170 G1X612.95Y2988.05  ;
N2171 G1X779.18Y2988.05  ;
N2172 G1X779.18Y2257  ;
N2173 G65 P9104 A101 B01  ;
N2174 M98 P9103  ;
(P30:ID2:W86011507)  ;
N2175 M98 P9101  ;
N2176 G0X959.13Y2256.95  ;
N2177 G65 P9102 A101 B01  ;
N2178 G1X956.13Y2256.95  ;
N2179 G1X916.08Y2256.95  ;
N2180 G1X916.08Y2260.95  ;
N2181 G1X896.11Y2260.95  ;
N2182 G1X861.08Y2295.98  ;
N2183 G1X861.08Y2346.05  ;
N2184 G1X866.08Y2346.05  ;
N2185 G1X866.08Y2351.95  ;
N2186 G1X855.05Y2351.95  ;
N2187 G1X855.05Y2347.45  ;
N2188 G1X796.05Y2347.45  ;
N2189 G1X796.05Y2345.95  ;
N2190 G1X789.95Y2345.95  ;
N2191 G1X789.95Y2988.05  ;
N2192 G1X956.18Y2988.05  ;
N2193 G1X956.18Y2257  ;
N2194 G65 P9104 A101 B01  ;
N2195 M98 P9103  ;
(P31:ID2:W86011507)  ;
N2196 M98 P9101  ;
N2197 G0X1136.13Y2256.95  ;
N2198 G65 P9102 A101 B01  ;
N2199 G1X1133.13Y2256.95  ;
N2200 G1X1093.08Y2256.95  ;
N2201 G1X1093.08Y2260.95  ;
N2202 G1X1073.11Y2260.95  ;
N2203 G1X1038.08Y2295.98  ;
N2204 G1X1038.08Y2346.05  ;
N2205 G1X1043.08Y2346.05  ;
N2206 G1X1043.08Y2351.95  ;
N2207 G1X1032.05Y2351.95  ;
N2208 G1X1032.05Y2347.45  ;
N2209 G1X973.05Y2347.45  ;
N2210 G1X973.05Y2345.95  ;
N2211 G1X966.95Y2345.95  ;
N2212 G1X966.95Y2988.05  ;
N2213 G1X1133.18Y2988.05  ;
N2214 G1X1133.18Y2257  ;
N2215 G65 P9104 A101 B01  ;
N2216 M98 P9103  ;
(P32:ID2:W86011507)  ;
N2217 M98 P9101  ;
N2218 G0X1313.13Y2256.95  ;
N2219 G65 P9102 A101 B01  ;
N2220 G1X1310.13Y2256.95  ;
N2221 G1X1270.08Y2256.95  ;
N2222 G1X1270.08Y2260.95  ;
N2223 G1X1250.11Y2260.95  ;
N2224 G1X1215.08Y2295.98  ;
N2225 G1X1215.08Y2346.05  ;
N2226 G1X1220.08Y2346.05  ;
N2227 G1X1220.08Y2351.95  ;
N2228 G1X1209.05Y2351.95  ;
N2229 G1X1209.05Y2347.45  ;
N2230 G1X1150.05Y2347.45  ;
N2231 G1X1150.05Y2345.95  ;
N2232 G1X1143.95Y2345.95  ;
N2233 G1X1143.95Y2988.05  ;
N2234 G1X1310.18Y2988.05  ;
N2235 G1X1310.18Y2257  ;
N2236 G65 P9104 A101 B01  ;
N2237 M98 P9103  ;
(P33:ID2:W86011507)  ;
N2238 M98 P9101  ;
N2239 G0X1490.13Y2256.95  ;
N2240 G65 P9102 A101 B01  ;
N2241 G1X1487.13Y2256.95  ;
N2242 G1X1447.08Y2256.95  ;
N2243 G1X1447.08Y2260.95  ;
N2244 G1X1427.11Y2260.95  ;
N2245 G1X1392.08Y2295.98  ;
N2246 G1X1392.08Y2346.05  ;
N2247 G1X1397.08Y2346.05  ;
N2248 G1X1397.08Y2351.95  ;
N2249 G1X1386.05Y2351.95  ;
N2250 G1X1386.05Y2347.45  ;
N2251 G1X1327.05Y2347.45  ;
N2252 G1X1327.05Y2345.95  ;
N2253 G1X1320.95Y2345.95  ;
N2254 G1X1320.95Y2988.05  ;
N2255 G1X1487.18Y2988.05  ;
N2256 G1X1487.18Y2257  ;
N2257 M98 P9104  ;
N2258 M98 P9103  ;
(FOOTER)
N2259 M98 P9110  ;
N2260 M30  ;
%
