O0099  ;
( MACHINE : TCI Laser )  ;
( MATERIAL : Acero al Carbono )  ;
( THICKNESS : 5 )  ;
( REPETITIONS : 5 )  ;
( SIMULATION TIME : 00:40:21 )  ;
( FORMAT : 1500x3000 )  ;
( JOB NUMBER : VARS8600\K860115 )  ;
( PROGRAM NUMBER : 12090 )  ;
( TYPE : 0 )  ;
( NUMBER OF SHEETS : 1 )  ;
( CUTTING HEADS : 1 )  ;
#516= 1  ;
#517= 1  ;
N105 G65 P9100 A103 B01  ;
(P1:ID1:W86011513)  ;
N106 M98 P9101  ;
N107 G0X1266.97Y130.79  ;
N108 G65 P9102 A101 B01  ;
N109 G1X1266.97Y133.74  ;
N110 G3X1267.02Y133.74I0.05J-5.45  ;
N111 G65 P9104 A101 B01  ;
N112 G0X1291.32Y44.79  ;
N113 G65 P9102 A101 B01  ;
N114 G1X1291.32Y49.74  ;
N115 G1X1288.97Y49.74  ;
N116 G1X1288.97Y54.74  ;
N117 G1X1280.07Y54.74  ;
N118 G1X1280.07Y54.24  ;
N119 G1X1277.97Y54.24  ;
N120 G1X1277.97Y54.77  ;
N121 G1X1251.97Y81.27  ;
N122 G1X1251.97Y175.31  ;
N123 G1X1277.97Y201.81  ;
N124 G1X1277.97Y202.34  ;
N125 G1X1280.07Y202.34  ;
N126 G1X1280.07Y201.84  ;
N127 G1X1288.97Y201.84  ;
N128 G1X1288.97Y206.84  ;
N129 G1X1294.07Y206.84  ;
N130 G1X1294.07Y201.84  ;
N131 G1X1302.97Y201.84  ;
N132 G1X1302.97Y202.34  ;
N133 G1X1305.07Y202.34  ;
N134 G1X1305.07Y201.81  ;
N135 G1X1331.07Y175.31  ;
N136 G1X1331.07Y143.24  ;
N137 G3X1331.07Y113.34I-0.05J-14.95  ;
N138 G1X1331.07Y81.27  ;
N139 G1X1305.07Y54.77  ;
N140 G1X1305.07Y54.24  ;
N141 G1X1302.97Y54.24  ;
N142 G1X1302.97Y54.74  ;
N143 G1X1294.07Y54.74  ;
N144 G1X1294.07Y49.74  ;
N145 G1X1292.02Y49.74  ;
N146 G65 P9104 A101 B01  ;
N147 M98 P9103  ;
(P2:ID2:W86011517)  ;
N148 M98 P9101  ;
N149 G0X1386.39Y116.9  ;
N150 G65 P9102 A101 B01  ;
N151 G1X1391.34Y116.61  ;
N152 G3X1376.41Y132.36I-14.93J0.8  ;
N153 G1X1373.39Y132.36  ;
N154 G1X1372.36Y133.39  ;
N155 G1X1372.36Y136.44  ;
N156 G1X1373.39Y137.46  ;
N157 G1X1376.36Y137.46  ;
N158 G1X1376.36Y159.36  ;
N159 G1X1375.86Y159.36  ;
N160 G1X1375.86Y162.46  ;
N161 G1X1376.39Y162.46  ;
N162 G1X1404.39Y191.46  ;
N163 G1X1447.36Y191.46  ;
N164 G1X1447.36Y191.96  ;
N165 G1X1450.36Y191.96  ;
N166 G1X1450.36Y196.96  ;
N167 G1X1455.46Y196.96  ;
N168 G1X1455.46Y37.86  ;
N169 G1X1450.36Y37.86  ;
N170 G1X1450.36Y42.86  ;
N171 G1X1447.36Y42.86  ;
N172 G1X1447.36Y43.36  ;
N173 G1X1404.39Y43.36  ;
N174 G1X1376.39Y72.36  ;
N175 G1X1375.86Y72.36  ;
N176 G1X1375.86Y75.46  ;
N177 G1X1376.36Y75.46  ;
N178 G1X1376.36Y102.47  ;
N179 G3X1391.28Y115.92I0.05J14.94  ;
N180 G65 P9104 A101 B01  ;
N181 M98 P9103  ;
(P3:ID2:W86011517)  ;
N182 M98 P9101  ;
N183 G0X1386.39Y299.12  ;
N184 G65 P9102 A101 B01  ;
N185 G1X1391.34Y298.84  ;
N186 G3X1376.41Y314.59I-14.93J0.8  ;
N187 G1X1373.39Y314.59  ;
N188 G1X1372.36Y315.62  ;
N189 G1X1372.36Y318.66  ;
N190 G1X1373.39Y319.69  ;
N191 G1X1376.36Y319.69  ;
N192 G1X1376.36Y341.59  ;
N193 G1X1375.86Y341.59  ;
N194 G1X1375.86Y344.69  ;
N195 G1X1376.39Y344.69  ;
N196 G1X1404.39Y373.69  ;
N197 G1X1447.36Y373.69  ;
N198 G1X1447.36Y374.19  ;
N199 G1X1450.36Y374.19  ;
N200 G1X1450.36Y379.19  ;
N201 G1X1455.46Y379.19  ;
N202 G1X1455.46Y220.09  ;
N203 G1X1450.36Y220.09  ;
N204 G1X1450.36Y225.09  ;
N205 G1X1447.36Y225.09  ;
N206 G1X1447.36Y225.59  ;
N207 G1X1404.39Y225.59  ;
N208 G1X1376.39Y254.59  ;
N209 G1X1375.86Y254.59  ;
N210 G1X1375.86Y257.69  ;
N211 G1X1376.36Y257.69  ;
N212 G1X1376.36Y284.69  ;
N213 G3X1391.28Y298.15I0.05J14.95  ;
N214 G65 P9104 A101 B01  ;
N215 M98 P9103  ;
(P4:ID3:W86011514)  ;
N216 M98 P9101  ;
N217 G0X1310.97Y264.7  ;
N218 G65 P9102 A101 B01  ;
N219 G1X1310.97Y267.65  ;
N220 G3X1311.02Y267.65I0.05J-9.95  ;
N221 G65 P9104 A101 B01  ;
N222 G0X1310.97Y341.7  ;
N223 G65 P9102 A101 B01  ;
N224 G1X1310.97Y344.65  ;
N225 G3X1311.02Y344.65I0.05J-9.95  ;
N226 G65 P9104 A101 B01  ;
N227 G0X1333.05Y211.7  ;
N228 G65 P9102 A101 B01  ;
N229 G1X1333.05Y216.65  ;
N230 G1X1330.97Y216.65  ;
N231 G1X1330.97Y221.65  ;
N232 G1X1327.97Y221.65  ;
N233 G1X1327.97Y222.15  ;
N234 G1X1291Y222.15  ;
N235 G1X1267Y246.65  ;
N236 G1X1264Y246.65  ;
N237 G1X1262.97Y247.68  ;
N238 G1X1262.97Y250.72  ;
N239 G1X1264Y251.75  ;
N240 G1X1266.47Y251.75  ;
N241 G1X1266.47Y254.75  ;
N242 G1X1266.97Y254.75  ;
N243 G1X1266.97Y281.25  ;
N244 G3X1266.97Y311.15I0.05J14.95  ;
N245 G1X1266.97Y342.65  ;
N246 G1X1266.47Y342.65  ;
N247 G1X1266.47Y345.75  ;
N248 G1X1267Y345.75  ;
N249 G1X1291Y370.25  ;
N250 G1X1327.97Y370.25  ;
N251 G1X1327.97Y370.75  ;
N252 G1X1330.97Y370.75  ;
N253 G1X1330.97Y375.75  ;
N254 G1X1336.07Y375.75  ;
N255 G1X1336.07Y216.65  ;
N256 G1X1333.75Y216.65  ;
N257 G65 P9104 A102 B04  ;
N258 M98 P9103  ;
(P5:ID4:W86011505)  ;
N259 M98 P9101  ;
N260 G0X767.95Y321.42  ;
N261 G65 P9102 A102 B04  ;
N262 G1X767.95Y323.47  ;
N263 G65 P9104 A102 B04  ;
N264 G0X767.95Y324.36  ;
N265 G65 P9102 A102 B04  ;
N266 G1X767.95Y330.07  ;
N267 G1X766.52Y331.5  ;
N268 G1X765.09Y331.5  ;
N269 G1X763.66Y330.07  ;
N270 G1X763.66Y324.36  ;
N271 G1X757.95Y324.36  ;
N272 G1X757.95Y331.5  ;
N273 G65 P9104 A102 B04  ;
N274 G0X757.95Y338.11  ;
N275 G65 P9102 A102 B04  ;
N276 G1X767.95Y333.82  ;
N277 G65 P9104 A102 B04  ;
N278 G0X767.95Y333.82  ;
N279 G65 P9102 A102 B04  ;
N280 G1X766.52Y332.4  ;
N281 G1X759.38Y332.4  ;
N282 G1X757.95Y333.82  ;
N283 G1X757.95Y338.11  ;
N284 G1X759.38Y339.54  ;
N285 G1X766.52Y339.54  ;
N286 G1X767.95Y338.11  ;
N287 G1X767.95Y333.82  ;
N288 G65 P9104 A102 B04  ;
N289 G0X767.95Y340.43  ;
N290 G65 P9102 A102 B04  ;
N291 G1X767.95Y346.15  ;
N292 G1X766.52Y347.57  ;
N293 G1X765.09Y347.57  ;
N294 G1X763.66Y346.15  ;
N295 G1X763.66Y340.43  ;
N296 G1X757.95Y340.43  ;
N297 G1X757.95Y347.57  ;
N298 G65 P9104 A102 B04  ;
N299 G0X758.97Y321.42  ;
N300 G65 P9102 A102 B04  ;
N301 G1X757.95Y322.44  ;
N302 G1X767.95Y322.44  ;
N303 G65 P9104 A101 B01  ;
N304 G0X765.46Y223.75  ;
N305 G65 P9102 A101 B01  ;
N306 G1X765.46Y226.7  ;
N307 G3X765.51Y226.7I0.05J-29.95  ;
N308 G65 P9104 A101 B01  ;
N309 G0X765.46Y473.75  ;
N310 G65 P9102 A101 B01  ;
N311 G1X765.46Y476.7  ;
N312 G3X765.51Y476.7I0.05J-29.95  ;
N313 G65 P9104 A101 B01  ;
N314 G0X842.67Y55.09  ;
N315 G65 P9102 A101 B01  ;
N316 G1X840.54Y52.96  ;
N317 G1X806.53Y18.95  ;
N318 G1X785.56Y18.95  ;
N319 G1X785.56Y15.5  ;
N320 G2X785.01Y14.95I-0.55J0  ;
N321 G1X746.01Y14.95  ;
N322 G2X745.46Y15.5I0J0.55  ;
N323 G1X745.46Y18.95  ;
N324 G1X724.49Y18.95  ;
N325 G1X690.46Y52.98  ;
N326 G1X690.46Y148.05  ;
N327 G1X695.46Y148.05  ;
N328 G1X695.46Y151.45  ;
N329 G1X684.45Y151.45  ;
N330 G1X684.45Y148.95  ;
N331 G1X625.45Y148.95  ;
N332 G1X625.45Y147.95  ;
N333 G1X619.35Y147.95  ;
N334 G1X619.35Y540.55  ;
N335 G1X625.45Y540.55  ;
N336 G1X625.45Y539.55  ;
N337 G1X684.45Y539.55  ;
N338 G1X684.45Y537.05  ;
N339 G1X695.46Y537.05  ;
N340 G1X695.46Y540.45  ;
N341 G1X690.46Y540.45  ;
N342 G1X690.46Y590.52  ;
N343 G1X724.49Y624.55  ;
N344 G1X745.46Y624.55  ;
N345 G1X745.46Y628  ;
N346 G2X746.01Y628.55I0.55J0  ;
N347 G1X785.01Y628.55  ;
N348 G2X785.56Y628I0J-0.55  ;
N349 G1X785.56Y624.55  ;
N350 G1X806.53Y624.55  ;
N351 G1X840.56Y590.52  ;
N352 G1X840.56Y540.45  ;
N353 G1X835.56Y540.45  ;
N354 G1X835.56Y537.05  ;
N355 G1X846.57Y537.05  ;
N356 G1X846.57Y539.55  ;
N357 G1X905.57Y539.55  ;
N358 G1X905.57Y540.55  ;
N359 G1X911.67Y540.55  ;
N360 G1X911.67Y147.95  ;
N361 G1X905.57Y147.95  ;
N362 G1X905.57Y148.95  ;
N363 G1X846.57Y148.95  ;
N364 G1X846.57Y151.45  ;
N365 G1X835.56Y151.45  ;
N366 G1X835.56Y148.05  ;
N367 G1X840.56Y148.05  ;
N368 G1X840.56Y53  ;
N369 G65 P9104 A102 B04  ;
N370 M98 P9103  ;
(P6:ID4:W86011505)  ;
N371 M98 P9101  ;
N372 G0X1070.15Y321.42  ;
N373 G65 P9102 A102 B04  ;
N374 G1X1070.15Y323.47  ;
N375 G65 P9104 A102 B04  ;
N376 G0X1070.15Y324.36  ;
N377 G65 P9102 A102 B04  ;
N378 G1X1070.15Y330.07  ;
N379 G1X1068.72Y331.5  ;
N380 G1X1067.29Y331.5  ;
N381 G1X1065.86Y330.07  ;
N382 G1X1065.86Y324.36  ;
N383 G1X1060.15Y324.36  ;
N384 G1X1060.15Y331.5  ;
N385 G65 P9104 A102 B04  ;
N386 G0X1060.15Y338.11  ;
N387 G65 P9102 A102 B04  ;
N388 G1X1070.15Y333.82  ;
N389 G65 P9104 A102 B04  ;
N390 G0X1070.15Y333.82  ;
N391 G65 P9102 A102 B04  ;
N392 G1X1068.72Y332.4  ;
N393 G1X1061.58Y332.4  ;
N394 G1X1060.15Y333.82  ;
N395 G1X1060.15Y338.11  ;
N396 G1X1061.58Y339.54  ;
N397 G1X1068.72Y339.54  ;
N398 G1X1070.15Y338.11  ;
N399 G1X1070.15Y333.82  ;
N400 G65 P9104 A102 B04  ;
N401 G0X1070.15Y340.43  ;
N402 G65 P9102 A102 B04  ;
N403 G1X1070.15Y346.15  ;
N404 G1X1068.72Y347.57  ;
N405 G1X1067.29Y347.57  ;
N406 G1X1065.86Y346.15  ;
N407 G1X1065.86Y340.43  ;
N408 G1X1060.15Y340.43  ;
N409 G1X1060.15Y347.57  ;
N410 G65 P9104 A102 B04  ;
N411 G0X1061.17Y321.42  ;
N412 G65 P9102 A102 B04  ;
N413 G1X1060.15Y322.44  ;
N414 G1X1070.15Y322.44  ;
N415 G65 P9104 A101 B01  ;
N416 G0X1067.66Y223.75  ;
N417 G65 P9102 A101 B01  ;
N418 G1X1067.66Y226.7  ;
N419 G3X1067.71Y226.7I0.05J-29.95  ;
N420 G65 P9104 A101 B01  ;
N421 G0X1067.66Y473.75  ;
N422 G65 P9102 A101 B01  ;
N423 G1X1067.66Y476.7  ;
N424 G3X1067.71Y476.7I0.05J-29.95  ;
N425 G65 P9104 A101 B01  ;
N426 G0X1144.87Y55.09  ;
N427 G65 P9102 A101 B01  ;
N428 G1X1142.74Y52.96  ;
N429 G1X1108.73Y18.95  ;
N430 G1X1087.76Y18.95  ;
N431 G1X1087.76Y15.5  ;
N432 G2X1087.21Y14.95I-0.55J0  ;
N433 G1X1048.21Y14.95  ;
N434 G2X1047.66Y15.5I0J0.55  ;
N435 G1X1047.66Y18.95  ;
N436 G1X1026.69Y18.95  ;
N437 G1X992.66Y52.98  ;
N438 G1X992.66Y148.05  ;
N439 G1X997.66Y148.05  ;
N440 G1X997.66Y151.45  ;
N441 G1X986.65Y151.45  ;
N442 G1X986.65Y148.95  ;
N443 G1X927.65Y148.95  ;
N444 G1X927.65Y147.95  ;
N445 G1X921.55Y147.95  ;
N446 G1X921.55Y540.55  ;
N447 G1X927.65Y540.55  ;
N448 G1X927.65Y539.55  ;
N449 G1X986.65Y539.55  ;
N450 G1X986.65Y537.05  ;
N451 G1X997.66Y537.05  ;
N452 G1X997.66Y540.45  ;
N453 G1X992.66Y540.45  ;
N454 G1X992.66Y590.52  ;
N455 G1X1026.69Y624.55  ;
N456 G1X1047.66Y624.55  ;
N457 G1X1047.66Y628  ;
N458 G2X1048.21Y628.55I0.55J0  ;
N459 G1X1087.21Y628.55  ;
N460 G2X1087.76Y628I0J-0.55  ;
N461 G1X1087.76Y624.55  ;
N462 G1X1108.73Y624.55  ;
N463 G1X1142.76Y590.52  ;
N464 G1X1142.76Y540.45  ;
N465 G1X1137.76Y540.45  ;
N466 G1X1137.76Y537.05  ;
N467 G1X1148.77Y537.05  ;
N468 G1X1148.77Y539.55  ;
N469 G1X1207.77Y539.55  ;
N470 G1X1207.77Y540.55  ;
N471 G1X1213.87Y540.55  ;
N472 G1X1213.87Y147.95  ;
N473 G1X1207.77Y147.95  ;
N474 G1X1207.77Y148.95  ;
N475 G1X1148.77Y148.95  ;
N476 G1X1148.77Y151.45  ;
N477 G1X1137.76Y151.45  ;
N478 G1X1137.76Y148.05  ;
N479 G1X1142.76Y148.05  ;
N480 G1X1142.76Y53  ;
N481 G65 P9104 A101 B01  ;
N482 M98 P9103  ;
(P7:ID3:W86011514)  ;
N483 M98 P9101  ;
N484 G0X1278.18Y431.27  ;
N485 G65 P9102 A101 B01  ;
N486 G1X1278.18Y434.22  ;
N487 G3X1278.23Y434.22I0.05J-9.95  ;
N488 G65 P9104 A101 B01  ;
N489 G0X1278.18Y508.27  ;
N490 G65 P9102 A101 B01  ;
N491 G1X1278.18Y511.22  ;
N492 G3X1278.23Y511.22I0.05J-9.95  ;
N493 G65 P9104 A101 B01  ;
N494 G0X1300.26Y378.27  ;
N495 G65 P9102 A101 B01  ;
N496 G1X1300.26Y383.22  ;
N497 G1X1298.18Y383.22  ;
N498 G1X1298.18Y388.22  ;
N499 G1X1295.18Y388.22  ;
N500 G1X1295.18Y388.72  ;
N501 G1X1258.21Y388.72  ;
N502 G1X1234.21Y413.22  ;
N503 G1X1231.21Y413.22  ;
N504 G1X1230.18Y414.25  ;
N505 G1X1230.18Y417.3  ;
N506 G1X1231.21Y418.32  ;
N507 G1X1233.68Y418.32  ;
N508 G1X1233.68Y421.32  ;
N509 G1X1234.18Y421.32  ;
N510 G1X1234.18Y447.83  ;
N511 G3X1234.18Y477.72I0.05J14.94  ;
N512 G1X1234.18Y509.22  ;
N513 G1X1233.68Y509.22  ;
N514 G1X1233.68Y512.32  ;
N515 G1X1234.21Y512.32  ;
N516 G1X1258.21Y536.82  ;
N517 G1X1295.18Y536.82  ;
N518 G1X1295.18Y537.32  ;
N519 G1X1298.18Y537.32  ;
N520 G1X1298.18Y542.32  ;
N521 G1X1303.28Y542.32  ;
N522 G1X1303.28Y383.22  ;
N523 G1X1300.96Y383.22  ;
N524 G65 P9104 A101 B01  ;
N525 M98 P9103  ;
(P8:ID2:W86011517)  ;
N526 M98 P9101  ;
N527 G0X1391.83Y478.63  ;
N528 G65 P9102 A101 B01  ;
N529 G1X1396.78Y478.35  ;
N530 G3X1381.85Y494.1I-14.93J0.8  ;
N531 G1X1378.83Y494.1  ;
N532 G1X1377.8Y495.13  ;
N533 G1X1377.8Y498.17  ;
N534 G1X1378.83Y499.2  ;
N535 G1X1381.8Y499.2  ;
N536 G1X1381.8Y521.1  ;
N537 G1X1381.3Y521.1  ;
N538 G1X1381.3Y524.2  ;
N539 G1X1381.83Y524.2  ;
N540 G1X1409.83Y553.2  ;
N541 G1X1452.8Y553.2  ;
N542 G1X1452.8Y553.7  ;
N543 G1X1455.8Y553.7  ;
N544 G1X1455.8Y558.7  ;
N545 G1X1460.9Y558.7  ;
N546 G1X1460.9Y399.6  ;
N547 G1X1455.8Y399.6  ;
N548 G1X1455.8Y404.6  ;
N549 G1X1452.8Y404.6  ;
N550 G1X1452.8Y405.1  ;
N551 G1X1409.83Y405.1  ;
N552 G1X1381.83Y434.1  ;
N553 G1X1381.3Y434.1  ;
N554 G1X1381.3Y437.2  ;
N555 G1X1381.8Y437.2  ;
N556 G1X1381.8Y464.2  ;
N557 G3X1396.72Y477.65I0.05J14.95  ;
N558 G65 P9104 A102 B04  ;
N559 M98 P9103  ;
(P9:ID5:W86011506)  ;
N560 M98 P9101  ;
N561 G0X849.22Y793.99  ;
N562 G65 P9102 A102 B04  ;
N563 G1X847.17Y793.99  ;
N564 G65 P9104 A102 B04  ;
N565 G0X846.27Y793.99  ;
N566 G65 P9102 A102 B04  ;
N567 G1X840.56Y793.99  ;
N568 G1X839.13Y792.57  ;
N569 G1X839.13Y791.14  ;
N570 G1X840.56Y789.71  ;
N571 G1X846.27Y789.71  ;
N572 G1X846.27Y783.99  ;
N573 G1X839.13Y783.99  ;
N574 G65 P9104 A102 B04  ;
N575 G0X838.24Y785.42  ;
N576 G65 P9102 A102 B04  ;
N577 G1X838.24Y792.57  ;
N578 G1X836.81Y793.99  ;
N579 G1X832.52Y783.99  ;
N580 G1X836.81Y783.99  ;
N581 G1X838.24Y785.42  ;
N582 G65 P9104 A102 B04  ;
N583 G0X832.52Y783.99  ;
N584 G65 P9102 A102 B04  ;
N585 G1X831.1Y785.42  ;
N586 G1X831.1Y792.57  ;
N587 G1X832.52Y793.99  ;
N588 G1X836.81Y793.99  ;
N589 G65 P9104 A102 B04  ;
N590 G0X830.2Y789.71  ;
N591 G65 P9102 A102 B04  ;
N592 G1X824.49Y789.71  ;
N593 G1X823.06Y791.14  ;
N594 G1X823.06Y792.57  ;
N595 G1X824.49Y793.99  ;
N596 G1X828.77Y793.99  ;
N597 G1X830.2Y792.57  ;
N598 G1X830.2Y785.42  ;
N599 G1X828.77Y783.99  ;
N600 G1X824.49Y783.99  ;
N601 G65 P9104 A102 B04  ;
N602 G0X849.22Y785.02  ;
N603 G65 P9102 A102 B04  ;
N604 G1X848.19Y783.99  ;
N605 G1X848.19Y793.99  ;
N606 G65 P9104 A101 B01  ;
N607 G0X942.9Y784.58  ;
N608 G65 P9102 A101 B01  ;
N609 G1X939.95Y784.58  ;
N610 G3X939.95Y784.63I29.95J0.05  ;
N611 G65 P9104 A101 B01  ;
N612 G0X692.9Y784.58  ;
N613 G65 P9102 A101 B01  ;
N614 G1X689.95Y784.58  ;
N615 G3X689.95Y784.63I29.95J0.05  ;
N616 G65 P9104 A101 B01  ;
N617 G0X1167.06Y822.54  ;
N618 G65 P9102 A101 B01  ;
N619 G1X1164.94Y824.66  ;
N620 G1X1130.92Y858.68  ;
N621 G1X1034.85Y858.68  ;
N622 G1X1034.85Y854.68  ;
N623 G1X1031.45Y854.68  ;
N624 G1X1031.45Y865.71  ;
N625 G1X1033.95Y865.71  ;
N626 G1X1033.95Y924.71  ;
N627 G1X1034.95Y924.71  ;
N628 G1X1034.95Y930.81  ;
N629 G1X619.35Y930.81  ;
N630 G1X619.35Y865.71  ;
N631 G1X640.35Y865.71  ;
N632 G1X640.35Y854.63  ;
N633 G2X620.35Y834.68I-19.95J0  ;
N634 G1X620.35Y799.58  ;
N635 G2X620.35Y769.68I0.05J-14.95  ;
N636 G1X620.35Y734.58  ;
N637 G2X640.35Y714.63I0.05J-19.95  ;
N638 G1X640.35Y703.55  ;
N639 G1X619.35Y703.55  ;
N640 G1X619.35Y638.45  ;
N641 G1X1034.95Y638.45  ;
N642 G1X1034.95Y644.55  ;
N643 G1X1033.95Y644.55  ;
N644 G1X1033.95Y703.55  ;
N645 G1X1031.45Y703.55  ;
N646 G1X1031.45Y714.58  ;
N647 G1X1034.85Y714.58  ;
N648 G1X1034.85Y710.58  ;
N649 G1X1130.92Y710.58  ;
N650 G1X1164.95Y744.61  ;
N651 G1X1164.95Y765.08  ;
N652 G1X1167.4Y765.08  ;
N653 G3X1167.95Y765.63I0J0.55  ;
N654 G1X1167.95Y803.63  ;
N655 G3X1167.4Y804.18I-0.55J0  ;
N656 G1X1164.95Y804.18  ;
N657 G1X1164.95Y824.63  ;
N658 G65 P9104 A101 B01  ;
N659 M98 P9103  ;
(P10:ID2:W86011517)  ;
N660 M98 P9101  ;
N661 G0X1399.99Y649.98  ;
N662 G65 P9102 A101 B01  ;
N663 G1X1404.93Y649.7  ;
N664 G3X1390.01Y665.45I-14.92J0.8  ;
N665 G1X1386.99Y665.45  ;
N666 G1X1385.96Y666.48  ;
N667 G1X1385.96Y669.52  ;
N668 G1X1386.99Y670.55  ;
N669 G1X1389.96Y670.55  ;
N670 G1X1389.96Y692.45  ;
N671 G1X1389.46Y692.45  ;
N672 G1X1389.46Y695.55  ;
N673 G1X1389.98Y695.55  ;
N674 G1X1417.98Y724.55  ;
N675 G1X1460.96Y724.55  ;
N676 G1X1460.96Y725.05  ;
N677 G1X1463.96Y725.05  ;
N678 G1X1463.96Y730.05  ;
N679 G1X1469.06Y730.05  ;
N680 G1X1469.06Y570.95  ;
N681 G1X1463.96Y570.95  ;
N682 G1X1463.96Y575.95  ;
N683 G1X1460.96Y575.95  ;
N684 G1X1460.96Y576.45  ;
N685 G1X1417.98Y576.45  ;
N686 G1X1389.98Y605.45  ;
N687 G1X1389.46Y605.45  ;
N688 G1X1389.46Y608.55  ;
N689 G1X1389.96Y608.55  ;
N690 G1X1389.96Y635.55  ;
N691 G3X1404.88Y649I0.05J14.95  ;
N692 G65 P9104 A101 B01  ;
N693 M98 P9103  ;
(P11:ID2:W86011517)  ;
N694 M98 P9101  ;
N695 G0X1291.2Y622.78  ;
N696 G65 P9102 A101 B01  ;
N697 G1X1296.14Y622.5  ;
N698 G3X1281.21Y638.25I-14.93J0.8  ;
N699 G1X1278.19Y638.25  ;
N700 G1X1277.16Y639.28  ;
N701 G1X1277.16Y642.32  ;
N702 G1X1278.19Y643.35  ;
N703 G1X1281.16Y643.35  ;
N704 G1X1281.16Y665.25  ;
N705 G1X1280.66Y665.25  ;
N706 G1X1280.66Y668.35  ;
N707 G1X1281.19Y668.35  ;
N708 G1X1309.19Y697.35  ;
N709 G1X1352.16Y697.35  ;
N710 G1X1352.16Y697.85  ;
N711 G1X1355.16Y697.85  ;
N712 G1X1355.16Y702.85  ;
N713 G1X1360.26Y702.85  ;
N714 G1X1360.26Y543.75  ;
N715 G1X1355.16Y543.75  ;
N716 G1X1355.16Y548.75  ;
N717 G1X1352.16Y548.75  ;
N718 G1X1352.16Y549.25  ;
N719 G1X1309.19Y549.25  ;
N720 G1X1281.19Y578.25  ;
N721 G1X1280.66Y578.25  ;
N722 G1X1280.66Y581.35  ;
N723 G1X1281.16Y581.35  ;
N724 G1X1281.16Y608.35  ;
N725 G3X1296.09Y621.8I0.05J14.95  ;
N726 G65 P9104 A101 B01  ;
N727 M98 P9103  ;
(P12:ID2:W86011517)  ;
N728 M98 P9101  ;
N729 G0X1190.57Y641.82  ;
N730 G65 P9102 A101 B01  ;
N731 G1X1195.51Y641.54  ;
N732 G3X1180.58Y657.29I-14.93J0.8  ;
N733 G1X1177.56Y657.29  ;
N734 G1X1176.53Y658.32  ;
N735 G1X1176.53Y661.36  ;
N736 G1X1177.56Y662.39  ;
N737 G1X1180.53Y662.39  ;
N738 G1X1180.53Y684.29  ;
N739 G1X1180.03Y684.29  ;
N740 G1X1180.03Y687.39  ;
N741 G1X1180.56Y687.39  ;
N742 G1X1208.56Y716.39  ;
N743 G1X1251.53Y716.39  ;
N744 G1X1251.53Y716.89  ;
N745 G1X1254.53Y716.89  ;
N746 G1X1254.53Y721.89  ;
N747 G1X1259.63Y721.89  ;
N748 G1X1259.63Y562.79  ;
N749 G1X1254.53Y562.79  ;
N750 G1X1254.53Y567.79  ;
N751 G1X1251.53Y567.79  ;
N752 G1X1251.53Y568.29  ;
N753 G1X1208.56Y568.29  ;
N754 G1X1180.56Y597.29  ;
N755 G1X1180.03Y597.29  ;
N756 G1X1180.03Y600.39  ;
N757 G1X1180.53Y600.39  ;
N758 G1X1180.53Y627.39  ;
N759 G3X1195.46Y640.84I0.05J14.95  ;
N760 G65 P9104 A101 B01  ;
N761 M98 P9103  ;
(P13:ID6:W86011515)  ;
N762 M98 P9101  ;
N763 G0X463.38Y480  ;
N764 G65 P9102 A101 B01  ;
N765 G1X463.38Y477.05  ;
N766 G3X463.33Y477.05I-0.05J29.95  ;
N767 G65 P9104 A101 B01  ;
N768 G0X463.38Y180  ;
N769 G65 P9102 A101 B01  ;
N770 G1X463.38Y177.05  ;
N771 G3X463.33Y177.05I-0.05J29.95  ;
N772 G65 P9104 A101 B01  ;
N773 G0X317.15Y660  ;
N774 G65 P9102 A101 B01  ;
N775 G1X317.15Y657  ;
N776 G1X317.15Y14.95  ;
N777 G1X382.25Y14.95  ;
N778 G1X382.25Y34.95  ;
N779 G1X393.33Y34.95  ;
N780 G2X413.28Y14.95I0J-19.95  ;
N781 G1X448.38Y14.95  ;
N782 G2X478.28Y14.95I14.95J0.05  ;
N783 G1X513.38Y14.95  ;
N784 G2X533.33Y34.95I19.95J0.05  ;
N785 G1X544.41Y34.95  ;
N786 G1X544.41Y14.95  ;
N787 G1X609.51Y14.95  ;
N788 G1X609.51Y657.05  ;
N789 G1X603.41Y657.05  ;
N790 G1X603.41Y655.55  ;
N791 G1X544.41Y655.55  ;
N792 G1X544.41Y651.05  ;
N793 G1X533.38Y651.05  ;
N794 G1X533.38Y656.95  ;
N795 G1X538.38Y656.95  ;
N796 G1X538.38Y707.02  ;
N797 G1X503.35Y742.05  ;
N798 G1X483.38Y742.05  ;
N799 G1X483.38Y744.5  ;
N800 G3X482.83Y745.05I-0.55J0  ;
N801 G1X443.83Y745.05  ;
N802 G3X443.28Y744.5I0J-0.55  ;
N803 G1X443.28Y742.05  ;
N804 G1X423.31Y742.05  ;
N805 G1X388.28Y707.02  ;
N806 G1X388.28Y656.95  ;
N807 G1X393.28Y656.95  ;
N808 G1X393.28Y651.05  ;
N809 G1X382.25Y651.05  ;
N810 G1X382.25Y655.55  ;
N811 G1X323.25Y655.55  ;
N812 G1X323.25Y657.05  ;
N813 G1X317.2Y657.05  ;
N814 G65 P9104 A101 B01  ;
N815 M98 P9103  ;
(P14:ID6:W86011515)  ;
N816 M98 P9101  ;
N817 G0X161.18Y480  ;
N818 G65 P9102 A101 B01  ;
N819 G1X161.18Y477.05  ;
N820 G3X161.13Y477.05I-0.05J29.95  ;
N821 G65 P9104 A101 B01  ;
N822 G0X161.18Y180  ;
N823 G65 P9102 A101 B01  ;
N824 G1X161.18Y177.05  ;
N825 G3X161.13Y177.05I-0.05J29.95  ;
N826 G65 P9104 A101 B01  ;
N827 G0X14.95Y660  ;
N828 G65 P9102 A101 B01  ;
N829 G1X14.95Y657  ;
N830 G1X14.95Y14.95  ;
N831 G1X80.05Y14.95  ;
N832 G1X80.05Y34.95  ;
N833 G1X91.13Y34.95  ;
N834 G2X111.08Y14.95I0J-19.95  ;
N835 G1X146.18Y14.95  ;
N836 G2X176.08Y14.95I14.95J0.05  ;
N837 G1X211.18Y14.95  ;
N838 G2X231.13Y34.95I19.95J0.05  ;
N839 G1X242.21Y34.95  ;
N840 G1X242.21Y14.95  ;
N841 G1X307.31Y14.95  ;
N842 G1X307.31Y657.05  ;
N843 G1X301.21Y657.05  ;
N844 G1X301.21Y655.55  ;
N845 G1X242.21Y655.55  ;
N846 G1X242.21Y651.05  ;
N847 G1X231.18Y651.05  ;
N848 G1X231.18Y656.95  ;
N849 G1X236.18Y656.95  ;
N850 G1X236.18Y707.02  ;
N851 G1X201.15Y742.05  ;
N852 G1X181.18Y742.05  ;
N853 G1X181.18Y744.5  ;
N854 G3X180.63Y745.05I-0.55J0  ;
N855 G1X141.63Y745.05  ;
N856 G3X141.08Y744.5I0J-0.55  ;
N857 G1X141.08Y742.05  ;
N858 G1X121.11Y742.05  ;
N859 G1X86.08Y707.02  ;
N860 G1X86.08Y656.95  ;
N861 G1X91.08Y656.95  ;
N862 G1X91.08Y651.05  ;
N863 G1X80.05Y651.05  ;
N864 G1X80.05Y655.55  ;
N865 G1X21.05Y655.55  ;
N866 G1X21.05Y657.05  ;
N867 G1X15Y657.05  ;
N868 G65 P9104 A102 B04  ;
N869 M98 P9103  ;
(P15:ID5:W86011506)  ;
N870 M98 P9101  ;
N871 G0X244.82Y910.49  ;
N872 G65 P9102 A102 B04  ;
N873 G1X242.77Y910.49  ;
N874 G65 P9104 A102 B04  ;
N875 G0X241.87Y910.49  ;
N876 G65 P9102 A102 B04  ;
N877 G1X236.16Y910.49  ;
N878 G1X234.73Y909.07  ;
N879 G1X234.73Y907.64  ;
N880 G1X236.16Y906.21  ;
N881 G1X241.87Y906.21  ;
N882 G1X241.87Y900.49  ;
N883 G1X234.73Y900.49  ;
N884 G65 P9104 A102 B04  ;
N885 G0X233.84Y901.92  ;
N886 G65 P9102 A102 B04  ;
N887 G1X233.84Y909.07  ;
N888 G1X232.41Y910.49  ;
N889 G1X228.12Y900.49  ;
N890 G1X232.41Y900.49  ;
N891 G1X233.84Y901.92  ;
N892 G65 P9104 A102 B04  ;
N893 G0X228.12Y900.49  ;
N894 G65 P9102 A102 B04  ;
N895 G1X226.7Y901.92  ;
N896 G1X226.7Y909.07  ;
N897 G1X228.12Y910.49  ;
N898 G1X232.41Y910.49  ;
N899 G65 P9104 A102 B04  ;
N900 G0X225.8Y906.21  ;
N901 G65 P9102 A102 B04  ;
N902 G1X220.09Y906.21  ;
N903 G1X218.66Y907.64  ;
N904 G1X218.66Y909.07  ;
N905 G1X220.09Y910.49  ;
N906 G1X224.37Y910.49  ;
N907 G1X225.8Y909.07  ;
N908 G1X225.8Y901.92  ;
N909 G1X224.37Y900.49  ;
N910 G1X220.09Y900.49  ;
N911 G65 P9104 A102 B04  ;
N912 G0X244.82Y901.52  ;
N913 G65 P9102 A102 B04  ;
N914 G1X243.79Y900.49  ;
N915 G1X243.79Y910.49  ;
N916 G65 P9104 A101 B01  ;
N917 G0X338.5Y901.08  ;
N918 G65 P9102 A101 B01  ;
N919 G1X335.55Y901.08  ;
N920 G3X335.55Y901.13I29.95J0.05  ;
N921 G65 P9104 A101 B01  ;
N922 G0X88.5Y901.08  ;
N923 G65 P9102 A101 B01  ;
N924 G1X85.55Y901.08  ;
N925 G3X85.55Y901.13I29.95J0.05  ;
N926 G65 P9104 A101 B01  ;
N927 G0X562.66Y939.04  ;
N928 G65 P9102 A101 B01  ;
N929 G1X560.54Y941.16  ;
N930 G1X526.52Y975.18  ;
N931 G1X430.45Y975.18  ;
N932 G1X430.45Y971.18  ;
N933 G1X427.05Y971.18  ;
N934 G1X427.05Y982.21  ;
N935 G1X429.55Y982.21  ;
N936 G1X429.55Y1041.21  ;
N937 G1X430.55Y1041.21  ;
N938 G1X430.55Y1047.31  ;
N939 G1X14.95Y1047.31  ;
N940 G1X14.95Y982.21  ;
N941 G1X35.95Y982.21  ;
N942 G1X35.95Y971.13  ;
N943 G2X15.95Y951.18I-19.95J0  ;
N944 G1X15.95Y916.08  ;
N945 G2X15.95Y886.18I0.05J-14.95  ;
N946 G1X15.95Y851.08  ;
N947 G2X35.95Y831.13I0.05J-19.95  ;
N948 G1X35.95Y820.05  ;
N949 G1X14.95Y820.05  ;
N950 G1X14.95Y754.95  ;
N951 G1X430.55Y754.95  ;
N952 G1X430.55Y761.05  ;
N953 G1X429.55Y761.05  ;
N954 G1X429.55Y820.05  ;
N955 G1X427.05Y820.05  ;
N956 G1X427.05Y831.08  ;
N957 G1X430.45Y831.08  ;
N958 G1X430.45Y827.08  ;
N959 G1X526.52Y827.08  ;
N960 G1X560.55Y861.11  ;
N961 G1X560.55Y881.58  ;
N962 G1X563Y881.58  ;
N963 G3X563.55Y882.13I0J0.55  ;
N964 G1X563.55Y920.13  ;
N965 G3X563Y920.68I-0.55J0  ;
N966 G1X560.55Y920.68  ;
N967 G1X560.55Y941.13  ;
N968 G65 P9104 A102 B04  ;
N969 M98 P9103  ;
(P16:ID7:W86011518)  ;
N970 M98 P9101  ;
N971 G0X1456.86Y963.69  ;
N972 G65 P9102 A102 B04  ;
N973 G1X1465.36Y968.59  ;
N974 G1X1465.36Y978.41  ;
N975 G1X1456.86Y983.31  ;
N976 G1X1448.36Y978.41  ;
N977 G1X1448.36Y968.59  ;
N978 G1X1456.86Y963.69  ;
N979 G65 P9104 A102 B04  ;
N980 G0X1456.86Y1413.69  ;
N981 G65 P9102 A102 B04  ;
N982 G1X1465.36Y1418.59  ;
N983 G1X1465.36Y1428.41  ;
N984 G1X1456.86Y1433.31  ;
N985 G1X1448.36Y1428.41  ;
N986 G1X1448.36Y1418.59  ;
N987 G1X1456.86Y1413.69  ;
N988 G65 P9104 A102 B04  ;
N989 G0X1456.86Y1863.69  ;
N990 G65 P9102 A102 B04  ;
N991 G1X1465.36Y1868.59  ;
N992 G1X1465.36Y1878.41  ;
N993 G1X1456.86Y1883.31  ;
N994 G1X1448.36Y1878.41  ;
N995 G1X1448.36Y1868.59  ;
N996 G1X1456.86Y1863.69  ;
N997 G65 P9104 A102 B04  ;
N998 G0X1346.5Y1903.33  ;
N999 G65 P9102 A102 B04  ;
N1000 G1X1346.5Y1906.19  ;
N1001 G65 P9104 A102 B04  ;
N1002 G0X1346.5Y1907.08  ;
N1003 G65 P9102 A102 B04  ;
N1004 G1X1336.5Y1907.08  ;
N1005 G1X1346.5Y1914.23  ;
N1006 G1X1336.5Y1914.23  ;
N1007 G65 P9104 A102 B04  ;
N1008 G0X1336.5Y1915.12  ;
N1009 G65 P9102 A102 B04  ;
N1010 G1X1336.5Y1922.26  ;
N1011 G65 P9104 A102 B04  ;
N1012 G0X1336.5Y1918.69  ;
N1013 G65 P9102 A102 B04  ;
N1014 G1X1346.5Y1918.69  ;
N1015 G65 P9104 A102 B04  ;
N1016 G0X1346.5Y1904.76  ;
N1017 G65 P9102 A102 B04  ;
N1018 G1X1336.5Y1904.76  ;
N1019 G65 P9104 A102 B04  ;
N1020 G0X1336.5Y1903.33  ;
N1021 G65 P9102 A102 B04  ;
N1022 G1X1336.5Y1906.19  ;
N1023 G65 P9104 A102 B04  ;
N1024 G0X1456.86Y2313.69  ;
N1025 G65 P9102 A102 B04  ;
N1026 G1X1465.36Y2318.59  ;
N1027 G1X1465.36Y2328.41  ;
N1028 G1X1456.86Y2333.31  ;
N1029 G1X1448.36Y2328.41  ;
N1030 G1X1448.36Y2318.59  ;
N1031 G1X1456.86Y2313.69  ;
N1032 G65 P9104 A102 B04  ;
N1033 G0X1456.86Y2763.69  ;
N1034 G65 P9102 A102 B04  ;
N1035 G1X1465.36Y2768.59  ;
N1036 G1X1465.36Y2778.41  ;
N1037 G1X1456.86Y2783.31  ;
N1038 G1X1448.36Y2778.41  ;
N1039 G1X1448.36Y2768.59  ;
N1040 G1X1456.86Y2763.69  ;
N1041 G65 P9104 A101 B02  ;
N1042 G0X1454.52Y2775.76  ;
N1043 G65 P9102 A101 B02  ;
N1044 G1X1452.44Y2777.85  ;
N1045 G3X1452.47Y2777.88I4.42J-4.35  ;
N1046 G65 P9104 A101 B02  ;
N1047 G0X1318.6Y2856.06  ;
N1048 G65 P9102 A101 B02  ;
N1049 G1X1316.52Y2858.14  ;
N1050 G3X1316.55Y2858.18I21.21J-21.14  ;
N1051 G65 P9104 A101 B02  ;
N1052 G0X1318.6Y2556.06  ;
N1053 G65 P9102 A101 B02  ;
N1054 G1X1316.52Y2558.14  ;
N1055 G3X1316.55Y2558.18I21.21J-21.14  ;
N1056 G65 P9104 A101 B02  ;
N1057 G0X1261.23Y2503.55  ;
N1058 G65 P9102 A101 B02  ;
N1059 G1X1264.23Y2503.55  ;
N1060 G1X1267.68Y2503.55  ;
N1061 G1X1267.68Y2504.95  ;
N1062 G1X1257.78Y2504.95  ;
N1063 G1X1257.78Y2495.05  ;
N1064 G1X1261.32Y2495.05  ;
N1065 G1X1262.35Y2494.02  ;
N1066 G1X1262.35Y2389.98  ;
N1067 G1X1261.32Y2388.95  ;
N1068 G1X1257.78Y2388.95  ;
N1069 G1X1257.78Y2379.05  ;
N1070 G1X1267.68Y2379.05  ;
N1071 G1X1267.68Y2380.45  ;
N1072 G1X1264.18Y2380.45  ;
N1073 G1X1264.18Y2503.5  ;
N1074 G65 P9104 A101 B02  ;
N1075 G0X1290.9Y2441.13  ;
N1076 G65 P9102 A101 B02  ;
N1077 G1X1288.75Y2441.13  ;
N1078 G2X1287.88Y2442I0J0.87  ;
N1079 G1X1287.88Y2444.55  ;
N1080 G1X1293.58Y2444.55  ;
N1081 G1X1293.58Y2439.45  ;
N1082 G1X1287.88Y2439.45  ;
N1083 G1X1287.88Y2442  ;
N1084 G65 P9104 A101 B02  ;
N1085 G0X1414.23Y2503.55  ;
N1086 G65 P9102 A101 B02  ;
N1087 G1X1411.23Y2503.55  ;
N1088 G1X1407.78Y2503.55  ;
N1089 G1X1407.78Y2504.95  ;
N1090 G1X1417.68Y2504.95  ;
N1091 G1X1417.68Y2495.05  ;
N1092 G1X1414.14Y2495.05  ;
N1093 G1X1413.11Y2494.02  ;
N1094 G1X1413.11Y2389.98  ;
N1095 G1X1414.14Y2388.95  ;
N1096 G1X1417.68Y2388.95  ;
N1097 G1X1417.68Y2379.05  ;
N1098 G1X1407.78Y2379.05  ;
N1099 G1X1407.78Y2380.45  ;
N1100 G1X1411.28Y2380.45  ;
N1101 G1X1411.28Y2503.5  ;
N1102 G65 P9104 A101 B02  ;
N1103 G0X1454.52Y2325.76  ;
N1104 G65 P9102 A101 B02  ;
N1105 G1X1452.44Y2327.85  ;
N1106 G3X1452.47Y2327.88I4.42J-4.35  ;
N1107 G65 P9104 A101 B02  ;
N1108 G0X1318.6Y2206.06  ;
N1109 G65 P9102 A101 B02  ;
N1110 G1X1316.52Y2208.14  ;
N1111 G3X1316.55Y2208.18I21.21J-21.14  ;
N1112 G65 P9104 A101 B02  ;
N1113 G0X1261.23Y1953.55  ;
N1114 G65 P9102 A101 B02  ;
N1115 G1X1264.23Y1953.55  ;
N1116 G1X1267.68Y1953.55  ;
N1117 G1X1267.68Y1954.95  ;
N1118 G1X1257.78Y1954.95  ;
N1119 G1X1257.78Y1945.05  ;
N1120 G1X1261.32Y1945.05  ;
N1121 G1X1262.35Y1944.02  ;
N1122 G1X1262.35Y1839.98  ;
N1123 G1X1261.32Y1838.95  ;
N1124 G1X1257.78Y1838.95  ;
N1125 G1X1257.78Y1829.05  ;
N1126 G1X1267.68Y1829.05  ;
N1127 G1X1267.68Y1830.45  ;
N1128 G1X1264.18Y1830.45  ;
N1129 G1X1264.18Y1953.5  ;
N1130 G65 P9104 A101 B02  ;
N1131 G0X1290.9Y1891.13  ;
N1132 G65 P9102 A101 B02  ;
N1133 G1X1288.75Y1891.13  ;
N1134 G2X1287.88Y1892I0J0.87  ;
N1135 G1X1287.88Y1894.55  ;
N1136 G1X1293.58Y1894.55  ;
N1137 G1X1293.58Y1889.45  ;
N1138 G1X1287.88Y1889.45  ;
N1139 G1X1287.88Y1892  ;
N1140 G65 P9104 A101 B02  ;
N1141 G0X1414.23Y1953.55  ;
N1142 G65 P9102 A101 B02  ;
N1143 G1X1411.23Y1953.55  ;
N1144 G1X1407.78Y1953.55  ;
N1145 G1X1407.78Y1954.95  ;
N1146 G1X1417.68Y1954.95  ;
N1147 G1X1417.68Y1945.05  ;
N1148 G1X1414.14Y1945.05  ;
N1149 G1X1413.11Y1944.02  ;
N1150 G1X1413.11Y1839.98  ;
N1151 G1X1414.14Y1838.95  ;
N1152 G1X1417.68Y1838.95  ;
N1153 G1X1417.68Y1829.05  ;
N1154 G1X1407.78Y1829.05  ;
N1155 G1X1407.78Y1830.45  ;
N1156 G1X1411.28Y1830.45  ;
N1157 G1X1411.28Y1953.5  ;
N1158 G65 P9104 A101 B02  ;
N1159 G0X1454.52Y1875.76  ;
N1160 G65 P9102 A101 B02  ;
N1161 G1X1452.44Y1877.85  ;
N1162 G3X1452.47Y1877.88I4.42J-4.35  ;
N1163 G65 P9104 A101 B02  ;
N1164 G0X1318.6Y1538.56  ;
N1165 G65 P9102 A101 B02  ;
N1166 G1X1316.52Y1540.64  ;
N1167 G3X1316.55Y1540.68I21.21J-21.14  ;
N1168 G65 P9104 A101 B02  ;
N1169 G0X1261.23Y1403.55  ;
N1170 G65 P9102 A101 B02  ;
N1171 G1X1264.23Y1403.55  ;
N1172 G1X1267.68Y1403.55  ;
N1173 G1X1267.68Y1404.95  ;
N1174 G1X1257.78Y1404.95  ;
N1175 G1X1257.78Y1395.05  ;
N1176 G1X1261.32Y1395.05  ;
N1177 G1X1262.35Y1394.02  ;
N1178 G1X1262.35Y1289.98  ;
N1179 G1X1261.32Y1288.95  ;
N1180 G1X1257.78Y1288.95  ;
N1181 G1X1257.78Y1279.05  ;
N1182 G1X1267.68Y1279.05  ;
N1183 G1X1267.68Y1280.45  ;
N1184 G1X1264.18Y1280.45  ;
N1185 G1X1264.18Y1403.5  ;
N1186 G65 P9104 A101 B02  ;
N1187 G0X1290.9Y1341.13  ;
N1188 G65 P9102 A101 B02  ;
N1189 G1X1288.75Y1341.13  ;
N1190 G2X1287.88Y1342I0J0.87  ;
N1191 G1X1287.88Y1344.55  ;
N1192 G1X1293.58Y1344.55  ;
N1193 G1X1293.58Y1339.45  ;
N1194 G1X1287.88Y1339.45  ;
N1195 G1X1287.88Y1342  ;
N1196 G65 P9104 A101 B02  ;
N1197 G0X1414.23Y1403.55  ;
N1198 G65 P9102 A101 B02  ;
N1199 G1X1411.23Y1403.55  ;
N1200 G1X1407.78Y1403.55  ;
N1201 G1X1407.78Y1404.95  ;
N1202 G1X1417.68Y1404.95  ;
N1203 G1X1417.68Y1395.05  ;
N1204 G1X1414.14Y1395.05  ;
N1205 G1X1413.11Y1394.02  ;
N1206 G1X1413.11Y1289.98  ;
N1207 G1X1414.14Y1288.95  ;
N1208 G1X1417.68Y1288.95  ;
N1209 G1X1417.68Y1279.05  ;
N1210 G1X1407.78Y1279.05  ;
N1211 G1X1407.78Y1280.45  ;
N1212 G1X1411.28Y1280.45  ;
N1213 G1X1411.28Y1403.5  ;
N1214 G65 P9104 A101 B02  ;
N1215 G0X1454.52Y1425.76  ;
N1216 G65 P9102 A101 B02  ;
N1217 G1X1452.44Y1427.85  ;
N1218 G3X1452.47Y1427.88I4.42J-4.35  ;
N1219 G65 P9104 A101 B02  ;
N1220 G0X1318.6Y1188.56  ;
N1221 G65 P9102 A101 B02  ;
N1222 G1X1316.52Y1190.64  ;
N1223 G3X1316.55Y1190.68I21.21J-21.14  ;
N1224 G65 P9104 A101 B02  ;
N1225 G0X1454.52Y975.76  ;
N1226 G65 P9102 A101 B02  ;
N1227 G1X1452.44Y977.85  ;
N1228 G3X1452.47Y977.88I4.42J-4.35  ;
N1229 G65 P9104 A101 B02  ;
N1230 G0X1318.6Y888.56  ;
N1231 G65 P9102 A101 B02  ;
N1232 G1X1316.52Y890.64  ;
N1233 G3X1316.55Y890.68I21.21J-21.14  ;
N1234 G65 P9104 A101 B01  ;
N1235 G0X1381.73Y725.45  ;
N1236 G65 P9102 A101 B01  ;
N1237 G1X1378.73Y725.45  ;
N1238 G1X1357.28Y725.45  ;
N1239 G1X1357.28Y722  ;
N1240 G2X1356.73Y721.45I-0.55J0  ;
N1241 G1X1318.73Y721.45  ;
N1242 G2X1318.18Y722I0J0.55  ;
N1243 G1X1318.18Y725.45  ;
N1244 G1X1296.71Y725.45  ;
N1245 G1X1263.18Y759.48  ;
N1246 G1X1263.18Y854.55  ;
N1247 G1X1267.68Y854.55  ;
N1248 G1X1267.68Y860.45  ;
N1249 G1X1256.65Y860.45  ;
N1250 G1X1256.65Y855.95  ;
N1251 G1X1197.65Y855.95  ;
N1252 G1X1197.65Y854.45  ;
N1253 G1X1191.55Y854.45  ;
N1254 G1X1191.55Y1339.45  ;
N1255 G1X1197.25Y1339.45  ;
N1256 G1X1197.25Y1344.55  ;
N1257 G1X1191.55Y1344.55  ;
N1258 G1X1191.55Y1889.45  ;
N1259 G1X1197.25Y1889.45  ;
N1260 G1X1197.25Y1894.55  ;
N1261 G1X1191.55Y1894.55  ;
N1262 G1X1191.55Y2439.45  ;
N1263 G1X1197.25Y2439.45  ;
N1264 G1X1197.25Y2444.55  ;
N1265 G1X1191.55Y2444.55  ;
N1266 G1X1191.55Y2895.55  ;
N1267 G1X1197.65Y2895.55  ;
N1268 G1X1197.65Y2894.05  ;
N1269 G1X1256.65Y2894.05  ;
N1270 G1X1256.65Y2891.05  ;
N1271 G1X1267.68Y2891.05  ;
N1272 G1X1267.68Y2896.95  ;
N1273 G1X1263.18Y2896.95  ;
N1274 G1X1263.18Y2947.02  ;
N1275 G1X1296.71Y2980.05  ;
N1276 G1X1318.18Y2980.05  ;
N1277 G1X1318.18Y2984.5  ;
N1278 G2X1318.73Y2985.05I0.55J0  ;
N1279 G1X1356.73Y2985.05  ;
N1280 G2X1357.28Y2984.5I0J-0.55  ;
N1281 G1X1357.28Y2980.05  ;
N1282 G1X1378.75Y2980.05  ;
N1283 G1X1412.28Y2947.02  ;
N1284 G1X1412.28Y2896.95  ;
N1285 G1X1407.78Y2896.95  ;
N1286 G1X1407.78Y2891.05  ;
N1287 G1X1418.81Y2891.05  ;
N1288 G1X1418.81Y2894.05  ;
N1289 G1X1477.81Y2894.05  ;
N1290 G1X1477.81Y2895.55  ;
N1291 G1X1483.91Y2895.55  ;
N1292 G1X1483.91Y2444.55  ;
N1293 G1X1478.21Y2444.55  ;
N1294 G1X1478.21Y2439.45  ;
N1295 G1X1483.91Y2439.45  ;
N1296 G1X1483.91Y1894.55  ;
N1297 G1X1478.21Y1894.55  ;
N1298 G1X1478.21Y1889.45  ;
N1299 G1X1483.91Y1889.45  ;
N1300 G1X1483.91Y1344.55  ;
N1301 G1X1478.21Y1344.55  ;
N1302 G1X1478.21Y1339.45  ;
N1303 G1X1483.91Y1339.45  ;
N1304 G1X1483.91Y854.45  ;
N1305 G1X1477.81Y854.45  ;
N1306 G1X1477.81Y855.95  ;
N1307 G1X1418.81Y855.95  ;
N1308 G1X1418.81Y860.45  ;
N1309 G1X1407.78Y860.45  ;
N1310 G1X1407.78Y854.55  ;
N1311 G1X1412.28Y854.55  ;
N1312 G1X1412.28Y759.48  ;
N1313 G1X1378.76Y725.46  ;
N1314 G65 P9104 A102 B04  ;
N1315 M98 P9103  ;
(P17:ID8:W86011503)  ;
N1316 M98 P9101  ;
N1317 G0X1063.02Y1175.64  ;
N1318 G65 P9102 A102 B04  ;
N1319 G1X1075.02Y1182.57  ;
N1320 G1X1075.02Y1196.43  ;
N1321 G1X1063.02Y1203.36  ;
N1322 G1X1051.02Y1196.43  ;
N1323 G1X1051.02Y1182.57  ;
N1324 G1X1063.02Y1175.64  ;
N1325 G65 P9104 A102 B04  ;
N1326 G0X1015.02Y1182.57  ;
N1327 G65 P9102 A102 B04  ;
N1328 G1X1015.02Y1196.43  ;
N1329 G1X1003.02Y1203.36  ;
N1330 G1X991.02Y1196.43  ;
N1331 G1X991.02Y1182.57  ;
N1332 G1X1003.02Y1175.64  ;
N1333 G1X1015.02Y1182.57  ;
N1334 G65 P9104 A102 B04  ;
N1335 G0X884.9Y1104.41  ;
N1336 G65 P9102 A102 B04  ;
N1337 G1X876.4Y1109.31  ;
N1338 G1X867.9Y1104.41  ;
N1339 G1X867.9Y1094.59  ;
N1340 G1X876.4Y1089.69  ;
N1341 G1X884.9Y1094.59  ;
N1342 G1X884.9Y1104.41  ;
N1343 G65 P9104 A102 B04  ;
N1344 G0X1003.02Y1350.64  ;
N1345 G65 P9102 A102 B04  ;
N1346 G1X1015.02Y1357.57  ;
N1347 G1X1015.02Y1371.43  ;
N1348 G1X1003.02Y1378.36  ;
N1349 G1X991.02Y1371.43  ;
N1350 G1X991.02Y1357.57  ;
N1351 G1X1003.02Y1350.64  ;
N1352 G65 P9104 A102 B04  ;
N1353 G0X1051.02Y1357.57  ;
N1354 G65 P9102 A102 B04  ;
N1355 G1X1063.02Y1350.64  ;
N1356 G1X1075.02Y1357.57  ;
N1357 G1X1075.02Y1371.43  ;
N1358 G1X1063.02Y1378.36  ;
N1359 G1X1051.02Y1371.43  ;
N1360 G1X1051.02Y1357.57  ;
N1361 G65 P9104 A102 B04  ;
N1362 G0X884.9Y1467.59  ;
N1363 G65 P9102 A102 B04  ;
N1364 G1X884.9Y1477.41  ;
N1365 G1X876.4Y1482.31  ;
N1366 G1X867.9Y1477.41  ;
N1367 G1X867.9Y1467.59  ;
N1368 G1X876.4Y1462.69  ;
N1369 G1X884.9Y1467.59  ;
N1370 G65 P9104 A102 B04  ;
N1371 G0X1015.77Y1839.38  ;
N1372 G65 P9102 A102 B04  ;
N1373 G1X1014.75Y1840.4  ;
N1374 G1X1024.75Y1840.4  ;
N1375 G65 P9104 A102 B04  ;
N1376 G0X1024.75Y1839.38  ;
N1377 G65 P9102 A102 B04  ;
N1378 G1X1024.75Y1841.43  ;
N1379 G65 P9104 A102 B04  ;
N1380 G0X1024.75Y1842.32  ;
N1381 G65 P9102 A102 B04  ;
N1382 G1X1024.75Y1848.03  ;
N1383 G1X1023.32Y1849.46  ;
N1384 G1X1021.89Y1849.46  ;
N1385 G1X1020.46Y1848.03  ;
N1386 G1X1020.46Y1842.32  ;
N1387 G1X1014.75Y1842.32  ;
N1388 G1X1014.75Y1849.46  ;
N1389 G65 P9104 A102 B04  ;
N1390 G0X1014.75Y1856.07  ;
N1391 G65 P9102 A102 B04  ;
N1392 G1X1024.75Y1851.78  ;
N1393 G65 P9104 A102 B04  ;
N1394 G0X1024.75Y1851.78  ;
N1395 G65 P9102 A102 B04  ;
N1396 G1X1023.32Y1850.35  ;
N1397 G1X1016.17Y1850.35  ;
N1398 G1X1014.75Y1851.78  ;
N1399 G1X1014.75Y1856.07  ;
N1400 G1X1016.17Y1857.5  ;
N1401 G1X1023.32Y1857.5  ;
N1402 G1X1024.75Y1856.07  ;
N1403 G1X1024.75Y1851.78  ;
N1404 G65 P9104 A102 B04  ;
N1405 G0X1023.32Y1858.39  ;
N1406 G65 P9102 A102 B04  ;
N1407 G1X1024.75Y1859.82  ;
N1408 G1X1024.75Y1864.1  ;
N1409 G1X1023.32Y1865.53  ;
N1410 G1X1021.89Y1865.53  ;
N1411 G1X1020.46Y1864.1  ;
N1412 G1X1019.03Y1865.53  ;
N1413 G1X1016.17Y1865.53  ;
N1414 G1X1014.75Y1864.1  ;
N1415 G1X1014.75Y1859.82  ;
N1416 G1X1016.17Y1858.39  ;
N1417 G65 P9104 A102 B04  ;
N1418 G0X1020.46Y1859.82  ;
N1419 G65 P9102 A102 B04  ;
N1420 G1X1020.46Y1864.1  ;
N1421 G65 P9104 A102 B04  ;
N1422 G0X884.9Y1877.59  ;
N1423 G65 P9102 A102 B04  ;
N1424 G1X884.9Y1887.41  ;
N1425 G1X876.4Y1892.31  ;
N1426 G1X867.9Y1887.41  ;
N1427 G1X867.9Y1877.59  ;
N1428 G1X876.4Y1872.69  ;
N1429 G1X884.9Y1877.59  ;
N1430 G65 P9104 A102 B04  ;
N1431 G0X876.4Y2056.69  ;
N1432 G65 P9102 A102 B04  ;
N1433 G1X884.9Y2061.59  ;
N1434 G1X884.9Y2071.41  ;
N1435 G1X876.4Y2076.31  ;
N1436 G1X867.9Y2071.41  ;
N1437 G1X867.9Y2061.59  ;
N1438 G1X876.4Y2056.69  ;
N1439 G65 P9104 A102 B04  ;
N1440 G0X1003.02Y2570.64  ;
N1441 G65 P9102 A102 B04  ;
N1442 G1X1015.02Y2577.57  ;
N1443 G1X1015.02Y2591.43  ;
N1444 G1X1003.02Y2598.36  ;
N1445 G1X991.02Y2591.43  ;
N1446 G1X991.02Y2577.57  ;
N1447 G1X1003.02Y2570.64  ;
N1448 G65 P9104 A102 B04  ;
N1449 G0X1051.02Y2577.57  ;
N1450 G65 P9102 A102 B04  ;
N1451 G1X1063.02Y2570.64  ;
N1452 G1X1075.02Y2577.57  ;
N1453 G1X1075.02Y2591.43  ;
N1454 G1X1063.02Y2598.36  ;
N1455 G1X1051.02Y2591.43  ;
N1456 G1X1051.02Y2577.57  ;
N1457 G65 P9104 A102 B04  ;
N1458 G0X1003.02Y2745.64  ;
N1459 G65 P9102 A102 B04  ;
N1460 G1X1015.02Y2752.57  ;
N1461 G1X1015.02Y2766.43  ;
N1462 G1X1003.02Y2773.36  ;
N1463 G1X991.02Y2766.43  ;
N1464 G1X991.02Y2752.57  ;
N1465 G1X1003.02Y2745.64  ;
N1466 G65 P9104 A102 B04  ;
N1467 G0X1051.02Y2752.57  ;
N1468 G65 P9102 A102 B04  ;
N1469 G1X1063.02Y2745.64  ;
N1470 G1X1075.02Y2752.57  ;
N1471 G1X1075.02Y2766.43  ;
N1472 G1X1063.02Y2773.36  ;
N1473 G1X1051.02Y2766.43  ;
N1474 G1X1051.02Y2752.57  ;
N1475 G65 P9104 A102 B04  ;
N1476 G0X884.9Y2844.59  ;
N1477 G65 P9102 A102 B04  ;
N1478 G1X884.9Y2854.41  ;
N1479 G1X876.4Y2859.31  ;
N1480 G1X867.9Y2854.41  ;
N1481 G1X867.9Y2844.59  ;
N1482 G1X876.4Y2839.69  ;
N1483 G1X884.9Y2844.59  ;
N1484 G65 P9104 A101 B02  ;
N1485 G0X874.07Y2851.76  ;
N1486 G65 P9102 A101 B02  ;
N1487 G1X871.98Y2853.85  ;
N1488 G3X872.02Y2853.88I4.42J-4.35  ;
N1489 G65 P9104 A101 B02  ;
N1490 G0X921.54Y2877.29  ;
N1491 G65 P9102 A101 B02  ;
N1492 G1X919.45Y2879.38  ;
N1493 G3X919.49Y2879.41I4.95J-4.88  ;
N1494 G65 P9104 A101 B02  ;
N1495 G0X1003.52Y2901.55  ;
N1496 G65 P9102 A101 B02  ;
N1497 G1X1000.52Y2901.55  ;
N1498 G2X999.57Y2902.5I0J0.95  ;
N1499 G1X999.57Y2905.45  ;
N1500 G1X1041.47Y2905.45  ;
N1501 G1X1041.47Y2899.55  ;
N1502 G1X999.57Y2899.55  ;
N1503 G1X999.57Y2902.5  ;
N1504 G65 P9104 A101 B02  ;
N1505 G0X1137.37Y2960.21  ;
N1506 G65 P9102 A101 B02  ;
N1507 G1X1135.28Y2962.29  ;
N1508 G3X1135.32Y2962.33I6.36J-6.29  ;
N1509 G65 P9104 A101 B02  ;
N1510 G0X1058.43Y2764.03  ;
N1511 G65 P9102 A101 B02  ;
N1512 G1X1056.34Y2766.11  ;
N1513 G3X1056.38Y2766.15I6.68J-6.61  ;
N1514 G65 P9104 A101 B02  ;
N1515 G0X998.43Y2764.03  ;
N1516 G65 P9102 A101 B02  ;
N1517 G1X996.34Y2766.11  ;
N1518 G3X996.38Y2766.15I6.68J-6.61  ;
N1519 G65 P9104 A101 B02  ;
N1520 G0X998.43Y2589.03  ;
N1521 G65 P9102 A101 B02  ;
N1522 G1X996.34Y2591.11  ;
N1523 G3X996.38Y2591.15I6.68J-6.61  ;
N1524 G65 P9104 A101 B02  ;
N1525 G0X1058.43Y2589.03  ;
N1526 G65 P9102 A101 B02  ;
N1527 G1X1056.34Y2591.11  ;
N1528 G3X1056.38Y2591.15I6.68J-6.61  ;
N1529 G65 P9104 A101 B02  ;
N1530 G0X873.89Y2478.94  ;
N1531 G65 P9102 A101 B02  ;
N1532 G1X871.8Y2481.03  ;
N1533 G3X871.84Y2481.06I4.6J-4.53  ;
N1534 G65 P9104 A101 B02  ;
N1535 G0X921.54Y2427.29  ;
N1536 G65 P9102 A101 B02  ;
N1537 G1X919.45Y2429.38  ;
N1538 G3X919.49Y2429.41I4.95J-4.88  ;
N1539 G65 P9104 A101 B02  ;
N1540 G0X876.88Y2235.95  ;
N1541 G65 P9102 A101 B02  ;
N1542 G1X874.79Y2238.04  ;
N1543 G3X874.83Y2238.07I3.61J-3.54  ;
N1544 G65 P9104 A101 B02  ;
N1545 G0X874.07Y2068.76  ;
N1546 G65 P9102 A101 B02  ;
N1547 G1X871.98Y2070.85  ;
N1548 G3X872.02Y2070.88I4.42J-4.35  ;
N1549 G65 P9104 A101 B02  ;
N1550 G0X921.54Y1977.29  ;
N1551 G65 P9102 A101 B02  ;
N1552 G1X919.45Y1979.38  ;
N1553 G3X919.49Y1979.41I4.95J-4.88  ;
N1554 G65 P9104 A101 B02  ;
N1555 G0X1003.52Y2013.55  ;
N1556 G65 P9102 A101 B02  ;
N1557 G1X1000.52Y2013.55  ;
N1558 G2X999.57Y2014.5I0J0.95  ;
N1559 G1X999.57Y2017.45  ;
N1560 G1X1041.47Y2017.45  ;
N1561 G1X1041.47Y2011.55  ;
N1562 G1X999.57Y2011.55  ;
N1563 G1X999.57Y2014.5  ;
N1564 G65 P9104 A101 B02  ;
N1565 G0X874.07Y1884.76  ;
N1566 G65 P9102 A101 B02  ;
N1567 G1X871.98Y1886.85  ;
N1568 G3X872.02Y1886.88I4.42J-4.35  ;
N1569 G65 P9104 A101 B02  ;
N1570 G0X876.88Y1715.95  ;
N1571 G65 P9102 A101 B02  ;
N1572 G1X874.79Y1718.04  ;
N1573 G3X874.83Y1718.07I3.61J-3.54  ;
N1574 G65 P9104 A101 B02  ;
N1575 G0X921.54Y1527.29  ;
N1576 G65 P9102 A101 B02  ;
N1577 G1X919.45Y1529.38  ;
N1578 G3X919.49Y1529.41I4.95J-4.88  ;
N1579 G65 P9104 A101 B02  ;
N1580 G0X874.07Y1474.76  ;
N1581 G65 P9102 A101 B02  ;
N1582 G1X871.98Y1476.85  ;
N1583 G3X872.02Y1476.88I4.42J-4.35  ;
N1584 G65 P9104 A101 B02  ;
N1585 G0X1003.52Y1419.05  ;
N1586 G65 P9102 A101 B02  ;
N1587 G1X1000.52Y1419.05  ;
N1588 G2X999.57Y1420I0J0.95  ;
N1589 G1X999.57Y1422.95  ;
N1590 G1X1041.47Y1422.95  ;
N1591 G1X1041.47Y1417.05  ;
N1592 G1X999.57Y1417.05  ;
N1593 G1X999.57Y1420  ;
N1594 G65 P9104 A101 B02  ;
N1595 G0X998.43Y1369.03  ;
N1596 G65 P9102 A101 B02  ;
N1597 G1X996.34Y1371.11  ;
N1598 G3X996.38Y1371.15I6.68J-6.61  ;
N1599 G65 P9104 A101 B02  ;
N1600 G0X1058.43Y1369.03  ;
N1601 G65 P9102 A101 B02  ;
N1602 G1X1056.34Y1371.11  ;
N1603 G3X1056.38Y1371.15I6.68J-6.61  ;
N1604 G65 P9104 A101 B02  ;
N1605 G0X1058.43Y1194.03  ;
N1606 G65 P9102 A101 B02  ;
N1607 G1X1056.34Y1196.11  ;
N1608 G3X1056.38Y1196.15I6.68J-6.61  ;
N1609 G65 P9104 A101 B02  ;
N1610 G0X998.43Y1194.03  ;
N1611 G65 P9102 A101 B02  ;
N1612 G1X996.34Y1196.11  ;
N1613 G3X996.38Y1196.15I6.68J-6.61  ;
N1614 G65 P9104 A101 B02  ;
N1615 G0X874.07Y1101.76  ;
N1616 G65 P9102 A101 B02  ;
N1617 G1X871.98Y1103.85  ;
N1618 G3X872.02Y1103.88I4.42J-4.35  ;
N1619 G65 P9104 A101 B02  ;
N1620 G0X921.54Y1077.29  ;
N1621 G65 P9102 A101 B02  ;
N1622 G1X919.45Y1079.38  ;
N1623 G3X919.49Y1079.41I4.95J-4.88  ;
N1624 G65 P9104 A101 B02  ;
N1625 G0X1003.52Y1044.55  ;
N1626 G65 P9102 A101 B02  ;
N1627 G1X1000.52Y1044.55  ;
N1628 G2X999.57Y1045.5I0J0.95  ;
N1629 G1X999.57Y1048.45  ;
N1630 G1X1041.47Y1048.45  ;
N1631 G1X1041.47Y1042.55  ;
N1632 G1X999.57Y1042.55  ;
N1633 G1X999.57Y1045.5  ;
N1634 G65 P9104 A101 B02  ;
N1635 G0X1137.37Y997.21  ;
N1636 G65 P9102 A101 B02  ;
N1637 G1X1135.28Y999.29  ;
N1638 G3X1135.32Y999.33I6.36J-6.29  ;
N1639 G65 P9104 A101 B01  ;
N1640 G0X1184.64Y962.95  ;
N1641 G65 P9102 A101 B01  ;
N1642 G1X1181.64Y962.95  ;
N1643 G1X859.35Y962.95  ;
N1644 G1X859.35Y2985.05  ;
N1645 G1X1181.69Y2985.05  ;
N1646 G1X1181.69Y963  ;
N1647 G65 P9104 A102 B04  ;
N1648 M98 P9103  ;
(P18:ID9:W86011504)  ;
N1649 M98 P9101  ;
N1650 G0X817.42Y1172.04  ;
N1651 G65 P9102 A102 B04  ;
N1652 G1X817.42Y1181.86  ;
N1653 G1X808.92Y1186.76  ;
N1654 G1X800.42Y1181.86  ;
N1655 G1X800.42Y1172.04  ;
N1656 G1X808.92Y1167.14  ;
N1657 G1X817.42Y1172.04  ;
N1658 G65 P9104 A102 B04  ;
N1659 G0X763.42Y1172.04  ;
N1660 G65 P9102 A102 B04  ;
N1661 G1X763.42Y1181.86  ;
N1662 G1X754.92Y1186.76  ;
N1663 G1X746.42Y1181.86  ;
N1664 G1X746.42Y1172.04  ;
N1665 G1X754.92Y1167.14  ;
N1666 G1X763.42Y1172.04  ;
N1667 G65 P9104 A102 B04  ;
N1668 G0X808.92Y1540.14  ;
N1669 G65 P9102 A102 B04  ;
N1670 G1X817.42Y1545.04  ;
N1671 G1X817.42Y1554.86  ;
N1672 G1X808.92Y1559.76  ;
N1673 G1X800.42Y1554.86  ;
N1674 G1X800.42Y1545.04  ;
N1675 G1X808.92Y1540.14  ;
N1676 G65 P9104 A102 B04  ;
N1677 G0X808.92Y1987.14  ;
N1678 G65 P9102 A102 B04  ;
N1679 G1X817.42Y1992.04  ;
N1680 G1X817.42Y2001.86  ;
N1681 G1X808.92Y2006.76  ;
N1682 G1X800.42Y2001.86  ;
N1683 G1X800.42Y1992.04  ;
N1684 G1X808.92Y1987.14  ;
N1685 G65 P9104 A102 B04  ;
N1686 G0X808.92Y2097.14  ;
N1687 G65 P9102 A102 B04  ;
N1688 G1X817.42Y2102.04  ;
N1689 G1X817.42Y2111.86  ;
N1690 G1X808.92Y2116.76  ;
N1691 G1X800.42Y2111.86  ;
N1692 G1X800.42Y2102.04  ;
N1693 G1X808.92Y2097.14  ;
N1694 G65 P9104 A102 B04  ;
N1695 G0X808.92Y2917.14  ;
N1696 G65 P9102 A102 B04  ;
N1697 G1X817.42Y2922.04  ;
N1698 G1X817.42Y2931.86  ;
N1699 G1X808.92Y2936.76  ;
N1700 G1X800.42Y2931.86  ;
N1701 G1X800.42Y2922.04  ;
N1702 G1X808.92Y2917.14  ;
N1703 G65 P9104 A102 B04  ;
N1704 G0X763.42Y2922.04  ;
N1705 G65 P9102 A102 B04  ;
N1706 G1X763.42Y2931.86  ;
N1707 G1X754.92Y2936.76  ;
N1708 G1X746.42Y2931.86  ;
N1709 G1X746.42Y2922.04  ;
N1710 G1X754.92Y2917.14  ;
N1711 G1X763.42Y2922.04  ;
N1712 G65 P9104 A101 B02  ;
N1713 G0X752.58Y2929.21  ;
N1714 G65 P9102 A101 B02  ;
N1715 G1X750.5Y2931.3  ;
N1716 G3X750.53Y2931.33I4.42J-4.35  ;
N1717 G65 P9104 A101 B02  ;
N1718 G0X806.58Y2929.21  ;
N1719 G65 P9102 A101 B02  ;
N1720 G1X804.5Y2931.3  ;
N1721 G3X804.53Y2931.33I4.42J-4.35  ;
N1722 G65 P9104 A101 B02  ;
N1723 G0X624.18Y2846.01  ;
N1724 G65 P9102 A101 B02  ;
N1725 G1X622.1Y2848.09  ;
N1726 G3X622.13Y2848.13I21.21J-21.14  ;
N1727 G65 P9104 A101 B02  ;
N1728 G0X624.18Y2536.01  ;
N1729 G65 P9102 A101 B02  ;
N1730 G1X622.1Y2538.09  ;
N1731 G3X622.13Y2538.13I21.21J-21.14  ;
N1732 G65 P9104 A101 B02  ;
N1733 G0X806.41Y2556.39  ;
N1734 G65 P9102 A101 B02  ;
N1735 G1X804.32Y2558.48  ;
N1736 G3X804.36Y2558.51I4.6J-4.53  ;
N1737 G65 P9104 A101 B02  ;
N1738 G0X624.18Y2226.01  ;
N1739 G65 P9102 A101 B02  ;
N1740 G1X622.1Y2228.09  ;
N1741 G3X622.13Y2228.13I21.21J-21.14  ;
N1742 G65 P9104 A101 B02  ;
N1743 G0X626.81Y2085.5  ;
N1744 G65 P9102 A101 B02  ;
N1745 G1X623.81Y2085.5  ;
N1746 G2X622.86Y2086.45I0J0.95  ;
N1747 G1X622.86Y2089.4  ;
N1748 G1X663.76Y2089.4  ;
N1749 G1X663.76Y2083.5  ;
N1750 G1X622.86Y2083.5  ;
N1751 G1X622.86Y2086.45  ;
N1752 G65 P9104 A101 B02  ;
N1753 G0X806.58Y2109.21  ;
N1754 G65 P9102 A101 B02  ;
N1755 G1X804.5Y2111.3  ;
N1756 G3X804.53Y2111.33I4.42J-4.35  ;
N1757 G65 P9104 A101 B02  ;
N1758 G0X806.58Y1999.21  ;
N1759 G65 P9102 A101 B02  ;
N1760 G1X804.5Y2001.3  ;
N1761 G3X804.53Y2001.33I4.42J-4.35  ;
N1762 G65 P9104 A101 B02  ;
N1763 G0X624.18Y1916.01  ;
N1764 G65 P9102 A101 B02  ;
N1765 G1X622.1Y1918.09  ;
N1766 G3X622.13Y1918.13I21.21J-21.14  ;
N1767 G65 P9104 A101 B02  ;
N1768 G0X624.18Y1606.01  ;
N1769 G65 P9102 A101 B02  ;
N1770 G1X622.1Y1608.09  ;
N1771 G3X622.13Y1608.13I21.21J-21.14  ;
N1772 G65 P9104 A101 B02  ;
N1773 G0X626.31Y1498.5  ;
N1774 G65 P9102 A101 B02  ;
N1775 G1X623.31Y1498.5  ;
N1776 G3X622.36Y1497.55I0J-0.95  ;
N1777 G1X622.36Y1494.3  ;
N1778 G1X664.26Y1494.3  ;
N1779 G1X664.26Y1500.8  ;
N1780 G1X622.36Y1500.8  ;
N1781 G1X622.36Y1497.55  ;
N1782 G65 P9104 A101 B02  ;
N1783 G0X806.58Y1552.21  ;
N1784 G65 P9102 A101 B02  ;
N1785 G1X804.5Y1554.3  ;
N1786 G3X804.53Y1554.33I4.42J-4.35  ;
N1787 G65 P9104 A101 B02  ;
N1788 G0X624.18Y1296.01  ;
N1789 G65 P9102 A101 B02  ;
N1790 G1X622.1Y1298.09  ;
N1791 G3X622.13Y1298.13I21.21J-21.14  ;
N1792 G65 P9104 A101 B02  ;
N1793 G0X752.58Y1179.21  ;
N1794 G65 P9102 A101 B02  ;
N1795 G1X750.5Y1181.3  ;
N1796 G3X750.53Y1181.33I4.42J-4.35  ;
N1797 G65 P9104 A101 B02  ;
N1798 G0X806.58Y1179.21  ;
N1799 G65 P9102 A101 B02  ;
N1800 G1X804.5Y1181.3  ;
N1801 G3X804.53Y1181.33I4.42J-4.35  ;
N1802 G65 P9104 A101 B01  ;
N1803 G0X846.33Y1117.24  ;
N1804 G65 P9102 A101 B01  ;
N1805 G1X848.45Y1119.36  ;
N1806 G1X849.47Y1120.38  ;
N1807 G1X849.47Y2984.02  ;
N1808 G1X848.44Y2985.05  ;
N1809 G1X841.4Y2985.05  ;
N1810 G1X840.37Y2984.02  ;
N1811 G1X840.37Y2980.05  ;
N1812 G1X733.47Y2980.05  ;
N1813 G1X733.47Y2984.02  ;
N1814 G1X732.44Y2985.05  ;
N1815 G1X725.4Y2985.05  ;
N1816 G1X724.37Y2984.02  ;
N1817 G1X724.37Y2957  ;
N1818 G1X713.31Y2957  ;
N1819 G2X693.56Y2977I0J19.75  ;
N1820 G1X658.26Y2977  ;
N1821 G2X628.36Y2977I-14.95J-0.05  ;
N1822 G1X593.06Y2977  ;
N1823 G2X573.31Y2957I-19.75J-0.25  ;
N1824 G1X562.25Y2957  ;
N1825 G1X562.25Y2984.02  ;
N1826 G1X561.22Y2985.05  ;
N1827 G1X554.18Y2985.05  ;
N1828 G1X553.15Y2984.02  ;
N1829 G1X553.15Y2980.05  ;
N1830 G1X446.25Y2980.05  ;
N1831 G1X446.25Y2984.02  ;
N1832 G1X445.22Y2985.05  ;
N1833 G1X438.18Y2985.05  ;
N1834 G1X437.15Y2984.02  ;
N1835 G1X437.15Y1120.38  ;
N1836 G1X438.18Y1119.35  ;
N1837 G1X445.22Y1119.35  ;
N1838 G1X446.25Y1120.38  ;
N1839 G1X446.25Y1124.35  ;
N1840 G1X553.15Y1124.35  ;
N1841 G1X553.15Y1120.38  ;
N1842 G1X554.18Y1119.35  ;
N1843 G1X561.22Y1119.35  ;
N1844 G1X562.25Y1120.38  ;
N1845 G1X562.25Y1147.4  ;
N1846 G1X573.31Y1147.4  ;
N1847 G2X593.06Y1127.4I0J-19.75  ;
N1848 G1X628.36Y1127.4  ;
N1849 G2X658.26Y1127.4I14.95J0.05  ;
N1850 G1X693.56Y1127.4  ;
N1851 G2X713.31Y1147.4I19.75J0.25  ;
N1852 G1X724.37Y1147.4  ;
N1853 G1X724.37Y1120.38  ;
N1854 G1X725.4Y1119.35  ;
N1855 G1X732.44Y1119.35  ;
N1856 G1X733.47Y1120.38  ;
N1857 G1X733.47Y1124.35  ;
N1858 G1X840.37Y1124.35  ;
N1859 G1X840.37Y1120.38  ;
N1860 G1X841.4Y1119.35  ;
N1861 G1X848.42Y1119.35  ;
N1862 G65 P9104 A102 B04  ;
N1863 M98 P9103  ;
(P19:ID9:W86011504)  ;
N1864 M98 P9101  ;
N1865 G0X395.22Y1172.04  ;
N1866 G65 P9102 A102 B04  ;
N1867 G1X395.22Y1181.86  ;
N1868 G1X386.72Y1186.76  ;
N1869 G1X378.22Y1181.86  ;
N1870 G1X378.22Y1172.04  ;
N1871 G1X386.72Y1167.14  ;
N1872 G1X395.22Y1172.04  ;
N1873 G65 P9104 A102 B04  ;
N1874 G0X341.22Y1172.04  ;
N1875 G65 P9102 A102 B04  ;
N1876 G1X341.22Y1181.86  ;
N1877 G1X332.72Y1186.76  ;
N1878 G1X324.22Y1181.86  ;
N1879 G1X324.22Y1172.04  ;
N1880 G1X332.72Y1167.14  ;
N1881 G1X341.22Y1172.04  ;
N1882 G65 P9104 A102 B04  ;
N1883 G0X386.72Y1540.14  ;
N1884 G65 P9102 A102 B04  ;
N1885 G1X395.22Y1545.04  ;
N1886 G1X395.22Y1554.86  ;
N1887 G1X386.72Y1559.76  ;
N1888 G1X378.22Y1554.86  ;
N1889 G1X378.22Y1545.04  ;
N1890 G1X386.72Y1540.14  ;
N1891 G65 P9104 A102 B04  ;
N1892 G0X386.72Y1987.14  ;
N1893 G65 P9102 A102 B04  ;
N1894 G1X395.22Y1992.04  ;
N1895 G1X395.22Y2001.86  ;
N1896 G1X386.72Y2006.76  ;
N1897 G1X378.22Y2001.86  ;
N1898 G1X378.22Y1992.04  ;
N1899 G1X386.72Y1987.14  ;
N1900 G65 P9104 A102 B04  ;
N1901 G0X386.72Y2097.14  ;
N1902 G65 P9102 A102 B04  ;
N1903 G1X395.22Y2102.04  ;
N1904 G1X395.22Y2111.86  ;
N1905 G1X386.72Y2116.76  ;
N1906 G1X378.22Y2111.86  ;
N1907 G1X378.22Y2102.04  ;
N1908 G1X386.72Y2097.14  ;
N1909 G65 P9104 A102 B04  ;
N1910 G0X386.72Y2917.14  ;
N1911 G65 P9102 A102 B04  ;
N1912 G1X395.22Y2922.04  ;
N1913 G1X395.22Y2931.86  ;
N1914 G1X386.72Y2936.76  ;
N1915 G1X378.22Y2931.86  ;
N1916 G1X378.22Y2922.04  ;
N1917 G1X386.72Y2917.14  ;
N1918 G65 P9104 A102 B04  ;
N1919 G0X341.22Y2922.04  ;
N1920 G65 P9102 A102 B04  ;
N1921 G1X341.22Y2931.86  ;
N1922 G1X332.72Y2936.76  ;
N1923 G1X324.22Y2931.86  ;
N1924 G1X324.22Y2922.04  ;
N1925 G1X332.72Y2917.14  ;
N1926 G1X341.22Y2922.04  ;
N1927 G65 P9104 A101 B02  ;
N1928 G0X330.38Y2929.21  ;
N1929 G65 P9102 A101 B02  ;
N1930 G1X328.3Y2931.3  ;
N1931 G3X328.33Y2931.33I4.42J-4.35  ;
N1932 G65 P9104 A101 B02  ;
N1933 G0X384.38Y2929.21  ;
N1934 G65 P9102 A101 B02  ;
N1935 G1X382.3Y2931.3  ;
N1936 G3X382.33Y2931.33I4.42J-4.35  ;
N1937 G65 P9104 A101 B02  ;
N1938 G0X201.98Y2846.01  ;
N1939 G65 P9102 A101 B02  ;
N1940 G1X199.9Y2848.09  ;
N1941 G3X199.93Y2848.13I21.21J-21.14  ;
N1942 G65 P9104 A101 B02  ;
N1943 G0X201.98Y2536.01  ;
N1944 G65 P9102 A101 B02  ;
N1945 G1X199.9Y2538.09  ;
N1946 G3X199.93Y2538.13I21.21J-21.14  ;
N1947 G65 P9104 A101 B02  ;
N1948 G0X384.21Y2556.39  ;
N1949 G65 P9102 A101 B02  ;
N1950 G1X382.12Y2558.48  ;
N1951 G3X382.16Y2558.51I4.6J-4.53  ;
N1952 G65 P9104 A101 B02  ;
N1953 G0X201.98Y2226.01  ;
N1954 G65 P9102 A101 B02  ;
N1955 G1X199.9Y2228.09  ;
N1956 G3X199.93Y2228.13I21.21J-21.14  ;
N1957 G65 P9104 A101 B02  ;
N1958 G0X204.61Y2085.5  ;
N1959 G65 P9102 A101 B02  ;
N1960 G1X201.61Y2085.5  ;
N1961 G2X200.66Y2086.45I0J0.95  ;
N1962 G1X200.66Y2089.4  ;
N1963 G1X241.56Y2089.4  ;
N1964 G1X241.56Y2083.5  ;
N1965 G1X200.66Y2083.5  ;
N1966 G1X200.66Y2086.45  ;
N1967 G65 P9104 A101 B02  ;
N1968 G0X384.38Y2109.21  ;
N1969 G65 P9102 A101 B02  ;
N1970 G1X382.3Y2111.3  ;
N1971 G3X382.33Y2111.33I4.42J-4.35  ;
N1972 G65 P9104 A101 B02  ;
N1973 G0X384.38Y1999.21  ;
N1974 G65 P9102 A101 B02  ;
N1975 G1X382.3Y2001.3  ;
N1976 G3X382.33Y2001.33I4.42J-4.35  ;
N1977 G65 P9104 A101 B02  ;
N1978 G0X201.98Y1916.01  ;
N1979 G65 P9102 A101 B02  ;
N1980 G1X199.9Y1918.09  ;
N1981 G3X199.93Y1918.13I21.21J-21.14  ;
N1982 G65 P9104 A101 B02  ;
N1983 G0X201.98Y1606.01  ;
N1984 G65 P9102 A101 B02  ;
N1985 G1X199.9Y1608.09  ;
N1986 G3X199.93Y1608.13I21.21J-21.14  ;
N1987 G65 P9104 A101 B02  ;
N1988 G0X204.11Y1498.5  ;
N1989 G65 P9102 A101 B02  ;
N1990 G1X201.11Y1498.5  ;
N1991 G3X200.16Y1497.55I0J-0.95  ;
N1992 G1X200.16Y1494.3  ;
N1993 G1X242.06Y1494.3  ;
N1994 G1X242.06Y1500.8  ;
N1995 G1X200.16Y1500.8  ;
N1996 G1X200.16Y1497.55  ;
N1997 G65 P9104 A101 B02  ;
N1998 G0X384.38Y1552.21  ;
N1999 G65 P9102 A101 B02  ;
N2000 G1X382.3Y1554.3  ;
N2001 G3X382.33Y1554.33I4.42J-4.35  ;
N2002 G65 P9104 A101 B02  ;
N2003 G0X201.98Y1296.01  ;
N2004 G65 P9102 A101 B02  ;
N2005 G1X199.9Y1298.09  ;
N2006 G3X199.93Y1298.13I21.21J-21.14  ;
N2007 G65 P9104 A101 B02  ;
N2008 G0X330.38Y1179.21  ;
N2009 G65 P9102 A101 B02  ;
N2010 G1X328.3Y1181.3  ;
N2011 G3X328.33Y1181.33I4.42J-4.35  ;
N2012 G65 P9104 A101 B02  ;
N2013 G0X384.38Y1179.21  ;
N2014 G65 P9102 A101 B02  ;
N2015 G1X382.3Y1181.3  ;
N2016 G3X382.33Y1181.33I4.42J-4.35  ;
N2017 G65 P9104 A101 B01  ;
N2018 G0X424.13Y1117.24  ;
N2019 G65 P9102 A101 B01  ;
N2020 G1X426.25Y1119.36  ;
N2021 G1X427.27Y1120.38  ;
N2022 G1X427.27Y2984.02  ;
N2023 G1X426.24Y2985.05  ;
N2024 G1X419.2Y2985.05  ;
N2025 G1X418.17Y2984.02  ;
N2026 G1X418.17Y2980.05  ;
N2027 G1X311.27Y2980.05  ;
N2028 G1X311.27Y2984.02  ;
N2029 G1X310.24Y2985.05  ;
N2030 G1X303.2Y2985.05  ;
N2031 G1X302.17Y2984.02  ;
N2032 G1X302.17Y2957  ;
N2033 G1X291.11Y2957  ;
N2034 G2X271.36Y2977I0J19.75  ;
N2035 G1X236.06Y2977  ;
N2036 G2X206.16Y2977I-14.95J-0.05  ;
N2037 G1X170.86Y2977  ;
N2038 G2X151.11Y2957I-19.75J-0.25  ;
N2039 G1X140.05Y2957  ;
N2040 G1X140.05Y2984.02  ;
N2041 G1X139.02Y2985.05  ;
N2042 G1X131.98Y2985.05  ;
N2043 G1X130.95Y2984.02  ;
N2044 G1X130.95Y2980.05  ;
N2045 G1X24.05Y2980.05  ;
N2046 G1X24.05Y2984.02  ;
N2047 G1X23.02Y2985.05  ;
N2048 G1X15.98Y2985.05  ;
N2049 G1X14.95Y2984.02  ;
N2050 G1X14.95Y1120.38  ;
N2051 G1X15.98Y1119.35  ;
N2052 G1X23.02Y1119.35  ;
N2053 G1X24.05Y1120.38  ;
N2054 G1X24.05Y1124.35  ;
N2055 G1X130.95Y1124.35  ;
N2056 G1X130.95Y1120.38  ;
N2057 G1X131.98Y1119.35  ;
N2058 G1X139.02Y1119.35  ;
N2059 G1X140.05Y1120.38  ;
N2060 G1X140.05Y1147.4  ;
N2061 G1X151.11Y1147.4  ;
N2062 G2X170.86Y1127.4I0J-19.75  ;
N2063 G1X206.16Y1127.4  ;
N2064 G2X236.06Y1127.4I14.95J0.05  ;
N2065 G1X271.36Y1127.4  ;
N2066 G2X291.11Y1147.4I19.75J0.25  ;
N2067 G1X302.17Y1147.4  ;
N2068 G1X302.17Y1120.38  ;
N2069 G1X303.2Y1119.35  ;
N2070 G1X310.24Y1119.35  ;
N2071 G1X311.27Y1120.38  ;
N2072 G1X311.27Y1124.35  ;
N2073 G1X418.17Y1124.35  ;
N2074 G1X418.17Y1120.38  ;
N2075 G1X419.2Y1119.35  ;
N2076 G1X426.22Y1119.35  ;
N2077 M98 P9104  ;
N2078 M98 P9103  ;
(FOOTER)
N2079 M98 P9110  ;
N2080 M30  ;
%
