O0099  ;
( MACHINE : TCI Laser )  ;
( MATERIAL : Galvanizado )  ;
( THICKNESS : 2 )  ;
( REPETITIONS : 1 )  ;
( SIMULATION TIME : 00:16:57 )  ;
( FORMAT : 1250x2500 )  ;
( JOB NUMBER : VARS8600\K86027603 )  ;
( PROGRAM NUMBER : 12051 )  ;
( TYPE : 0 )  ;
( NUMBER OF SHEETS : 1 )  ;
( CUTTING HEADS : 1 )  ;
#516= 1  ;
#517= 1  ;
N105 G65 P9100 A103 B04  ;
(P1:ID1:W86027615)  ;
N106 M98 P9101  ;
N107 G0X1190.06Y134.06  ;
N108 G65 P9102 A102 B04  ;
N109 G1X1189.35Y134.77  ;
N110 G1X1189.35Y136.91  ;
N111 G1X1190.06Y137.63  ;
N112 G1X1191.49Y137.63  ;
N113 G1X1192.21Y136.91  ;
N114 G1X1192.21Y134.77  ;
N115 G1X1192.92Y134.06  ;
N116 G1X1194.35Y134.06  ;
N117 G1X1194.35Y136.91  ;
N118 G1X1193.63Y137.63  ;
N119 G65 P9104 A102 B04  ;
N120 G0X1194.35Y138.79  ;
N121 G65 P9102 A102 B04  ;
N122 G1X1189.35Y141.64  ;
N123 G1X1189.35Y138.07  ;
N124 G65 P9104 A102 B04  ;
N125 G0X1192.21Y138.79  ;
N126 G65 P9102 A102 B04  ;
N127 G1X1192.21Y140.93  ;
N128 G65 P9104 A102 B04  ;
N129 G0X1192.21Y142.09  ;
N130 G65 P9102 A102 B04  ;
N131 G1X1192.21Y144.95  ;
N132 G1X1192.92Y145.66  ;
N133 G1X1193.63Y145.66  ;
N134 G1X1194.35Y144.95  ;
N135 G1X1194.35Y142.81  ;
N136 G1X1193.63Y142.09  ;
N137 G1X1190.06Y142.09  ;
N138 G1X1189.35Y142.81  ;
N139 G1X1189.35Y144.95  ;
N140 G65 P9104 A102 B04  ;
N141 G0X1189.86Y146.11  ;
N142 G65 P9102 A102 B04  ;
N143 G1X1189.35Y146.62  ;
N144 G1X1194.35Y146.62  ;
N145 G65 P9104 A102 B04  ;
N146 G0X1194.35Y147.13  ;
N147 G65 P9102 A102 B04  ;
N148 G1X1194.35Y146.11  ;
N149 G65 P9104 A102 B04  ;
N150 G0X1194.35Y147.58  ;
N151 G65 P9102 A102 B04  ;
N152 G1X1194.35Y150.44  ;
N153 G1X1193.63Y151.15  ;
N154 G1X1192.92Y151.15  ;
N155 G1X1192.21Y150.44  ;
N156 G1X1192.21Y147.58  ;
N157 G1X1189.35Y147.58  ;
N158 G1X1189.35Y151.15  ;
N159 G65 P9104 A101 B02  ;
N160 G0X1226.56Y161.68  ;
N161 G65 P9102 A101 B02  ;
N162 G1X1224.47Y163.77  ;
N163 G3X1224.51Y163.8I3.54J-3.47  ;
N164 G65 P9104 A101 B02  ;
N165 G0X1209.05Y50.38  ;
N166 G65 P9102 A101 B02  ;
N167 G1X1206.97Y52.47  ;
N168 G3X1207Y52.5I3.23J-3.17  ;
N169 G65 P9104 A101 B01  ;
N170 G0X1191.2Y172.55  ;
N171 G65 P9102 A101 B01  ;
N172 G1X1196.15Y172.55  ;
N173 G1X1196.15Y170.85  ;
N174 G1X1191.2Y170.85  ;
N175 G3X1186.15Y165.8I0J-5.05  ;
N176 G1X1186.15Y121.8  ;
N177 G3X1191.2Y116.75I5.05J0  ;
N178 G1X1200.65Y116.75  ;
N179 G1X1200.65Y114.85  ;
N180 G1X1183.4Y114.85  ;
N181 G3X1178.35Y109.8I0J-5.05  ;
N182 G1X1178.35Y31.3  ;
N183 G3X1183.4Y26.25I5.05J0  ;
N184 G1X1200.15Y26.25  ;
N185 G1X1200.15Y10  ;
N186 G3X1205.2Y4.95I5.05J0  ;
N187 G1X1213.2Y4.95  ;
N188 G3X1218.25Y10I0J5.05  ;
N189 G1X1218.25Y144.35  ;
N190 G1X1214.25Y144.35  ;
N191 G1X1214.25Y146.25  ;
N192 G1X1231.51Y146.25  ;
N193 G3X1236.56Y151.3I0J5.05  ;
N194 G1X1236.56Y174.85  ;
N195 G1X1220.46Y174.85  ;
N196 G1X1220.46Y171.85  ;
N197 G1X1216.25Y171.85  ;
N198 G1X1216.25Y175.06  ;
N199 G1X1218Y175.06  ;
N200 G1X1218Y191.16  ;
N201 G1X1194.65Y191.16  ;
N202 G1X1194.65Y175.06  ;
N203 G1X1196.15Y175.06  ;
N204 G1X1196.15Y173.25  ;
N205 G65 P9104 A102 B04  ;
N206 M98 P9103  ;
(P2:ID1:W86027615)  ;
N207 M98 P9101  ;
N208 G0X1160.06Y304.56  ;
N209 G65 P9102 A102 B04  ;
N210 G1X1159.35Y305.27  ;
N211 G1X1159.35Y307.41  ;
N212 G1X1160.06Y308.13  ;
N213 G1X1161.49Y308.13  ;
N214 G1X1162.21Y307.41  ;
N215 G1X1162.21Y305.27  ;
N216 G1X1162.92Y304.56  ;
N217 G1X1164.35Y304.56  ;
N218 G1X1164.35Y307.41  ;
N219 G1X1163.63Y308.13  ;
N220 G65 P9104 A102 B04  ;
N221 G0X1164.35Y309.29  ;
N222 G65 P9102 A102 B04  ;
N223 G1X1159.35Y312.14  ;
N224 G1X1159.35Y308.57  ;
N225 G65 P9104 A102 B04  ;
N226 G0X1162.21Y309.29  ;
N227 G65 P9102 A102 B04  ;
N228 G1X1162.21Y311.43  ;
N229 G65 P9104 A102 B04  ;
N230 G0X1162.21Y312.59  ;
N231 G65 P9102 A102 B04  ;
N232 G1X1162.21Y315.45  ;
N233 G1X1162.92Y316.16  ;
N234 G1X1163.63Y316.16  ;
N235 G1X1164.35Y315.45  ;
N236 G1X1164.35Y313.31  ;
N237 G1X1163.63Y312.59  ;
N238 G1X1160.06Y312.59  ;
N239 G1X1159.35Y313.31  ;
N240 G1X1159.35Y315.45  ;
N241 G65 P9104 A102 B04  ;
N242 G0X1159.86Y316.61  ;
N243 G65 P9102 A102 B04  ;
N244 G1X1159.35Y317.12  ;
N245 G1X1164.35Y317.12  ;
N246 G65 P9104 A102 B04  ;
N247 G0X1164.35Y317.63  ;
N248 G65 P9102 A102 B04  ;
N249 G1X1164.35Y316.61  ;
N250 G65 P9104 A102 B04  ;
N251 G0X1164.35Y318.08  ;
N252 G65 P9102 A102 B04  ;
N253 G1X1164.35Y320.94  ;
N254 G1X1163.63Y321.65  ;
N255 G1X1162.92Y321.65  ;
N256 G1X1162.21Y320.94  ;
N257 G1X1162.21Y318.08  ;
N258 G1X1159.35Y318.08  ;
N259 G1X1159.35Y321.65  ;
N260 G65 P9104 A101 B02  ;
N261 G0X1196.56Y332.18  ;
N262 G65 P9102 A101 B02  ;
N263 G1X1194.47Y334.27  ;
N264 G3X1194.51Y334.3I3.54J-3.47  ;
N265 G65 P9104 A101 B02  ;
N266 G0X1179.05Y220.88  ;
N267 G65 P9102 A101 B02  ;
N268 G1X1176.97Y222.97  ;
N269 G3X1177Y223I3.23J-3.17  ;
N270 G65 P9104 A101 B01  ;
N271 G0X1161.2Y343.05  ;
N272 G65 P9102 A101 B01  ;
N273 G1X1166.15Y343.05  ;
N274 G1X1166.15Y341.35  ;
N275 G1X1161.2Y341.35  ;
N276 G3X1156.15Y336.3I0J-5.05  ;
N277 G1X1156.15Y292.3  ;
N278 G3X1161.2Y287.25I5.05J0  ;
N279 G1X1170.65Y287.25  ;
N280 G1X1170.65Y285.35  ;
N281 G1X1153.4Y285.35  ;
N282 G3X1148.35Y280.3I0J-5.05  ;
N283 G1X1148.35Y201.8  ;
N284 G3X1153.4Y196.75I5.05J0  ;
N285 G1X1170.15Y196.75  ;
N286 G1X1170.15Y180.5  ;
N287 G3X1175.2Y175.45I5.05J0  ;
N288 G1X1183.2Y175.45  ;
N289 G3X1188.25Y180.5I0J5.05  ;
N290 G1X1188.25Y314.85  ;
N291 G1X1184.25Y314.85  ;
N292 G1X1184.25Y316.75  ;
N293 G1X1201.51Y316.75  ;
N294 G3X1206.56Y321.8I0J5.05  ;
N295 G1X1206.56Y345.35  ;
N296 G1X1190.46Y345.35  ;
N297 G1X1190.46Y342.35  ;
N298 G1X1186.25Y342.35  ;
N299 G1X1186.25Y345.56  ;
N300 G1X1188Y345.56  ;
N301 G1X1188Y361.66  ;
N302 G1X1164.65Y361.66  ;
N303 G1X1164.65Y345.56  ;
N304 G1X1166.15Y345.56  ;
N305 G1X1166.15Y343.75  ;
N306 G65 P9104 A102 B04  ;
N307 M98 P9103  ;
(P3:ID1:W86027615)  ;
N308 M98 P9101  ;
N309 G0X1190.06Y480.36  ;
N310 G65 P9102 A102 B04  ;
N311 G1X1189.35Y481.07  ;
N312 G1X1189.35Y483.21  ;
N313 G1X1190.06Y483.93  ;
N314 G1X1191.49Y483.93  ;
N315 G1X1192.21Y483.21  ;
N316 G1X1192.21Y481.07  ;
N317 G1X1192.92Y480.36  ;
N318 G1X1194.35Y480.36  ;
N319 G1X1194.35Y483.21  ;
N320 G1X1193.63Y483.93  ;
N321 G65 P9104 A102 B04  ;
N322 G0X1194.35Y485.09  ;
N323 G65 P9102 A102 B04  ;
N324 G1X1189.35Y487.94  ;
N325 G1X1189.35Y484.37  ;
N326 G65 P9104 A102 B04  ;
N327 G0X1192.21Y485.09  ;
N328 G65 P9102 A102 B04  ;
N329 G1X1192.21Y487.23  ;
N330 G65 P9104 A102 B04  ;
N331 G0X1192.21Y488.39  ;
N332 G65 P9102 A102 B04  ;
N333 G1X1192.21Y491.25  ;
N334 G1X1192.92Y491.96  ;
N335 G1X1193.63Y491.96  ;
N336 G1X1194.35Y491.25  ;
N337 G1X1194.35Y489.11  ;
N338 G1X1193.63Y488.39  ;
N339 G1X1190.06Y488.39  ;
N340 G1X1189.35Y489.11  ;
N341 G1X1189.35Y491.25  ;
N342 G65 P9104 A102 B04  ;
N343 G0X1189.86Y492.41  ;
N344 G65 P9102 A102 B04  ;
N345 G1X1189.35Y492.92  ;
N346 G1X1194.35Y492.92  ;
N347 G65 P9104 A102 B04  ;
N348 G0X1194.35Y493.43  ;
N349 G65 P9102 A102 B04  ;
N350 G1X1194.35Y492.41  ;
N351 G65 P9104 A102 B04  ;
N352 G0X1194.35Y493.88  ;
N353 G65 P9102 A102 B04  ;
N354 G1X1194.35Y496.74  ;
N355 G1X1193.63Y497.45  ;
N356 G1X1192.92Y497.45  ;
N357 G1X1192.21Y496.74  ;
N358 G1X1192.21Y493.88  ;
N359 G1X1189.35Y493.88  ;
N360 G1X1189.35Y497.45  ;
N361 G65 P9104 A101 B02  ;
N362 G0X1226.56Y507.98  ;
N363 G65 P9102 A101 B02  ;
N364 G1X1224.47Y510.07  ;
N365 G3X1224.51Y510.1I3.54J-3.47  ;
N366 G65 P9104 A101 B02  ;
N367 G0X1209.05Y396.68  ;
N368 G65 P9102 A101 B02  ;
N369 G1X1206.97Y398.77  ;
N370 G3X1207Y398.8I3.23J-3.17  ;
N371 G65 P9104 A101 B01  ;
N372 G0X1191.2Y518.85  ;
N373 G65 P9102 A101 B01  ;
N374 G1X1196.15Y518.85  ;
N375 G1X1196.15Y517.15  ;
N376 G1X1191.2Y517.15  ;
N377 G3X1186.15Y512.1I0J-5.05  ;
N378 G1X1186.15Y468.1  ;
N379 G3X1191.2Y463.05I5.05J0  ;
N380 G1X1200.65Y463.05  ;
N381 G1X1200.65Y461.15  ;
N382 G1X1183.4Y461.15  ;
N383 G3X1178.35Y456.1I0J-5.05  ;
N384 G1X1178.35Y377.6  ;
N385 G3X1183.4Y372.55I5.05J0  ;
N386 G1X1200.15Y372.55  ;
N387 G1X1200.15Y356.3  ;
N388 G3X1205.2Y351.25I5.05J0  ;
N389 G1X1213.2Y351.25  ;
N390 G3X1218.25Y356.3I0J5.05  ;
N391 G1X1218.25Y490.65  ;
N392 G1X1214.25Y490.65  ;
N393 G1X1214.25Y492.55  ;
N394 G1X1231.51Y492.55  ;
N395 G3X1236.56Y497.6I0J5.05  ;
N396 G1X1236.56Y521.15  ;
N397 G1X1220.46Y521.15  ;
N398 G1X1220.46Y518.15  ;
N399 G1X1216.25Y518.15  ;
N400 G1X1216.25Y521.36  ;
N401 G1X1218Y521.36  ;
N402 G1X1218Y537.46  ;
N403 G1X1194.65Y537.46  ;
N404 G1X1194.65Y521.36  ;
N405 G1X1196.15Y521.36  ;
N406 G1X1196.15Y519.55  ;
N407 G65 P9104 A102 B04  ;
N408 M98 P9103  ;
(P4:ID1:W86027615)  ;
N409 M98 P9101  ;
N410 G0X1160.06Y650.86  ;
N411 G65 P9102 A102 B04  ;
N412 G1X1159.35Y651.57  ;
N413 G1X1159.35Y653.71  ;
N414 G1X1160.06Y654.43  ;
N415 G1X1161.49Y654.43  ;
N416 G1X1162.21Y653.71  ;
N417 G1X1162.21Y651.57  ;
N418 G1X1162.92Y650.86  ;
N419 G1X1164.35Y650.86  ;
N420 G1X1164.35Y653.71  ;
N421 G1X1163.63Y654.43  ;
N422 G65 P9104 A102 B04  ;
N423 G0X1164.35Y655.59  ;
N424 G65 P9102 A102 B04  ;
N425 G1X1159.35Y658.44  ;
N426 G1X1159.35Y654.87  ;
N427 G65 P9104 A102 B04  ;
N428 G0X1162.21Y655.59  ;
N429 G65 P9102 A102 B04  ;
N430 G1X1162.21Y657.73  ;
N431 G65 P9104 A102 B04  ;
N432 G0X1162.21Y658.89  ;
N433 G65 P9102 A102 B04  ;
N434 G1X1162.21Y661.75  ;
N435 G1X1162.92Y662.46  ;
N436 G1X1163.63Y662.46  ;
N437 G1X1164.35Y661.75  ;
N438 G1X1164.35Y659.61  ;
N439 G1X1163.63Y658.89  ;
N440 G1X1160.06Y658.89  ;
N441 G1X1159.35Y659.61  ;
N442 G1X1159.35Y661.75  ;
N443 G65 P9104 A102 B04  ;
N444 G0X1159.86Y662.91  ;
N445 G65 P9102 A102 B04  ;
N446 G1X1159.35Y663.42  ;
N447 G1X1164.35Y663.42  ;
N448 G65 P9104 A102 B04  ;
N449 G0X1164.35Y663.93  ;
N450 G65 P9102 A102 B04  ;
N451 G1X1164.35Y662.91  ;
N452 G65 P9104 A102 B04  ;
N453 G0X1164.35Y664.38  ;
N454 G65 P9102 A102 B04  ;
N455 G1X1164.35Y667.24  ;
N456 G1X1163.63Y667.95  ;
N457 G1X1162.92Y667.95  ;
N458 G1X1162.21Y667.24  ;
N459 G1X1162.21Y664.38  ;
N460 G1X1159.35Y664.38  ;
N461 G1X1159.35Y667.95  ;
N462 G65 P9104 A101 B02  ;
N463 G0X1196.56Y678.48  ;
N464 G65 P9102 A101 B02  ;
N465 G1X1194.47Y680.57  ;
N466 G3X1194.51Y680.6I3.54J-3.47  ;
N467 G65 P9104 A101 B02  ;
N468 G0X1179.05Y567.18  ;
N469 G65 P9102 A101 B02  ;
N470 G1X1176.97Y569.27  ;
N471 G3X1177Y569.3I3.23J-3.17  ;
N472 G65 P9104 A101 B01  ;
N473 G0X1161.2Y689.35  ;
N474 G65 P9102 A101 B01  ;
N475 G1X1166.15Y689.35  ;
N476 G1X1166.15Y687.65  ;
N477 G1X1161.2Y687.65  ;
N478 G3X1156.15Y682.6I0J-5.05  ;
N479 G1X1156.15Y638.6  ;
N480 G3X1161.2Y633.55I5.05J0  ;
N481 G1X1170.65Y633.55  ;
N482 G1X1170.65Y631.65  ;
N483 G1X1153.4Y631.65  ;
N484 G3X1148.35Y626.6I0J-5.05  ;
N485 G1X1148.35Y548.1  ;
N486 G3X1153.4Y543.05I5.05J0  ;
N487 G1X1170.15Y543.05  ;
N488 G1X1170.15Y526.8  ;
N489 G3X1175.2Y521.75I5.05J0  ;
N490 G1X1183.2Y521.75  ;
N491 G3X1188.25Y526.8I0J5.05  ;
N492 G1X1188.25Y661.15  ;
N493 G1X1184.25Y661.15  ;
N494 G1X1184.25Y663.05  ;
N495 G1X1201.51Y663.05  ;
N496 G3X1206.56Y668.1I0J5.05  ;
N497 G1X1206.56Y691.65  ;
N498 G1X1190.46Y691.65  ;
N499 G1X1190.46Y688.65  ;
N500 G1X1186.25Y688.65  ;
N501 G1X1186.25Y691.86  ;
N502 G1X1188Y691.86  ;
N503 G1X1188Y707.96  ;
N504 G1X1164.65Y707.96  ;
N505 G1X1164.65Y691.86  ;
N506 G1X1166.15Y691.86  ;
N507 G1X1166.15Y690.05  ;
N508 G65 P9104 A102 B04  ;
N509 M98 P9103  ;
(P5:ID2:W86027616)  ;
N510 M98 P9101  ;
N511 G0X1162.41Y897.5  ;
N512 G65 P9102 A102 B04  ;
N513 G1X1163.13Y896.79  ;
N514 G1X1163.13Y893.93  ;
N515 G1X1161.7Y893.93  ;
N516 G1X1160.98Y894.65  ;
N517 G1X1160.98Y896.79  ;
N518 G1X1160.27Y897.5  ;
N519 G1X1158.84Y897.5  ;
N520 G1X1158.13Y896.79  ;
N521 G1X1158.13Y894.65  ;
N522 G1X1158.84Y893.93  ;
N523 G65 P9104 A102 B04  ;
N524 G0X1158.13Y897.95  ;
N525 G65 P9102 A102 B04  ;
N526 G1X1158.13Y901.52  ;
N527 G1X1163.13Y898.66  ;
N528 G65 P9104 A102 B04  ;
N529 G0X1160.98Y898.66  ;
N530 G65 P9102 A102 B04  ;
N531 G1X1160.98Y900.81  ;
N532 G65 P9104 A102 B04  ;
N533 G0X1160.98Y901.97  ;
N534 G65 P9102 A102 B04  ;
N535 G1X1160.98Y904.82  ;
N536 G1X1161.7Y905.54  ;
N537 G1X1162.41Y905.54  ;
N538 G1X1163.13Y904.82  ;
N539 G1X1163.13Y902.68  ;
N540 G1X1162.41Y901.97  ;
N541 G1X1158.84Y901.97  ;
N542 G1X1158.13Y902.68  ;
N543 G1X1158.13Y904.82  ;
N544 G65 P9104 A102 B04  ;
N545 G0X1158.64Y905.99  ;
N546 G65 P9102 A102 B04  ;
N547 G1X1158.13Y906.5  ;
N548 G1X1163.13Y906.5  ;
N549 G65 P9104 A102 B04  ;
N550 G0X1163.13Y905.99  ;
N551 G65 P9102 A102 B04  ;
N552 G1X1163.13Y907.01  ;
N553 G65 P9104 A102 B04  ;
N554 G0X1160.98Y907.46  ;
N555 G65 P9102 A102 B04  ;
N556 G1X1160.98Y910.31  ;
N557 G1X1161.7Y911.03  ;
N558 G1X1162.41Y911.03  ;
N559 G1X1163.13Y910.31  ;
N560 G1X1163.13Y908.17  ;
N561 G1X1162.41Y907.46  ;
N562 G1X1158.84Y907.46  ;
N563 G1X1158.13Y908.17  ;
N564 G1X1158.13Y910.31  ;
N565 G65 P9104 A101 B02  ;
N566 G0X1197.16Y889.38  ;
N567 G65 P9102 A101 B02  ;
N568 G1X1195.07Y891.47  ;
N569 G3X1195.11Y891.5I3.54J-3.47  ;
N570 G65 P9104 A101 B02  ;
N571 G0X1179.65Y1000.08  ;
N572 G65 P9102 A101 B02  ;
N573 G1X1177.57Y1002.17  ;
N574 G3X1177.6Y1002.2I3.23J-3.17  ;
N575 G65 P9104 A101 B01  ;
N576 G0X1161.8Y875.43  ;
N577 G65 P9102 A101 B01  ;
N578 G1X1166.75Y875.43  ;
N579 G1X1166.75Y877.45  ;
N580 G1X1161.8Y877.45  ;
N581 G2X1156.75Y882.5I0J5.05  ;
N582 G1X1156.75Y926.5  ;
N583 G2X1161.8Y931.55I5.05J0  ;
N584 G1X1171.25Y931.55  ;
N585 G1X1171.25Y933.45  ;
N586 G1X1154Y933.45  ;
N587 G2X1148.95Y938.5I0J5.05  ;
N588 G1X1148.95Y1017  ;
N589 G2X1154Y1022.05I5.05J0  ;
N590 G1X1170.75Y1022.05  ;
N591 G1X1170.75Y1038.31  ;
N592 G2X1175.8Y1043.36I5.05J0  ;
N593 G1X1183.8Y1043.36  ;
N594 G2X1188.85Y1038.31I0J-5.05  ;
N595 G1X1188.85Y903.95  ;
N596 G1X1184.85Y903.95  ;
N597 G1X1184.85Y902.05  ;
N598 G1X1202.11Y902.05  ;
N599 G2X1207.16Y897I0J-5.05  ;
N600 G1X1207.16Y873.45  ;
N601 G1X1191.06Y873.45  ;
N602 G1X1191.06Y876.45  ;
N603 G1X1186.85Y876.45  ;
N604 G1X1186.85Y873.25  ;
N605 G1X1188.6Y873.25  ;
N606 G1X1188.6Y857.15  ;
N607 G1X1165.25Y857.15  ;
N608 G1X1165.25Y873.25  ;
N609 G1X1166.75Y873.25  ;
N610 G1X1166.75Y874.73  ;
N611 G65 P9104 A102 B04  ;
N612 M98 P9103  ;
(P6:ID2:W86027616)  ;
N613 M98 P9101  ;
N614 G0X1191.81Y1083.8  ;
N615 G65 P9102 A102 B04  ;
N616 G1X1192.53Y1083.09  ;
N617 G1X1192.53Y1080.23  ;
N618 G1X1191.1Y1080.23  ;
N619 G1X1190.38Y1080.95  ;
N620 G1X1190.38Y1083.09  ;
N621 G1X1189.67Y1083.8  ;
N622 G1X1188.24Y1083.8  ;
N623 G1X1187.53Y1083.09  ;
N624 G1X1187.53Y1080.95  ;
N625 G1X1188.24Y1080.23  ;
N626 G65 P9104 A102 B04  ;
N627 G0X1187.53Y1084.25  ;
N628 G65 P9102 A102 B04  ;
N629 G1X1187.53Y1087.82  ;
N630 G1X1192.53Y1084.96  ;
N631 G65 P9104 A102 B04  ;
N632 G0X1190.38Y1084.96  ;
N633 G65 P9102 A102 B04  ;
N634 G1X1190.38Y1087.11  ;
N635 G65 P9104 A102 B04  ;
N636 G0X1190.38Y1088.27  ;
N637 G65 P9102 A102 B04  ;
N638 G1X1190.38Y1091.12  ;
N639 G1X1191.1Y1091.84  ;
N640 G1X1191.81Y1091.84  ;
N641 G1X1192.53Y1091.12  ;
N642 G1X1192.53Y1088.98  ;
N643 G1X1191.81Y1088.27  ;
N644 G1X1188.24Y1088.27  ;
N645 G1X1187.53Y1088.98  ;
N646 G1X1187.53Y1091.12  ;
N647 G65 P9104 A102 B04  ;
N648 G0X1188.04Y1092.29  ;
N649 G65 P9102 A102 B04  ;
N650 G1X1187.53Y1092.8  ;
N651 G1X1192.53Y1092.8  ;
N652 G65 P9104 A102 B04  ;
N653 G0X1192.53Y1092.29  ;
N654 G65 P9102 A102 B04  ;
N655 G1X1192.53Y1093.31  ;
N656 G65 P9104 A102 B04  ;
N657 G0X1190.38Y1093.76  ;
N658 G65 P9102 A102 B04  ;
N659 G1X1190.38Y1096.61  ;
N660 G1X1191.1Y1097.33  ;
N661 G1X1191.81Y1097.33  ;
N662 G1X1192.53Y1096.61  ;
N663 G1X1192.53Y1094.47  ;
N664 G1X1191.81Y1093.76  ;
N665 G1X1188.24Y1093.76  ;
N666 G1X1187.53Y1094.47  ;
N667 G1X1187.53Y1096.61  ;
N668 G65 P9104 A101 B02  ;
N669 G0X1226.56Y1075.68  ;
N670 G65 P9102 A101 B02  ;
N671 G1X1224.47Y1077.77  ;
N672 G3X1224.51Y1077.8I3.54J-3.47  ;
N673 G65 P9104 A101 B02  ;
N674 G0X1209.05Y1186.38  ;
N675 G65 P9102 A101 B02  ;
N676 G1X1206.97Y1188.47  ;
N677 G3X1207Y1188.5I3.23J-3.17  ;
N678 G65 P9104 A101 B01  ;
N679 G0X1191.2Y1061.73  ;
N680 G65 P9102 A101 B01  ;
N681 G1X1196.15Y1061.73  ;
N682 G1X1196.15Y1063.75  ;
N683 G1X1191.2Y1063.75  ;
N684 G2X1186.15Y1068.8I0J5.05  ;
N685 G1X1186.15Y1112.8  ;
N686 G2X1191.2Y1117.85I5.05J0  ;
N687 G1X1200.65Y1117.85  ;
N688 G1X1200.65Y1119.75  ;
N689 G1X1183.4Y1119.75  ;
N690 G2X1178.35Y1124.8I0J5.05  ;
N691 G1X1178.35Y1203.3  ;
N692 G2X1183.4Y1208.35I5.05J0  ;
N693 G1X1200.15Y1208.35  ;
N694 G1X1200.15Y1224.61  ;
N695 G2X1205.2Y1229.66I5.05J0  ;
N696 G1X1213.2Y1229.66  ;
N697 G2X1218.25Y1224.61I0J-5.05  ;
N698 G1X1218.25Y1090.25  ;
N699 G1X1214.25Y1090.25  ;
N700 G1X1214.25Y1088.35  ;
N701 G1X1231.51Y1088.35  ;
N702 G2X1236.56Y1083.3I0J-5.05  ;
N703 G1X1236.56Y1059.75  ;
N704 G1X1220.46Y1059.75  ;
N705 G1X1220.46Y1062.75  ;
N706 G1X1216.25Y1062.75  ;
N707 G1X1216.25Y1059.55  ;
N708 G1X1218Y1059.55  ;
N709 G1X1218Y1043.45  ;
N710 G1X1194.65Y1043.45  ;
N711 G1X1194.65Y1059.55  ;
N712 G1X1196.15Y1059.55  ;
N713 G1X1196.15Y1061.03  ;
N714 G65 P9104 A102 B04  ;
N715 M98 P9103  ;
(P7:ID2:W86027616)  ;
N716 M98 P9101  ;
N717 G0X1167.11Y1259.6  ;
N718 G65 P9102 A102 B04  ;
N719 G1X1167.83Y1258.89  ;
N720 G1X1167.83Y1256.03  ;
N721 G1X1166.4Y1256.03  ;
N722 G1X1165.68Y1256.75  ;
N723 G1X1165.68Y1258.89  ;
N724 G1X1164.97Y1259.6  ;
N725 G1X1163.54Y1259.6  ;
N726 G1X1162.83Y1258.89  ;
N727 G1X1162.83Y1256.75  ;
N728 G1X1163.54Y1256.03  ;
N729 G65 P9104 A102 B04  ;
N730 G0X1162.83Y1260.05  ;
N731 G65 P9102 A102 B04  ;
N732 G1X1162.83Y1263.62  ;
N733 G1X1167.83Y1260.76  ;
N734 G65 P9104 A102 B04  ;
N735 G0X1165.68Y1260.76  ;
N736 G65 P9102 A102 B04  ;
N737 G1X1165.68Y1262.91  ;
N738 G65 P9104 A102 B04  ;
N739 G0X1165.68Y1264.07  ;
N740 G65 P9102 A102 B04  ;
N741 G1X1165.68Y1266.92  ;
N742 G1X1166.4Y1267.64  ;
N743 G1X1167.11Y1267.64  ;
N744 G1X1167.83Y1266.92  ;
N745 G1X1167.83Y1264.78  ;
N746 G1X1167.11Y1264.07  ;
N747 G1X1163.54Y1264.07  ;
N748 G1X1162.83Y1264.78  ;
N749 G1X1162.83Y1266.92  ;
N750 G65 P9104 A102 B04  ;
N751 G0X1163.34Y1268.09  ;
N752 G65 P9102 A102 B04  ;
N753 G1X1162.83Y1268.6  ;
N754 G1X1167.83Y1268.6  ;
N755 G65 P9104 A102 B04  ;
N756 G0X1167.83Y1268.09  ;
N757 G65 P9102 A102 B04  ;
N758 G1X1167.83Y1269.11  ;
N759 G65 P9104 A102 B04  ;
N760 G0X1165.68Y1269.56  ;
N761 G65 P9102 A102 B04  ;
N762 G1X1165.68Y1272.41  ;
N763 G1X1166.4Y1273.13  ;
N764 G1X1167.11Y1273.13  ;
N765 G1X1167.83Y1272.41  ;
N766 G1X1167.83Y1270.27  ;
N767 G1X1167.11Y1269.56  ;
N768 G1X1163.54Y1269.56  ;
N769 G1X1162.83Y1270.27  ;
N770 G1X1162.83Y1272.41  ;
N771 G65 P9104 A101 B02  ;
N772 G0X1201.86Y1251.48  ;
N773 G65 P9102 A101 B02  ;
N774 G1X1199.77Y1253.57  ;
N775 G3X1199.81Y1253.6I3.54J-3.47  ;
N776 G65 P9104 A101 B02  ;
N777 G0X1184.35Y1362.18  ;
N778 G65 P9102 A101 B02  ;
N779 G1X1182.27Y1364.27  ;
N780 G3X1182.3Y1364.3I3.23J-3.17  ;
N781 G65 P9104 A101 B01  ;
N782 G0X1166.5Y1237.53  ;
N783 G65 P9102 A101 B01  ;
N784 G1X1171.45Y1237.53  ;
N785 G1X1171.45Y1239.55  ;
N786 G1X1166.5Y1239.55  ;
N787 G2X1161.45Y1244.6I0J5.05  ;
N788 G1X1161.45Y1288.6  ;
N789 G2X1166.5Y1293.65I5.05J0  ;
N790 G1X1175.95Y1293.65  ;
N791 G1X1175.95Y1295.55  ;
N792 G1X1158.7Y1295.55  ;
N793 G2X1153.65Y1300.6I0J5.05  ;
N794 G1X1153.65Y1379.1  ;
N795 G2X1158.7Y1384.15I5.05J0  ;
N796 G1X1175.45Y1384.15  ;
N797 G1X1175.45Y1400.41  ;
N798 G2X1180.5Y1405.46I5.05J0  ;
N799 G1X1188.5Y1405.46  ;
N800 G2X1193.55Y1400.41I0J-5.05  ;
N801 G1X1193.55Y1266.05  ;
N802 G1X1189.55Y1266.05  ;
N803 G1X1189.55Y1264.15  ;
N804 G1X1206.81Y1264.15  ;
N805 G2X1211.86Y1259.1I0J-5.05  ;
N806 G1X1211.86Y1235.55  ;
N807 G1X1195.76Y1235.55  ;
N808 G1X1195.76Y1238.55  ;
N809 G1X1191.55Y1238.55  ;
N810 G1X1191.55Y1235.35  ;
N811 G1X1193.3Y1235.35  ;
N812 G1X1193.3Y1219.25  ;
N813 G1X1169.95Y1219.25  ;
N814 G1X1169.95Y1235.35  ;
N815 G1X1171.45Y1235.35  ;
N816 G1X1171.45Y1236.83  ;
N817 G65 P9104 A102 B04  ;
N818 M98 P9103  ;
(P8:ID1:W86027615)  ;
N819 M98 P9101  ;
N820 G0X1159.36Y1587.26  ;
N821 G65 P9102 A102 B04  ;
N822 G1X1158.65Y1587.97  ;
N823 G1X1158.65Y1590.11  ;
N824 G1X1159.36Y1590.83  ;
N825 G1X1160.79Y1590.83  ;
N826 G1X1161.51Y1590.11  ;
N827 G1X1161.51Y1587.97  ;
N828 G1X1162.22Y1587.26  ;
N829 G1X1163.65Y1587.26  ;
N830 G1X1163.65Y1590.11  ;
N831 G1X1162.93Y1590.83  ;
N832 G65 P9104 A102 B04  ;
N833 G0X1163.65Y1591.99  ;
N834 G65 P9102 A102 B04  ;
N835 G1X1158.65Y1594.84  ;
N836 G1X1158.65Y1591.27  ;
N837 G65 P9104 A102 B04  ;
N838 G0X1161.51Y1591.99  ;
N839 G65 P9102 A102 B04  ;
N840 G1X1161.51Y1594.13  ;
N841 G65 P9104 A102 B04  ;
N842 G0X1161.51Y1595.29  ;
N843 G65 P9102 A102 B04  ;
N844 G1X1161.51Y1598.15  ;
N845 G1X1162.22Y1598.86  ;
N846 G1X1162.93Y1598.86  ;
N847 G1X1163.65Y1598.15  ;
N848 G1X1163.65Y1596.01  ;
N849 G1X1162.93Y1595.29  ;
N850 G1X1159.36Y1595.29  ;
N851 G1X1158.65Y1596.01  ;
N852 G1X1158.65Y1598.15  ;
N853 G65 P9104 A102 B04  ;
N854 G0X1159.16Y1599.31  ;
N855 G65 P9102 A102 B04  ;
N856 G1X1158.65Y1599.82  ;
N857 G1X1163.65Y1599.82  ;
N858 G65 P9104 A102 B04  ;
N859 G0X1163.65Y1600.33  ;
N860 G65 P9102 A102 B04  ;
N861 G1X1163.65Y1599.31  ;
N862 G65 P9104 A102 B04  ;
N863 G0X1163.65Y1600.78  ;
N864 G65 P9102 A102 B04  ;
N865 G1X1163.65Y1603.64  ;
N866 G1X1162.93Y1604.35  ;
N867 G1X1162.22Y1604.35  ;
N868 G1X1161.51Y1603.64  ;
N869 G1X1161.51Y1600.78  ;
N870 G1X1158.65Y1600.78  ;
N871 G1X1158.65Y1604.35  ;
N872 G65 P9104 A101 B02  ;
N873 G0X1195.86Y1614.88  ;
N874 G65 P9102 A101 B02  ;
N875 G1X1193.77Y1616.97  ;
N876 G3X1193.81Y1617I3.54J-3.47  ;
N877 G65 P9104 A101 B02  ;
N878 G0X1178.35Y1503.58  ;
N879 G65 P9102 A101 B02  ;
N880 G1X1176.27Y1505.67  ;
N881 G3X1176.3Y1505.7I3.23J-3.17  ;
N882 G65 P9104 A101 B01  ;
N883 G0X1160.5Y1625.75  ;
N884 G65 P9102 A101 B01  ;
N885 G1X1165.45Y1625.75  ;
N886 G1X1165.45Y1624.05  ;
N887 G1X1160.5Y1624.05  ;
N888 G3X1155.45Y1619I0J-5.05  ;
N889 G1X1155.45Y1575  ;
N890 G3X1160.5Y1569.95I5.05J0  ;
N891 G1X1169.95Y1569.95  ;
N892 G1X1169.95Y1568.05  ;
N893 G1X1152.7Y1568.05  ;
N894 G3X1147.65Y1563I0J-5.05  ;
N895 G1X1147.65Y1484.5  ;
N896 G3X1152.7Y1479.45I5.05J0  ;
N897 G1X1169.45Y1479.45  ;
N898 G1X1169.45Y1463.2  ;
N899 G3X1174.5Y1458.15I5.05J0  ;
N900 G1X1182.5Y1458.15  ;
N901 G3X1187.55Y1463.2I0J5.05  ;
N902 G1X1187.55Y1597.55  ;
N903 G1X1183.55Y1597.55  ;
N904 G1X1183.55Y1599.45  ;
N905 G1X1200.81Y1599.45  ;
N906 G3X1205.86Y1604.5I0J5.05  ;
N907 G1X1205.86Y1628.05  ;
N908 G1X1189.76Y1628.05  ;
N909 G1X1189.76Y1625.05  ;
N910 G1X1185.55Y1625.05  ;
N911 G1X1185.55Y1628.26  ;
N912 G1X1187.3Y1628.26  ;
N913 G1X1187.3Y1644.36  ;
N914 G1X1163.95Y1644.36  ;
N915 G1X1163.95Y1628.26  ;
N916 G1X1165.45Y1628.26  ;
N917 G1X1165.45Y1626.45  ;
N918 G65 P9104 A102 B04  ;
N919 M98 P9103  ;
(P9:ID2:W86027616)  ;
N920 M98 P9101  ;
N921 G0X1191.81Y1731.1  ;
N922 G65 P9102 A102 B04  ;
N923 G1X1192.53Y1730.39  ;
N924 G1X1192.53Y1727.53  ;
N925 G1X1191.1Y1727.53  ;
N926 G1X1190.38Y1728.25  ;
N927 G1X1190.38Y1730.39  ;
N928 G1X1189.67Y1731.1  ;
N929 G1X1188.24Y1731.1  ;
N930 G1X1187.53Y1730.39  ;
N931 G1X1187.53Y1728.25  ;
N932 G1X1188.24Y1727.53  ;
N933 G65 P9104 A102 B04  ;
N934 G0X1187.53Y1731.55  ;
N935 G65 P9102 A102 B04  ;
N936 G1X1187.53Y1735.12  ;
N937 G1X1192.53Y1732.26  ;
N938 G65 P9104 A102 B04  ;
N939 G0X1190.38Y1732.26  ;
N940 G65 P9102 A102 B04  ;
N941 G1X1190.38Y1734.41  ;
N942 G65 P9104 A102 B04  ;
N943 G0X1190.38Y1735.57  ;
N944 G65 P9102 A102 B04  ;
N945 G1X1190.38Y1738.42  ;
N946 G1X1191.1Y1739.14  ;
N947 G1X1191.81Y1739.14  ;
N948 G1X1192.53Y1738.42  ;
N949 G1X1192.53Y1736.28  ;
N950 G1X1191.81Y1735.57  ;
N951 G1X1188.24Y1735.57  ;
N952 G1X1187.53Y1736.28  ;
N953 G1X1187.53Y1738.42  ;
N954 G65 P9104 A102 B04  ;
N955 G0X1188.04Y1739.59  ;
N956 G65 P9102 A102 B04  ;
N957 G1X1187.53Y1740.1  ;
N958 G1X1192.53Y1740.1  ;
N959 G65 P9104 A102 B04  ;
N960 G0X1192.53Y1739.59  ;
N961 G65 P9102 A102 B04  ;
N962 G1X1192.53Y1740.61  ;
N963 G65 P9104 A102 B04  ;
N964 G0X1190.38Y1741.06  ;
N965 G65 P9102 A102 B04  ;
N966 G1X1190.38Y1743.91  ;
N967 G1X1191.1Y1744.63  ;
N968 G1X1191.81Y1744.63  ;
N969 G1X1192.53Y1743.91  ;
N970 G1X1192.53Y1741.77  ;
N971 G1X1191.81Y1741.06  ;
N972 G1X1188.24Y1741.06  ;
N973 G1X1187.53Y1741.77  ;
N974 G1X1187.53Y1743.91  ;
N975 G65 P9104 A101 B02  ;
N976 G0X1226.56Y1722.98  ;
N977 G65 P9102 A101 B02  ;
N978 G1X1224.47Y1725.07  ;
N979 G3X1224.51Y1725.1I3.54J-3.47  ;
N980 G65 P9104 A101 B02  ;
N981 G0X1209.05Y1833.68  ;
N982 G65 P9102 A101 B02  ;
N983 G1X1206.97Y1835.77  ;
N984 G3X1207Y1835.8I3.23J-3.17  ;
N985 G65 P9104 A101 B01  ;
N986 G0X1191.2Y1709.03  ;
N987 G65 P9102 A101 B01  ;
N988 G1X1196.15Y1709.03  ;
N989 G1X1196.15Y1711.05  ;
N990 G1X1191.2Y1711.05  ;
N991 G2X1186.15Y1716.1I0J5.05  ;
N992 G1X1186.15Y1760.1  ;
N993 G2X1191.2Y1765.15I5.05J0  ;
N994 G1X1200.65Y1765.15  ;
N995 G1X1200.65Y1767.05  ;
N996 G1X1183.4Y1767.05  ;
N997 G2X1178.35Y1772.1I0J5.05  ;
N998 G1X1178.35Y1850.6  ;
N999 G2X1183.4Y1855.65I5.05J0  ;
N1000 G1X1200.15Y1855.65  ;
N1001 G1X1200.15Y1871.91  ;
N1002 G2X1205.2Y1876.96I5.05J0  ;
N1003 G1X1213.2Y1876.96  ;
N1004 G2X1218.25Y1871.91I0J-5.05  ;
N1005 G1X1218.25Y1737.55  ;
N1006 G1X1214.25Y1737.55  ;
N1007 G1X1214.25Y1735.65  ;
N1008 G1X1231.51Y1735.65  ;
N1009 G2X1236.56Y1730.6I0J-5.05  ;
N1010 G1X1236.56Y1707.05  ;
N1011 G1X1220.46Y1707.05  ;
N1012 G1X1220.46Y1710.05  ;
N1013 G1X1216.25Y1710.05  ;
N1014 G1X1216.25Y1706.85  ;
N1015 G1X1218Y1706.85  ;
N1016 G1X1218Y1690.75  ;
N1017 G1X1194.65Y1690.75  ;
N1018 G1X1194.65Y1706.85  ;
N1019 G1X1196.15Y1706.85  ;
N1020 G1X1196.15Y1708.33  ;
N1021 G65 P9104 A102 B04  ;
N1022 M98 P9103  ;
(P10:ID2:W86027616)  ;
N1023 M98 P9101  ;
N1024 G0X1191.81Y2349.2  ;
N1025 G65 P9102 A102 B04  ;
N1026 G1X1192.53Y2348.49  ;
N1027 G1X1192.53Y2345.63  ;
N1028 G1X1191.1Y2345.63  ;
N1029 G1X1190.38Y2346.35  ;
N1030 G1X1190.38Y2348.49  ;
N1031 G1X1189.67Y2349.2  ;
N1032 G1X1188.24Y2349.2  ;
N1033 G1X1187.53Y2348.49  ;
N1034 G1X1187.53Y2346.35  ;
N1035 G1X1188.24Y2345.63  ;
N1036 G65 P9104 A102 B04  ;
N1037 G0X1187.53Y2349.65  ;
N1038 G65 P9102 A102 B04  ;
N1039 G1X1187.53Y2353.22  ;
N1040 G1X1192.53Y2350.36  ;
N1041 G65 P9104 A102 B04  ;
N1042 G0X1190.38Y2350.36  ;
N1043 G65 P9102 A102 B04  ;
N1044 G1X1190.38Y2352.51  ;
N1045 G65 P9104 A102 B04  ;
N1046 G0X1190.38Y2353.67  ;
N1047 G65 P9102 A102 B04  ;
N1048 G1X1190.38Y2356.52  ;
N1049 G1X1191.1Y2357.24  ;
N1050 G1X1191.81Y2357.24  ;
N1051 G1X1192.53Y2356.52  ;
N1052 G1X1192.53Y2354.38  ;
N1053 G1X1191.81Y2353.67  ;
N1054 G1X1188.24Y2353.67  ;
N1055 G1X1187.53Y2354.38  ;
N1056 G1X1187.53Y2356.52  ;
N1057 G65 P9104 A102 B04  ;
N1058 G0X1188.04Y2357.69  ;
N1059 G65 P9102 A102 B04  ;
N1060 G1X1187.53Y2358.2  ;
N1061 G1X1192.53Y2358.2  ;
N1062 G65 P9104 A102 B04  ;
N1063 G0X1192.53Y2357.69  ;
N1064 G65 P9102 A102 B04  ;
N1065 G1X1192.53Y2358.71  ;
N1066 G65 P9104 A102 B04  ;
N1067 G0X1190.38Y2359.16  ;
N1068 G65 P9102 A102 B04  ;
N1069 G1X1190.38Y2362.01  ;
N1070 G1X1191.1Y2362.73  ;
N1071 G1X1191.81Y2362.73  ;
N1072 G1X1192.53Y2362.01  ;
N1073 G1X1192.53Y2359.87  ;
N1074 G1X1191.81Y2359.16  ;
N1075 G1X1188.24Y2359.16  ;
N1076 G1X1187.53Y2359.87  ;
N1077 G1X1187.53Y2362.01  ;
N1078 G65 P9104 A101 B02  ;
N1079 G0X1226.56Y2341.08  ;
N1080 G65 P9102 A101 B02  ;
N1081 G1X1224.47Y2343.17  ;
N1082 G3X1224.51Y2343.2I3.54J-3.47  ;
N1083 G65 P9104 A101 B02  ;
N1084 G0X1209.05Y2451.78  ;
N1085 G65 P9102 A101 B02  ;
N1086 G1X1206.97Y2453.87  ;
N1087 G3X1207Y2453.9I3.23J-3.17  ;
N1088 G65 P9104 A101 B01  ;
N1089 G0X1191.2Y2327.13  ;
N1090 G65 P9102 A101 B01  ;
N1091 G1X1196.15Y2327.13  ;
N1092 G1X1196.15Y2329.15  ;
N1093 G1X1191.2Y2329.15  ;
N1094 G2X1186.15Y2334.2I0J5.05  ;
N1095 G1X1186.15Y2378.2  ;
N1096 G2X1191.2Y2383.25I5.05J0  ;
N1097 G1X1200.65Y2383.25  ;
N1098 G1X1200.65Y2385.15  ;
N1099 G1X1183.4Y2385.15  ;
N1100 G2X1178.35Y2390.2I0J5.05  ;
N1101 G1X1178.35Y2468.7  ;
N1102 G2X1183.4Y2473.75I5.05J0  ;
N1103 G1X1200.15Y2473.75  ;
N1104 G1X1200.15Y2490.01  ;
N1105 G2X1205.2Y2495.06I5.05J0  ;
N1106 G1X1213.2Y2495.06  ;
N1107 G2X1218.25Y2490.01I0J-5.05  ;
N1108 G1X1218.25Y2355.65  ;
N1109 G1X1214.25Y2355.65  ;
N1110 G1X1214.25Y2353.75  ;
N1111 G1X1231.51Y2353.75  ;
N1112 G2X1236.56Y2348.7I0J-5.05  ;
N1113 G1X1236.56Y2325.15  ;
N1114 G1X1220.46Y2325.15  ;
N1115 G1X1220.46Y2328.15  ;
N1116 G1X1216.25Y2328.15  ;
N1117 G1X1216.25Y2324.95  ;
N1118 G1X1218Y2324.95  ;
N1119 G1X1218Y2308.85  ;
N1120 G1X1194.65Y2308.85  ;
N1121 G1X1194.65Y2324.95  ;
N1122 G1X1196.15Y2324.95  ;
N1123 G1X1196.15Y2326.43  ;
N1124 G65 P9104 A102 B04  ;
N1125 M98 P9103  ;
(P11:ID3:W86027603)  ;
N1126 M98 P9101  ;
N1127 G0X1119.37Y18.92  ;
N1128 G65 P9102 A102 B04  ;
N1129 G3X1119.37Y18.92I-5J0  ;
N1130 G65 P9104 A102 B04  ;
N1131 G0X1119.37Y38.92  ;
N1132 G65 P9102 A102 B04  ;
N1133 G3X1119.37Y38.92I-5J0  ;
N1134 G65 P9104 A102 B04  ;
N1135 G0X1094.37Y18.92  ;
N1136 G65 P9102 A102 B04  ;
N1137 G3X1094.37Y18.92I-5J0  ;
N1138 G65 P9104 A102 B04  ;
N1139 G0X1037.86Y1234.55  ;
N1140 G65 P9102 A102 B04  ;
N1141 G1X1036.43Y1235.98  ;
N1142 G1X1036.43Y1240.27  ;
N1143 G1X1037.86Y1241.69  ;
N1144 G1X1040.71Y1241.69  ;
N1145 G1X1042.14Y1240.27  ;
N1146 G1X1042.14Y1235.98  ;
N1147 G1X1043.57Y1234.55  ;
N1148 G1X1046.43Y1234.55  ;
N1149 G1X1046.43Y1240.27  ;
N1150 G1X1045Y1241.69  ;
N1151 G65 P9104 A102 B04  ;
N1152 G0X1046.43Y1244.02  ;
N1153 G65 P9102 A102 B04  ;
N1154 G1X1036.43Y1249.73  ;
N1155 G1X1036.43Y1242.59  ;
N1156 G65 P9104 A102 B04  ;
N1157 G0X1042.14Y1244.02  ;
N1158 G65 P9102 A102 B04  ;
N1159 G1X1042.14Y1248.3  ;
N1160 G65 P9104 A102 B04  ;
N1161 G0X1042.14Y1250.62  ;
N1162 G65 P9102 A102 B04  ;
N1163 G1X1042.14Y1256.34  ;
N1164 G1X1043.57Y1257.77  ;
N1165 G1X1045Y1257.77  ;
N1166 G1X1046.43Y1256.34  ;
N1167 G1X1046.43Y1252.05  ;
N1168 G1X1045Y1250.62  ;
N1169 G1X1037.86Y1250.62  ;
N1170 G1X1036.43Y1252.05  ;
N1171 G1X1036.43Y1256.34  ;
N1172 G65 P9104 A102 B04  ;
N1173 G0X1036.43Y1264.37  ;
N1174 G65 P9102 A102 B04  ;
N1175 G1X1046.43Y1260.09  ;
N1176 G65 P9104 A102 B04  ;
N1177 G0X1046.43Y1260.09  ;
N1178 G65 P9102 A102 B04  ;
N1179 G1X1045Y1258.66  ;
N1180 G1X1037.86Y1258.66  ;
N1181 G1X1036.43Y1260.09  ;
N1182 G1X1036.43Y1264.37  ;
N1183 G1X1037.86Y1265.8  ;
N1184 G1X1045Y1265.8  ;
N1185 G1X1046.43Y1264.37  ;
N1186 G1X1046.43Y1260.09  ;
N1187 G65 P9104 A102 B04  ;
N1188 G0X1045Y1266.69  ;
N1189 G65 P9102 A102 B04  ;
N1190 G1X1046.43Y1268.12  ;
N1191 G1X1046.43Y1272.41  ;
N1192 G1X1045Y1273.84  ;
N1193 G1X1043.57Y1273.84  ;
N1194 G1X1042.14Y1272.41  ;
N1195 G1X1040.71Y1273.84  ;
N1196 G1X1037.86Y1273.84  ;
N1197 G1X1036.43Y1272.41  ;
N1198 G1X1036.43Y1268.12  ;
N1199 G1X1037.86Y1266.69  ;
N1200 G65 P9104 A102 B04  ;
N1201 G0X1042.14Y1268.12  ;
N1202 G65 P9102 A102 B04  ;
N1203 G1X1042.14Y1272.41  ;
N1204 G65 P9104 A102 B04  ;
N1205 G0X1119.37Y2462.92  ;
N1206 G65 P9102 A102 B04  ;
N1207 G3X1119.37Y2462.92I-5J0  ;
N1208 G65 P9104 A102 B04  ;
N1209 G0X1119.37Y2482.92  ;
N1210 G65 P9102 A102 B04  ;
N1211 G3X1119.37Y2482.92I-5J0  ;
N1212 G65 P9104 A102 B04  ;
N1213 G0X1094.37Y2482.92  ;
N1214 G65 P9102 A102 B04  ;
N1215 G3X1094.37Y2482.92I-5J0  ;
N1216 G65 P9104 A101 B02  ;
N1217 G0X1089.33Y2482.88  ;
N1218 G65 P9102 A101 B02  ;
N1219 G1X1087.53Y2484.68  ;
N1220 G3X1087.56Y2484.72I1.84J-1.76  ;
N1221 G65 P9104 A101 B02  ;
N1222 G0X1114.33Y2482.88  ;
N1223 G65 P9102 A101 B02  ;
N1224 G1X1112.53Y2484.68  ;
N1225 G3X1112.56Y2484.72I1.84J-1.76  ;
N1226 G65 P9104 A101 B02  ;
N1227 G0X1114.33Y2462.88  ;
N1228 G65 P9102 A101 B02  ;
N1229 G1X1112.53Y2464.68  ;
N1230 G3X1112.56Y2464.72I1.84J-1.76  ;
N1231 G65 P9104 A101 B02  ;
N1232 G0X1107.54Y1967.68  ;
N1233 G65 P9102 A101 B02  ;
N1234 G1X1105.45Y1969.76  ;
N1235 G3X1105.49Y1969.8I2.92J-2.84  ;
N1236 G65 P9104 A101 B02  ;
N1237 G0X1087.54Y1952.68  ;
N1238 G65 P9102 A101 B02  ;
N1239 G1X1085.45Y1954.76  ;
N1240 G3X1085.49Y1954.8I2.92J-2.84  ;
N1241 G65 P9104 A101 B02  ;
N1242 G0X1127.54Y1952.68  ;
N1243 G65 P9102 A101 B02  ;
N1244 G1X1125.45Y1954.76  ;
N1245 G3X1125.49Y1954.8I2.92J-2.84  ;
N1246 G65 P9104 A101 B02  ;
N1247 G0X1127.54Y1850.68  ;
N1248 G65 P9102 A101 B02  ;
N1249 G1X1125.45Y1852.76  ;
N1250 G3X1125.49Y1852.8I2.92J-2.84  ;
N1251 G65 P9104 A101 B02  ;
N1252 G0X1107.54Y1835.68  ;
N1253 G65 P9102 A101 B02  ;
N1254 G1X1105.45Y1837.76  ;
N1255 G3X1105.49Y1837.8I2.92J-2.84  ;
N1256 G65 P9104 A101 B02  ;
N1257 G0X1087.54Y1850.68  ;
N1258 G65 P9102 A101 B02  ;
N1259 G1X1085.45Y1852.76  ;
N1260 G3X1085.49Y1852.8I2.92J-2.84  ;
N1261 G65 P9104 A101 B02  ;
N1262 G0X1101.04Y1773.68  ;
N1263 G65 P9102 A101 B02  ;
N1264 G1X1098.95Y1775.76  ;
N1265 G3X1098.99Y1775.8I2.92J-2.84  ;
N1266 G65 P9104 A101 B02  ;
N1267 G0X1126.04Y1773.68  ;
N1268 G65 P9102 A101 B02  ;
N1269 G1X1123.95Y1775.76  ;
N1270 G3X1123.99Y1775.8I2.92J-2.84  ;
N1271 G65 P9104 A101 B02  ;
N1272 G0X1158.5Y1741.21  ;
N1273 G65 P9102 A101 B02  ;
N1274 G1X1156.42Y1743.3  ;
N1275 G3X1156.45Y1743.33I4.95J-4.88  ;
N1276 G65 P9104 A101 B02  ;
N1277 G0X1158.5Y1686.21  ;
N1278 G65 P9102 A101 B02  ;
N1279 G1X1156.42Y1688.3  ;
N1280 G3X1156.45Y1688.33I4.95J-4.88  ;
N1281 G65 P9104 A101 B02  ;
N1282 G0X1126.04Y1558.68  ;
N1283 G65 P9102 A101 B02  ;
N1284 G1X1123.95Y1560.76  ;
N1285 G3X1123.99Y1560.8I2.92J-2.84  ;
N1286 G65 P9104 A101 B02  ;
N1287 G0X1101.04Y1558.68  ;
N1288 G65 P9102 A101 B02  ;
N1289 G1X1098.95Y1560.76  ;
N1290 G3X1098.99Y1560.8I2.92J-2.84  ;
N1291 G65 P9104 A101 B02  ;
N1292 G0X1101.04Y944.68  ;
N1293 G65 P9102 A101 B02  ;
N1294 G1X1098.95Y946.76  ;
N1295 G3X1098.99Y946.8I2.92J-2.84  ;
N1296 G65 P9104 A101 B02  ;
N1297 G0X1126.04Y944.68  ;
N1298 G65 P9102 A101 B02  ;
N1299 G1X1123.95Y946.76  ;
N1300 G3X1123.99Y946.8I2.92J-2.84  ;
N1301 G65 P9104 A101 B02  ;
N1302 G0X1158.5Y821.21  ;
N1303 G65 P9102 A101 B02  ;
N1304 G1X1156.42Y823.3  ;
N1305 G3X1156.45Y823.33I4.95J-4.88  ;
N1306 G65 P9104 A101 B02  ;
N1307 G0X1158.5Y766.21  ;
N1308 G65 P9102 A101 B02  ;
N1309 G1X1156.42Y768.3  ;
N1310 G3X1156.45Y768.33I4.95J-4.88  ;
N1311 G65 P9104 A101 B02  ;
N1312 G0X1126.04Y729.68  ;
N1313 G65 P9102 A101 B02  ;
N1314 G1X1123.95Y731.76  ;
N1315 G3X1123.99Y731.8I2.92J-2.84  ;
N1316 G65 P9104 A101 B02  ;
N1317 G0X1101.04Y729.68  ;
N1318 G65 P9102 A101 B02  ;
N1319 G1X1098.95Y731.76  ;
N1320 G3X1098.99Y731.8I2.92J-2.84  ;
N1321 G65 P9104 A101 B02  ;
N1322 G0X1107.54Y667.68  ;
N1323 G65 P9102 A101 B02  ;
N1324 G1X1105.45Y669.76  ;
N1325 G3X1105.49Y669.8I2.92J-2.84  ;
N1326 G65 P9104 A101 B02  ;
N1327 G0X1087.54Y652.68  ;
N1328 G65 P9102 A101 B02  ;
N1329 G1X1085.45Y654.76  ;
N1330 G3X1085.49Y654.8I2.92J-2.84  ;
N1331 G65 P9104 A101 B02  ;
N1332 G0X1127.54Y652.68  ;
N1333 G65 P9102 A101 B02  ;
N1334 G1X1125.45Y654.76  ;
N1335 G3X1125.49Y654.8I2.92J-2.84  ;
N1336 G65 P9104 A101 B02  ;
N1337 G0X1127.54Y550.68  ;
N1338 G65 P9102 A101 B02  ;
N1339 G1X1125.45Y552.76  ;
N1340 G3X1125.49Y552.8I2.92J-2.84  ;
N1341 G65 P9104 A101 B02  ;
N1342 G0X1107.54Y535.68  ;
N1343 G65 P9102 A101 B02  ;
N1344 G1X1105.45Y537.76  ;
N1345 G3X1105.49Y537.8I2.92J-2.84  ;
N1346 G65 P9104 A101 B02  ;
N1347 G0X1087.54Y550.68  ;
N1348 G65 P9102 A101 B02  ;
N1349 G1X1085.45Y552.76  ;
N1350 G3X1085.49Y552.8I2.92J-2.84  ;
N1351 G65 P9104 A101 B02  ;
N1352 G0X1114.33Y38.88  ;
N1353 G65 P9102 A101 B02  ;
N1354 G1X1112.53Y40.68  ;
N1355 G3X1112.56Y40.72I1.84J-1.76  ;
N1356 G65 P9104 A101 B02  ;
N1357 G0X1114.33Y18.88  ;
N1358 G65 P9102 A101 B02  ;
N1359 G1X1112.53Y20.68  ;
N1360 G3X1112.56Y20.72I1.84J-1.76  ;
N1361 G65 P9104 A101 B02  ;
N1362 G0X1089.33Y18.88  ;
N1363 G65 P9102 A101 B02  ;
N1364 G1X1087.53Y20.68  ;
N1365 G3X1087.56Y20.72I1.84J-1.76  ;
N1366 G65 P9104 A101 B01  ;
N1367 G0X1146.37Y14.46  ;
N1368 G65 P9102 A101 B01  ;
N1369 G1X1141.42Y14.46  ;
N1370 G1X1141.42Y716.38  ;
N1371 G2X1143.89Y720.67I4.95J0  ;
N1372 G1X1176.39Y739.43  ;
N1373 G3X1178.92Y743.8I-2.52J4.37  ;
N1374 G1X1178.92Y838.03  ;
N1375 G3X1176.39Y842.4I-5.05J0  ;
N1376 G1X1143.89Y861.17  ;
N1377 G2X1141.42Y865.45I2.48J4.28  ;
N1378 G1X1141.42Y1636.38  ;
N1379 G2X1143.89Y1640.67I4.95J0  ;
N1380 G1X1176.39Y1659.43  ;
N1381 G3X1178.92Y1663.8I-2.52J4.37  ;
N1382 G1X1178.92Y1758.03  ;
N1383 G3X1176.39Y1762.4I-5.05J0  ;
N1384 G1X1143.89Y1781.17  ;
N1385 G2X1141.42Y1785.45I2.48J4.28  ;
N1386 G1X1141.42Y2488.1  ;
N1387 G65 P9104 A101 B01  ;
N1388 M98 P9103  ;
N1389 G0X1146.37Y2488.8  ;
N1390 G65 P9102 A101 B01  ;
N1391 G1X1141.42Y2488.8  ;
N1392 G1X1141.42Y2491.92  ;
N1393 G3X1136.37Y2496.97I-5.05J0  ;
N1394 G1X1078.37Y2496.97  ;
N1395 G3X1073.32Y2491.92I0J-5.05  ;
N1396 G1X1073.32Y2433.47  ;
N1397 G1X1069.12Y2433.47  ;
N1398 G1X1069.12Y2433.97  ;
N1399 G1X1067.02Y2433.97  ;
N1400 G1X1067.02Y2433.47  ;
N1401 G1X1031.12Y2433.47  ;
N1402 G1X1031.12Y2433.97  ;
N1403 G1X1029.05Y2433.97  ;
N1404 G1X1028.03Y2432.94  ;
N1405 G1X1027.83Y2432.64  ;
N1406 G1X1025.97Y2430.97  ;
N1407 G1X991.5Y2430.97  ;
N1408 G1X983.12Y2439.34  ;
N1409 G3X968.43Y2403.92I35.36J-35.42  ;
N1410 G1X968.43Y1323.19  ;
N1411 G3X983.12Y1287.77I50.05J0  ;
N1412 G1X989.52Y1294.16  ;
N1413 G1X990.5Y1295.61  ;
N1414 G1X990.82Y1296.05  ;
N1415 G1X990.9Y1296.14  ;
N1416 G1X1026.65Y1296.14  ;
N1417 G1X1026.72Y1296.06  ;
N1418 G1X1027.05Y1295.61  ;
N1419 G1X1028.04Y1294.16  ;
N1420 G1X1029.02Y1293.17  ;
N1421 G1X1029.02Y1208.66  ;
N1422 G1X1028.03Y1207.67  ;
N1423 G1X1027.05Y1206.22  ;
N1424 G1X1026.72Y1205.78  ;
N1425 G1X1026.65Y1205.69  ;
N1426 G1X990.9Y1205.69  ;
N1427 G1X990.83Y1205.77  ;
N1428 G1X990.5Y1206.22  ;
N1429 G1X989.51Y1207.68  ;
N1430 G1X983.12Y1214.07  ;
N1431 G3X968.43Y1178.64I35.36J-35.43  ;
N1432 G1X968.43Y97.92  ;
N1433 G3X983.12Y62.49I50.05J0  ;
N1434 G1X989.52Y68.89  ;
N1435 G1X989.72Y69.19  ;
N1436 G1X991.58Y70.87  ;
N1437 G1X1026.05Y70.87  ;
N1438 G1X1029.05Y67.87  ;
N1439 G1X1031.12Y67.87  ;
N1440 G1X1031.12Y68.37  ;
N1441 G1X1067.02Y68.37  ;
N1442 G1X1067.02Y67.87  ;
N1443 G1X1069.12Y67.87  ;
N1444 G1X1069.12Y68.37  ;
N1445 G1X1073.32Y68.37  ;
N1446 G1X1073.32Y9.92  ;
N1447 G3X1078.37Y4.87I5.05J0  ;
N1448 G1X1136.37Y4.87  ;
N1449 G3X1141.42Y9.92I0J5.05  ;
N1450 G1X1141.42Y13.76  ;
N1451 G65 P9104 A102 B04  ;
N1452 M98 P9103  ;
(P12:ID3:W86027603)  ;
N1453 M98 P9101  ;
N1454 G0X873.9Y19.76  ;
N1455 G65 P9102 A102 B04  ;
N1456 G3X873.9Y19.76I-5J0  ;
N1457 G65 P9104 A102 B04  ;
N1458 G0X873.9Y39.76  ;
N1459 G65 P9102 A102 B04  ;
N1460 G3X873.9Y39.76I-5J0  ;
N1461 G65 P9104 A102 B04  ;
N1462 G0X848.9Y19.76  ;
N1463 G65 P9102 A102 B04  ;
N1464 G3X848.9Y19.76I-5J0  ;
N1465 G65 P9104 A102 B04  ;
N1466 G0X792.39Y1235.39  ;
N1467 G65 P9102 A102 B04  ;
N1468 G1X790.96Y1236.82  ;
N1469 G1X790.96Y1241.1  ;
N1470 G1X792.39Y1242.53  ;
N1471 G1X795.25Y1242.53  ;
N1472 G1X796.67Y1241.1  ;
N1473 G1X796.67Y1236.82  ;
N1474 G1X798.1Y1235.39  ;
N1475 G1X800.96Y1235.39  ;
N1476 G1X800.96Y1241.1  ;
N1477 G1X799.53Y1242.53  ;
N1478 G65 P9104 A102 B04  ;
N1479 G0X800.96Y1244.85  ;
N1480 G65 P9102 A102 B04  ;
N1481 G1X790.96Y1250.57  ;
N1482 G1X790.96Y1243.43  ;
N1483 G65 P9104 A102 B04  ;
N1484 G0X796.67Y1244.85  ;
N1485 G65 P9102 A102 B04  ;
N1486 G1X796.67Y1249.14  ;
N1487 G65 P9104 A102 B04  ;
N1488 G0X796.67Y1251.46  ;
N1489 G65 P9102 A102 B04  ;
N1490 G1X796.67Y1257.18  ;
N1491 G1X798.1Y1258.6  ;
N1492 G1X799.53Y1258.6  ;
N1493 G1X800.96Y1257.18  ;
N1494 G1X800.96Y1252.89  ;
N1495 G1X799.53Y1251.46  ;
N1496 G1X792.39Y1251.46  ;
N1497 G1X790.96Y1252.89  ;
N1498 G1X790.96Y1257.18  ;
N1499 G65 P9104 A102 B04  ;
N1500 G0X790.96Y1265.21  ;
N1501 G65 P9102 A102 B04  ;
N1502 G1X800.96Y1260.93  ;
N1503 G65 P9104 A102 B04  ;
N1504 G0X800.96Y1260.93  ;
N1505 G65 P9102 A102 B04  ;
N1506 G1X799.53Y1259.5  ;
N1507 G1X792.39Y1259.5  ;
N1508 G1X790.96Y1260.93  ;
N1509 G1X790.96Y1265.21  ;
N1510 G1X792.39Y1266.64  ;
N1511 G1X799.53Y1266.64  ;
N1512 G1X800.96Y1265.21  ;
N1513 G1X800.96Y1260.93  ;
N1514 G65 P9104 A102 B04  ;
N1515 G0X799.53Y1267.53  ;
N1516 G65 P9102 A102 B04  ;
N1517 G1X800.96Y1268.96  ;
N1518 G1X800.96Y1273.25  ;
N1519 G1X799.53Y1274.68  ;
N1520 G1X798.1Y1274.68  ;
N1521 G1X796.67Y1273.25  ;
N1522 G1X795.25Y1274.68  ;
N1523 G1X792.39Y1274.68  ;
N1524 G1X790.96Y1273.25  ;
N1525 G1X790.96Y1268.96  ;
N1526 G1X792.39Y1267.53  ;
N1527 G65 P9104 A102 B04  ;
N1528 G0X796.67Y1268.96  ;
N1529 G65 P9102 A102 B04  ;
N1530 G1X796.67Y1273.25  ;
N1531 G65 P9104 A102 B04  ;
N1532 G0X873.9Y2463.76  ;
N1533 G65 P9102 A102 B04  ;
N1534 G3X873.9Y2463.76I-5J0  ;
N1535 G65 P9104 A102 B04  ;
N1536 G0X873.9Y2483.76  ;
N1537 G65 P9102 A102 B04  ;
N1538 G3X873.9Y2483.76I-5J0  ;
N1539 G65 P9104 A102 B04  ;
N1540 G0X848.9Y2483.76  ;
N1541 G65 P9102 A102 B04  ;
N1542 G3X848.9Y2483.76I-5J0  ;
N1543 G65 P9104 A101 B02  ;
N1544 G0X843.86Y2483.72  ;
N1545 G65 P9102 A101 B02  ;
N1546 G1X842.06Y2485.52  ;
N1547 G3X842.1Y2485.56I1.84J-1.76  ;
N1548 G65 P9104 A101 B02  ;
N1549 G0X868.86Y2483.72  ;
N1550 G65 P9102 A101 B02  ;
N1551 G1X867.06Y2485.52  ;
N1552 G3X867.1Y2485.56I1.84J-1.76  ;
N1553 G65 P9104 A101 B02  ;
N1554 G0X868.86Y2463.72  ;
N1555 G65 P9102 A101 B02  ;
N1556 G1X867.06Y2465.52  ;
N1557 G3X867.1Y2465.56I1.84J-1.76  ;
N1558 G65 P9104 A101 B02  ;
N1559 G0X862.07Y1968.52  ;
N1560 G65 P9102 A101 B02  ;
N1561 G1X859.98Y1970.6  ;
N1562 G3X860.02Y1970.64I2.92J-2.84  ;
N1563 G65 P9104 A101 B02  ;
N1564 G0X842.07Y1953.52  ;
N1565 G65 P9102 A101 B02  ;
N1566 G1X839.98Y1955.6  ;
N1567 G3X840.02Y1955.64I2.92J-2.84  ;
N1568 G65 P9104 A101 B02  ;
N1569 G0X882.07Y1953.52  ;
N1570 G65 P9102 A101 B02  ;
N1571 G1X879.98Y1955.6  ;
N1572 G3X880.02Y1955.64I2.92J-2.84  ;
N1573 G65 P9104 A101 B02  ;
N1574 G0X882.07Y1851.52  ;
N1575 G65 P9102 A101 B02  ;
N1576 G1X879.98Y1853.6  ;
N1577 G3X880.02Y1853.64I2.92J-2.84  ;
N1578 G65 P9104 A101 B02  ;
N1579 G0X862.07Y1836.52  ;
N1580 G65 P9102 A101 B02  ;
N1581 G1X859.98Y1838.6  ;
N1582 G3X860.02Y1838.64I2.92J-2.84  ;
N1583 G65 P9104 A101 B02  ;
N1584 G0X842.07Y1851.52  ;
N1585 G65 P9102 A101 B02  ;
N1586 G1X839.98Y1853.6  ;
N1587 G3X840.02Y1853.64I2.92J-2.84  ;
N1588 G65 P9104 A101 B02  ;
N1589 G0X855.57Y1774.52  ;
N1590 G65 P9102 A101 B02  ;
N1591 G1X853.48Y1776.6  ;
N1592 G3X853.52Y1776.64I2.92J-2.84  ;
N1593 G65 P9104 A101 B02  ;
N1594 G0X880.57Y1774.52  ;
N1595 G65 P9102 A101 B02  ;
N1596 G1X878.48Y1776.6  ;
N1597 G3X878.52Y1776.64I2.92J-2.84  ;
N1598 G65 P9104 A101 B02  ;
N1599 G0X913.04Y1742.05  ;
N1600 G65 P9102 A101 B02  ;
N1601 G1X910.95Y1744.13  ;
N1602 G3X910.99Y1744.17I4.95J-4.87  ;
N1603 G65 P9104 A101 B02  ;
N1604 G0X913.04Y1687.05  ;
N1605 G65 P9102 A101 B02  ;
N1606 G1X910.95Y1689.13  ;
N1607 G3X910.99Y1689.17I4.95J-4.87  ;
N1608 G65 P9104 A101 B02  ;
N1609 G0X880.57Y1559.52  ;
N1610 G65 P9102 A101 B02  ;
N1611 G1X878.48Y1561.6  ;
N1612 G3X878.52Y1561.64I2.92J-2.84  ;
N1613 G65 P9104 A101 B02  ;
N1614 G0X855.57Y1559.52  ;
N1615 G65 P9102 A101 B02  ;
N1616 G1X853.48Y1561.6  ;
N1617 G3X853.52Y1561.64I2.92J-2.84  ;
N1618 G65 P9104 A101 B02  ;
N1619 G0X855.57Y945.52  ;
N1620 G65 P9102 A101 B02  ;
N1621 G1X853.48Y947.6  ;
N1622 G3X853.52Y947.64I2.92J-2.84  ;
N1623 G65 P9104 A101 B02  ;
N1624 G0X880.57Y945.52  ;
N1625 G65 P9102 A101 B02  ;
N1626 G1X878.48Y947.6  ;
N1627 G3X878.52Y947.64I2.92J-2.84  ;
N1628 G65 P9104 A101 B02  ;
N1629 G0X913.04Y822.05  ;
N1630 G65 P9102 A101 B02  ;
N1631 G1X910.95Y824.13  ;
N1632 G3X910.99Y824.17I4.95J-4.87  ;
N1633 G65 P9104 A101 B02  ;
N1634 G0X913.04Y767.05  ;
N1635 G65 P9102 A101 B02  ;
N1636 G1X910.95Y769.13  ;
N1637 G3X910.99Y769.17I4.95J-4.87  ;
N1638 G65 P9104 A101 B02  ;
N1639 G0X880.57Y730.52  ;
N1640 G65 P9102 A101 B02  ;
N1641 G1X878.48Y732.6  ;
N1642 G3X878.52Y732.64I2.92J-2.84  ;
N1643 G65 P9104 A101 B02  ;
N1644 G0X855.57Y730.52  ;
N1645 G65 P9102 A101 B02  ;
N1646 G1X853.48Y732.6  ;
N1647 G3X853.52Y732.64I2.92J-2.84  ;
N1648 G65 P9104 A101 B02  ;
N1649 G0X862.07Y668.52  ;
N1650 G65 P9102 A101 B02  ;
N1651 G1X859.98Y670.6  ;
N1652 G3X860.02Y670.64I2.92J-2.84  ;
N1653 G65 P9104 A101 B02  ;
N1654 G0X842.07Y653.52  ;
N1655 G65 P9102 A101 B02  ;
N1656 G1X839.98Y655.6  ;
N1657 G3X840.02Y655.64I2.92J-2.84  ;
N1658 G65 P9104 A101 B02  ;
N1659 G0X882.07Y653.52  ;
N1660 G65 P9102 A101 B02  ;
N1661 G1X879.98Y655.6  ;
N1662 G3X880.02Y655.64I2.92J-2.84  ;
N1663 G65 P9104 A101 B02  ;
N1664 G0X882.07Y551.52  ;
N1665 G65 P9102 A101 B02  ;
N1666 G1X879.98Y553.6  ;
N1667 G3X880.02Y553.64I2.92J-2.84  ;
N1668 G65 P9104 A101 B02  ;
N1669 G0X862.07Y536.52  ;
N1670 G65 P9102 A101 B02  ;
N1671 G1X859.98Y538.6  ;
N1672 G3X860.02Y538.64I2.92J-2.84  ;
N1673 G65 P9104 A101 B02  ;
N1674 G0X842.07Y551.52  ;
N1675 G65 P9102 A101 B02  ;
N1676 G1X839.98Y553.6  ;
N1677 G3X840.02Y553.64I2.92J-2.84  ;
N1678 G65 P9104 A101 B02  ;
N1679 G0X868.86Y39.72  ;
N1680 G65 P9102 A101 B02  ;
N1681 G1X867.06Y41.52  ;
N1682 G3X867.1Y41.56I1.84J-1.76  ;
N1683 G65 P9104 A101 B02  ;
N1684 G0X868.86Y19.72  ;
N1685 G65 P9102 A101 B02  ;
N1686 G1X867.06Y21.52  ;
N1687 G3X867.1Y21.56I1.84J-1.76  ;
N1688 G65 P9104 A101 B02  ;
N1689 G0X843.86Y19.72  ;
N1690 G65 P9102 A101 B02  ;
N1691 G1X842.06Y21.52  ;
N1692 G3X842.1Y21.56I1.84J-1.76  ;
N1693 G65 P9104 A101 B01  ;
N1694 G0X900.9Y15.3  ;
N1695 G65 P9102 A101 B01  ;
N1696 G1X895.95Y15.3  ;
N1697 G1X895.95Y717.22  ;
N1698 G2X898.42Y721.51I4.95J0  ;
N1699 G1X930.92Y740.27  ;
N1700 G3X933.45Y744.64I-2.52J4.37  ;
N1701 G1X933.45Y838.87  ;
N1702 G3X930.92Y843.24I-5.05J0  ;
N1703 G1X898.42Y862.01  ;
N1704 G2X895.95Y866.29I2.48J4.28  ;
N1705 G1X895.95Y1637.22  ;
N1706 G2X898.42Y1641.51I4.95J0  ;
N1707 G1X930.92Y1660.27  ;
N1708 G3X933.45Y1664.64I-2.52J4.37  ;
N1709 G1X933.45Y1758.87  ;
N1710 G3X930.92Y1763.24I-5.05J0  ;
N1711 G1X898.42Y1782.01  ;
N1712 G2X895.95Y1786.29I2.48J4.28  ;
N1713 G1X895.95Y2488.94  ;
N1714 G65 P9104 A101 B01  ;
N1715 M98 P9103  ;
N1716 G0X900.9Y2489.64  ;
N1717 G65 P9102 A101 B01  ;
N1718 G1X895.95Y2489.64  ;
N1719 G1X895.95Y2492.76  ;
N1720 G3X890.9Y2497.81I-5.05J0  ;
N1721 G1X832.9Y2497.81  ;
N1722 G3X827.85Y2492.76I0J-5.05  ;
N1723 G1X827.85Y2434.31  ;
N1724 G1X823.65Y2434.31  ;
N1725 G1X823.65Y2434.81  ;
N1726 G1X821.55Y2434.81  ;
N1727 G1X821.55Y2434.31  ;
N1728 G1X785.66Y2434.31  ;
N1729 G1X785.66Y2434.81  ;
N1730 G1X783.59Y2434.81  ;
N1731 G1X782.56Y2433.78  ;
N1732 G1X782.37Y2433.48  ;
N1733 G1X780.51Y2431.81  ;
N1734 G1X746.03Y2431.81  ;
N1735 G1X737.65Y2440.18  ;
N1736 G3X722.96Y2404.76I35.36J-35.42  ;
N1737 G1X722.96Y1324.03  ;
N1738 G3X737.65Y1288.6I50.05J0  ;
N1739 G1X744.05Y1295  ;
N1740 G1X745.03Y1296.45  ;
N1741 G1X745.35Y1296.89  ;
N1742 G1X745.43Y1296.98  ;
N1743 G1X781.18Y1296.98  ;
N1744 G1X781.25Y1296.9  ;
N1745 G1X781.58Y1296.45  ;
N1746 G1X782.57Y1295  ;
N1747 G1X783.55Y1294.01  ;
N1748 G1X783.55Y1209.5  ;
N1749 G1X782.56Y1208.51  ;
N1750 G1X781.58Y1207.06  ;
N1751 G1X781.26Y1206.62  ;
N1752 G1X781.18Y1206.53  ;
N1753 G1X745.43Y1206.53  ;
N1754 G1X745.36Y1206.61  ;
N1755 G1X745.03Y1207.06  ;
N1756 G1X744.04Y1208.52  ;
N1757 G1X737.65Y1214.91  ;
N1758 G3X722.96Y1179.48I35.36J-35.43  ;
N1759 G1X722.96Y98.76  ;
N1760 G3X737.65Y63.33I50.05J0  ;
N1761 G1X744.05Y69.73  ;
N1762 G1X744.25Y70.03  ;
N1763 G1X746.11Y71.71  ;
N1764 G1X780.58Y71.71  ;
N1765 G1X783.59Y68.71  ;
N1766 G1X785.66Y68.71  ;
N1767 G1X785.66Y69.21  ;
N1768 G1X821.55Y69.21  ;
N1769 G1X821.55Y68.71  ;
N1770 G1X823.65Y68.71  ;
N1771 G1X823.65Y69.21  ;
N1772 G1X827.85Y69.21  ;
N1773 G1X827.85Y10.76  ;
N1774 G3X832.9Y5.71I5.05J0  ;
N1775 G1X890.9Y5.71  ;
N1776 G3X895.95Y10.76I0J5.05  ;
N1777 G1X895.95Y14.6  ;
N1778 G65 P9104 A102 B04  ;
N1779 M98 P9103  ;
(P13:ID3:W86027603)  ;
N1780 M98 P9101  ;
N1781 G0X645.83Y19.54  ;
N1782 G65 P9102 A102 B04  ;
N1783 G3X645.83Y19.54I-5J0  ;
N1784 G65 P9104 A102 B04  ;
N1785 G0X645.83Y39.54  ;
N1786 G65 P9102 A102 B04  ;
N1787 G3X645.83Y39.54I-5J0  ;
N1788 G65 P9104 A102 B04  ;
N1789 G0X620.83Y19.54  ;
N1790 G65 P9102 A102 B04  ;
N1791 G3X620.83Y19.54I-5J0  ;
N1792 G65 P9104 A102 B04  ;
N1793 G0X564.32Y1235.18  ;
N1794 G65 P9102 A102 B04  ;
N1795 G1X562.89Y1236.6  ;
N1796 G1X562.89Y1240.89  ;
N1797 G1X564.32Y1242.32  ;
N1798 G1X567.17Y1242.32  ;
N1799 G1X568.6Y1240.89  ;
N1800 G1X568.6Y1236.6  ;
N1801 G1X570.03Y1235.18  ;
N1802 G1X572.89Y1235.18  ;
N1803 G1X572.89Y1240.89  ;
N1804 G1X571.46Y1242.32  ;
N1805 G65 P9104 A102 B04  ;
N1806 G0X572.89Y1244.64  ;
N1807 G65 P9102 A102 B04  ;
N1808 G1X562.89Y1250.35  ;
N1809 G1X562.89Y1243.21  ;
N1810 G65 P9104 A102 B04  ;
N1811 G0X568.6Y1244.64  ;
N1812 G65 P9102 A102 B04  ;
N1813 G1X568.6Y1248.93  ;
N1814 G65 P9104 A102 B04  ;
N1815 G0X568.6Y1251.25  ;
N1816 G65 P9102 A102 B04  ;
N1817 G1X568.6Y1256.96  ;
N1818 G1X570.03Y1258.39  ;
N1819 G1X571.46Y1258.39  ;
N1820 G1X572.89Y1256.96  ;
N1821 G1X572.89Y1252.68  ;
N1822 G1X571.46Y1251.25  ;
N1823 G1X564.32Y1251.25  ;
N1824 G1X562.89Y1252.68  ;
N1825 G1X562.89Y1256.96  ;
N1826 G65 P9104 A102 B04  ;
N1827 G0X562.89Y1265  ;
N1828 G65 P9102 A102 B04  ;
N1829 G1X572.89Y1260.71  ;
N1830 G65 P9104 A102 B04  ;
N1831 G0X572.89Y1260.71  ;
N1832 G65 P9102 A102 B04  ;
N1833 G1X571.46Y1259.28  ;
N1834 G1X564.32Y1259.28  ;
N1835 G1X562.89Y1260.71  ;
N1836 G1X562.89Y1265  ;
N1837 G1X564.32Y1266.43  ;
N1838 G1X571.46Y1266.43  ;
N1839 G1X572.89Y1265  ;
N1840 G1X572.89Y1260.71  ;
N1841 G65 P9104 A102 B04  ;
N1842 G0X571.46Y1267.32  ;
N1843 G65 P9102 A102 B04  ;
N1844 G1X572.89Y1268.75  ;
N1845 G1X572.89Y1273.03  ;
N1846 G1X571.46Y1274.46  ;
N1847 G1X570.03Y1274.46  ;
N1848 G1X568.6Y1273.03  ;
N1849 G1X567.17Y1274.46  ;
N1850 G1X564.32Y1274.46  ;
N1851 G1X562.89Y1273.03  ;
N1852 G1X562.89Y1268.75  ;
N1853 G1X564.32Y1267.32  ;
N1854 G65 P9104 A102 B04  ;
N1855 G0X568.6Y1268.75  ;
N1856 G65 P9102 A102 B04  ;
N1857 G1X568.6Y1273.03  ;
N1858 G65 P9104 A102 B04  ;
N1859 G0X645.83Y2463.54  ;
N1860 G65 P9102 A102 B04  ;
N1861 G3X645.83Y2463.54I-5J0  ;
N1862 G65 P9104 A102 B04  ;
N1863 G0X645.83Y2483.54  ;
N1864 G65 P9102 A102 B04  ;
N1865 G3X645.83Y2483.54I-5J0  ;
N1866 G65 P9104 A102 B04  ;
N1867 G0X620.83Y2483.54  ;
N1868 G65 P9102 A102 B04  ;
N1869 G3X620.83Y2483.54I-5J0  ;
N1870 G65 P9104 A101 B02  ;
N1871 G0X615.79Y2483.5  ;
N1872 G65 P9102 A101 B02  ;
N1873 G1X613.99Y2485.31  ;
N1874 G3X614.03Y2485.34I1.84J-1.77  ;
N1875 G65 P9104 A101 B02  ;
N1876 G0X640.79Y2483.5  ;
N1877 G65 P9102 A101 B02  ;
N1878 G1X638.99Y2485.31  ;
N1879 G3X639.03Y2485.34I1.84J-1.77  ;
N1880 G65 P9104 A101 B02  ;
N1881 G0X640.79Y2463.5  ;
N1882 G65 P9102 A101 B02  ;
N1883 G1X638.99Y2465.31  ;
N1884 G3X639.03Y2465.34I1.84J-1.77  ;
N1885 G65 P9104 A101 B02  ;
N1886 G0X634Y1968.3  ;
N1887 G65 P9102 A101 B02  ;
N1888 G1X631.91Y1970.39  ;
N1889 G3X631.95Y1970.42I2.92J-2.85  ;
N1890 G65 P9104 A101 B02  ;
N1891 G0X614Y1953.3  ;
N1892 G65 P9102 A101 B02  ;
N1893 G1X611.91Y1955.39  ;
N1894 G3X611.95Y1955.42I2.92J-2.85  ;
N1895 G65 P9104 A101 B02  ;
N1896 G0X654Y1953.3  ;
N1897 G65 P9102 A101 B02  ;
N1898 G1X651.91Y1955.39  ;
N1899 G3X651.95Y1955.42I2.92J-2.85  ;
N1900 G65 P9104 A101 B02  ;
N1901 G0X654Y1851.3  ;
N1902 G65 P9102 A101 B02  ;
N1903 G1X651.91Y1853.39  ;
N1904 G3X651.95Y1853.42I2.92J-2.85  ;
N1905 G65 P9104 A101 B02  ;
N1906 G0X634Y1836.3  ;
N1907 G65 P9102 A101 B02  ;
N1908 G1X631.91Y1838.39  ;
N1909 G3X631.95Y1838.42I2.92J-2.85  ;
N1910 G65 P9104 A101 B02  ;
N1911 G0X614Y1851.3  ;
N1912 G65 P9102 A101 B02  ;
N1913 G1X611.91Y1853.39  ;
N1914 G3X611.95Y1853.42I2.92J-2.85  ;
N1915 G65 P9104 A101 B02  ;
N1916 G0X627.5Y1774.3  ;
N1917 G65 P9102 A101 B02  ;
N1918 G1X625.41Y1776.39  ;
N1919 G3X625.45Y1776.42I2.92J-2.85  ;
N1920 G65 P9104 A101 B02  ;
N1921 G0X652.5Y1774.3  ;
N1922 G65 P9102 A101 B02  ;
N1923 G1X650.41Y1776.39  ;
N1924 G3X650.45Y1776.42I2.92J-2.85  ;
N1925 G65 P9104 A101 B02  ;
N1926 G0X684.97Y1741.83  ;
N1927 G65 P9102 A101 B02  ;
N1928 G1X682.88Y1743.92  ;
N1929 G3X682.91Y1743.95I4.95J-4.88  ;
N1930 G65 P9104 A101 B02  ;
N1931 G0X684.97Y1686.83  ;
N1932 G65 P9102 A101 B02  ;
N1933 G1X682.88Y1688.92  ;
N1934 G3X682.91Y1688.95I4.95J-4.88  ;
N1935 G65 P9104 A101 B02  ;
N1936 G0X652.5Y1559.3  ;
N1937 G65 P9102 A101 B02  ;
N1938 G1X650.41Y1561.39  ;
N1939 G3X650.45Y1561.42I2.92J-2.85  ;
N1940 G65 P9104 A101 B02  ;
N1941 G0X627.5Y1559.3  ;
N1942 G65 P9102 A101 B02  ;
N1943 G1X625.41Y1561.39  ;
N1944 G3X625.45Y1561.42I2.92J-2.85  ;
N1945 G65 P9104 A101 B02  ;
N1946 G0X627.5Y945.3  ;
N1947 G65 P9102 A101 B02  ;
N1948 G1X625.41Y947.39  ;
N1949 G3X625.45Y947.42I2.92J-2.85  ;
N1950 G65 P9104 A101 B02  ;
N1951 G0X652.5Y945.3  ;
N1952 G65 P9102 A101 B02  ;
N1953 G1X650.41Y947.39  ;
N1954 G3X650.45Y947.42I2.92J-2.85  ;
N1955 G65 P9104 A101 B02  ;
N1956 G0X684.97Y821.83  ;
N1957 G65 P9102 A101 B02  ;
N1958 G1X682.88Y823.92  ;
N1959 G3X682.91Y823.95I4.95J-4.88  ;
N1960 G65 P9104 A101 B02  ;
N1961 G0X684.97Y766.83  ;
N1962 G65 P9102 A101 B02  ;
N1963 G1X682.88Y768.92  ;
N1964 G3X682.91Y768.95I4.95J-4.88  ;
N1965 G65 P9104 A101 B02  ;
N1966 G0X652.5Y730.3  ;
N1967 G65 P9102 A101 B02  ;
N1968 G1X650.41Y732.39  ;
N1969 G3X650.45Y732.42I2.92J-2.85  ;
N1970 G65 P9104 A101 B02  ;
N1971 G0X627.5Y730.3  ;
N1972 G65 P9102 A101 B02  ;
N1973 G1X625.41Y732.39  ;
N1974 G3X625.45Y732.42I2.92J-2.85  ;
N1975 G65 P9104 A101 B02  ;
N1976 G0X634Y668.3  ;
N1977 G65 P9102 A101 B02  ;
N1978 G1X631.91Y670.39  ;
N1979 G3X631.95Y670.42I2.92J-2.85  ;
N1980 G65 P9104 A101 B02  ;
N1981 G0X614Y653.3  ;
N1982 G65 P9102 A101 B02  ;
N1983 G1X611.91Y655.39  ;
N1984 G3X611.95Y655.42I2.92J-2.85  ;
N1985 G65 P9104 A101 B02  ;
N1986 G0X654Y653.3  ;
N1987 G65 P9102 A101 B02  ;
N1988 G1X651.91Y655.39  ;
N1989 G3X651.95Y655.42I2.92J-2.85  ;
N1990 G65 P9104 A101 B02  ;
N1991 G0X654Y551.3  ;
N1992 G65 P9102 A101 B02  ;
N1993 G1X651.91Y553.39  ;
N1994 G3X651.95Y553.42I2.92J-2.85  ;
N1995 G65 P9104 A101 B02  ;
N1996 G0X634Y536.3  ;
N1997 G65 P9102 A101 B02  ;
N1998 G1X631.91Y538.39  ;
N1999 G3X631.95Y538.42I2.92J-2.85  ;
N2000 G65 P9104 A101 B02  ;
N2001 G0X614Y551.3  ;
N2002 G65 P9102 A101 B02  ;
N2003 G1X611.91Y553.39  ;
N2004 G3X611.95Y553.42I2.92J-2.85  ;
N2005 G65 P9104 A101 B02  ;
N2006 G0X640.79Y39.5  ;
N2007 G65 P9102 A101 B02  ;
N2008 G1X638.99Y41.31  ;
N2009 G3X639.03Y41.34I1.84J-1.77  ;
N2010 G65 P9104 A101 B02  ;
N2011 G0X640.79Y19.5  ;
N2012 G65 P9102 A101 B02  ;
N2013 G1X638.99Y21.31  ;
N2014 G3X639.03Y21.34I1.84J-1.77  ;
N2015 G65 P9104 A101 B02  ;
N2016 G0X615.79Y19.5  ;
N2017 G65 P9102 A101 B02  ;
N2018 G1X613.99Y21.31  ;
N2019 G3X614.03Y21.34I1.84J-1.77  ;
N2020 G65 P9104 A101 B01  ;
N2021 G0X672.83Y15.09  ;
N2022 G65 P9102 A101 B01  ;
N2023 G1X667.88Y15.09  ;
N2024 G1X667.88Y717  ;
N2025 G2X670.35Y721.29I4.95J0  ;
N2026 G1X702.85Y740.05  ;
N2027 G3X705.38Y744.43I-2.52J4.38  ;
N2028 G1X705.38Y838.65  ;
N2029 G3X702.85Y843.03I-5.05J0  ;
N2030 G1X670.35Y861.79  ;
N2031 G2X667.88Y866.08I2.48J4.29  ;
N2032 G1X667.88Y1637  ;
N2033 G2X670.35Y1641.29I4.95J0  ;
N2034 G1X702.85Y1660.05  ;
N2035 G3X705.38Y1664.43I-2.52J4.38  ;
N2036 G1X705.38Y1758.65  ;
N2037 G3X702.85Y1763.03I-5.05J0  ;
N2038 G1X670.35Y1781.79  ;
N2039 G2X667.88Y1786.08I2.48J4.29  ;
N2040 G1X667.88Y2488.73  ;
N2041 G65 P9104 A101 B01  ;
N2042 M98 P9103  ;
N2043 G0X672.83Y2489.43  ;
N2044 G65 P9102 A101 B01  ;
N2045 G1X667.88Y2489.43  ;
N2046 G1X667.88Y2492.54  ;
N2047 G3X662.83Y2497.59I-5.05J0  ;
N2048 G1X604.83Y2497.59  ;
N2049 G3X599.78Y2492.54I0J-5.05  ;
N2050 G1X599.78Y2434.09  ;
N2051 G1X595.58Y2434.09  ;
N2052 G1X595.58Y2434.59  ;
N2053 G1X593.48Y2434.59  ;
N2054 G1X593.48Y2434.09  ;
N2055 G1X557.59Y2434.09  ;
N2056 G1X557.59Y2434.59  ;
N2057 G1X555.52Y2434.59  ;
N2058 G1X554.49Y2433.57  ;
N2059 G1X554.3Y2433.27  ;
N2060 G1X552.43Y2431.59  ;
N2061 G1X517.96Y2431.59  ;
N2062 G1X509.58Y2439.97  ;
N2063 G3X494.89Y2404.54I35.36J-35.43  ;
N2064 G1X494.89Y1323.82  ;
N2065 G3X509.58Y1288.39I50.05J0  ;
N2066 G1X515.98Y1294.79  ;
N2067 G1X516.96Y1296.24  ;
N2068 G1X517.28Y1296.68  ;
N2069 G1X517.36Y1296.77  ;
N2070 G1X553.11Y1296.77  ;
N2071 G1X553.18Y1296.68  ;
N2072 G1X553.51Y1296.24  ;
N2073 G1X554.5Y1294.78  ;
N2074 G1X555.48Y1293.79  ;
N2075 G1X555.48Y1209.29  ;
N2076 G1X554.49Y1208.29  ;
N2077 G1X553.51Y1206.85  ;
N2078 G1X553.19Y1206.4  ;
N2079 G1X553.11Y1206.32  ;
N2080 G1X517.36Y1206.32  ;
N2081 G1X517.29Y1206.4  ;
N2082 G1X516.96Y1206.84  ;
N2083 G1X515.97Y1208.3  ;
N2084 G1X509.58Y1214.69  ;
N2085 G3X494.89Y1179.27I35.36J-35.42  ;
N2086 G1X494.89Y98.54  ;
N2087 G3X509.58Y63.11I50.05J0  ;
N2088 G1X515.98Y69.51  ;
N2089 G1X516.18Y69.81  ;
N2090 G1X518.04Y71.49  ;
N2091 G1X552.51Y71.49  ;
N2092 G1X555.52Y68.49  ;
N2093 G1X557.59Y68.49  ;
N2094 G1X557.59Y68.99  ;
N2095 G1X593.48Y68.99  ;
N2096 G1X593.48Y68.49  ;
N2097 G1X595.58Y68.49  ;
N2098 G1X595.58Y68.99  ;
N2099 G1X599.78Y68.99  ;
N2100 G1X599.78Y10.54  ;
N2101 G3X604.83Y5.49I5.05J0  ;
N2102 G1X662.83Y5.49  ;
N2103 G3X667.88Y10.54I0J5.05  ;
N2104 G1X667.88Y14.39  ;
N2105 G65 P9104 A102 B04  ;
N2106 M98 P9103  ;
(P14:ID3:W86027603)  ;
N2107 M98 P9101  ;
N2108 G0X413.55Y19.54  ;
N2109 G65 P9102 A102 B04  ;
N2110 G3X413.55Y19.54I-5J0  ;
N2111 G65 P9104 A102 B04  ;
N2112 G0X413.55Y39.54  ;
N2113 G65 P9102 A102 B04  ;
N2114 G3X413.55Y39.54I-5J0  ;
N2115 G65 P9104 A102 B04  ;
N2116 G0X388.55Y19.54  ;
N2117 G65 P9102 A102 B04  ;
N2118 G3X388.55Y19.54I-5J0  ;
N2119 G65 P9104 A102 B04  ;
N2120 G0X332.04Y1235.18  ;
N2121 G65 P9102 A102 B04  ;
N2122 G1X330.61Y1236.6  ;
N2123 G1X330.61Y1240.89  ;
N2124 G1X332.04Y1242.32  ;
N2125 G1X334.9Y1242.32  ;
N2126 G1X336.32Y1240.89  ;
N2127 G1X336.32Y1236.6  ;
N2128 G1X337.75Y1235.18  ;
N2129 G1X340.61Y1235.18  ;
N2130 G1X340.61Y1240.89  ;
N2131 G1X339.18Y1242.32  ;
N2132 G65 P9104 A102 B04  ;
N2133 G0X340.61Y1244.64  ;
N2134 G65 P9102 A102 B04  ;
N2135 G1X330.61Y1250.35  ;
N2136 G1X330.61Y1243.21  ;
N2137 G65 P9104 A102 B04  ;
N2138 G0X336.32Y1244.64  ;
N2139 G65 P9102 A102 B04  ;
N2140 G1X336.32Y1248.93  ;
N2141 G65 P9104 A102 B04  ;
N2142 G0X336.32Y1251.25  ;
N2143 G65 P9102 A102 B04  ;
N2144 G1X336.32Y1256.96  ;
N2145 G1X337.75Y1258.39  ;
N2146 G1X339.18Y1258.39  ;
N2147 G1X340.61Y1256.96  ;
N2148 G1X340.61Y1252.68  ;
N2149 G1X339.18Y1251.25  ;
N2150 G1X332.04Y1251.25  ;
N2151 G1X330.61Y1252.68  ;
N2152 G1X330.61Y1256.96  ;
N2153 G65 P9104 A102 B04  ;
N2154 G0X330.61Y1265  ;
N2155 G65 P9102 A102 B04  ;
N2156 G1X340.61Y1260.71  ;
N2157 G65 P9104 A102 B04  ;
N2158 G0X340.61Y1260.71  ;
N2159 G65 P9102 A102 B04  ;
N2160 G1X339.18Y1259.28  ;
N2161 G1X332.04Y1259.28  ;
N2162 G1X330.61Y1260.71  ;
N2163 G1X330.61Y1265  ;
N2164 G1X332.04Y1266.43  ;
N2165 G1X339.18Y1266.43  ;
N2166 G1X340.61Y1265  ;
N2167 G1X340.61Y1260.71  ;
N2168 G65 P9104 A102 B04  ;
N2169 G0X339.18Y1267.32  ;
N2170 G65 P9102 A102 B04  ;
N2171 G1X340.61Y1268.75  ;
N2172 G1X340.61Y1273.03  ;
N2173 G1X339.18Y1274.46  ;
N2174 G1X337.75Y1274.46  ;
N2175 G1X336.32Y1273.03  ;
N2176 G1X334.9Y1274.46  ;
N2177 G1X332.04Y1274.46  ;
N2178 G1X330.61Y1273.03  ;
N2179 G1X330.61Y1268.75  ;
N2180 G1X332.04Y1267.32  ;
N2181 G65 P9104 A102 B04  ;
N2182 G0X336.32Y1268.75  ;
N2183 G65 P9102 A102 B04  ;
N2184 G1X336.32Y1273.03  ;
N2185 G65 P9104 A102 B04  ;
N2186 G0X413.55Y2463.54  ;
N2187 G65 P9102 A102 B04  ;
N2188 G3X413.55Y2463.54I-5J0  ;
N2189 G65 P9104 A102 B04  ;
N2190 G0X413.55Y2483.54  ;
N2191 G65 P9102 A102 B04  ;
N2192 G3X413.55Y2483.54I-5J0  ;
N2193 G65 P9104 A102 B04  ;
N2194 G0X388.55Y2483.54  ;
N2195 G65 P9102 A102 B04  ;
N2196 G3X388.55Y2483.54I-5J0  ;
N2197 G65 P9104 A101 B02  ;
N2198 G0X383.51Y2483.5  ;
N2199 G65 P9102 A101 B02  ;
N2200 G1X381.71Y2485.31  ;
N2201 G3X381.75Y2485.34I1.84J-1.77  ;
N2202 G65 P9104 A101 B02  ;
N2203 G0X408.51Y2483.5  ;
N2204 G65 P9102 A101 B02  ;
N2205 G1X406.71Y2485.31  ;
N2206 G3X406.75Y2485.34I1.84J-1.77  ;
N2207 G65 P9104 A101 B02  ;
N2208 G0X408.51Y2463.5  ;
N2209 G65 P9102 A101 B02  ;
N2210 G1X406.71Y2465.31  ;
N2211 G3X406.75Y2465.34I1.84J-1.77  ;
N2212 G65 P9104 A101 B02  ;
N2213 G0X401.72Y1968.3  ;
N2214 G65 P9102 A101 B02  ;
N2215 G1X399.63Y1970.39  ;
N2216 G3X399.67Y1970.42I2.92J-2.85  ;
N2217 G65 P9104 A101 B02  ;
N2218 G0X381.72Y1953.3  ;
N2219 G65 P9102 A101 B02  ;
N2220 G1X379.63Y1955.39  ;
N2221 G3X379.67Y1955.42I2.92J-2.85  ;
N2222 G65 P9104 A101 B02  ;
N2223 G0X421.72Y1953.3  ;
N2224 G65 P9102 A101 B02  ;
N2225 G1X419.63Y1955.39  ;
N2226 G3X419.67Y1955.42I2.92J-2.85  ;
N2227 G65 P9104 A101 B02  ;
N2228 G0X421.72Y1851.3  ;
N2229 G65 P9102 A101 B02  ;
N2230 G1X419.63Y1853.39  ;
N2231 G3X419.67Y1853.42I2.92J-2.85  ;
N2232 G65 P9104 A101 B02  ;
N2233 G0X401.72Y1836.3  ;
N2234 G65 P9102 A101 B02  ;
N2235 G1X399.63Y1838.39  ;
N2236 G3X399.67Y1838.42I2.92J-2.85  ;
N2237 G65 P9104 A101 B02  ;
N2238 G0X381.72Y1851.3  ;
N2239 G65 P9102 A101 B02  ;
N2240 G1X379.63Y1853.39  ;
N2241 G3X379.67Y1853.42I2.92J-2.85  ;
N2242 G65 P9104 A101 B02  ;
N2243 G0X395.22Y1774.3  ;
N2244 G65 P9102 A101 B02  ;
N2245 G1X393.13Y1776.39  ;
N2246 G3X393.17Y1776.42I2.92J-2.85  ;
N2247 G65 P9104 A101 B02  ;
N2248 G0X420.22Y1774.3  ;
N2249 G65 P9102 A101 B02  ;
N2250 G1X418.13Y1776.39  ;
N2251 G3X418.17Y1776.42I2.92J-2.85  ;
N2252 G65 P9104 A101 B02  ;
N2253 G0X452.69Y1741.83  ;
N2254 G65 P9102 A101 B02  ;
N2255 G1X450.6Y1743.92  ;
N2256 G3X450.64Y1743.95I4.95J-4.88  ;
N2257 G65 P9104 A101 B02  ;
N2258 G0X452.69Y1686.83  ;
N2259 G65 P9102 A101 B02  ;
N2260 G1X450.6Y1688.92  ;
N2261 G3X450.64Y1688.95I4.95J-4.88  ;
N2262 G65 P9104 A101 B02  ;
N2263 G0X420.22Y1559.3  ;
N2264 G65 P9102 A101 B02  ;
N2265 G1X418.13Y1561.39  ;
N2266 G3X418.17Y1561.42I2.92J-2.85  ;
N2267 G65 P9104 A101 B02  ;
N2268 G0X395.22Y1559.3  ;
N2269 G65 P9102 A101 B02  ;
N2270 G1X393.13Y1561.39  ;
N2271 G3X393.17Y1561.42I2.92J-2.85  ;
N2272 G65 P9104 A101 B02  ;
N2273 G0X395.22Y945.3  ;
N2274 G65 P9102 A101 B02  ;
N2275 G1X393.13Y947.39  ;
N2276 G3X393.17Y947.42I2.92J-2.85  ;
N2277 G65 P9104 A101 B02  ;
N2278 G0X420.22Y945.3  ;
N2279 G65 P9102 A101 B02  ;
N2280 G1X418.13Y947.39  ;
N2281 G3X418.17Y947.42I2.92J-2.85  ;
N2282 G65 P9104 A101 B02  ;
N2283 G0X452.69Y821.83  ;
N2284 G65 P9102 A101 B02  ;
N2285 G1X450.6Y823.92  ;
N2286 G3X450.64Y823.95I4.95J-4.88  ;
N2287 G65 P9104 A101 B02  ;
N2288 G0X452.69Y766.83  ;
N2289 G65 P9102 A101 B02  ;
N2290 G1X450.6Y768.92  ;
N2291 G3X450.64Y768.95I4.95J-4.88  ;
N2292 G65 P9104 A101 B02  ;
N2293 G0X420.22Y730.3  ;
N2294 G65 P9102 A101 B02  ;
N2295 G1X418.13Y732.39  ;
N2296 G3X418.17Y732.42I2.92J-2.85  ;
N2297 G65 P9104 A101 B02  ;
N2298 G0X395.22Y730.3  ;
N2299 G65 P9102 A101 B02  ;
N2300 G1X393.13Y732.39  ;
N2301 G3X393.17Y732.42I2.92J-2.85  ;
N2302 G65 P9104 A101 B02  ;
N2303 G0X401.72Y668.3  ;
N2304 G65 P9102 A101 B02  ;
N2305 G1X399.63Y670.39  ;
N2306 G3X399.67Y670.42I2.92J-2.85  ;
N2307 G65 P9104 A101 B02  ;
N2308 G0X381.72Y653.3  ;
N2309 G65 P9102 A101 B02  ;
N2310 G1X379.63Y655.39  ;
N2311 G3X379.67Y655.42I2.92J-2.85  ;
N2312 G65 P9104 A101 B02  ;
N2313 G0X421.72Y653.3  ;
N2314 G65 P9102 A101 B02  ;
N2315 G1X419.63Y655.39  ;
N2316 G3X419.67Y655.42I2.92J-2.85  ;
N2317 G65 P9104 A101 B02  ;
N2318 G0X421.72Y551.3  ;
N2319 G65 P9102 A101 B02  ;
N2320 G1X419.63Y553.39  ;
N2321 G3X419.67Y553.42I2.92J-2.85  ;
N2322 G65 P9104 A101 B02  ;
N2323 G0X401.72Y536.3  ;
N2324 G65 P9102 A101 B02  ;
N2325 G1X399.63Y538.39  ;
N2326 G3X399.67Y538.42I2.92J-2.85  ;
N2327 G65 P9104 A101 B02  ;
N2328 G0X381.72Y551.3  ;
N2329 G65 P9102 A101 B02  ;
N2330 G1X379.63Y553.39  ;
N2331 G3X379.67Y553.42I2.92J-2.85  ;
N2332 G65 P9104 A101 B02  ;
N2333 G0X408.51Y39.5  ;
N2334 G65 P9102 A101 B02  ;
N2335 G1X406.71Y41.31  ;
N2336 G3X406.75Y41.34I1.84J-1.77  ;
N2337 G65 P9104 A101 B02  ;
N2338 G0X408.51Y19.5  ;
N2339 G65 P9102 A101 B02  ;
N2340 G1X406.71Y21.31  ;
N2341 G3X406.75Y21.34I1.84J-1.77  ;
N2342 G65 P9104 A101 B02  ;
N2343 G0X383.51Y19.5  ;
N2344 G65 P9102 A101 B02  ;
N2345 G1X381.71Y21.31  ;
N2346 G3X381.75Y21.34I1.84J-1.77  ;
N2347 G65 P9104 A101 B01  ;
N2348 G0X440.55Y15.09  ;
N2349 G65 P9102 A101 B01  ;
N2350 G1X435.6Y15.09  ;
N2351 G1X435.6Y717  ;
N2352 G2X438.08Y721.29I4.95J0  ;
N2353 G1X470.58Y740.05  ;
N2354 G3X473.1Y744.43I-2.53J4.38  ;
N2355 G1X473.1Y838.65  ;
N2356 G3X470.58Y843.03I-5.05J0  ;
N2357 G1X438.08Y861.79  ;
N2358 G2X435.6Y866.08I2.47J4.29  ;
N2359 G1X435.6Y1637  ;
N2360 G2X438.08Y1641.29I4.95J0  ;
N2361 G1X470.58Y1660.05  ;
N2362 G3X473.1Y1664.43I-2.53J4.38  ;
N2363 G1X473.1Y1758.65  ;
N2364 G3X470.58Y1763.03I-5.05J0  ;
N2365 G1X438.08Y1781.79  ;
N2366 G2X435.6Y1786.08I2.47J4.29  ;
N2367 G1X435.6Y2488.73  ;
N2368 G65 P9104 A101 B01  ;
N2369 M98 P9103  ;
N2370 G0X440.55Y2489.43  ;
N2371 G65 P9102 A101 B01  ;
N2372 G1X435.6Y2489.43  ;
N2373 G1X435.6Y2492.54  ;
N2374 G3X430.55Y2497.59I-5.05J0  ;
N2375 G1X372.55Y2497.59  ;
N2376 G3X367.5Y2492.54I0J-5.05  ;
N2377 G1X367.5Y2434.09  ;
N2378 G1X363.3Y2434.09  ;
N2379 G1X363.3Y2434.59  ;
N2380 G1X361.2Y2434.59  ;
N2381 G1X361.2Y2434.09  ;
N2382 G1X325.31Y2434.09  ;
N2383 G1X325.31Y2434.59  ;
N2384 G1X323.24Y2434.59  ;
N2385 G1X322.22Y2433.57  ;
N2386 G1X322.02Y2433.27  ;
N2387 G1X320.16Y2431.59  ;
N2388 G1X285.68Y2431.59  ;
N2389 G1X277.3Y2439.97  ;
N2390 G3X262.61Y2404.54I35.36J-35.43  ;
N2391 G1X262.61Y1323.82  ;
N2392 G3X277.3Y1288.39I50.05J0  ;
N2393 G1X283.7Y1294.79  ;
N2394 G1X284.68Y1296.24  ;
N2395 G1X285Y1296.68  ;
N2396 G1X285.08Y1296.77  ;
N2397 G1X320.83Y1296.77  ;
N2398 G1X320.9Y1296.68  ;
N2399 G1X321.23Y1296.24  ;
N2400 G1X322.22Y1294.78  ;
N2401 G1X323.2Y1293.79  ;
N2402 G1X323.2Y1209.29  ;
N2403 G1X322.21Y1208.29  ;
N2404 G1X321.23Y1206.85  ;
N2405 G1X320.91Y1206.4  ;
N2406 G1X320.83Y1206.32  ;
N2407 G1X285.08Y1206.32  ;
N2408 G1X285.01Y1206.4  ;
N2409 G1X284.68Y1206.84  ;
N2410 G1X283.69Y1208.3  ;
N2411 G1X277.3Y1214.69  ;
N2412 G3X262.61Y1179.27I35.36J-35.42  ;
N2413 G1X262.61Y98.54  ;
N2414 G3X277.3Y63.11I50.05J0  ;
N2415 G1X283.7Y69.51  ;
N2416 G1X283.9Y69.81  ;
N2417 G1X285.76Y71.49  ;
N2418 G1X320.23Y71.49  ;
N2419 G1X323.24Y68.49  ;
N2420 G1X325.31Y68.49  ;
N2421 G1X325.31Y68.99  ;
N2422 G1X361.2Y68.99  ;
N2423 G1X361.2Y68.49  ;
N2424 G1X363.3Y68.49  ;
N2425 G1X363.3Y68.99  ;
N2426 G1X367.5Y68.99  ;
N2427 G1X367.5Y10.54  ;
N2428 G3X372.55Y5.49I5.05J0  ;
N2429 G1X430.55Y5.49  ;
N2430 G3X435.6Y10.54I0J5.05  ;
N2431 G1X435.6Y14.39  ;
N2432 G65 P9104 A102 B04  ;
N2433 M98 P9103  ;
(P15:ID3:W86027603)  ;
N2434 M98 P9101  ;
N2435 G0X189.76Y19.39  ;
N2436 G65 P9102 A102 B04  ;
N2437 G3X189.76Y19.39I-5J0  ;
N2438 G65 P9104 A102 B04  ;
N2439 G0X189.76Y39.39  ;
N2440 G65 P9102 A102 B04  ;
N2441 G3X189.76Y39.39I-5J0  ;
N2442 G65 P9104 A102 B04  ;
N2443 G0X164.76Y19.39  ;
N2444 G65 P9102 A102 B04  ;
N2445 G3X164.76Y19.39I-5J0  ;
N2446 G65 P9104 A102 B04  ;
N2447 G0X108.24Y1235.02  ;
N2448 G65 P9102 A102 B04  ;
N2449 G1X106.82Y1236.45  ;
N2450 G1X106.82Y1240.73  ;
N2451 G1X108.24Y1242.16  ;
N2452 G1X111.1Y1242.16  ;
N2453 G1X112.53Y1240.73  ;
N2454 G1X112.53Y1236.45  ;
N2455 G1X113.96Y1235.02  ;
N2456 G1X116.82Y1235.02  ;
N2457 G1X116.82Y1240.73  ;
N2458 G1X115.39Y1242.16  ;
N2459 G65 P9104 A102 B04  ;
N2460 G0X116.82Y1244.48  ;
N2461 G65 P9102 A102 B04  ;
N2462 G1X106.82Y1250.2  ;
N2463 G1X106.82Y1243.06  ;
N2464 G65 P9104 A102 B04  ;
N2465 G0X112.53Y1244.48  ;
N2466 G65 P9102 A102 B04  ;
N2467 G1X112.53Y1248.77  ;
N2468 G65 P9104 A102 B04  ;
N2469 G0X112.53Y1251.09  ;
N2470 G65 P9102 A102 B04  ;
N2471 G1X112.53Y1256.81  ;
N2472 G1X113.96Y1258.23  ;
N2473 G1X115.39Y1258.23  ;
N2474 G1X116.82Y1256.81  ;
N2475 G1X116.82Y1252.52  ;
N2476 G1X115.39Y1251.09  ;
N2477 G1X108.24Y1251.09  ;
N2478 G1X106.82Y1252.52  ;
N2479 G1X106.82Y1256.81  ;
N2480 G65 P9104 A102 B04  ;
N2481 G0X106.82Y1264.84  ;
N2482 G65 P9102 A102 B04  ;
N2483 G1X116.82Y1260.56  ;
N2484 G65 P9104 A102 B04  ;
N2485 G0X116.82Y1260.56  ;
N2486 G65 P9102 A102 B04  ;
N2487 G1X115.39Y1259.13  ;
N2488 G1X108.24Y1259.13  ;
N2489 G1X106.82Y1260.56  ;
N2490 G1X106.82Y1264.84  ;
N2491 G1X108.24Y1266.27  ;
N2492 G1X115.39Y1266.27  ;
N2493 G1X116.82Y1264.84  ;
N2494 G1X116.82Y1260.56  ;
N2495 G65 P9104 A102 B04  ;
N2496 G0X115.39Y1267.16  ;
N2497 G65 P9102 A102 B04  ;
N2498 G1X116.82Y1268.59  ;
N2499 G1X116.82Y1272.88  ;
N2500 G1X115.39Y1274.31  ;
N2501 G1X113.96Y1274.31  ;
N2502 G1X112.53Y1272.88  ;
N2503 G1X111.1Y1274.31  ;
N2504 G1X108.24Y1274.31  ;
N2505 G1X106.82Y1272.88  ;
N2506 G1X106.82Y1268.59  ;
N2507 G1X108.24Y1267.16  ;
N2508 G65 P9104 A102 B04  ;
N2509 G0X112.53Y1268.59  ;
N2510 G65 P9102 A102 B04  ;
N2511 G1X112.53Y1272.88  ;
N2512 G65 P9104 A102 B04  ;
N2513 G0X189.76Y2463.39  ;
N2514 G65 P9102 A102 B04  ;
N2515 G3X189.76Y2463.39I-5J0  ;
N2516 G65 P9104 A102 B04  ;
N2517 G0X189.76Y2483.39  ;
N2518 G65 P9102 A102 B04  ;
N2519 G3X189.76Y2483.39I-5J0  ;
N2520 G65 P9104 A102 B04  ;
N2521 G0X164.76Y2483.39  ;
N2522 G65 P9102 A102 B04  ;
N2523 G3X164.76Y2483.39I-5J0  ;
N2524 G65 P9104 A101 B02  ;
N2525 G0X159.72Y2483.35  ;
N2526 G65 P9102 A101 B02  ;
N2527 G1X157.92Y2485.15  ;
N2528 G3X157.95Y2485.19I1.84J-1.76  ;
N2529 G65 P9104 A101 B02  ;
N2530 G0X184.72Y2483.35  ;
N2531 G65 P9102 A101 B02  ;
N2532 G1X182.92Y2485.15  ;
N2533 G3X182.95Y2485.19I1.84J-1.76  ;
N2534 G65 P9104 A101 B02  ;
N2535 G0X184.72Y2463.35  ;
N2536 G65 P9102 A101 B02  ;
N2537 G1X182.92Y2465.15  ;
N2538 G3X182.95Y2465.19I1.84J-1.76  ;
N2539 G65 P9104 A101 B02  ;
N2540 G0X177.92Y1968.15  ;
N2541 G65 P9102 A101 B02  ;
N2542 G1X175.84Y1970.23  ;
N2543 G3X175.87Y1970.27I2.92J-2.84  ;
N2544 G65 P9104 A101 B02  ;
N2545 G0X157.92Y1953.15  ;
N2546 G65 P9102 A101 B02  ;
N2547 G1X155.84Y1955.23  ;
N2548 G3X155.87Y1955.27I2.92J-2.84  ;
N2549 G65 P9104 A101 B02  ;
N2550 G0X197.92Y1953.15  ;
N2551 G65 P9102 A101 B02  ;
N2552 G1X195.84Y1955.23  ;
N2553 G3X195.87Y1955.27I2.92J-2.84  ;
N2554 G65 P9104 A101 B02  ;
N2555 G0X197.92Y1851.15  ;
N2556 G65 P9102 A101 B02  ;
N2557 G1X195.84Y1853.23  ;
N2558 G3X195.87Y1853.27I2.92J-2.84  ;
N2559 G65 P9104 A101 B02  ;
N2560 G0X177.92Y1836.15  ;
N2561 G65 P9102 A101 B02  ;
N2562 G1X175.84Y1838.23  ;
N2563 G3X175.87Y1838.27I2.92J-2.84  ;
N2564 G65 P9104 A101 B02  ;
N2565 G0X157.92Y1851.15  ;
N2566 G65 P9102 A101 B02  ;
N2567 G1X155.84Y1853.23  ;
N2568 G3X155.87Y1853.27I2.92J-2.84  ;
N2569 G65 P9104 A101 B02  ;
N2570 G0X171.42Y1774.15  ;
N2571 G65 P9102 A101 B02  ;
N2572 G1X169.34Y1776.23  ;
N2573 G3X169.37Y1776.27I2.92J-2.84  ;
N2574 G65 P9104 A101 B02  ;
N2575 G0X196.42Y1774.15  ;
N2576 G65 P9102 A101 B02  ;
N2577 G1X194.34Y1776.23  ;
N2578 G3X194.37Y1776.27I2.92J-2.84  ;
N2579 G65 P9104 A101 B02  ;
N2580 G0X228.89Y1741.68  ;
N2581 G65 P9102 A101 B02  ;
N2582 G1X226.81Y1743.76  ;
N2583 G3X226.84Y1743.8I4.95J-4.87  ;
N2584 G65 P9104 A101 B02  ;
N2585 G0X228.89Y1686.68  ;
N2586 G65 P9102 A101 B02  ;
N2587 G1X226.81Y1688.76  ;
N2588 G3X226.84Y1688.8I4.95J-4.87  ;
N2589 G65 P9104 A101 B02  ;
N2590 G0X196.42Y1559.15  ;
N2591 G65 P9102 A101 B02  ;
N2592 G1X194.34Y1561.23  ;
N2593 G3X194.37Y1561.27I2.92J-2.84  ;
N2594 G65 P9104 A101 B02  ;
N2595 G0X171.42Y1559.15  ;
N2596 G65 P9102 A101 B02  ;
N2597 G1X169.34Y1561.23  ;
N2598 G3X169.37Y1561.27I2.92J-2.84  ;
N2599 G65 P9104 A101 B02  ;
N2600 G0X171.42Y945.15  ;
N2601 G65 P9102 A101 B02  ;
N2602 G1X169.34Y947.23  ;
N2603 G3X169.37Y947.27I2.92J-2.84  ;
N2604 G65 P9104 A101 B02  ;
N2605 G0X196.42Y945.15  ;
N2606 G65 P9102 A101 B02  ;
N2607 G1X194.34Y947.23  ;
N2608 G3X194.37Y947.27I2.92J-2.84  ;
N2609 G65 P9104 A101 B02  ;
N2610 G0X228.89Y821.68  ;
N2611 G65 P9102 A101 B02  ;
N2612 G1X226.81Y823.76  ;
N2613 G3X226.84Y823.8I4.95J-4.87  ;
N2614 G65 P9104 A101 B02  ;
N2615 G0X228.89Y766.68  ;
N2616 G65 P9102 A101 B02  ;
N2617 G1X226.81Y768.76  ;
N2618 G3X226.84Y768.8I4.95J-4.87  ;
N2619 G65 P9104 A101 B02  ;
N2620 G0X196.42Y730.15  ;
N2621 G65 P9102 A101 B02  ;
N2622 G1X194.34Y732.23  ;
N2623 G3X194.37Y732.27I2.92J-2.84  ;
N2624 G65 P9104 A101 B02  ;
N2625 G0X171.42Y730.15  ;
N2626 G65 P9102 A101 B02  ;
N2627 G1X169.34Y732.23  ;
N2628 G3X169.37Y732.27I2.92J-2.84  ;
N2629 G65 P9104 A101 B02  ;
N2630 G0X177.92Y668.15  ;
N2631 G65 P9102 A101 B02  ;
N2632 G1X175.84Y670.23  ;
N2633 G3X175.87Y670.27I2.92J-2.84  ;
N2634 G65 P9104 A101 B02  ;
N2635 G0X157.92Y653.15  ;
N2636 G65 P9102 A101 B02  ;
N2637 G1X155.84Y655.23  ;
N2638 G3X155.87Y655.27I2.92J-2.84  ;
N2639 G65 P9104 A101 B02  ;
N2640 G0X197.92Y653.15  ;
N2641 G65 P9102 A101 B02  ;
N2642 G1X195.84Y655.23  ;
N2643 G3X195.87Y655.27I2.92J-2.84  ;
N2644 G65 P9104 A101 B02  ;
N2645 G0X197.92Y551.15  ;
N2646 G65 P9102 A101 B02  ;
N2647 G1X195.84Y553.23  ;
N2648 G3X195.87Y553.27I2.92J-2.84  ;
N2649 G65 P9104 A101 B02  ;
N2650 G0X177.92Y536.15  ;
N2651 G65 P9102 A101 B02  ;
N2652 G1X175.84Y538.23  ;
N2653 G3X175.87Y538.27I2.92J-2.84  ;
N2654 G65 P9104 A101 B02  ;
N2655 G0X157.92Y551.15  ;
N2656 G65 P9102 A101 B02  ;
N2657 G1X155.84Y553.23  ;
N2658 G3X155.87Y553.27I2.92J-2.84  ;
N2659 G65 P9104 A101 B02  ;
N2660 G0X184.72Y39.35  ;
N2661 G65 P9102 A101 B02  ;
N2662 G1X182.92Y41.15  ;
N2663 G3X182.95Y41.19I1.84J-1.76  ;
N2664 G65 P9104 A101 B02  ;
N2665 G0X184.72Y19.35  ;
N2666 G65 P9102 A101 B02  ;
N2667 G1X182.92Y21.15  ;
N2668 G3X182.95Y21.19I1.84J-1.76  ;
N2669 G65 P9104 A101 B02  ;
N2670 G0X159.72Y19.35  ;
N2671 G65 P9102 A101 B02  ;
N2672 G1X157.92Y21.15  ;
N2673 G3X157.95Y21.19I1.84J-1.76  ;
N2674 G65 P9104 A101 B01  ;
N2675 G0X216.76Y14.93  ;
N2676 G65 P9102 A101 B01  ;
N2677 G1X211.81Y14.93  ;
N2678 G1X211.81Y716.85  ;
N2679 G2X214.28Y721.13I4.95J0  ;
N2680 G1X246.78Y739.9  ;
N2681 G3X249.31Y744.27I-2.52J4.37  ;
N2682 G1X249.31Y838.5  ;
N2683 G3X246.78Y842.87I-5.05J0  ;
N2684 G1X214.28Y861.64  ;
N2685 G2X211.81Y865.92I2.48J4.28  ;
N2686 G1X211.81Y1636.85  ;
N2687 G2X214.28Y1641.13I4.95J0  ;
N2688 G1X246.78Y1659.9  ;
N2689 G3X249.31Y1664.27I-2.52J4.37  ;
N2690 G1X249.31Y1758.5  ;
N2691 G3X246.78Y1762.87I-5.05J0  ;
N2692 G1X214.28Y1781.64  ;
N2693 G2X211.81Y1785.92I2.48J4.28  ;
N2694 G1X211.81Y2488.57  ;
N2695 G65 P9104 A101 B01  ;
N2696 M98 P9103  ;
N2697 G0X216.76Y2489.27  ;
N2698 G65 P9102 A101 B01  ;
N2699 G1X211.81Y2489.27  ;
N2700 G1X211.81Y2492.39  ;
N2701 G3X206.76Y2497.44I-5.05J0  ;
N2702 G1X148.76Y2497.43  ;
N2703 G3X143.71Y2492.39I0J-5.04  ;
N2704 G1X143.71Y2433.94  ;
N2705 G1X139.51Y2433.94  ;
N2706 G1X139.51Y2434.44  ;
N2707 G1X137.41Y2434.44  ;
N2708 G1X137.41Y2433.94  ;
N2709 G1X101.51Y2433.93  ;
N2710 G1X101.51Y2434.43  ;
N2711 G1X99.44Y2434.43  ;
N2712 G1X98.42Y2433.41  ;
N2713 G1X98.22Y2433.11  ;
N2714 G1X96.36Y2431.44  ;
N2715 G1X61.89Y2431.44  ;
N2716 G1X53.51Y2439.81  ;
N2717 G3X38.81Y2404.39I35.35J-35.42  ;
N2718 G1X38.81Y1323.66  ;
N2719 G3X53.51Y1288.23I50.05J0  ;
N2720 G1X59.9Y1294.63  ;
N2721 G1X60.89Y1296.08  ;
N2722 G1X61.21Y1296.52  ;
N2723 G1X61.29Y1296.61  ;
N2724 G1X97.03Y1296.61  ;
N2725 G1X97.11Y1296.53  ;
N2726 G1X97.43Y1296.08  ;
N2727 G1X98.42Y1294.62  ;
N2728 G1X99.41Y1293.64  ;
N2729 G1X99.41Y1209.13  ;
N2730 G1X98.42Y1208.14  ;
N2731 G1X97.43Y1206.69  ;
N2732 G1X97.11Y1206.25  ;
N2733 G1X97.03Y1206.16  ;
N2734 G1X61.29Y1206.16  ;
N2735 G1X61.21Y1206.24  ;
N2736 G1X60.89Y1206.69  ;
N2737 G1X59.9Y1208.15  ;
N2738 G1X53.51Y1214.54  ;
N2739 G3X38.81Y1179.11I35.35J-35.43  ;
N2740 G1X38.81Y98.39  ;
N2741 G3X53.51Y62.96I50.05J0  ;
N2742 G1X59.9Y69.36  ;
N2743 G1X60.1Y69.66  ;
N2744 G1X61.96Y71.34  ;
N2745 G1X96.44Y71.34  ;
N2746 G1X99.44Y68.33  ;
N2747 G1X101.51Y68.33  ;
N2748 G1X101.51Y68.83  ;
N2749 G1X137.41Y68.84  ;
N2750 G1X137.41Y68.34  ;
N2751 G1X139.51Y68.34  ;
N2752 G1X139.51Y68.84  ;
N2753 G1X143.71Y68.84  ;
N2754 G1X143.71Y10.39  ;
N2755 G3X148.76Y5.33I5.05J0  ;
N2756 G1X206.76Y5.33  ;
N2757 G3X211.81Y10.39I0J5.06  ;
N2758 G1X211.81Y14.23  ;
N2759 M98 P9104  ;
N2760 M98 P9103  ;
(FOOTER)
N2761 M98 P9110  ;
N2762 M30  ;
%
