O0099  ;
( MACHINE : TCI Laser )  ;
( MATERIAL : Galvanizado )  ;
( THICKNESS : 2 )  ;
( REPETITIONS : 1 )  ;
( SIMULATION TIME : 00:08:07 )  ;
( FORMAT : 1250x2500 )  ;
( JOB NUMBER : VARS8600\K86027602 )  ;
( PROGRAM NUMBER : 11691 )  ;
( TYPE : 0 )  ;
( NUMBER OF SHEETS : 1 )  ;
( CUTTING HEADS : 1 )  ;
#516= 1  ;
#517= 1  ;
N105 G65 P9100 A103 B04  ;
(P1:ID1:W86027602)  ;
N106 M98 P9101  ;
N107 G0X95.75Y1230.16  ;
N108 G65 P9102 A102 B04  ;
N109 G1X94.32Y1231.59  ;
N110 G1X94.32Y1235.87  ;
N111 G1X95.75Y1237.3  ;
N112 G1X98.6Y1237.3  ;
N113 G1X100.03Y1235.87  ;
N114 G1X100.03Y1231.59  ;
N115 G1X101.46Y1230.16  ;
N116 G1X104.32Y1230.16  ;
N117 G1X104.32Y1235.87  ;
N118 G1X102.89Y1237.3  ;
N119 G65 P9104 A102 B04  ;
N120 G0X104.32Y1239.62  ;
N121 G65 P9102 A102 B04  ;
N122 G1X94.32Y1245.34  ;
N123 G1X94.32Y1238.19  ;
N124 G65 P9104 A102 B04  ;
N125 G0X100.03Y1239.62  ;
N126 G65 P9102 A102 B04  ;
N127 G1X100.03Y1243.91  ;
N128 G65 P9104 A102 B04  ;
N129 G0X100.03Y1246.23  ;
N130 G65 P9102 A102 B04  ;
N131 G1X100.03Y1251.94  ;
N132 G1X101.46Y1253.37  ;
N133 G1X102.89Y1253.37  ;
N134 G1X104.32Y1251.94  ;
N135 G1X104.32Y1247.66  ;
N136 G1X102.89Y1246.23  ;
N137 G1X95.75Y1246.23  ;
N138 G1X94.32Y1247.66  ;
N139 G1X94.32Y1251.94  ;
N140 G65 P9104 A102 B04  ;
N141 G0X94.32Y1259.98  ;
N142 G65 P9102 A102 B04  ;
N143 G1X104.32Y1255.69  ;
N144 G65 P9104 A102 B04  ;
N145 G0X104.32Y1255.69  ;
N146 G65 P9102 A102 B04  ;
N147 G1X102.89Y1254.26  ;
N148 G1X95.75Y1254.26  ;
N149 G1X94.32Y1255.69  ;
N150 G1X94.32Y1259.98  ;
N151 G1X95.75Y1261.41  ;
N152 G1X102.89Y1261.41  ;
N153 G1X104.32Y1259.98  ;
N154 G1X104.32Y1255.69  ;
N155 G65 P9104 A102 B04  ;
N156 G0X95.75Y1262.3  ;
N157 G65 P9102 A102 B04  ;
N158 G1X94.32Y1263.73  ;
N159 G1X94.32Y1268.01  ;
N160 G1X95.75Y1269.44  ;
N161 G1X98.6Y1269.44  ;
N162 G1X100.03Y1268.01  ;
N163 G1X100.03Y1263.73  ;
N164 G1X101.46Y1262.3  ;
N165 G1X104.32Y1262.3  ;
N166 G1X104.32Y1268.01  ;
N167 G1X102.89Y1269.44  ;
N168 G65 P9104 A101 B01  ;
N169 G0X83.28Y2432.87  ;
N170 G65 P9102 A101 B01  ;
N171 G1X83.28Y2430.1  ;
N172 G65 P9104 A101 B02  ;
N173 G0X199.49Y2482.84  ;
N174 G65 P9102 A101 B02  ;
N175 G1X197.4Y2484.92  ;
N176 G3X197.44Y2484.96I2.12J-2.05  ;
N177 G65 P9104 A101 B02  ;
N178 G0X224.49Y2482.84  ;
N179 G65 P9102 A101 B02  ;
N180 G1X222.4Y2484.92  ;
N181 G3X222.44Y2484.96I2.12J-2.05  ;
N182 G65 P9104 A101 B02  ;
N183 G0X224.49Y2462.84  ;
N184 G65 P9102 A101 B02  ;
N185 G1X222.4Y2464.92  ;
N186 G3X222.44Y2464.96I2.12J-2.05  ;
N187 G65 P9104 A101 B02  ;
N188 G0X225.41Y2419.66  ;
N189 G65 P9102 A101 B02  ;
N190 G1X223.32Y2421.75  ;
N191 G3X223.36Y2421.78I4.95J-4.88  ;
N192 G65 P9104 A101 B02  ;
N193 G0X222.58Y2394.99  ;
N194 G65 P9102 A101 B02  ;
N195 G1X220.5Y2397.08  ;
N196 G3X220.53Y2397.11I7.77J-7.71  ;
N197 G65 P9104 A101 B02  ;
N198 G0X223.64Y2366.43  ;
N199 G65 P9102 A101 B02  ;
N200 G1X221.56Y2368.52  ;
N201 G3X221.59Y2368.55I6.71J-6.65  ;
N202 G65 P9104 A101 B02  ;
N203 G0X225.66Y1303.66  ;
N204 G65 P9102 A101 B02  ;
N205 G1X223.57Y1305.75  ;
N206 G3X223.61Y1305.78I4.95J-4.88  ;
N207 G65 P9104 A101 B02  ;
N208 G0X225.66Y1203.66  ;
N209 G65 P9102 A101 B02  ;
N210 G1X223.57Y1205.75  ;
N211 G3X223.61Y1205.78I4.95J-4.88  ;
N212 G65 P9104 A101 B01  ;
N213 G0X49.12Y71.64  ;
N214 G65 P9102 A101 B01  ;
N215 G1X49.12Y68.87  ;
N216 G65 P9104 A101 B01  ;
N217 G0X83.28Y68.87  ;
N218 G65 P9102 A101 B01  ;
N219 G1X83.28Y71.64  ;
N220 G65 P9104 A101 B02  ;
N221 G0X223.64Y144.43  ;
N222 G65 P9102 A101 B02  ;
N223 G1X221.56Y146.52  ;
N224 G3X221.59Y146.55I6.71J-6.65  ;
N225 G65 P9104 A101 B02  ;
N226 G0X222.58Y117.99  ;
N227 G65 P9102 A101 B02  ;
N228 G1X220.5Y120.08  ;
N229 G3X220.53Y120.11I7.77J-7.71  ;
N230 G65 P9104 A101 B02  ;
N231 G0X225.41Y87.66  ;
N232 G65 P9102 A101 B02  ;
N233 G1X223.32Y89.75  ;
N234 G3X223.36Y89.78I4.95J-4.88  ;
N235 G65 P9104 A101 B02  ;
N236 G0X224.49Y38.84  ;
N237 G65 P9102 A101 B02  ;
N238 G1X222.4Y40.92  ;
N239 G3X222.44Y40.96I2.12J-2.05  ;
N240 G65 P9104 A101 B02  ;
N241 G0X224.49Y18.84  ;
N242 G65 P9102 A101 B02  ;
N243 G1X222.4Y20.92  ;
N244 G3X222.44Y20.96I2.12J-2.05  ;
N245 G65 P9104 A101 B02  ;
N246 G0X199.49Y18.84  ;
N247 G65 P9102 A101 B02  ;
N248 G1X197.4Y20.92  ;
N249 G3X197.44Y20.96I2.12J-2.05  ;
N250 G65 P9104 A101 B01  ;
N251 G0X176.52Y66.92  ;
N252 G65 P9102 A101 B01  ;
N253 G1X179.52Y66.92  ;
N254 G1X181.47Y66.92  ;
N255 G1X181.47Y67.82  ;
N256 G1X86.34Y67.82  ;
N257 G1X85.32Y68.84  ;
N258 G1X83.5Y71.38  ;
N259 G1X82.2Y72.53  ;
N260 G1X81.25Y72.8  ;
N261 G1X81.25Y70.82  ;
N262 G1X51.15Y70.82  ;
N263 G1X51.15Y72.8  ;
N264 G1X50.2Y72.53  ;
N265 G1X48.9Y71.38  ;
N266 G1X47.07Y68.84  ;
N267 G1X40.68Y62.44  ;
N268 G2X25.98Y97.87I35.35J35.43  ;
N269 G1X25.98Y1178.6  ;
N270 G2X40.68Y1214.02I50.05J0  ;
N271 G1X47.07Y1207.62  ;
N272 G1X48.9Y1205.09  ;
N273 G1X50.2Y1203.94  ;
N274 G1X51.15Y1203.66  ;
N275 G1X51.15Y1205.65  ;
N276 G1X81.25Y1205.65  ;
N277 G1X81.25Y1203.66  ;
N278 G1X82.2Y1203.94  ;
N279 G1X83.5Y1205.09  ;
N280 G1X85.33Y1207.63  ;
N281 G1X86.31Y1208.62  ;
N282 G1X86.31Y1293.12  ;
N283 G1X85.32Y1294.12  ;
N284 G1X83.5Y1296.65  ;
N285 G1X82.2Y1297.8  ;
N286 G1X81.25Y1298.08  ;
N287 G1X81.25Y1296.1  ;
N288 G1X51.15Y1296.1  ;
N289 G1X51.15Y1298.08  ;
N290 G1X50.2Y1297.8  ;
N291 G1X48.9Y1296.65  ;
N292 G1X47.07Y1294.11  ;
N293 G1X40.68Y1287.72  ;
N294 G2X25.98Y1323.15I35.35J35.43  ;
N295 G1X25.98Y2403.87  ;
N296 G2X40.68Y2439.3I50.05J0  ;
N297 G1X47.07Y2432.9  ;
N298 G1X48.9Y2430.36  ;
N299 G1X50.2Y2429.21  ;
N300 G1X51.15Y2428.94  ;
N301 G1X51.15Y2430.92  ;
N302 G1X81.25Y2430.92  ;
N303 G1X81.25Y2428.94  ;
N304 G1X82.2Y2429.21  ;
N305 G1X83.5Y2430.36  ;
N306 G1X85.33Y2432.91  ;
N307 G1X86.34Y2433.92  ;
N308 G1X181.47Y2433.92  ;
N309 G1X181.47Y2434.82  ;
N310 G1X179.47Y2434.82  ;
N311 G1X179.47Y2494.87  ;
N312 G2X181.52Y2496.92I2.05J0  ;
N313 G1X239.52Y2496.92  ;
N314 G2X244.57Y2491.87I0J-5.05  ;
N315 G1X244.57Y9.87  ;
N316 G2X239.52Y4.82I-5.05J0  ;
N317 G1X181.52Y4.82  ;
N318 G2X179.47Y6.87I0J2.05  ;
N319 G1X179.47Y66.87  ;
N320 G65 P9104 A102 B04  ;
N321 M98 P9103  ;
(P2:ID1:W86027602)  ;
N322 M98 P9101  ;
N323 G0X333.44Y1229.22  ;
N324 G65 P9102 A102 B04  ;
N325 G1X332.01Y1230.65  ;
N326 G1X332.01Y1234.94  ;
N327 G1X333.44Y1236.37  ;
N328 G1X336.3Y1236.37  ;
N329 G1X337.73Y1234.94  ;
N330 G1X337.73Y1230.65  ;
N331 G1X339.16Y1229.22  ;
N332 G1X342.01Y1229.22  ;
N333 G1X342.01Y1234.94  ;
N334 G1X340.58Y1236.37  ;
N335 G65 P9104 A102 B04  ;
N336 G0X342.01Y1238.69  ;
N337 G65 P9102 A102 B04  ;
N338 G1X332.01Y1244.4  ;
N339 G1X332.01Y1237.26  ;
N340 G65 P9104 A102 B04  ;
N341 G0X337.73Y1238.69  ;
N342 G65 P9102 A102 B04  ;
N343 G1X337.73Y1242.97  ;
N344 G65 P9104 A102 B04  ;
N345 G0X337.73Y1245.29  ;
N346 G65 P9102 A102 B04  ;
N347 G1X337.73Y1251.01  ;
N348 G1X339.16Y1252.44  ;
N349 G1X340.58Y1252.44  ;
N350 G1X342.01Y1251.01  ;
N351 G1X342.01Y1246.72  ;
N352 G1X340.58Y1245.29  ;
N353 G1X333.44Y1245.29  ;
N354 G1X332.01Y1246.72  ;
N355 G1X332.01Y1251.01  ;
N356 G65 P9104 A102 B04  ;
N357 G0X332.01Y1259.04  ;
N358 G65 P9102 A102 B04  ;
N359 G1X342.01Y1254.76  ;
N360 G65 P9104 A102 B04  ;
N361 G0X342.01Y1254.76  ;
N362 G65 P9102 A102 B04  ;
N363 G1X340.58Y1253.33  ;
N364 G1X333.44Y1253.33  ;
N365 G1X332.01Y1254.76  ;
N366 G1X332.01Y1259.04  ;
N367 G1X333.44Y1260.47  ;
N368 G1X340.58Y1260.47  ;
N369 G1X342.01Y1259.04  ;
N370 G1X342.01Y1254.76  ;
N371 G65 P9104 A102 B04  ;
N372 G0X333.44Y1261.37  ;
N373 G65 P9102 A102 B04  ;
N374 G1X332.01Y1262.79  ;
N375 G1X332.01Y1267.08  ;
N376 G1X333.44Y1268.51  ;
N377 G1X336.3Y1268.51  ;
N378 G1X337.73Y1267.08  ;
N379 G1X337.73Y1262.79  ;
N380 G1X339.16Y1261.37  ;
N381 G1X342.01Y1261.37  ;
N382 G1X342.01Y1267.08  ;
N383 G1X340.58Y1268.51  ;
N384 G65 P9104 A101 B01  ;
N385 G0X320.97Y2431.94  ;
N386 G65 P9102 A101 B01  ;
N387 G1X320.97Y2429.17  ;
N388 G65 P9104 A101 B02  ;
N389 G0X437.18Y2481.9  ;
N390 G65 P9102 A101 B02  ;
N391 G1X435.1Y2483.99  ;
N392 G3X435.13Y2484.02I2.12J-2.05  ;
N393 G65 P9104 A101 B02  ;
N394 G0X462.18Y2481.9  ;
N395 G65 P9102 A101 B02  ;
N396 G1X460.1Y2483.99  ;
N397 G3X460.13Y2484.02I2.12J-2.05  ;
N398 G65 P9104 A101 B02  ;
N399 G0X462.18Y2461.9  ;
N400 G65 P9102 A101 B02  ;
N401 G1X460.1Y2463.99  ;
N402 G3X460.13Y2464.02I2.12J-2.05  ;
N403 G65 P9104 A101 B02  ;
N404 G0X463.11Y2418.73  ;
N405 G65 P9102 A101 B02  ;
N406 G1X461.02Y2420.82  ;
N407 G3X461.05Y2420.85I4.95J-4.88  ;
N408 G65 P9104 A101 B02  ;
N409 G0X460.28Y2394.06  ;
N410 G65 P9102 A101 B02  ;
N411 G1X458.19Y2396.14  ;
N412 G3X458.23Y2396.18I7.78J-7.7  ;
N413 G65 P9104 A101 B02  ;
N414 G0X461.34Y2365.5  ;
N415 G65 P9102 A101 B02  ;
N416 G1X459.25Y2367.58  ;
N417 G3X459.29Y2367.62I6.72J-6.64  ;
N418 G65 P9104 A101 B02  ;
N419 G0X463.36Y1302.73  ;
N420 G65 P9102 A101 B02  ;
N421 G1X461.27Y1304.82  ;
N422 G3X461.3Y1304.85I4.95J-4.88  ;
N423 G65 P9104 A101 B02  ;
N424 G0X463.36Y1202.73  ;
N425 G65 P9102 A101 B02  ;
N426 G1X461.27Y1204.82  ;
N427 G3X461.3Y1204.85I4.95J-4.88  ;
N428 G65 P9104 A101 B01  ;
N429 G0X286.81Y70.71  ;
N430 G65 P9102 A101 B01  ;
N431 G1X286.81Y67.94  ;
N432 G65 P9104 A101 B01  ;
N433 G0X320.97Y67.94  ;
N434 G65 P9102 A101 B01  ;
N435 G1X320.97Y70.71  ;
N436 G65 P9104 A101 B02  ;
N437 G0X461.34Y143.5  ;
N438 G65 P9102 A101 B02  ;
N439 G1X459.25Y145.58  ;
N440 G3X459.29Y145.62I6.72J-6.64  ;
N441 G65 P9104 A101 B02  ;
N442 G0X460.28Y117.06  ;
N443 G65 P9102 A101 B02  ;
N444 G1X458.19Y119.14  ;
N445 G3X458.23Y119.18I7.78J-7.7  ;
N446 G65 P9104 A101 B02  ;
N447 G0X463.11Y86.73  ;
N448 G65 P9102 A101 B02  ;
N449 G1X461.02Y88.82  ;
N450 G3X461.05Y88.85I4.95J-4.88  ;
N451 G65 P9104 A101 B02  ;
N452 G0X462.18Y37.9  ;
N453 G65 P9102 A101 B02  ;
N454 G1X460.1Y39.99  ;
N455 G3X460.13Y40.02I2.12J-2.05  ;
N456 G65 P9104 A101 B02  ;
N457 G0X462.18Y17.9  ;
N458 G65 P9102 A101 B02  ;
N459 G1X460.1Y19.99  ;
N460 G3X460.13Y20.02I2.12J-2.05  ;
N461 G65 P9104 A101 B02  ;
N462 G0X437.18Y17.9  ;
N463 G65 P9102 A101 B02  ;
N464 G1X435.1Y19.99  ;
N465 G3X435.13Y20.02I2.12J-2.05  ;
N466 G65 P9104 A101 B01  ;
N467 G0X414.22Y65.99  ;
N468 G65 P9102 A101 B01  ;
N469 G1X417.22Y65.99  ;
N470 G1X419.17Y65.99  ;
N471 G1X419.17Y66.89  ;
N472 G1X324.03Y66.89  ;
N473 G1X323.01Y67.91  ;
N474 G1X321.19Y70.44  ;
N475 G1X319.89Y71.6  ;
N476 G1X318.94Y71.87  ;
N477 G1X318.94Y69.89  ;
N478 G1X288.84Y69.89  ;
N479 G1X288.84Y71.87  ;
N480 G1X287.89Y71.6  ;
N481 G1X286.59Y70.44  ;
N482 G1X284.76Y67.9  ;
N483 G1X278.37Y61.51  ;
N484 G2X263.68Y96.94I35.36J35.43  ;
N485 G1X263.68Y1177.66  ;
N486 G2X278.37Y1213.09I50.05J0  ;
N487 G1X284.77Y1206.69  ;
N488 G1X286.59Y1204.15  ;
N489 G1X287.89Y1203  ;
N490 G1X288.84Y1202.73  ;
N491 G1X288.84Y1204.71  ;
N492 G1X318.94Y1204.71  ;
N493 G1X318.94Y1202.73  ;
N494 G1X319.89Y1203  ;
N495 G1X321.19Y1204.15  ;
N496 G1X323.02Y1206.7  ;
N497 G1X324.01Y1207.68  ;
N498 G1X324.01Y1292.19  ;
N499 G1X323.01Y1293.18  ;
N500 G1X321.19Y1295.72  ;
N501 G1X319.89Y1296.87  ;
N502 G1X318.94Y1297.15  ;
N503 G1X318.94Y1295.16  ;
N504 G1X288.84Y1295.16  ;
N505 G1X288.84Y1297.15  ;
N506 G1X287.89Y1296.87  ;
N507 G1X286.59Y1295.72  ;
N508 G1X284.76Y1293.18  ;
N509 G1X278.37Y1286.79  ;
N510 G2X263.68Y1322.21I35.36J35.42  ;
N511 G1X263.68Y2402.94  ;
N512 G2X278.37Y2438.36I50.05J0  ;
N513 G1X284.77Y2431.97  ;
N514 G1X286.59Y2429.43  ;
N515 G1X287.89Y2428.28  ;
N516 G1X288.84Y2428  ;
N517 G1X288.84Y2429.99  ;
N518 G1X318.94Y2429.99  ;
N519 G1X318.94Y2428  ;
N520 G1X319.89Y2428.28  ;
N521 G1X321.19Y2429.43  ;
N522 G1X323.02Y2431.97  ;
N523 G1X324.03Y2432.99  ;
N524 G1X419.17Y2432.99  ;
N525 G1X419.17Y2433.89  ;
N526 G1X417.17Y2433.89  ;
N527 G1X417.17Y2493.94  ;
N528 G2X419.22Y2495.99I2.05J0  ;
N529 G1X477.22Y2495.99  ;
N530 G2X482.27Y2490.94I0J-5.05  ;
N531 G1X482.27Y8.94  ;
N532 G2X477.22Y3.89I-5.05J0  ;
N533 G1X419.22Y3.89  ;
N534 G2X417.17Y5.94I0J2.05  ;
N535 G1X417.17Y65.94  ;
N536 G65 P9104 A102 B04  ;
N537 M98 P9103  ;
(P3:ID1:W86027602)  ;
N538 M98 P9101  ;
N539 G0X575.29Y1229.31  ;
N540 G65 P9102 A102 B04  ;
N541 G1X573.87Y1230.74  ;
N542 G1X573.87Y1235.02  ;
N543 G1X575.29Y1236.45  ;
N544 G1X578.15Y1236.45  ;
N545 G1X579.58Y1235.02  ;
N546 G1X579.58Y1230.74  ;
N547 G1X581.01Y1229.31  ;
N548 G1X583.87Y1229.31  ;
N549 G1X583.87Y1235.02  ;
N550 G1X582.44Y1236.45  ;
N551 G65 P9104 A102 B04  ;
N552 G0X583.87Y1238.77  ;
N553 G65 P9102 A102 B04  ;
N554 G1X573.87Y1244.49  ;
N555 G1X573.87Y1237.34  ;
N556 G65 P9104 A102 B04  ;
N557 G0X579.58Y1238.77  ;
N558 G65 P9102 A102 B04  ;
N559 G1X579.58Y1243.06  ;
N560 G65 P9104 A102 B04  ;
N561 G0X579.58Y1245.38  ;
N562 G65 P9102 A102 B04  ;
N563 G1X579.58Y1251.09  ;
N564 G1X581.01Y1252.52  ;
N565 G1X582.44Y1252.52  ;
N566 G1X583.87Y1251.09  ;
N567 G1X583.87Y1246.81  ;
N568 G1X582.44Y1245.38  ;
N569 G1X575.29Y1245.38  ;
N570 G1X573.87Y1246.81  ;
N571 G1X573.87Y1251.09  ;
N572 G65 P9104 A102 B04  ;
N573 G0X573.87Y1259.13  ;
N574 G65 P9102 A102 B04  ;
N575 G1X583.87Y1254.84  ;
N576 G65 P9104 A102 B04  ;
N577 G0X583.87Y1254.84  ;
N578 G65 P9102 A102 B04  ;
N579 G1X582.44Y1253.42  ;
N580 G1X575.29Y1253.42  ;
N581 G1X573.87Y1254.84  ;
N582 G1X573.87Y1259.13  ;
N583 G1X575.29Y1260.56  ;
N584 G1X582.44Y1260.56  ;
N585 G1X583.87Y1259.13  ;
N586 G1X583.87Y1254.84  ;
N587 G65 P9104 A102 B04  ;
N588 G0X575.29Y1261.45  ;
N589 G65 P9102 A102 B04  ;
N590 G1X573.87Y1262.88  ;
N591 G1X573.87Y1267.17  ;
N592 G1X575.29Y1268.59  ;
N593 G1X578.15Y1268.59  ;
N594 G1X579.58Y1267.17  ;
N595 G1X579.58Y1262.88  ;
N596 G1X581.01Y1261.45  ;
N597 G1X583.87Y1261.45  ;
N598 G1X583.87Y1267.17  ;
N599 G1X582.44Y1268.59  ;
N600 G65 P9104 A101 B01  ;
N601 G0X562.83Y2432.02  ;
N602 G65 P9102 A101 B01  ;
N603 G1X562.83Y2429.25  ;
N604 G65 P9104 A101 B02  ;
N605 G0X679.04Y2481.99  ;
N606 G65 P9102 A101 B02  ;
N607 G1X676.95Y2484.07  ;
N608 G3X676.99Y2484.11I2.12J-2.05  ;
N609 G65 P9104 A101 B02  ;
N610 G0X704.04Y2481.99  ;
N611 G65 P9102 A101 B02  ;
N612 G1X701.95Y2484.07  ;
N613 G3X701.99Y2484.11I2.12J-2.05  ;
N614 G65 P9104 A101 B02  ;
N615 G0X704.04Y2461.99  ;
N616 G65 P9102 A101 B02  ;
N617 G1X701.95Y2464.07  ;
N618 G3X701.99Y2464.11I2.12J-2.05  ;
N619 G65 P9104 A101 B02  ;
N620 G0X704.96Y2418.82  ;
N621 G65 P9102 A101 B02  ;
N622 G1X702.87Y2420.9  ;
N623 G3X702.91Y2420.94I4.95J-4.88  ;
N624 G65 P9104 A101 B02  ;
N625 G0X702.13Y2394.14  ;
N626 G65 P9102 A101 B02  ;
N627 G1X700.04Y2396.23  ;
N628 G3X700.08Y2396.27I7.78J-7.71  ;
N629 G65 P9104 A101 B02  ;
N630 G0X703.19Y2365.58  ;
N631 G65 P9102 A101 B02  ;
N632 G1X701.1Y2367.67  ;
N633 G3X701.14Y2367.7I6.72J-6.65  ;
N634 G65 P9104 A101 B02  ;
N635 G0X705.21Y1302.82  ;
N636 G65 P9102 A101 B02  ;
N637 G1X703.12Y1304.9  ;
N638 G3X703.16Y1304.94I4.95J-4.88  ;
N639 G65 P9104 A101 B02  ;
N640 G0X705.21Y1202.82  ;
N641 G65 P9102 A101 B02  ;
N642 G1X703.12Y1204.9  ;
N643 G3X703.16Y1204.94I4.95J-4.88  ;
N644 G65 P9104 A101 B01  ;
N645 G0X528.66Y70.79  ;
N646 G65 P9102 A101 B01  ;
N647 G1X528.66Y68.02  ;
N648 G65 P9104 A101 B01  ;
N649 G0X562.83Y68.02  ;
N650 G65 P9102 A101 B01  ;
N651 G1X562.83Y70.79  ;
N652 G65 P9104 A101 B02  ;
N653 G0X703.19Y143.58  ;
N654 G65 P9102 A101 B02  ;
N655 G1X701.1Y145.67  ;
N656 G3X701.14Y145.7I6.72J-6.65  ;
N657 G65 P9104 A101 B02  ;
N658 G0X702.13Y117.14  ;
N659 G65 P9102 A101 B02  ;
N660 G1X700.04Y119.23  ;
N661 G3X700.08Y119.27I7.78J-7.71  ;
N662 G65 P9104 A101 B02  ;
N663 G0X704.96Y86.82  ;
N664 G65 P9102 A101 B02  ;
N665 G1X702.87Y88.9  ;
N666 G3X702.91Y88.94I4.95J-4.88  ;
N667 G65 P9104 A101 B02  ;
N668 G0X704.04Y37.99  ;
N669 G65 P9102 A101 B02  ;
N670 G1X701.95Y40.07  ;
N671 G3X701.99Y40.11I2.12J-2.05  ;
N672 G65 P9104 A101 B02  ;
N673 G0X704.04Y17.99  ;
N674 G65 P9102 A101 B02  ;
N675 G1X701.95Y20.07  ;
N676 G3X701.99Y20.11I2.12J-2.05  ;
N677 G65 P9104 A101 B02  ;
N678 G0X679.04Y17.99  ;
N679 G65 P9102 A101 B02  ;
N680 G1X676.95Y20.07  ;
N681 G3X676.99Y20.11I2.12J-2.05  ;
N682 G65 P9104 A101 B01  ;
N683 G0X656.07Y66.07  ;
N684 G65 P9102 A101 B01  ;
N685 G1X659.07Y66.07  ;
N686 G1X661.02Y66.07  ;
N687 G1X661.02Y66.97  ;
N688 G1X565.89Y66.97  ;
N689 G1X564.87Y67.99  ;
N690 G1X563.05Y70.53  ;
N691 G1X561.75Y71.68  ;
N692 G1X560.79Y71.96  ;
N693 G1X560.79Y69.97  ;
N694 G1X530.69Y69.97  ;
N695 G1X530.69Y71.96  ;
N696 G1X529.74Y71.68  ;
N697 G1X528.44Y70.53  ;
N698 G1X526.62Y67.99  ;
N699 G1X520.23Y61.6  ;
N700 G2X505.53Y97.02I35.35J35.42  ;
N701 G1X505.53Y1177.75  ;
N702 G2X520.23Y1213.17I50.05J0  ;
N703 G1X526.62Y1206.78  ;
N704 G1X528.44Y1204.24  ;
N705 G1X529.74Y1203.09  ;
N706 G1X530.69Y1202.81  ;
N707 G1X530.69Y1204.8  ;
N708 G1X560.79Y1204.8  ;
N709 G1X560.79Y1202.81  ;
N710 G1X561.75Y1203.09  ;
N711 G1X563.05Y1204.24  ;
N712 G1X564.87Y1206.78  ;
N713 G1X565.86Y1207.77  ;
N714 G1X565.86Y1292.28  ;
N715 G1X564.87Y1293.27  ;
N716 G1X563.05Y1295.8  ;
N717 G1X561.75Y1296.96  ;
N718 G1X560.79Y1297.23  ;
N719 G1X560.79Y1295.25  ;
N720 G1X530.69Y1295.25  ;
N721 G1X530.69Y1297.23  ;
N722 G1X529.74Y1296.96  ;
N723 G1X528.44Y1295.8  ;
N724 G1X526.62Y1293.26  ;
N725 G1X520.23Y1286.87  ;
N726 G2X505.53Y1322.3I35.35J35.43  ;
N727 G1X505.53Y2403.02  ;
N728 G2X520.23Y2438.45I50.05J0  ;
N729 G1X526.62Y2432.05  ;
N730 G1X528.44Y2429.52  ;
N731 G1X529.74Y2428.36  ;
N732 G1X530.69Y2428.09  ;
N733 G1X530.69Y2430.07  ;
N734 G1X560.79Y2430.07  ;
N735 G1X560.79Y2428.09  ;
N736 G1X561.75Y2428.36  ;
N737 G1X563.05Y2429.52  ;
N738 G1X564.87Y2432.06  ;
N739 G1X565.89Y2433.07  ;
N740 G1X661.02Y2433.07  ;
N741 G1X661.02Y2433.97  ;
N742 G1X659.02Y2433.97  ;
N743 G1X659.02Y2494.02  ;
N744 G2X661.07Y2496.07I2.05J0  ;
N745 G1X719.07Y2496.07  ;
N746 G2X724.12Y2491.02I0J-5.05  ;
N747 G1X724.12Y9.02  ;
N748 G2X719.07Y3.97I-5.05J0  ;
N749 G1X661.07Y3.97  ;
N750 G2X659.02Y6.02I0J2.05  ;
N751 G1X659.02Y66.02  ;
N752 G65 P9104 A102 B04  ;
N753 M98 P9103  ;
(P4:ID1:W86027602)  ;
N754 M98 P9101  ;
N755 G0X825.41Y1229.58  ;
N756 G65 P9102 A102 B04  ;
N757 G1X823.98Y1231.01  ;
N758 G1X823.98Y1235.29  ;
N759 G1X825.41Y1236.72  ;
N760 G1X828.27Y1236.72  ;
N761 G1X829.7Y1235.29  ;
N762 G1X829.7Y1231.01  ;
N763 G1X831.13Y1229.58  ;
N764 G1X833.98Y1229.58  ;
N765 G1X833.98Y1235.29  ;
N766 G1X832.56Y1236.72  ;
N767 G65 P9104 A102 B04  ;
N768 G0X833.98Y1239.04  ;
N769 G65 P9102 A102 B04  ;
N770 G1X823.98Y1244.76  ;
N771 G1X823.98Y1237.62  ;
N772 G65 P9104 A102 B04  ;
N773 G0X829.7Y1239.04  ;
N774 G65 P9102 A102 B04  ;
N775 G1X829.7Y1243.33  ;
N776 G65 P9104 A102 B04  ;
N777 G0X829.7Y1245.65  ;
N778 G65 P9102 A102 B04  ;
N779 G1X829.7Y1251.37  ;
N780 G1X831.13Y1252.79  ;
N781 G1X832.56Y1252.79  ;
N782 G1X833.98Y1251.37  ;
N783 G1X833.98Y1247.08  ;
N784 G1X832.56Y1245.65  ;
N785 G1X825.41Y1245.65  ;
N786 G1X823.98Y1247.08  ;
N787 G1X823.98Y1251.37  ;
N788 G65 P9104 A102 B04  ;
N789 G0X823.98Y1259.4  ;
N790 G65 P9102 A102 B04  ;
N791 G1X833.98Y1255.12  ;
N792 G65 P9104 A102 B04  ;
N793 G0X833.98Y1255.12  ;
N794 G65 P9102 A102 B04  ;
N795 G1X832.56Y1253.69  ;
N796 G1X825.41Y1253.69  ;
N797 G1X823.98Y1255.12  ;
N798 G1X823.98Y1259.4  ;
N799 G1X825.41Y1260.83  ;
N800 G1X832.56Y1260.83  ;
N801 G1X833.98Y1259.4  ;
N802 G1X833.98Y1255.12  ;
N803 G65 P9104 A102 B04  ;
N804 G0X825.41Y1261.72  ;
N805 G65 P9102 A102 B04  ;
N806 G1X823.98Y1263.15  ;
N807 G1X823.98Y1267.44  ;
N808 G1X825.41Y1268.87  ;
N809 G1X828.27Y1268.87  ;
N810 G1X829.7Y1267.44  ;
N811 G1X829.7Y1263.15  ;
N812 G1X831.13Y1261.72  ;
N813 G1X833.98Y1261.72  ;
N814 G1X833.98Y1267.44  ;
N815 G1X832.56Y1268.87  ;
N816 G65 P9104 A101 B01  ;
N817 G0X812.95Y2432.29  ;
N818 G65 P9102 A101 B01  ;
N819 G1X812.95Y2429.52  ;
N820 G65 P9104 A101 B02  ;
N821 G0X929.16Y2482.26  ;
N822 G65 P9102 A101 B02  ;
N823 G1X927.07Y2484.34  ;
N824 G3X927.1Y2484.38I2.12J-2.05  ;
N825 G65 P9104 A101 B02  ;
N826 G0X954.16Y2482.26  ;
N827 G65 P9102 A101 B02  ;
N828 G1X952.07Y2484.34  ;
N829 G3X952.1Y2484.38I2.12J-2.05  ;
N830 G65 P9104 A101 B02  ;
N831 G0X954.16Y2462.26  ;
N832 G65 P9102 A101 B02  ;
N833 G1X952.07Y2464.34  ;
N834 G3X952.1Y2464.38I2.12J-2.05  ;
N835 G65 P9104 A101 B02  ;
N836 G0X955.08Y2419.09  ;
N837 G65 P9102 A101 B02  ;
N838 G1X952.99Y2421.17  ;
N839 G3X953.03Y2421.21I4.95J-4.88  ;
N840 G65 P9104 A101 B02  ;
N841 G0X952.25Y2394.42  ;
N842 G65 P9102 A101 B02  ;
N843 G1X950.16Y2396.5  ;
N844 G3X950.2Y2396.54I7.78J-7.71  ;
N845 G65 P9104 A101 B02  ;
N846 G0X953.31Y2365.85  ;
N847 G65 P9102 A101 B02  ;
N848 G1X951.22Y2367.94  ;
N849 G3X951.26Y2367.98I6.72J-6.65  ;
N850 G65 P9104 A101 B02  ;
N851 G0X955.33Y1303.09  ;
N852 G65 P9102 A101 B02  ;
N853 G1X953.24Y1305.17  ;
N854 G3X953.28Y1305.21I4.95J-4.88  ;
N855 G65 P9104 A101 B02  ;
N856 G0X955.33Y1203.09  ;
N857 G65 P9102 A101 B02  ;
N858 G1X953.24Y1205.17  ;
N859 G3X953.28Y1205.21I4.95J-4.88  ;
N860 G65 P9104 A101 B01  ;
N861 G0X778.78Y71.06  ;
N862 G65 P9102 A101 B01  ;
N863 G1X778.78Y68.29  ;
N864 G65 P9104 A101 B01  ;
N865 G0X812.95Y68.29  ;
N866 G65 P9102 A101 B01  ;
N867 G1X812.95Y71.06  ;
N868 G65 P9104 A101 B02  ;
N869 G0X953.31Y143.85  ;
N870 G65 P9102 A101 B02  ;
N871 G1X951.22Y145.94  ;
N872 G3X951.26Y145.98I6.72J-6.65  ;
N873 G65 P9104 A101 B02  ;
N874 G0X952.25Y117.42  ;
N875 G65 P9102 A101 B02  ;
N876 G1X950.16Y119.5  ;
N877 G3X950.2Y119.54I7.78J-7.71  ;
N878 G65 P9104 A101 B02  ;
N879 G0X955.08Y87.09  ;
N880 G65 P9102 A101 B02  ;
N881 G1X952.99Y89.17  ;
N882 G3X953.03Y89.21I4.95J-4.88  ;
N883 G65 P9104 A101 B02  ;
N884 G0X954.16Y38.26  ;
N885 G65 P9102 A101 B02  ;
N886 G1X952.07Y40.34  ;
N887 G3X952.1Y40.38I2.12J-2.05  ;
N888 G65 P9104 A101 B02  ;
N889 G0X954.16Y18.26  ;
N890 G65 P9102 A101 B02  ;
N891 G1X952.07Y20.34  ;
N892 G3X952.1Y20.38I2.12J-2.05  ;
N893 G65 P9104 A101 B02  ;
N894 G0X929.16Y18.26  ;
N895 G65 P9102 A101 B02  ;
N896 G1X927.07Y20.34  ;
N897 G3X927.1Y20.38I2.12J-2.05  ;
N898 G65 P9104 A101 B01  ;
N899 G0X906.19Y66.34  ;
N900 G65 P9102 A101 B01  ;
N901 G1X909.19Y66.34  ;
N902 G1X911.14Y66.34  ;
N903 G1X911.14Y67.24  ;
N904 G1X816.01Y67.24  ;
N905 G1X814.99Y68.26  ;
N906 G1X813.17Y70.8  ;
N907 G1X811.87Y71.95  ;
N908 G1X810.91Y72.23  ;
N909 G1X810.91Y70.24  ;
N910 G1X780.81Y70.24  ;
N911 G1X780.81Y72.23  ;
N912 G1X779.86Y71.95  ;
N913 G1X778.56Y70.8  ;
N914 G1X776.74Y68.26  ;
N915 G1X770.35Y61.87  ;
N916 G2X755.65Y97.29I35.35J35.42  ;
N917 G1X755.65Y1178.02  ;
N918 G2X770.35Y1213.44I50.05J0  ;
N919 G1X776.74Y1207.05  ;
N920 G1X778.56Y1204.51  ;
N921 G1X779.86Y1203.36  ;
N922 G1X780.81Y1203.09  ;
N923 G1X780.81Y1205.07  ;
N924 G1X810.91Y1205.07  ;
N925 G1X810.91Y1203.09  ;
N926 G1X811.87Y1203.36  ;
N927 G1X813.17Y1204.51  ;
N928 G1X814.99Y1207.05  ;
N929 G1X815.98Y1208.04  ;
N930 G1X815.98Y1292.55  ;
N931 G1X814.99Y1293.54  ;
N932 G1X813.17Y1296.08  ;
N933 G1X811.87Y1297.23  ;
N934 G1X810.91Y1297.5  ;
N935 G1X810.91Y1295.52  ;
N936 G1X780.81Y1295.52  ;
N937 G1X780.81Y1297.5  ;
N938 G1X779.86Y1297.23  ;
N939 G1X778.56Y1296.08  ;
N940 G1X776.74Y1293.53  ;
N941 G1X770.35Y1287.14  ;
N942 G2X755.65Y1322.57I35.35J35.43  ;
N943 G1X755.65Y2403.29  ;
N944 G2X770.35Y2438.72I50.05J0  ;
N945 G1X776.74Y2432.32  ;
N946 G1X778.56Y2429.79  ;
N947 G1X779.86Y2428.64  ;
N948 G1X780.81Y2428.36  ;
N949 G1X780.81Y2430.34  ;
N950 G1X810.91Y2430.34  ;
N951 G1X810.91Y2428.36  ;
N952 G1X811.87Y2428.64  ;
N953 G1X813.17Y2429.79  ;
N954 G1X814.99Y2432.33  ;
N955 G1X816.01Y2433.34  ;
N956 G1X911.14Y2433.34  ;
N957 G1X911.14Y2434.24  ;
N958 G1X909.14Y2434.24  ;
N959 G1X909.14Y2494.29  ;
N960 G2X911.19Y2496.34I2.05J0  ;
N961 G1X969.19Y2496.34  ;
N962 G2X974.24Y2491.29I0J-5.05  ;
N963 G1X974.24Y9.29  ;
N964 G2X969.19Y4.24I-5.05J0  ;
N965 G1X911.19Y4.24  ;
N966 G2X909.14Y6.29I0J2.05  ;
N967 G1X909.14Y66.29  ;
N968 G65 P9104 A102 B04  ;
N969 M98 P9103  ;
(P5:ID1:W86027602)  ;
N970 M98 P9101  ;
N971 G0X1083.24Y1229.69  ;
N972 G65 P9102 A102 B04  ;
N973 G1X1081.81Y1231.12  ;
N974 G1X1081.81Y1235.41  ;
N975 G1X1083.24Y1236.83  ;
N976 G1X1086.1Y1236.83  ;
N977 G1X1087.53Y1235.41  ;
N978 G1X1087.53Y1231.12  ;
N979 G1X1088.96Y1229.69  ;
N980 G1X1091.81Y1229.69  ;
N981 G1X1091.81Y1235.41  ;
N982 G1X1090.38Y1236.83  ;
N983 G65 P9104 A102 B04  ;
N984 G0X1091.81Y1239.16  ;
N985 G65 P9102 A102 B04  ;
N986 G1X1081.81Y1244.87  ;
N987 G1X1081.81Y1237.73  ;
N988 G65 P9104 A102 B04  ;
N989 G0X1087.53Y1239.16  ;
N990 G65 P9102 A102 B04  ;
N991 G1X1087.53Y1243.44  ;
N992 G65 P9104 A102 B04  ;
N993 G0X1087.53Y1245.76  ;
N994 G65 P9102 A102 B04  ;
N995 G1X1087.53Y1251.48  ;
N996 G1X1088.96Y1252.91  ;
N997 G1X1090.38Y1252.91  ;
N998 G1X1091.81Y1251.48  ;
N999 G1X1091.81Y1247.19  ;
N1000 G1X1090.38Y1245.76  ;
N1001 G1X1083.24Y1245.76  ;
N1002 G1X1081.81Y1247.19  ;
N1003 G1X1081.81Y1251.48  ;
N1004 G65 P9104 A102 B04  ;
N1005 G0X1081.81Y1259.51  ;
N1006 G65 P9102 A102 B04  ;
N1007 G1X1091.81Y1255.23  ;
N1008 G65 P9104 A102 B04  ;
N1009 G0X1091.81Y1255.23  ;
N1010 G65 P9102 A102 B04  ;
N1011 G1X1090.38Y1253.8  ;
N1012 G1X1083.24Y1253.8  ;
N1013 G1X1081.81Y1255.23  ;
N1014 G1X1081.81Y1259.51  ;
N1015 G1X1083.24Y1260.94  ;
N1016 G1X1090.38Y1260.94  ;
N1017 G1X1091.81Y1259.51  ;
N1018 G1X1091.81Y1255.23  ;
N1019 G65 P9104 A102 B04  ;
N1020 G0X1083.24Y1261.83  ;
N1021 G65 P9102 A102 B04  ;
N1022 G1X1081.81Y1263.26  ;
N1023 G1X1081.81Y1267.55  ;
N1024 G1X1083.24Y1268.98  ;
N1025 G1X1086.1Y1268.98  ;
N1026 G1X1087.53Y1267.55  ;
N1027 G1X1087.53Y1263.26  ;
N1028 G1X1088.96Y1261.83  ;
N1029 G1X1091.81Y1261.83  ;
N1030 G1X1091.81Y1267.55  ;
N1031 G1X1090.38Y1268.98  ;
N1032 G65 P9104 A101 B01  ;
N1033 G0X1070.77Y2432.41  ;
N1034 G65 P9102 A101 B01  ;
N1035 G1X1070.77Y2429.64  ;
N1036 G65 P9104 A101 B02  ;
N1037 G0X1186.98Y2482.37  ;
N1038 G65 P9102 A101 B02  ;
N1039 G1X1184.9Y2484.46  ;
N1040 G3X1184.93Y2484.49I2.12J-2.05  ;
N1041 G65 P9104 A101 B02  ;
N1042 G0X1211.98Y2482.37  ;
N1043 G65 P9102 A101 B02  ;
N1044 G1X1209.9Y2484.46  ;
N1045 G3X1209.93Y2484.49I2.12J-2.05  ;
N1046 G65 P9104 A101 B02  ;
N1047 G0X1211.98Y2462.37  ;
N1048 G65 P9102 A101 B02  ;
N1049 G1X1209.9Y2464.46  ;
N1050 G3X1209.93Y2464.49I2.12J-2.05  ;
N1051 G65 P9104 A101 B02  ;
N1052 G0X1212.91Y2419.2  ;
N1053 G65 P9102 A101 B02  ;
N1054 G1X1210.82Y2421.28  ;
N1055 G3X1210.85Y2421.32I4.95J-4.87  ;
N1056 G65 P9104 A101 B02  ;
N1057 G0X1210.08Y2394.53  ;
N1058 G65 P9102 A101 B02  ;
N1059 G1X1207.99Y2396.61  ;
N1060 G3X1208.03Y2396.65I7.78J-7.7  ;
N1061 G65 P9104 A101 B02  ;
N1062 G0X1211.14Y2365.97  ;
N1063 G65 P9102 A101 B02  ;
N1064 G1X1209.05Y2368.05  ;
N1065 G3X1209.09Y2368.09I6.72J-6.64  ;
N1066 G65 P9104 A101 B02  ;
N1067 G0X1213.16Y1303.2  ;
N1068 G65 P9102 A101 B02  ;
N1069 G1X1211.07Y1305.28  ;
N1070 G3X1211.1Y1305.32I4.95J-4.87  ;
N1071 G65 P9104 A101 B02  ;
N1072 G0X1213.16Y1203.2  ;
N1073 G65 P9102 A101 B02  ;
N1074 G1X1211.07Y1205.28  ;
N1075 G3X1211.1Y1205.32I4.95J-4.87  ;
N1076 G65 P9104 A101 B01  ;
N1077 G0X1036.61Y71.17  ;
N1078 G65 P9102 A101 B01  ;
N1079 G1X1036.61Y68.41  ;
N1080 G65 P9104 A101 B01  ;
N1081 G0X1070.77Y68.41  ;
N1082 G65 P9102 A101 B01  ;
N1083 G1X1070.77Y71.17  ;
N1084 G65 P9104 A101 B02  ;
N1085 G0X1211.14Y143.97  ;
N1086 G65 P9102 A101 B02  ;
N1087 G1X1209.05Y146.05  ;
N1088 G3X1209.09Y146.09I6.72J-6.64  ;
N1089 G65 P9104 A101 B02  ;
N1090 G0X1210.08Y117.53  ;
N1091 G65 P9102 A101 B02  ;
N1092 G1X1207.99Y119.61  ;
N1093 G3X1208.03Y119.65I7.78J-7.7  ;
N1094 G65 P9104 A101 B02  ;
N1095 G0X1212.91Y87.2  ;
N1096 G65 P9102 A101 B02  ;
N1097 G1X1210.82Y89.28  ;
N1098 G3X1210.85Y89.32I4.95J-4.87  ;
N1099 G65 P9104 A101 B02  ;
N1100 G0X1211.98Y38.37  ;
N1101 G65 P9102 A101 B02  ;
N1102 G1X1209.9Y40.46  ;
N1103 G3X1209.93Y40.49I2.12J-2.05  ;
N1104 G65 P9104 A101 B02  ;
N1105 G0X1211.98Y18.37  ;
N1106 G65 P9102 A101 B02  ;
N1107 G1X1209.9Y20.46  ;
N1108 G3X1209.93Y20.49I2.12J-2.05  ;
N1109 G65 P9104 A101 B02  ;
N1110 G0X1186.98Y18.37  ;
N1111 G65 P9102 A101 B02  ;
N1112 G1X1184.9Y20.46  ;
N1113 G3X1184.93Y20.49I2.12J-2.05  ;
N1114 G65 P9104 A101 B01  ;
N1115 G0X1164.02Y66.46  ;
N1116 G65 P9102 A101 B01  ;
N1117 G1X1167.02Y66.46  ;
N1118 G1X1168.97Y66.46  ;
N1119 G1X1168.97Y67.36  ;
N1120 G1X1073.83Y67.36  ;
N1121 G1X1072.81Y68.38  ;
N1122 G1X1070.99Y70.91  ;
N1123 G1X1069.69Y72.06  ;
N1124 G1X1068.74Y72.34  ;
N1125 G1X1068.74Y70.36  ;
N1126 G1X1038.64Y70.36  ;
N1127 G1X1038.64Y72.34  ;
N1128 G1X1037.69Y72.06  ;
N1129 G1X1036.39Y70.91  ;
N1130 G1X1034.56Y68.37  ;
N1131 G1X1028.17Y61.98  ;
N1132 G2X1013.48Y97.41I35.36J35.43  ;
N1133 G1X1013.48Y1178.13  ;
N1134 G2X1028.17Y1213.56I50.05J0  ;
N1135 G1X1034.57Y1207.16  ;
N1136 G1X1036.39Y1204.62  ;
N1137 G1X1037.69Y1203.47  ;
N1138 G1X1038.64Y1203.2  ;
N1139 G1X1038.64Y1205.18  ;
N1140 G1X1068.74Y1205.18  ;
N1141 G1X1068.74Y1203.2  ;
N1142 G1X1069.69Y1203.47  ;
N1143 G1X1070.99Y1204.62  ;
N1144 G1X1072.82Y1207.17  ;
N1145 G1X1073.81Y1208.15  ;
N1146 G1X1073.81Y1292.66  ;
N1147 G1X1072.81Y1293.65  ;
N1148 G1X1070.99Y1296.19  ;
N1149 G1X1069.69Y1297.34  ;
N1150 G1X1068.74Y1297.61  ;
N1151 G1X1068.74Y1295.63  ;
N1152 G1X1038.64Y1295.63  ;
N1153 G1X1038.64Y1297.61  ;
N1154 G1X1037.69Y1297.34  ;
N1155 G1X1036.39Y1296.19  ;
N1156 G1X1034.56Y1293.64  ;
N1157 G1X1028.17Y1287.25  ;
N1158 G2X1013.48Y1322.68I35.36J35.43  ;
N1159 G1X1013.48Y2403.41  ;
N1160 G2X1028.17Y2438.83I50.05J0  ;
N1161 G1X1034.57Y2432.43  ;
N1162 G1X1036.39Y2429.9  ;
N1163 G1X1037.69Y2428.75  ;
N1164 G1X1038.64Y2428.47  ;
N1165 G1X1038.64Y2430.46  ;
N1166 G1X1068.74Y2430.46  ;
N1167 G1X1068.74Y2428.47  ;
N1168 G1X1069.69Y2428.75  ;
N1169 G1X1070.99Y2429.9  ;
N1170 G1X1072.82Y2432.44  ;
N1171 G1X1073.83Y2433.46  ;
N1172 G1X1168.97Y2433.46  ;
N1173 G1X1168.97Y2434.36  ;
N1174 G1X1166.97Y2434.36  ;
N1175 G1X1166.97Y2494.41  ;
N1176 G2X1169.02Y2496.46I2.05J0  ;
N1177 G1X1227.02Y2496.46  ;
N1178 G2X1232.07Y2491.41I0J-5.05  ;
N1179 G1X1232.07Y9.41  ;
N1180 G2X1227.02Y4.36I-5.05J0  ;
N1181 G1X1169.02Y4.36  ;
N1182 G2X1166.97Y6.41I0J2.05  ;
N1183 G1X1166.97Y66.41  ;
N1184 M98 P9104  ;
N1185 M98 P9103  ;
(FOOTER)
N1186 M98 P9110  ;
N1187 M30  ;
%
