O0099  ;
( MACHINE : TCI Laser )  ;
( MATERIAL : Acero al Carbono )  ;
( THICKNESS : 5 )  ;
( REPETITIONS : 1 )  ;
( SIMULATION TIME : 00:50:47 )  ;
( FORMAT : 1500x3000 )  ;
( JOB NUMBER : VARS8600\K860115 )  ;
( PROGRAM NUMBER : 12095 )  ;
( TYPE : 0 )  ;
( NUMBER OF SHEETS : 1 )  ;
( CUTTING HEADS : 1 )  ;
#516= 1  ;
#517= 1  ;
N105 G65 P9100 A103 B01  ;
(P1:ID1:W86011514)  ;
N106 M98 P9101  ;
N107 G0X123.75Y63  ;
N108 G65 P9102 A101 B01  ;
N109 G1X123.75Y65.95  ;
N110 G3X123.8Y65.95I0.05J-9.95  ;
N111 G65 P9104 A101 B01  ;
N112 G0X123.75Y140  ;
N113 G65 P9102 A101 B01  ;
N114 G1X123.75Y142.95  ;
N115 G3X123.8Y142.95I0.05J-9.95  ;
N116 G65 P9104 A101 B01  ;
N117 G0X145.83Y10  ;
N118 G65 P9102 A101 B01  ;
N119 G1X145.83Y14.95  ;
N120 G1X143.75Y14.95  ;
N121 G1X143.75Y19.95  ;
N122 G1X140.75Y19.95  ;
N123 G1X140.75Y20.45  ;
N124 G1X103.78Y20.45  ;
N125 G1X79.78Y44.95  ;
N126 G1X76.78Y44.95  ;
N127 G1X75.75Y45.98  ;
N128 G1X75.75Y49.02  ;
N129 G1X76.78Y50.05  ;
N130 G1X79.25Y50.05  ;
N131 G1X79.25Y53.05  ;
N132 G1X79.75Y53.05  ;
N133 G1X79.75Y79.55  ;
N134 G3X79.75Y109.45I0.05J14.95  ;
N135 G1X79.75Y140.95  ;
N136 G1X79.25Y140.95  ;
N137 G1X79.25Y144.05  ;
N138 G1X79.78Y144.05  ;
N139 G1X103.78Y168.55  ;
N140 G1X140.75Y168.55  ;
N141 G1X140.75Y169.05  ;
N142 G1X143.75Y169.05  ;
N143 G1X143.75Y174.05  ;
N144 G1X148.85Y174.05  ;
N145 G1X148.85Y14.95  ;
N146 G1X146.53Y14.95  ;
N147 G65 P9104 A101 B01  ;
N148 M98 P9103  ;
(P2:ID1:W86011514)  ;
N149 M98 P9101  ;
N150 G0X123.75Y232  ;
N151 G65 P9102 A101 B01  ;
N152 G1X123.75Y234.95  ;
N153 G3X123.8Y234.95I0.05J-9.95  ;
N154 G65 P9104 A101 B01  ;
N155 G0X123.75Y309  ;
N156 G65 P9102 A101 B01  ;
N157 G1X123.75Y311.95  ;
N158 G3X123.8Y311.95I0.05J-9.95  ;
N159 G65 P9104 A101 B01  ;
N160 G0X145.83Y179  ;
N161 G65 P9102 A101 B01  ;
N162 G1X145.83Y183.95  ;
N163 G1X143.75Y183.95  ;
N164 G1X143.75Y188.95  ;
N165 G1X140.75Y188.95  ;
N166 G1X140.75Y189.45  ;
N167 G1X103.78Y189.45  ;
N168 G1X79.78Y213.95  ;
N169 G1X76.78Y213.95  ;
N170 G1X75.75Y214.98  ;
N171 G1X75.75Y218.02  ;
N172 G1X76.78Y219.05  ;
N173 G1X79.25Y219.05  ;
N174 G1X79.25Y222.05  ;
N175 G1X79.75Y222.05  ;
N176 G1X79.75Y248.55  ;
N177 G3X79.75Y278.45I0.05J14.95  ;
N178 G1X79.75Y309.95  ;
N179 G1X79.25Y309.95  ;
N180 G1X79.25Y313.05  ;
N181 G1X79.78Y313.05  ;
N182 G1X103.78Y337.55  ;
N183 G1X140.75Y337.55  ;
N184 G1X140.75Y338.05  ;
N185 G1X143.75Y338.05  ;
N186 G1X143.75Y343.05  ;
N187 G1X148.85Y343.05  ;
N188 G1X148.85Y183.95  ;
N189 G1X146.53Y183.95  ;
N190 G65 P9104 A101 B01  ;
N191 M98 P9103  ;
(P3:ID1:W86011514)  ;
N192 M98 P9101  ;
N193 G0X109.75Y395.5  ;
N194 G65 P9102 A101 B01  ;
N195 G1X109.75Y398.45  ;
N196 G3X109.8Y398.45I0.05J-9.95  ;
N197 G65 P9104 A101 B01  ;
N198 G0X109.75Y472.5  ;
N199 G65 P9102 A101 B01  ;
N200 G1X109.75Y475.45  ;
N201 G3X109.8Y475.45I0.05J-9.95  ;
N202 G65 P9104 A101 B01  ;
N203 G0X131.83Y342.5  ;
N204 G65 P9102 A101 B01  ;
N205 G1X131.83Y347.45  ;
N206 G1X129.75Y347.45  ;
N207 G1X129.75Y352.45  ;
N208 G1X126.75Y352.45  ;
N209 G1X126.75Y352.95  ;
N210 G1X89.78Y352.95  ;
N211 G1X65.78Y377.45  ;
N212 G1X62.78Y377.45  ;
N213 G1X61.75Y378.48  ;
N214 G1X61.75Y381.52  ;
N215 G1X62.78Y382.55  ;
N216 G1X65.25Y382.55  ;
N217 G1X65.25Y385.55  ;
N218 G1X65.75Y385.55  ;
N219 G1X65.75Y412.05  ;
N220 G3X65.75Y441.95I0.05J14.95  ;
N221 G1X65.75Y473.45  ;
N222 G1X65.25Y473.45  ;
N223 G1X65.25Y476.55  ;
N224 G1X65.78Y476.55  ;
N225 G1X89.78Y501.05  ;
N226 G1X126.75Y501.05  ;
N227 G1X126.75Y501.55  ;
N228 G1X129.75Y501.55  ;
N229 G1X129.75Y506.55  ;
N230 G1X134.85Y506.55  ;
N231 G1X134.85Y347.45  ;
N232 G1X132.53Y347.45  ;
N233 G65 P9104 A101 B01  ;
N234 M98 P9103  ;
(P4:ID1:W86011514)  ;
N235 M98 P9101  ;
N236 G0X118.95Y564.4  ;
N237 G65 P9102 A101 B01  ;
N238 G1X118.95Y567.35  ;
N239 G3X119Y567.35I0.05J-9.95  ;
N240 G65 P9104 A101 B01  ;
N241 G0X118.95Y641.4  ;
N242 G65 P9102 A101 B01  ;
N243 G1X118.95Y644.35  ;
N244 G3X119Y644.35I0.05J-9.95  ;
N245 G65 P9104 A101 B01  ;
N246 G0X141.03Y511.4  ;
N247 G65 P9102 A101 B01  ;
N248 G1X141.03Y516.35  ;
N249 G1X138.95Y516.35  ;
N250 G1X138.95Y521.35  ;
N251 G1X135.95Y521.35  ;
N252 G1X135.95Y521.85  ;
N253 G1X98.98Y521.85  ;
N254 G1X74.98Y546.35  ;
N255 G1X71.98Y546.35  ;
N256 G1X70.95Y547.38  ;
N257 G1X70.95Y550.42  ;
N258 G1X71.98Y551.45  ;
N259 G1X74.45Y551.45  ;
N260 G1X74.45Y554.45  ;
N261 G1X74.95Y554.45  ;
N262 G1X74.95Y580.95  ;
N263 G3X74.95Y610.85I0.05J14.95  ;
N264 G1X74.95Y642.35  ;
N265 G1X74.45Y642.35  ;
N266 G1X74.45Y645.45  ;
N267 G1X74.98Y645.45  ;
N268 G1X98.98Y669.95  ;
N269 G1X135.95Y669.95  ;
N270 G1X135.95Y670.45  ;
N271 G1X138.95Y670.45  ;
N272 G1X138.95Y675.45  ;
N273 G1X144.05Y675.45  ;
N274 G1X144.05Y516.35  ;
N275 G1X141.73Y516.35  ;
N276 G65 P9104 A101 B01  ;
N277 M98 P9103  ;
(P5:ID1:W86011514)  ;
N278 M98 P9101  ;
N279 G0X123.75Y733.4  ;
N280 G65 P9102 A101 B01  ;
N281 G1X123.75Y736.35  ;
N282 G3X123.8Y736.35I0.05J-9.95  ;
N283 G65 P9104 A101 B01  ;
N284 G0X123.75Y810.4  ;
N285 G65 P9102 A101 B01  ;
N286 G1X123.75Y813.35  ;
N287 G3X123.8Y813.35I0.05J-9.95  ;
N288 G65 P9104 A101 B01  ;
N289 G0X145.83Y680.4  ;
N290 G65 P9102 A101 B01  ;
N291 G1X145.83Y685.35  ;
N292 G1X143.75Y685.35  ;
N293 G1X143.75Y690.35  ;
N294 G1X140.75Y690.35  ;
N295 G1X140.75Y690.85  ;
N296 G1X103.78Y690.85  ;
N297 G1X79.78Y715.35  ;
N298 G1X76.78Y715.35  ;
N299 G1X75.75Y716.38  ;
N300 G1X75.75Y719.42  ;
N301 G1X76.78Y720.45  ;
N302 G1X79.25Y720.45  ;
N303 G1X79.25Y723.45  ;
N304 G1X79.75Y723.45  ;
N305 G1X79.75Y749.95  ;
N306 G3X79.75Y779.85I0.05J14.95  ;
N307 G1X79.75Y811.35  ;
N308 G1X79.25Y811.35  ;
N309 G1X79.25Y814.45  ;
N310 G1X79.78Y814.45  ;
N311 G1X103.78Y838.95  ;
N312 G1X140.75Y838.95  ;
N313 G1X140.75Y839.45  ;
N314 G1X143.75Y839.45  ;
N315 G1X143.75Y844.45  ;
N316 G1X148.85Y844.45  ;
N317 G1X148.85Y685.35  ;
N318 G1X146.53Y685.35  ;
N319 G65 P9104 A101 B01  ;
N320 M98 P9103  ;
(P6:ID1:W86011514)  ;
N321 M98 P9101  ;
N322 G0X109.75Y896.9  ;
N323 G65 P9102 A101 B01  ;
N324 G1X109.75Y899.85  ;
N325 G3X109.8Y899.85I0.05J-9.95  ;
N326 G65 P9104 A101 B01  ;
N327 G0X109.75Y973.9  ;
N328 G65 P9102 A101 B01  ;
N329 G1X109.75Y976.85  ;
N330 G3X109.8Y976.85I0.05J-9.95  ;
N331 G65 P9104 A101 B01  ;
N332 G0X131.83Y843.9  ;
N333 G65 P9102 A101 B01  ;
N334 G1X131.83Y848.85  ;
N335 G1X129.75Y848.85  ;
N336 G1X129.75Y853.85  ;
N337 G1X126.75Y853.85  ;
N338 G1X126.75Y854.35  ;
N339 G1X89.78Y854.35  ;
N340 G1X65.78Y878.85  ;
N341 G1X62.78Y878.85  ;
N342 G1X61.75Y879.88  ;
N343 G1X61.75Y882.92  ;
N344 G1X62.78Y883.95  ;
N345 G1X65.25Y883.95  ;
N346 G1X65.25Y886.95  ;
N347 G1X65.75Y886.95  ;
N348 G1X65.75Y913.45  ;
N349 G3X65.75Y943.35I0.05J14.95  ;
N350 G1X65.75Y974.85  ;
N351 G1X65.25Y974.85  ;
N352 G1X65.25Y977.95  ;
N353 G1X65.78Y977.95  ;
N354 G1X89.78Y1002.45  ;
N355 G1X126.75Y1002.45  ;
N356 G1X126.75Y1002.95  ;
N357 G1X129.75Y1002.95  ;
N358 G1X129.75Y1007.95  ;
N359 G1X134.85Y1007.95  ;
N360 G1X134.85Y848.85  ;
N361 G1X132.53Y848.85  ;
N362 G65 P9104 A101 B01  ;
N363 M98 P9103  ;
(P7:ID1:W86011514)  ;
N364 M98 P9101  ;
N365 G0X123.75Y1062.9  ;
N366 G65 P9102 A101 B01  ;
N367 G1X123.75Y1065.85  ;
N368 G3X123.8Y1065.85I0.05J-9.95  ;
N369 G65 P9104 A101 B01  ;
N370 G0X123.75Y1139.9  ;
N371 G65 P9102 A101 B01  ;
N372 G1X123.75Y1142.85  ;
N373 G3X123.8Y1142.85I0.05J-9.95  ;
N374 G65 P9104 A101 B01  ;
N375 G0X145.83Y1009.9  ;
N376 G65 P9102 A101 B01  ;
N377 G1X145.83Y1014.85  ;
N378 G1X143.75Y1014.85  ;
N379 G1X143.75Y1019.85  ;
N380 G1X140.75Y1019.85  ;
N381 G1X140.75Y1020.35  ;
N382 G1X103.78Y1020.35  ;
N383 G1X79.78Y1044.85  ;
N384 G1X76.78Y1044.85  ;
N385 G1X75.75Y1045.88  ;
N386 G1X75.75Y1048.92  ;
N387 G1X76.78Y1049.95  ;
N388 G1X79.25Y1049.95  ;
N389 G1X79.25Y1052.95  ;
N390 G1X79.75Y1052.95  ;
N391 G1X79.75Y1079.45  ;
N392 G3X79.75Y1109.35I0.05J14.95  ;
N393 G1X79.75Y1140.85  ;
N394 G1X79.25Y1140.85  ;
N395 G1X79.25Y1143.95  ;
N396 G1X79.78Y1143.95  ;
N397 G1X103.78Y1168.45  ;
N398 G1X140.75Y1168.45  ;
N399 G1X140.75Y1168.95  ;
N400 G1X143.75Y1168.95  ;
N401 G1X143.75Y1173.95  ;
N402 G1X148.85Y1173.95  ;
N403 G1X148.85Y1014.85  ;
N404 G1X146.53Y1014.85  ;
N405 G65 P9104 A101 B01  ;
N406 M98 P9103  ;
(P8:ID1:W86011514)  ;
N407 M98 P9101  ;
N408 G0X123.75Y1231.9  ;
N409 G65 P9102 A101 B01  ;
N410 G1X123.75Y1234.85  ;
N411 G3X123.8Y1234.85I0.05J-9.95  ;
N412 G65 P9104 A101 B01  ;
N413 G0X123.75Y1308.9  ;
N414 G65 P9102 A101 B01  ;
N415 G1X123.75Y1311.85  ;
N416 G3X123.8Y1311.85I0.05J-9.95  ;
N417 G65 P9104 A101 B01  ;
N418 G0X145.83Y1178.9  ;
N419 G65 P9102 A101 B01  ;
N420 G1X145.83Y1183.85  ;
N421 G1X143.75Y1183.85  ;
N422 G1X143.75Y1188.85  ;
N423 G1X140.75Y1188.85  ;
N424 G1X140.75Y1189.35  ;
N425 G1X103.78Y1189.35  ;
N426 G1X79.78Y1213.85  ;
N427 G1X76.78Y1213.85  ;
N428 G1X75.75Y1214.88  ;
N429 G1X75.75Y1217.92  ;
N430 G1X76.78Y1218.95  ;
N431 G1X79.25Y1218.95  ;
N432 G1X79.25Y1221.95  ;
N433 G1X79.75Y1221.95  ;
N434 G1X79.75Y1248.45  ;
N435 G3X79.75Y1278.35I0.05J14.95  ;
N436 G1X79.75Y1309.85  ;
N437 G1X79.25Y1309.85  ;
N438 G1X79.25Y1312.95  ;
N439 G1X79.78Y1312.95  ;
N440 G1X103.78Y1337.45  ;
N441 G1X140.75Y1337.45  ;
N442 G1X140.75Y1337.95  ;
N443 G1X143.75Y1337.95  ;
N444 G1X143.75Y1342.95  ;
N445 G1X148.85Y1342.95  ;
N446 G1X148.85Y1183.85  ;
N447 G1X146.53Y1183.85  ;
N448 G65 P9104 A101 B01  ;
N449 M98 P9103  ;
(P9:ID1:W86011514)  ;
N450 M98 P9101  ;
N451 G0X109.75Y1395.4  ;
N452 G65 P9102 A101 B01  ;
N453 G1X109.75Y1398.35  ;
N454 G3X109.8Y1398.35I0.05J-9.95  ;
N455 G65 P9104 A101 B01  ;
N456 G0X109.75Y1472.4  ;
N457 G65 P9102 A101 B01  ;
N458 G1X109.75Y1475.35  ;
N459 G3X109.8Y1475.35I0.05J-9.95  ;
N460 G65 P9104 A101 B01  ;
N461 G0X131.83Y1342.4  ;
N462 G65 P9102 A101 B01  ;
N463 G1X131.83Y1347.35  ;
N464 G1X129.75Y1347.35  ;
N465 G1X129.75Y1352.35  ;
N466 G1X126.75Y1352.35  ;
N467 G1X126.75Y1352.85  ;
N468 G1X89.78Y1352.85  ;
N469 G1X65.78Y1377.35  ;
N470 G1X62.78Y1377.35  ;
N471 G1X61.75Y1378.38  ;
N472 G1X61.75Y1381.42  ;
N473 G1X62.78Y1382.45  ;
N474 G1X65.25Y1382.45  ;
N475 G1X65.25Y1385.45  ;
N476 G1X65.75Y1385.45  ;
N477 G1X65.75Y1411.95  ;
N478 G3X65.75Y1441.85I0.05J14.95  ;
N479 G1X65.75Y1473.35  ;
N480 G1X65.25Y1473.35  ;
N481 G1X65.25Y1476.45  ;
N482 G1X65.78Y1476.45  ;
N483 G1X89.78Y1500.95  ;
N484 G1X126.75Y1500.95  ;
N485 G1X126.75Y1501.45  ;
N486 G1X129.75Y1501.45  ;
N487 G1X129.75Y1506.45  ;
N488 G1X134.85Y1506.45  ;
N489 G1X134.85Y1347.35  ;
N490 G1X132.53Y1347.35  ;
N491 G65 P9104 A101 B01  ;
N492 M98 P9103  ;
(P10:ID1:W86011514)  ;
N493 M98 P9101  ;
N494 G0X123.75Y1561.4  ;
N495 G65 P9102 A101 B01  ;
N496 G1X123.75Y1564.35  ;
N497 G3X123.8Y1564.35I0.05J-9.95  ;
N498 G65 P9104 A101 B01  ;
N499 G0X123.75Y1638.4  ;
N500 G65 P9102 A101 B01  ;
N501 G1X123.75Y1641.35  ;
N502 G3X123.8Y1641.35I0.05J-9.95  ;
N503 G65 P9104 A101 B01  ;
N504 G0X145.83Y1508.4  ;
N505 G65 P9102 A101 B01  ;
N506 G1X145.83Y1513.35  ;
N507 G1X143.75Y1513.35  ;
N508 G1X143.75Y1518.35  ;
N509 G1X140.75Y1518.35  ;
N510 G1X140.75Y1518.85  ;
N511 G1X103.78Y1518.85  ;
N512 G1X79.78Y1543.35  ;
N513 G1X76.78Y1543.35  ;
N514 G1X75.75Y1544.38  ;
N515 G1X75.75Y1547.42  ;
N516 G1X76.78Y1548.45  ;
N517 G1X79.25Y1548.45  ;
N518 G1X79.25Y1551.45  ;
N519 G1X79.75Y1551.45  ;
N520 G1X79.75Y1577.95  ;
N521 G3X79.75Y1607.85I0.05J14.95  ;
N522 G1X79.75Y1639.35  ;
N523 G1X79.25Y1639.35  ;
N524 G1X79.25Y1642.45  ;
N525 G1X79.78Y1642.45  ;
N526 G1X103.78Y1666.95  ;
N527 G1X140.75Y1666.95  ;
N528 G1X140.75Y1667.45  ;
N529 G1X143.75Y1667.45  ;
N530 G1X143.75Y1672.45  ;
N531 G1X148.85Y1672.45  ;
N532 G1X148.85Y1513.35  ;
N533 G1X146.53Y1513.35  ;
N534 G65 P9104 A101 B01  ;
N535 M98 P9103  ;
(P11:ID1:W86011514)  ;
N536 M98 P9101  ;
N537 G0X109.75Y1724.9  ;
N538 G65 P9102 A101 B01  ;
N539 G1X109.75Y1727.85  ;
N540 G3X109.8Y1727.85I0.05J-9.95  ;
N541 G65 P9104 A101 B01  ;
N542 G0X109.75Y1801.9  ;
N543 G65 P9102 A101 B01  ;
N544 G1X109.75Y1804.85  ;
N545 G3X109.8Y1804.85I0.05J-9.95  ;
N546 G65 P9104 A101 B01  ;
N547 G0X131.83Y1671.9  ;
N548 G65 P9102 A101 B01  ;
N549 G1X131.83Y1676.85  ;
N550 G1X129.75Y1676.85  ;
N551 G1X129.75Y1681.85  ;
N552 G1X126.75Y1681.85  ;
N553 G1X126.75Y1682.35  ;
N554 G1X89.78Y1682.35  ;
N555 G1X65.78Y1706.85  ;
N556 G1X62.78Y1706.85  ;
N557 G1X61.75Y1707.88  ;
N558 G1X61.75Y1710.92  ;
N559 G1X62.78Y1711.95  ;
N560 G1X65.25Y1711.95  ;
N561 G1X65.25Y1714.95  ;
N562 G1X65.75Y1714.95  ;
N563 G1X65.75Y1741.45  ;
N564 G3X65.75Y1771.35I0.05J14.95  ;
N565 G1X65.75Y1802.85  ;
N566 G1X65.25Y1802.85  ;
N567 G1X65.25Y1805.95  ;
N568 G1X65.78Y1805.95  ;
N569 G1X89.78Y1830.45  ;
N570 G1X126.75Y1830.45  ;
N571 G1X126.75Y1830.95  ;
N572 G1X129.75Y1830.95  ;
N573 G1X129.75Y1835.95  ;
N574 G1X134.85Y1835.95  ;
N575 G1X134.85Y1676.85  ;
N576 G1X132.53Y1676.85  ;
N577 G65 P9104 A102 B04  ;
N578 M98 P9103  ;
(P12:ID2:W86011503)  ;
N579 M98 P9101  ;
N580 G0X1364.62Y227.64  ;
N581 G65 P9102 A102 B04  ;
N582 G1X1376.62Y234.57  ;
N583 G1X1376.62Y248.43  ;
N584 G1X1364.62Y255.36  ;
N585 G1X1352.62Y248.43  ;
N586 G1X1352.62Y234.57  ;
N587 G1X1364.62Y227.64  ;
N588 G65 P9104 A102 B04  ;
N589 G0X1316.62Y234.57  ;
N590 G65 P9102 A102 B04  ;
N591 G1X1316.62Y248.43  ;
N592 G1X1304.62Y255.36  ;
N593 G1X1292.62Y248.43  ;
N594 G1X1292.62Y234.57  ;
N595 G1X1304.62Y227.64  ;
N596 G1X1316.62Y234.57  ;
N597 G65 P9104 A102 B04  ;
N598 G0X1186.5Y156.41  ;
N599 G65 P9102 A102 B04  ;
N600 G1X1178Y161.31  ;
N601 G1X1169.5Y156.41  ;
N602 G1X1169.5Y146.59  ;
N603 G1X1178Y141.69  ;
N604 G1X1186.5Y146.59  ;
N605 G1X1186.5Y156.41  ;
N606 G65 P9104 A102 B04  ;
N607 G0X1304.62Y402.64  ;
N608 G65 P9102 A102 B04  ;
N609 G1X1316.62Y409.57  ;
N610 G1X1316.62Y423.43  ;
N611 G1X1304.62Y430.36  ;
N612 G1X1292.62Y423.43  ;
N613 G1X1292.62Y409.57  ;
N614 G1X1304.62Y402.64  ;
N615 G65 P9104 A102 B04  ;
N616 G0X1352.62Y409.57  ;
N617 G65 P9102 A102 B04  ;
N618 G1X1364.62Y402.64  ;
N619 G1X1376.62Y409.57  ;
N620 G1X1376.62Y423.43  ;
N621 G1X1364.62Y430.36  ;
N622 G1X1352.62Y423.43  ;
N623 G1X1352.62Y409.57  ;
N624 G65 P9104 A102 B04  ;
N625 G0X1186.5Y519.59  ;
N626 G65 P9102 A102 B04  ;
N627 G1X1186.5Y529.41  ;
N628 G1X1178Y534.31  ;
N629 G1X1169.5Y529.41  ;
N630 G1X1169.5Y519.59  ;
N631 G1X1178Y514.69  ;
N632 G1X1186.5Y519.59  ;
N633 G65 P9104 A102 B04  ;
N634 G0X1317.37Y891.38  ;
N635 G65 P9102 A102 B04  ;
N636 G1X1316.35Y892.4  ;
N637 G1X1326.35Y892.4  ;
N638 G65 P9104 A102 B04  ;
N639 G0X1326.35Y891.38  ;
N640 G65 P9102 A102 B04  ;
N641 G1X1326.35Y893.43  ;
N642 G65 P9104 A102 B04  ;
N643 G0X1326.35Y894.32  ;
N644 G65 P9102 A102 B04  ;
N645 G1X1326.35Y900.03  ;
N646 G1X1324.92Y901.46  ;
N647 G1X1323.49Y901.46  ;
N648 G1X1322.06Y900.03  ;
N649 G1X1322.06Y894.32  ;
N650 G1X1316.35Y894.32  ;
N651 G1X1316.35Y901.46  ;
N652 G65 P9104 A102 B04  ;
N653 G0X1316.35Y908.07  ;
N654 G65 P9102 A102 B04  ;
N655 G1X1326.35Y903.78  ;
N656 G65 P9104 A102 B04  ;
N657 G0X1326.35Y903.78  ;
N658 G65 P9102 A102 B04  ;
N659 G1X1324.92Y902.35  ;
N660 G1X1317.77Y902.35  ;
N661 G1X1316.35Y903.78  ;
N662 G1X1316.35Y908.07  ;
N663 G1X1317.77Y909.5  ;
N664 G1X1324.92Y909.5  ;
N665 G1X1326.35Y908.07  ;
N666 G1X1326.35Y903.78  ;
N667 G65 P9104 A102 B04  ;
N668 G0X1324.92Y910.39  ;
N669 G65 P9102 A102 B04  ;
N670 G1X1326.35Y911.82  ;
N671 G1X1326.35Y916.1  ;
N672 G1X1324.92Y917.53  ;
N673 G1X1323.49Y917.53  ;
N674 G1X1322.06Y916.1  ;
N675 G1X1320.63Y917.53  ;
N676 G1X1317.77Y917.53  ;
N677 G1X1316.35Y916.1  ;
N678 G1X1316.35Y911.82  ;
N679 G1X1317.77Y910.39  ;
N680 G65 P9104 A102 B04  ;
N681 G0X1322.06Y911.82  ;
N682 G65 P9102 A102 B04  ;
N683 G1X1322.06Y916.1  ;
N684 G65 P9104 A102 B04  ;
N685 G0X1186.5Y929.59  ;
N686 G65 P9102 A102 B04  ;
N687 G1X1186.5Y939.41  ;
N688 G1X1178Y944.31  ;
N689 G1X1169.5Y939.41  ;
N690 G1X1169.5Y929.59  ;
N691 G1X1178Y924.69  ;
N692 G1X1186.5Y929.59  ;
N693 G65 P9104 A102 B04  ;
N694 G0X1178Y1108.69  ;
N695 G65 P9102 A102 B04  ;
N696 G1X1186.5Y1113.59  ;
N697 G1X1186.5Y1123.41  ;
N698 G1X1178Y1128.31  ;
N699 G1X1169.5Y1123.41  ;
N700 G1X1169.5Y1113.59  ;
N701 G1X1178Y1108.69  ;
N702 G65 P9104 A102 B04  ;
N703 G0X1304.62Y1622.64  ;
N704 G65 P9102 A102 B04  ;
N705 G1X1316.62Y1629.57  ;
N706 G1X1316.62Y1643.43  ;
N707 G1X1304.62Y1650.36  ;
N708 G1X1292.62Y1643.43  ;
N709 G1X1292.62Y1629.57  ;
N710 G1X1304.62Y1622.64  ;
N711 G65 P9104 A102 B04  ;
N712 G0X1352.62Y1629.57  ;
N713 G65 P9102 A102 B04  ;
N714 G1X1364.62Y1622.64  ;
N715 G1X1376.62Y1629.57  ;
N716 G1X1376.62Y1643.43  ;
N717 G1X1364.62Y1650.36  ;
N718 G1X1352.62Y1643.43  ;
N719 G1X1352.62Y1629.57  ;
N720 G65 P9104 A102 B04  ;
N721 G0X1304.62Y1797.64  ;
N722 G65 P9102 A102 B04  ;
N723 G1X1316.62Y1804.57  ;
N724 G1X1316.62Y1818.43  ;
N725 G1X1304.62Y1825.36  ;
N726 G1X1292.62Y1818.43  ;
N727 G1X1292.62Y1804.57  ;
N728 G1X1304.62Y1797.64  ;
N729 G65 P9104 A102 B04  ;
N730 G0X1352.62Y1804.57  ;
N731 G65 P9102 A102 B04  ;
N732 G1X1364.62Y1797.64  ;
N733 G1X1376.62Y1804.57  ;
N734 G1X1376.62Y1818.43  ;
N735 G1X1364.62Y1825.36  ;
N736 G1X1352.62Y1818.43  ;
N737 G1X1352.62Y1804.57  ;
N738 G65 P9104 A102 B04  ;
N739 G0X1186.5Y1896.59  ;
N740 G65 P9102 A102 B04  ;
N741 G1X1186.5Y1906.41  ;
N742 G1X1178Y1911.31  ;
N743 G1X1169.5Y1906.41  ;
N744 G1X1169.5Y1896.59  ;
N745 G1X1178Y1891.69  ;
N746 G1X1186.5Y1896.59  ;
N747 G65 P9104 A101 B02  ;
N748 G0X1175.67Y1903.76  ;
N749 G65 P9102 A101 B02  ;
N750 G1X1173.58Y1905.85  ;
N751 G3X1173.62Y1905.88I4.42J-4.35  ;
N752 G65 P9104 A101 B02  ;
N753 G0X1223.14Y1929.29  ;
N754 G65 P9102 A101 B02  ;
N755 G1X1221.05Y1931.38  ;
N756 G3X1221.09Y1931.41I4.95J-4.88  ;
N757 G65 P9104 A101 B02  ;
N758 G0X1305.12Y1953.55  ;
N759 G65 P9102 A101 B02  ;
N760 G1X1302.12Y1953.55  ;
N761 G2X1301.17Y1954.5I0J0.95  ;
N762 G1X1301.17Y1957.45  ;
N763 G1X1343.07Y1957.45  ;
N764 G1X1343.07Y1951.55  ;
N765 G1X1301.17Y1951.55  ;
N766 G1X1301.17Y1954.5  ;
N767 G65 P9104 A101 B02  ;
N768 G0X1438.97Y2012.21  ;
N769 G65 P9102 A101 B02  ;
N770 G1X1436.88Y2014.29  ;
N771 G3X1436.92Y2014.33I6.36J-6.29  ;
N772 G65 P9104 A101 B02  ;
N773 G0X1360.03Y1816.03  ;
N774 G65 P9102 A101 B02  ;
N775 G1X1357.94Y1818.11  ;
N776 G3X1357.98Y1818.15I6.68J-6.61  ;
N777 G65 P9104 A101 B02  ;
N778 G0X1300.03Y1816.03  ;
N779 G65 P9102 A101 B02  ;
N780 G1X1297.94Y1818.11  ;
N781 G3X1297.98Y1818.15I6.68J-6.61  ;
N782 G65 P9104 A101 B02  ;
N783 G0X1300.03Y1641.03  ;
N784 G65 P9102 A101 B02  ;
N785 G1X1297.94Y1643.11  ;
N786 G3X1297.98Y1643.15I6.68J-6.61  ;
N787 G65 P9104 A101 B02  ;
N788 G0X1360.03Y1641.03  ;
N789 G65 P9102 A101 B02  ;
N790 G1X1357.94Y1643.11  ;
N791 G3X1357.98Y1643.15I6.68J-6.61  ;
N792 G65 P9104 A101 B02  ;
N793 G0X1175.49Y1530.94  ;
N794 G65 P9102 A101 B02  ;
N795 G1X1173.4Y1533.03  ;
N796 G3X1173.44Y1533.06I4.6J-4.53  ;
N797 G65 P9104 A101 B02  ;
N798 G0X1223.14Y1479.29  ;
N799 G65 P9102 A101 B02  ;
N800 G1X1221.05Y1481.38  ;
N801 G3X1221.09Y1481.41I4.95J-4.88  ;
N802 G65 P9104 A101 B02  ;
N803 G0X1178.48Y1287.95  ;
N804 G65 P9102 A101 B02  ;
N805 G1X1176.39Y1290.04  ;
N806 G3X1176.43Y1290.07I3.61J-3.54  ;
N807 G65 P9104 A101 B02  ;
N808 G0X1175.67Y1120.76  ;
N809 G65 P9102 A101 B02  ;
N810 G1X1173.58Y1122.85  ;
N811 G3X1173.62Y1122.88I4.42J-4.35  ;
N812 G65 P9104 A101 B02  ;
N813 G0X1223.14Y1029.29  ;
N814 G65 P9102 A101 B02  ;
N815 G1X1221.05Y1031.38  ;
N816 G3X1221.09Y1031.41I4.95J-4.88  ;
N817 G65 P9104 A101 B02  ;
N818 G0X1305.12Y1065.55  ;
N819 G65 P9102 A101 B02  ;
N820 G1X1302.12Y1065.55  ;
N821 G2X1301.17Y1066.5I0J0.95  ;
N822 G1X1301.17Y1069.45  ;
N823 G1X1343.07Y1069.45  ;
N824 G1X1343.07Y1063.55  ;
N825 G1X1301.17Y1063.55  ;
N826 G1X1301.17Y1066.5  ;
N827 G65 P9104 A101 B02  ;
N828 G0X1175.67Y936.76  ;
N829 G65 P9102 A101 B02  ;
N830 G1X1173.58Y938.85  ;
N831 G3X1173.62Y938.88I4.42J-4.35  ;
N832 G65 P9104 A101 B02  ;
N833 G0X1178.48Y767.95  ;
N834 G65 P9102 A101 B02  ;
N835 G1X1176.39Y770.04  ;
N836 G3X1176.43Y770.07I3.61J-3.54  ;
N837 G65 P9104 A101 B02  ;
N838 G0X1223.14Y579.29  ;
N839 G65 P9102 A101 B02  ;
N840 G1X1221.05Y581.38  ;
N841 G3X1221.09Y581.41I4.95J-4.88  ;
N842 G65 P9104 A101 B02  ;
N843 G0X1175.67Y526.76  ;
N844 G65 P9102 A101 B02  ;
N845 G1X1173.58Y528.85  ;
N846 G3X1173.62Y528.88I4.42J-4.35  ;
N847 G65 P9104 A101 B02  ;
N848 G0X1305.12Y471.05  ;
N849 G65 P9102 A101 B02  ;
N850 G1X1302.12Y471.05  ;
N851 G2X1301.17Y472I0J0.95  ;
N852 G1X1301.17Y474.95  ;
N853 G1X1343.07Y474.95  ;
N854 G1X1343.07Y469.05  ;
N855 G1X1301.17Y469.05  ;
N856 G1X1301.17Y472  ;
N857 G65 P9104 A101 B02  ;
N858 G0X1300.03Y421.03  ;
N859 G65 P9102 A101 B02  ;
N860 G1X1297.94Y423.11  ;
N861 G3X1297.98Y423.15I6.68J-6.61  ;
N862 G65 P9104 A101 B02  ;
N863 G0X1360.03Y421.03  ;
N864 G65 P9102 A101 B02  ;
N865 G1X1357.94Y423.11  ;
N866 G3X1357.98Y423.15I6.68J-6.61  ;
N867 G65 P9104 A101 B02  ;
N868 G0X1360.03Y246.03  ;
N869 G65 P9102 A101 B02  ;
N870 G1X1357.94Y248.11  ;
N871 G3X1357.98Y248.15I6.68J-6.61  ;
N872 G65 P9104 A101 B02  ;
N873 G0X1300.03Y246.03  ;
N874 G65 P9102 A101 B02  ;
N875 G1X1297.94Y248.11  ;
N876 G3X1297.98Y248.15I6.68J-6.61  ;
N877 G65 P9104 A101 B02  ;
N878 G0X1175.67Y153.76  ;
N879 G65 P9102 A101 B02  ;
N880 G1X1173.58Y155.85  ;
N881 G3X1173.62Y155.88I4.42J-4.35  ;
N882 G65 P9104 A101 B02  ;
N883 G0X1223.14Y129.29  ;
N884 G65 P9102 A101 B02  ;
N885 G1X1221.05Y131.38  ;
N886 G3X1221.09Y131.41I4.95J-4.88  ;
N887 G65 P9104 A101 B02  ;
N888 G0X1305.12Y96.55  ;
N889 G65 P9102 A101 B02  ;
N890 G1X1302.12Y96.55  ;
N891 G2X1301.17Y97.5I0J0.95  ;
N892 G1X1301.17Y100.45  ;
N893 G1X1343.07Y100.45  ;
N894 G1X1343.07Y94.55  ;
N895 G1X1301.17Y94.55  ;
N896 G1X1301.17Y97.5  ;
N897 G65 P9104 A101 B02  ;
N898 G0X1438.97Y49.21  ;
N899 G65 P9102 A101 B02  ;
N900 G1X1436.88Y51.29  ;
N901 G3X1436.92Y51.33I6.36J-6.29  ;
N902 G65 P9104 A101 B01  ;
N903 G0X1486.24Y14.95  ;
N904 G65 P9102 A101 B01  ;
N905 G1X1483.24Y14.95  ;
N906 G1X1160.95Y14.95  ;
N907 G1X1160.95Y2037.05  ;
N908 G1X1483.29Y2037.05  ;
N909 G1X1483.29Y15  ;
N910 G65 P9104 A102 B04  ;
N911 M98 P9103  ;
(P13:ID2:W86011503)  ;
N912 M98 P9101  ;
N913 G0X1030.62Y227.64  ;
N914 G65 P9102 A102 B04  ;
N915 G1X1042.62Y234.57  ;
N916 G1X1042.62Y248.43  ;
N917 G1X1030.62Y255.36  ;
N918 G1X1018.62Y248.43  ;
N919 G1X1018.62Y234.57  ;
N920 G1X1030.62Y227.64  ;
N921 G65 P9104 A102 B04  ;
N922 G0X982.62Y234.57  ;
N923 G65 P9102 A102 B04  ;
N924 G1X982.62Y248.43  ;
N925 G1X970.62Y255.36  ;
N926 G1X958.62Y248.43  ;
N927 G1X958.62Y234.57  ;
N928 G1X970.62Y227.64  ;
N929 G1X982.62Y234.57  ;
N930 G65 P9104 A102 B04  ;
N931 G0X852.5Y156.41  ;
N932 G65 P9102 A102 B04  ;
N933 G1X844Y161.31  ;
N934 G1X835.5Y156.41  ;
N935 G1X835.5Y146.59  ;
N936 G1X844Y141.69  ;
N937 G1X852.5Y146.59  ;
N938 G1X852.5Y156.41  ;
N939 G65 P9104 A102 B04  ;
N940 G0X970.62Y402.64  ;
N941 G65 P9102 A102 B04  ;
N942 G1X982.62Y409.57  ;
N943 G1X982.62Y423.43  ;
N944 G1X970.62Y430.36  ;
N945 G1X958.62Y423.43  ;
N946 G1X958.62Y409.57  ;
N947 G1X970.62Y402.64  ;
N948 G65 P9104 A102 B04  ;
N949 G0X1018.62Y409.57  ;
N950 G65 P9102 A102 B04  ;
N951 G1X1030.62Y402.64  ;
N952 G1X1042.62Y409.57  ;
N953 G1X1042.62Y423.43  ;
N954 G1X1030.62Y430.36  ;
N955 G1X1018.62Y423.43  ;
N956 G1X1018.62Y409.57  ;
N957 G65 P9104 A102 B04  ;
N958 G0X852.5Y519.59  ;
N959 G65 P9102 A102 B04  ;
N960 G1X852.5Y529.41  ;
N961 G1X844Y534.31  ;
N962 G1X835.5Y529.41  ;
N963 G1X835.5Y519.59  ;
N964 G1X844Y514.69  ;
N965 G1X852.5Y519.59  ;
N966 G65 P9104 A102 B04  ;
N967 G0X983.37Y891.38  ;
N968 G65 P9102 A102 B04  ;
N969 G1X982.35Y892.4  ;
N970 G1X992.35Y892.4  ;
N971 G65 P9104 A102 B04  ;
N972 G0X992.35Y891.38  ;
N973 G65 P9102 A102 B04  ;
N974 G1X992.35Y893.43  ;
N975 G65 P9104 A102 B04  ;
N976 G0X992.35Y894.32  ;
N977 G65 P9102 A102 B04  ;
N978 G1X992.35Y900.03  ;
N979 G1X990.92Y901.46  ;
N980 G1X989.49Y901.46  ;
N981 G1X988.06Y900.03  ;
N982 G1X988.06Y894.32  ;
N983 G1X982.35Y894.32  ;
N984 G1X982.35Y901.46  ;
N985 G65 P9104 A102 B04  ;
N986 G0X982.35Y908.07  ;
N987 G65 P9102 A102 B04  ;
N988 G1X992.35Y903.78  ;
N989 G65 P9104 A102 B04  ;
N990 G0X992.35Y903.78  ;
N991 G65 P9102 A102 B04  ;
N992 G1X990.92Y902.35  ;
N993 G1X983.77Y902.35  ;
N994 G1X982.35Y903.78  ;
N995 G1X982.35Y908.07  ;
N996 G1X983.77Y909.5  ;
N997 G1X990.92Y909.5  ;
N998 G1X992.35Y908.07  ;
N999 G1X992.35Y903.78  ;
N1000 G65 P9104 A102 B04  ;
N1001 G0X990.92Y910.39  ;
N1002 G65 P9102 A102 B04  ;
N1003 G1X992.35Y911.82  ;
N1004 G1X992.35Y916.1  ;
N1005 G1X990.92Y917.53  ;
N1006 G1X989.49Y917.53  ;
N1007 G1X988.06Y916.1  ;
N1008 G1X986.63Y917.53  ;
N1009 G1X983.77Y917.53  ;
N1010 G1X982.35Y916.1  ;
N1011 G1X982.35Y911.82  ;
N1012 G1X983.77Y910.39  ;
N1013 G65 P9104 A102 B04  ;
N1014 G0X988.06Y911.82  ;
N1015 G65 P9102 A102 B04  ;
N1016 G1X988.06Y916.1  ;
N1017 G65 P9104 A102 B04  ;
N1018 G0X852.5Y929.59  ;
N1019 G65 P9102 A102 B04  ;
N1020 G1X852.5Y939.41  ;
N1021 G1X844Y944.31  ;
N1022 G1X835.5Y939.41  ;
N1023 G1X835.5Y929.59  ;
N1024 G1X844Y924.69  ;
N1025 G1X852.5Y929.59  ;
N1026 G65 P9104 A102 B04  ;
N1027 G0X844Y1108.69  ;
N1028 G65 P9102 A102 B04  ;
N1029 G1X852.5Y1113.59  ;
N1030 G1X852.5Y1123.41  ;
N1031 G1X844Y1128.31  ;
N1032 G1X835.5Y1123.41  ;
N1033 G1X835.5Y1113.59  ;
N1034 G1X844Y1108.69  ;
N1035 G65 P9104 A102 B04  ;
N1036 G0X970.62Y1622.64  ;
N1037 G65 P9102 A102 B04  ;
N1038 G1X982.62Y1629.57  ;
N1039 G1X982.62Y1643.43  ;
N1040 G1X970.62Y1650.36  ;
N1041 G1X958.62Y1643.43  ;
N1042 G1X958.62Y1629.57  ;
N1043 G1X970.62Y1622.64  ;
N1044 G65 P9104 A102 B04  ;
N1045 G0X1018.62Y1629.57  ;
N1046 G65 P9102 A102 B04  ;
N1047 G1X1030.62Y1622.64  ;
N1048 G1X1042.62Y1629.57  ;
N1049 G1X1042.62Y1643.43  ;
N1050 G1X1030.62Y1650.36  ;
N1051 G1X1018.62Y1643.43  ;
N1052 G1X1018.62Y1629.57  ;
N1053 G65 P9104 A102 B04  ;
N1054 G0X970.62Y1797.64  ;
N1055 G65 P9102 A102 B04  ;
N1056 G1X982.62Y1804.57  ;
N1057 G1X982.62Y1818.43  ;
N1058 G1X970.62Y1825.36  ;
N1059 G1X958.62Y1818.43  ;
N1060 G1X958.62Y1804.57  ;
N1061 G1X970.62Y1797.64  ;
N1062 G65 P9104 A102 B04  ;
N1063 G0X1018.62Y1804.57  ;
N1064 G65 P9102 A102 B04  ;
N1065 G1X1030.62Y1797.64  ;
N1066 G1X1042.62Y1804.57  ;
N1067 G1X1042.62Y1818.43  ;
N1068 G1X1030.62Y1825.36  ;
N1069 G1X1018.62Y1818.43  ;
N1070 G1X1018.62Y1804.57  ;
N1071 G65 P9104 A102 B04  ;
N1072 G0X852.5Y1896.59  ;
N1073 G65 P9102 A102 B04  ;
N1074 G1X852.5Y1906.41  ;
N1075 G1X844Y1911.31  ;
N1076 G1X835.5Y1906.41  ;
N1077 G1X835.5Y1896.59  ;
N1078 G1X844Y1891.69  ;
N1079 G1X852.5Y1896.59  ;
N1080 G65 P9104 A101 B02  ;
N1081 G0X841.67Y1903.76  ;
N1082 G65 P9102 A101 B02  ;
N1083 G1X839.58Y1905.85  ;
N1084 G3X839.62Y1905.88I4.42J-4.35  ;
N1085 G65 P9104 A101 B02  ;
N1086 G0X889.14Y1929.29  ;
N1087 G65 P9102 A101 B02  ;
N1088 G1X887.05Y1931.38  ;
N1089 G3X887.09Y1931.41I4.95J-4.88  ;
N1090 G65 P9104 A101 B02  ;
N1091 G0X971.12Y1953.55  ;
N1092 G65 P9102 A101 B02  ;
N1093 G1X968.12Y1953.55  ;
N1094 G2X967.17Y1954.5I0J0.95  ;
N1095 G1X967.17Y1957.45  ;
N1096 G1X1009.07Y1957.45  ;
N1097 G1X1009.07Y1951.55  ;
N1098 G1X967.17Y1951.55  ;
N1099 G1X967.17Y1954.5  ;
N1100 G65 P9104 A101 B02  ;
N1101 G0X1104.97Y2012.21  ;
N1102 G65 P9102 A101 B02  ;
N1103 G1X1102.88Y2014.29  ;
N1104 G3X1102.92Y2014.33I6.36J-6.29  ;
N1105 G65 P9104 A101 B02  ;
N1106 G0X1026.03Y1816.03  ;
N1107 G65 P9102 A101 B02  ;
N1108 G1X1023.94Y1818.11  ;
N1109 G3X1023.98Y1818.15I6.68J-6.61  ;
N1110 G65 P9104 A101 B02  ;
N1111 G0X966.03Y1816.03  ;
N1112 G65 P9102 A101 B02  ;
N1113 G1X963.94Y1818.11  ;
N1114 G3X963.98Y1818.15I6.68J-6.61  ;
N1115 G65 P9104 A101 B02  ;
N1116 G0X966.03Y1641.03  ;
N1117 G65 P9102 A101 B02  ;
N1118 G1X963.94Y1643.11  ;
N1119 G3X963.98Y1643.15I6.68J-6.61  ;
N1120 G65 P9104 A101 B02  ;
N1121 G0X1026.03Y1641.03  ;
N1122 G65 P9102 A101 B02  ;
N1123 G1X1023.94Y1643.11  ;
N1124 G3X1023.98Y1643.15I6.68J-6.61  ;
N1125 G65 P9104 A101 B02  ;
N1126 G0X841.49Y1530.94  ;
N1127 G65 P9102 A101 B02  ;
N1128 G1X839.4Y1533.03  ;
N1129 G3X839.44Y1533.06I4.6J-4.53  ;
N1130 G65 P9104 A101 B02  ;
N1131 G0X889.14Y1479.29  ;
N1132 G65 P9102 A101 B02  ;
N1133 G1X887.05Y1481.38  ;
N1134 G3X887.09Y1481.41I4.95J-4.88  ;
N1135 G65 P9104 A101 B02  ;
N1136 G0X844.48Y1287.95  ;
N1137 G65 P9102 A101 B02  ;
N1138 G1X842.39Y1290.04  ;
N1139 G3X842.43Y1290.07I3.61J-3.54  ;
N1140 G65 P9104 A101 B02  ;
N1141 G0X841.67Y1120.76  ;
N1142 G65 P9102 A101 B02  ;
N1143 G1X839.58Y1122.85  ;
N1144 G3X839.62Y1122.88I4.42J-4.35  ;
N1145 G65 P9104 A101 B02  ;
N1146 G0X889.14Y1029.29  ;
N1147 G65 P9102 A101 B02  ;
N1148 G1X887.05Y1031.38  ;
N1149 G3X887.09Y1031.41I4.95J-4.88  ;
N1150 G65 P9104 A101 B02  ;
N1151 G0X971.12Y1065.55  ;
N1152 G65 P9102 A101 B02  ;
N1153 G1X968.12Y1065.55  ;
N1154 G2X967.17Y1066.5I0J0.95  ;
N1155 G1X967.17Y1069.45  ;
N1156 G1X1009.07Y1069.45  ;
N1157 G1X1009.07Y1063.55  ;
N1158 G1X967.17Y1063.55  ;
N1159 G1X967.17Y1066.5  ;
N1160 G65 P9104 A101 B02  ;
N1161 G0X841.67Y936.76  ;
N1162 G65 P9102 A101 B02  ;
N1163 G1X839.58Y938.85  ;
N1164 G3X839.62Y938.88I4.42J-4.35  ;
N1165 G65 P9104 A101 B02  ;
N1166 G0X844.48Y767.95  ;
N1167 G65 P9102 A101 B02  ;
N1168 G1X842.39Y770.04  ;
N1169 G3X842.43Y770.07I3.61J-3.54  ;
N1170 G65 P9104 A101 B02  ;
N1171 G0X889.14Y579.29  ;
N1172 G65 P9102 A101 B02  ;
N1173 G1X887.05Y581.38  ;
N1174 G3X887.09Y581.41I4.95J-4.88  ;
N1175 G65 P9104 A101 B02  ;
N1176 G0X841.67Y526.76  ;
N1177 G65 P9102 A101 B02  ;
N1178 G1X839.58Y528.85  ;
N1179 G3X839.62Y528.88I4.42J-4.35  ;
N1180 G65 P9104 A101 B02  ;
N1181 G0X971.12Y471.05  ;
N1182 G65 P9102 A101 B02  ;
N1183 G1X968.12Y471.05  ;
N1184 G2X967.17Y472I0J0.95  ;
N1185 G1X967.17Y474.95  ;
N1186 G1X1009.07Y474.95  ;
N1187 G1X1009.07Y469.05  ;
N1188 G1X967.17Y469.05  ;
N1189 G1X967.17Y472  ;
N1190 G65 P9104 A101 B02  ;
N1191 G0X966.03Y421.03  ;
N1192 G65 P9102 A101 B02  ;
N1193 G1X963.94Y423.11  ;
N1194 G3X963.98Y423.15I6.68J-6.61  ;
N1195 G65 P9104 A101 B02  ;
N1196 G0X1026.03Y421.03  ;
N1197 G65 P9102 A101 B02  ;
N1198 G1X1023.94Y423.11  ;
N1199 G3X1023.98Y423.15I6.68J-6.61  ;
N1200 G65 P9104 A101 B02  ;
N1201 G0X1026.03Y246.03  ;
N1202 G65 P9102 A101 B02  ;
N1203 G1X1023.94Y248.11  ;
N1204 G3X1023.98Y248.15I6.68J-6.61  ;
N1205 G65 P9104 A101 B02  ;
N1206 G0X966.03Y246.03  ;
N1207 G65 P9102 A101 B02  ;
N1208 G1X963.94Y248.11  ;
N1209 G3X963.98Y248.15I6.68J-6.61  ;
N1210 G65 P9104 A101 B02  ;
N1211 G0X841.67Y153.76  ;
N1212 G65 P9102 A101 B02  ;
N1213 G1X839.58Y155.85  ;
N1214 G3X839.62Y155.88I4.42J-4.35  ;
N1215 G65 P9104 A101 B02  ;
N1216 G0X889.14Y129.29  ;
N1217 G65 P9102 A101 B02  ;
N1218 G1X887.05Y131.38  ;
N1219 G3X887.09Y131.41I4.95J-4.88  ;
N1220 G65 P9104 A101 B02  ;
N1221 G0X971.12Y96.55  ;
N1222 G65 P9102 A101 B02  ;
N1223 G1X968.12Y96.55  ;
N1224 G2X967.17Y97.5I0J0.95  ;
N1225 G1X967.17Y100.45  ;
N1226 G1X1009.07Y100.45  ;
N1227 G1X1009.07Y94.55  ;
N1228 G1X967.17Y94.55  ;
N1229 G1X967.17Y97.5  ;
N1230 G65 P9104 A101 B02  ;
N1231 G0X1104.97Y49.21  ;
N1232 G65 P9102 A101 B02  ;
N1233 G1X1102.88Y51.29  ;
N1234 G3X1102.92Y51.33I6.36J-6.29  ;
N1235 G65 P9104 A101 B01  ;
N1236 G0X1152.24Y14.95  ;
N1237 G65 P9102 A101 B01  ;
N1238 G1X1149.24Y14.95  ;
N1239 G1X826.95Y14.95  ;
N1240 G1X826.95Y2037.05  ;
N1241 G1X1149.29Y2037.05  ;
N1242 G1X1149.29Y15  ;
N1243 G65 P9104 A102 B04  ;
N1244 M98 P9103  ;
(P14:ID2:W86011503)  ;
N1245 M98 P9101  ;
N1246 G0X696.62Y227.64  ;
N1247 G65 P9102 A102 B04  ;
N1248 G1X708.62Y234.57  ;
N1249 G1X708.62Y248.43  ;
N1250 G1X696.62Y255.36  ;
N1251 G1X684.62Y248.43  ;
N1252 G1X684.62Y234.57  ;
N1253 G1X696.62Y227.64  ;
N1254 G65 P9104 A102 B04  ;
N1255 G0X648.62Y234.57  ;
N1256 G65 P9102 A102 B04  ;
N1257 G1X648.62Y248.43  ;
N1258 G1X636.62Y255.36  ;
N1259 G1X624.62Y248.43  ;
N1260 G1X624.62Y234.57  ;
N1261 G1X636.62Y227.64  ;
N1262 G1X648.62Y234.57  ;
N1263 G65 P9104 A102 B04  ;
N1264 G0X518.5Y156.41  ;
N1265 G65 P9102 A102 B04  ;
N1266 G1X510Y161.31  ;
N1267 G1X501.5Y156.41  ;
N1268 G1X501.5Y146.59  ;
N1269 G1X510Y141.69  ;
N1270 G1X518.5Y146.59  ;
N1271 G1X518.5Y156.41  ;
N1272 G65 P9104 A102 B04  ;
N1273 G0X636.62Y402.64  ;
N1274 G65 P9102 A102 B04  ;
N1275 G1X648.62Y409.57  ;
N1276 G1X648.62Y423.43  ;
N1277 G1X636.62Y430.36  ;
N1278 G1X624.62Y423.43  ;
N1279 G1X624.62Y409.57  ;
N1280 G1X636.62Y402.64  ;
N1281 G65 P9104 A102 B04  ;
N1282 G0X684.62Y409.57  ;
N1283 G65 P9102 A102 B04  ;
N1284 G1X696.62Y402.64  ;
N1285 G1X708.62Y409.57  ;
N1286 G1X708.62Y423.43  ;
N1287 G1X696.62Y430.36  ;
N1288 G1X684.62Y423.43  ;
N1289 G1X684.62Y409.57  ;
N1290 G65 P9104 A102 B04  ;
N1291 G0X518.5Y519.59  ;
N1292 G65 P9102 A102 B04  ;
N1293 G1X518.5Y529.41  ;
N1294 G1X510Y534.31  ;
N1295 G1X501.5Y529.41  ;
N1296 G1X501.5Y519.59  ;
N1297 G1X510Y514.69  ;
N1298 G1X518.5Y519.59  ;
N1299 G65 P9104 A102 B04  ;
N1300 G0X649.37Y891.38  ;
N1301 G65 P9102 A102 B04  ;
N1302 G1X648.35Y892.4  ;
N1303 G1X658.35Y892.4  ;
N1304 G65 P9104 A102 B04  ;
N1305 G0X658.35Y891.38  ;
N1306 G65 P9102 A102 B04  ;
N1307 G1X658.35Y893.43  ;
N1308 G65 P9104 A102 B04  ;
N1309 G0X658.35Y894.32  ;
N1310 G65 P9102 A102 B04  ;
N1311 G1X658.35Y900.03  ;
N1312 G1X656.92Y901.46  ;
N1313 G1X655.49Y901.46  ;
N1314 G1X654.06Y900.03  ;
N1315 G1X654.06Y894.32  ;
N1316 G1X648.35Y894.32  ;
N1317 G1X648.35Y901.46  ;
N1318 G65 P9104 A102 B04  ;
N1319 G0X648.35Y908.07  ;
N1320 G65 P9102 A102 B04  ;
N1321 G1X658.35Y903.78  ;
N1322 G65 P9104 A102 B04  ;
N1323 G0X658.35Y903.78  ;
N1324 G65 P9102 A102 B04  ;
N1325 G1X656.92Y902.35  ;
N1326 G1X649.77Y902.35  ;
N1327 G1X648.35Y903.78  ;
N1328 G1X648.35Y908.07  ;
N1329 G1X649.77Y909.5  ;
N1330 G1X656.92Y909.5  ;
N1331 G1X658.35Y908.07  ;
N1332 G1X658.35Y903.78  ;
N1333 G65 P9104 A102 B04  ;
N1334 G0X656.92Y910.39  ;
N1335 G65 P9102 A102 B04  ;
N1336 G1X658.35Y911.82  ;
N1337 G1X658.35Y916.1  ;
N1338 G1X656.92Y917.53  ;
N1339 G1X655.49Y917.53  ;
N1340 G1X654.06Y916.1  ;
N1341 G1X652.63Y917.53  ;
N1342 G1X649.77Y917.53  ;
N1343 G1X648.35Y916.1  ;
N1344 G1X648.35Y911.82  ;
N1345 G1X649.77Y910.39  ;
N1346 G65 P9104 A102 B04  ;
N1347 G0X654.06Y911.82  ;
N1348 G65 P9102 A102 B04  ;
N1349 G1X654.06Y916.1  ;
N1350 G65 P9104 A102 B04  ;
N1351 G0X518.5Y929.59  ;
N1352 G65 P9102 A102 B04  ;
N1353 G1X518.5Y939.41  ;
N1354 G1X510Y944.31  ;
N1355 G1X501.5Y939.41  ;
N1356 G1X501.5Y929.59  ;
N1357 G1X510Y924.69  ;
N1358 G1X518.5Y929.59  ;
N1359 G65 P9104 A102 B04  ;
N1360 G0X510Y1108.69  ;
N1361 G65 P9102 A102 B04  ;
N1362 G1X518.5Y1113.59  ;
N1363 G1X518.5Y1123.41  ;
N1364 G1X510Y1128.31  ;
N1365 G1X501.5Y1123.41  ;
N1366 G1X501.5Y1113.59  ;
N1367 G1X510Y1108.69  ;
N1368 G65 P9104 A102 B04  ;
N1369 G0X636.62Y1622.64  ;
N1370 G65 P9102 A102 B04  ;
N1371 G1X648.62Y1629.57  ;
N1372 G1X648.62Y1643.43  ;
N1373 G1X636.62Y1650.36  ;
N1374 G1X624.62Y1643.43  ;
N1375 G1X624.62Y1629.57  ;
N1376 G1X636.62Y1622.64  ;
N1377 G65 P9104 A102 B04  ;
N1378 G0X684.62Y1629.57  ;
N1379 G65 P9102 A102 B04  ;
N1380 G1X696.62Y1622.64  ;
N1381 G1X708.62Y1629.57  ;
N1382 G1X708.62Y1643.43  ;
N1383 G1X696.62Y1650.36  ;
N1384 G1X684.62Y1643.43  ;
N1385 G1X684.62Y1629.57  ;
N1386 G65 P9104 A102 B04  ;
N1387 G0X636.62Y1797.64  ;
N1388 G65 P9102 A102 B04  ;
N1389 G1X648.62Y1804.57  ;
N1390 G1X648.62Y1818.43  ;
N1391 G1X636.62Y1825.36  ;
N1392 G1X624.62Y1818.43  ;
N1393 G1X624.62Y1804.57  ;
N1394 G1X636.62Y1797.64  ;
N1395 G65 P9104 A102 B04  ;
N1396 G0X684.62Y1804.57  ;
N1397 G65 P9102 A102 B04  ;
N1398 G1X696.62Y1797.64  ;
N1399 G1X708.62Y1804.57  ;
N1400 G1X708.62Y1818.43  ;
N1401 G1X696.62Y1825.36  ;
N1402 G1X684.62Y1818.43  ;
N1403 G1X684.62Y1804.57  ;
N1404 G65 P9104 A102 B04  ;
N1405 G0X518.5Y1896.59  ;
N1406 G65 P9102 A102 B04  ;
N1407 G1X518.5Y1906.41  ;
N1408 G1X510Y1911.31  ;
N1409 G1X501.5Y1906.41  ;
N1410 G1X501.5Y1896.59  ;
N1411 G1X510Y1891.69  ;
N1412 G1X518.5Y1896.59  ;
N1413 G65 P9104 A101 B02  ;
N1414 G0X507.67Y1903.76  ;
N1415 G65 P9102 A101 B02  ;
N1416 G1X505.58Y1905.85  ;
N1417 G3X505.62Y1905.88I4.42J-4.35  ;
N1418 G65 P9104 A101 B02  ;
N1419 G0X555.14Y1929.29  ;
N1420 G65 P9102 A101 B02  ;
N1421 G1X553.05Y1931.38  ;
N1422 G3X553.09Y1931.41I4.95J-4.88  ;
N1423 G65 P9104 A101 B02  ;
N1424 G0X637.12Y1953.55  ;
N1425 G65 P9102 A101 B02  ;
N1426 G1X634.12Y1953.55  ;
N1427 G2X633.17Y1954.5I0J0.95  ;
N1428 G1X633.17Y1957.45  ;
N1429 G1X675.07Y1957.45  ;
N1430 G1X675.07Y1951.55  ;
N1431 G1X633.17Y1951.55  ;
N1432 G1X633.17Y1954.5  ;
N1433 G65 P9104 A101 B02  ;
N1434 G0X770.97Y2012.21  ;
N1435 G65 P9102 A101 B02  ;
N1436 G1X768.88Y2014.29  ;
N1437 G3X768.92Y2014.33I6.36J-6.29  ;
N1438 G65 P9104 A101 B02  ;
N1439 G0X692.03Y1816.03  ;
N1440 G65 P9102 A101 B02  ;
N1441 G1X689.94Y1818.11  ;
N1442 G3X689.98Y1818.15I6.68J-6.61  ;
N1443 G65 P9104 A101 B02  ;
N1444 G0X632.03Y1816.03  ;
N1445 G65 P9102 A101 B02  ;
N1446 G1X629.94Y1818.11  ;
N1447 G3X629.98Y1818.15I6.68J-6.61  ;
N1448 G65 P9104 A101 B02  ;
N1449 G0X632.03Y1641.03  ;
N1450 G65 P9102 A101 B02  ;
N1451 G1X629.94Y1643.11  ;
N1452 G3X629.98Y1643.15I6.68J-6.61  ;
N1453 G65 P9104 A101 B02  ;
N1454 G0X692.03Y1641.03  ;
N1455 G65 P9102 A101 B02  ;
N1456 G1X689.94Y1643.11  ;
N1457 G3X689.98Y1643.15I6.68J-6.61  ;
N1458 G65 P9104 A101 B02  ;
N1459 G0X507.49Y1530.94  ;
N1460 G65 P9102 A101 B02  ;
N1461 G1X505.4Y1533.03  ;
N1462 G3X505.44Y1533.06I4.6J-4.53  ;
N1463 G65 P9104 A101 B02  ;
N1464 G0X555.14Y1479.29  ;
N1465 G65 P9102 A101 B02  ;
N1466 G1X553.05Y1481.38  ;
N1467 G3X553.09Y1481.41I4.95J-4.88  ;
N1468 G65 P9104 A101 B02  ;
N1469 G0X510.48Y1287.95  ;
N1470 G65 P9102 A101 B02  ;
N1471 G1X508.39Y1290.04  ;
N1472 G3X508.43Y1290.07I3.61J-3.54  ;
N1473 G65 P9104 A101 B02  ;
N1474 G0X507.67Y1120.76  ;
N1475 G65 P9102 A101 B02  ;
N1476 G1X505.58Y1122.85  ;
N1477 G3X505.62Y1122.88I4.42J-4.35  ;
N1478 G65 P9104 A101 B02  ;
N1479 G0X555.14Y1029.29  ;
N1480 G65 P9102 A101 B02  ;
N1481 G1X553.05Y1031.38  ;
N1482 G3X553.09Y1031.41I4.95J-4.88  ;
N1483 G65 P9104 A101 B02  ;
N1484 G0X637.12Y1065.55  ;
N1485 G65 P9102 A101 B02  ;
N1486 G1X634.12Y1065.55  ;
N1487 G2X633.17Y1066.5I0J0.95  ;
N1488 G1X633.17Y1069.45  ;
N1489 G1X675.07Y1069.45  ;
N1490 G1X675.07Y1063.55  ;
N1491 G1X633.17Y1063.55  ;
N1492 G1X633.17Y1066.5  ;
N1493 G65 P9104 A101 B02  ;
N1494 G0X507.67Y936.76  ;
N1495 G65 P9102 A101 B02  ;
N1496 G1X505.58Y938.85  ;
N1497 G3X505.62Y938.88I4.42J-4.35  ;
N1498 G65 P9104 A101 B02  ;
N1499 G0X510.48Y767.95  ;
N1500 G65 P9102 A101 B02  ;
N1501 G1X508.39Y770.04  ;
N1502 G3X508.43Y770.07I3.61J-3.54  ;
N1503 G65 P9104 A101 B02  ;
N1504 G0X555.14Y579.29  ;
N1505 G65 P9102 A101 B02  ;
N1506 G1X553.05Y581.38  ;
N1507 G3X553.09Y581.41I4.95J-4.88  ;
N1508 G65 P9104 A101 B02  ;
N1509 G0X507.67Y526.76  ;
N1510 G65 P9102 A101 B02  ;
N1511 G1X505.58Y528.85  ;
N1512 G3X505.62Y528.88I4.42J-4.35  ;
N1513 G65 P9104 A101 B02  ;
N1514 G0X637.12Y471.05  ;
N1515 G65 P9102 A101 B02  ;
N1516 G1X634.12Y471.05  ;
N1517 G2X633.17Y472I0J0.95  ;
N1518 G1X633.17Y474.95  ;
N1519 G1X675.07Y474.95  ;
N1520 G1X675.07Y469.05  ;
N1521 G1X633.17Y469.05  ;
N1522 G1X633.17Y472  ;
N1523 G65 P9104 A101 B02  ;
N1524 G0X632.03Y421.03  ;
N1525 G65 P9102 A101 B02  ;
N1526 G1X629.94Y423.11  ;
N1527 G3X629.98Y423.15I6.68J-6.61  ;
N1528 G65 P9104 A101 B02  ;
N1529 G0X692.03Y421.03  ;
N1530 G65 P9102 A101 B02  ;
N1531 G1X689.94Y423.11  ;
N1532 G3X689.98Y423.15I6.68J-6.61  ;
N1533 G65 P9104 A101 B02  ;
N1534 G0X692.03Y246.03  ;
N1535 G65 P9102 A101 B02  ;
N1536 G1X689.94Y248.11  ;
N1537 G3X689.98Y248.15I6.68J-6.61  ;
N1538 G65 P9104 A101 B02  ;
N1539 G0X632.03Y246.03  ;
N1540 G65 P9102 A101 B02  ;
N1541 G1X629.94Y248.11  ;
N1542 G3X629.98Y248.15I6.68J-6.61  ;
N1543 G65 P9104 A101 B02  ;
N1544 G0X507.67Y153.76  ;
N1545 G65 P9102 A101 B02  ;
N1546 G1X505.58Y155.85  ;
N1547 G3X505.62Y155.88I4.42J-4.35  ;
N1548 G65 P9104 A101 B02  ;
N1549 G0X555.14Y129.29  ;
N1550 G65 P9102 A101 B02  ;
N1551 G1X553.05Y131.38  ;
N1552 G3X553.09Y131.41I4.95J-4.88  ;
N1553 G65 P9104 A101 B02  ;
N1554 G0X637.12Y96.55  ;
N1555 G65 P9102 A101 B02  ;
N1556 G1X634.12Y96.55  ;
N1557 G2X633.17Y97.5I0J0.95  ;
N1558 G1X633.17Y100.45  ;
N1559 G1X675.07Y100.45  ;
N1560 G1X675.07Y94.55  ;
N1561 G1X633.17Y94.55  ;
N1562 G1X633.17Y97.5  ;
N1563 G65 P9104 A101 B02  ;
N1564 G0X770.97Y49.21  ;
N1565 G65 P9102 A101 B02  ;
N1566 G1X768.88Y51.29  ;
N1567 G3X768.92Y51.33I6.36J-6.29  ;
N1568 G65 P9104 A101 B01  ;
N1569 G0X818.24Y14.95  ;
N1570 G65 P9102 A101 B01  ;
N1571 G1X815.24Y14.95  ;
N1572 G1X492.95Y14.95  ;
N1573 G1X492.95Y2037.05  ;
N1574 G1X815.29Y2037.05  ;
N1575 G1X815.29Y15  ;
N1576 G65 P9104 A102 B04  ;
N1577 M98 P9103  ;
(P15:ID2:W86011503)  ;
N1578 M98 P9101  ;
N1579 G0X362.62Y227.64  ;
N1580 G65 P9102 A102 B04  ;
N1581 G1X374.62Y234.57  ;
N1582 G1X374.62Y248.43  ;
N1583 G1X362.62Y255.36  ;
N1584 G1X350.62Y248.43  ;
N1585 G1X350.62Y234.57  ;
N1586 G1X362.62Y227.64  ;
N1587 G65 P9104 A102 B04  ;
N1588 G0X314.62Y234.57  ;
N1589 G65 P9102 A102 B04  ;
N1590 G1X314.62Y248.43  ;
N1591 G1X302.62Y255.36  ;
N1592 G1X290.62Y248.43  ;
N1593 G1X290.62Y234.57  ;
N1594 G1X302.62Y227.64  ;
N1595 G1X314.62Y234.57  ;
N1596 G65 P9104 A102 B04  ;
N1597 G0X184.5Y156.41  ;
N1598 G65 P9102 A102 B04  ;
N1599 G1X176Y161.31  ;
N1600 G1X167.5Y156.41  ;
N1601 G1X167.5Y146.59  ;
N1602 G1X176Y141.69  ;
N1603 G1X184.5Y146.59  ;
N1604 G1X184.5Y156.41  ;
N1605 G65 P9104 A102 B04  ;
N1606 G0X302.62Y402.64  ;
N1607 G65 P9102 A102 B04  ;
N1608 G1X314.62Y409.57  ;
N1609 G1X314.62Y423.43  ;
N1610 G1X302.62Y430.36  ;
N1611 G1X290.62Y423.43  ;
N1612 G1X290.62Y409.57  ;
N1613 G1X302.62Y402.64  ;
N1614 G65 P9104 A102 B04  ;
N1615 G0X350.62Y409.57  ;
N1616 G65 P9102 A102 B04  ;
N1617 G1X362.62Y402.64  ;
N1618 G1X374.62Y409.57  ;
N1619 G1X374.62Y423.43  ;
N1620 G1X362.62Y430.36  ;
N1621 G1X350.62Y423.43  ;
N1622 G1X350.62Y409.57  ;
N1623 G65 P9104 A102 B04  ;
N1624 G0X184.5Y519.59  ;
N1625 G65 P9102 A102 B04  ;
N1626 G1X184.5Y529.41  ;
N1627 G1X176Y534.31  ;
N1628 G1X167.5Y529.41  ;
N1629 G1X167.5Y519.59  ;
N1630 G1X176Y514.69  ;
N1631 G1X184.5Y519.59  ;
N1632 G65 P9104 A102 B04  ;
N1633 G0X315.37Y891.38  ;
N1634 G65 P9102 A102 B04  ;
N1635 G1X314.35Y892.4  ;
N1636 G1X324.35Y892.4  ;
N1637 G65 P9104 A102 B04  ;
N1638 G0X324.35Y891.38  ;
N1639 G65 P9102 A102 B04  ;
N1640 G1X324.35Y893.43  ;
N1641 G65 P9104 A102 B04  ;
N1642 G0X324.35Y894.32  ;
N1643 G65 P9102 A102 B04  ;
N1644 G1X324.35Y900.03  ;
N1645 G1X322.92Y901.46  ;
N1646 G1X321.49Y901.46  ;
N1647 G1X320.06Y900.03  ;
N1648 G1X320.06Y894.32  ;
N1649 G1X314.35Y894.32  ;
N1650 G1X314.35Y901.46  ;
N1651 G65 P9104 A102 B04  ;
N1652 G0X314.35Y908.07  ;
N1653 G65 P9102 A102 B04  ;
N1654 G1X324.35Y903.78  ;
N1655 G65 P9104 A102 B04  ;
N1656 G0X324.35Y903.78  ;
N1657 G65 P9102 A102 B04  ;
N1658 G1X322.92Y902.35  ;
N1659 G1X315.77Y902.35  ;
N1660 G1X314.35Y903.78  ;
N1661 G1X314.35Y908.07  ;
N1662 G1X315.77Y909.5  ;
N1663 G1X322.92Y909.5  ;
N1664 G1X324.35Y908.07  ;
N1665 G1X324.35Y903.78  ;
N1666 G65 P9104 A102 B04  ;
N1667 G0X322.92Y910.39  ;
N1668 G65 P9102 A102 B04  ;
N1669 G1X324.35Y911.82  ;
N1670 G1X324.35Y916.1  ;
N1671 G1X322.92Y917.53  ;
N1672 G1X321.49Y917.53  ;
N1673 G1X320.06Y916.1  ;
N1674 G1X318.63Y917.53  ;
N1675 G1X315.77Y917.53  ;
N1676 G1X314.35Y916.1  ;
N1677 G1X314.35Y911.82  ;
N1678 G1X315.77Y910.39  ;
N1679 G65 P9104 A102 B04  ;
N1680 G0X320.06Y911.82  ;
N1681 G65 P9102 A102 B04  ;
N1682 G1X320.06Y916.1  ;
N1683 G65 P9104 A102 B04  ;
N1684 G0X184.5Y929.59  ;
N1685 G65 P9102 A102 B04  ;
N1686 G1X184.5Y939.41  ;
N1687 G1X176Y944.31  ;
N1688 G1X167.5Y939.41  ;
N1689 G1X167.5Y929.59  ;
N1690 G1X176Y924.69  ;
N1691 G1X184.5Y929.59  ;
N1692 G65 P9104 A102 B04  ;
N1693 G0X176Y1108.69  ;
N1694 G65 P9102 A102 B04  ;
N1695 G1X184.5Y1113.59  ;
N1696 G1X184.5Y1123.41  ;
N1697 G1X176Y1128.31  ;
N1698 G1X167.5Y1123.41  ;
N1699 G1X167.5Y1113.59  ;
N1700 G1X176Y1108.69  ;
N1701 G65 P9104 A102 B04  ;
N1702 G0X302.62Y1622.64  ;
N1703 G65 P9102 A102 B04  ;
N1704 G1X314.62Y1629.57  ;
N1705 G1X314.62Y1643.43  ;
N1706 G1X302.62Y1650.36  ;
N1707 G1X290.62Y1643.43  ;
N1708 G1X290.62Y1629.57  ;
N1709 G1X302.62Y1622.64  ;
N1710 G65 P9104 A102 B04  ;
N1711 G0X350.62Y1629.57  ;
N1712 G65 P9102 A102 B04  ;
N1713 G1X362.62Y1622.64  ;
N1714 G1X374.62Y1629.57  ;
N1715 G1X374.62Y1643.43  ;
N1716 G1X362.62Y1650.36  ;
N1717 G1X350.62Y1643.43  ;
N1718 G1X350.62Y1629.57  ;
N1719 G65 P9104 A102 B04  ;
N1720 G0X302.62Y1797.64  ;
N1721 G65 P9102 A102 B04  ;
N1722 G1X314.62Y1804.57  ;
N1723 G1X314.62Y1818.43  ;
N1724 G1X302.62Y1825.36  ;
N1725 G1X290.62Y1818.43  ;
N1726 G1X290.62Y1804.57  ;
N1727 G1X302.62Y1797.64  ;
N1728 G65 P9104 A102 B04  ;
N1729 G0X350.62Y1804.57  ;
N1730 G65 P9102 A102 B04  ;
N1731 G1X362.62Y1797.64  ;
N1732 G1X374.62Y1804.57  ;
N1733 G1X374.62Y1818.43  ;
N1734 G1X362.62Y1825.36  ;
N1735 G1X350.62Y1818.43  ;
N1736 G1X350.62Y1804.57  ;
N1737 G65 P9104 A102 B04  ;
N1738 G0X184.5Y1896.59  ;
N1739 G65 P9102 A102 B04  ;
N1740 G1X184.5Y1906.41  ;
N1741 G1X176Y1911.31  ;
N1742 G1X167.5Y1906.41  ;
N1743 G1X167.5Y1896.59  ;
N1744 G1X176Y1891.69  ;
N1745 G1X184.5Y1896.59  ;
N1746 G65 P9104 A101 B02  ;
N1747 G0X173.67Y1903.76  ;
N1748 G65 P9102 A101 B02  ;
N1749 G1X171.58Y1905.85  ;
N1750 G3X171.62Y1905.88I4.42J-4.35  ;
N1751 G65 P9104 A101 B02  ;
N1752 G0X221.14Y1929.29  ;
N1753 G65 P9102 A101 B02  ;
N1754 G1X219.05Y1931.38  ;
N1755 G3X219.09Y1931.41I4.95J-4.88  ;
N1756 G65 P9104 A101 B02  ;
N1757 G0X303.12Y1953.55  ;
N1758 G65 P9102 A101 B02  ;
N1759 G1X300.12Y1953.55  ;
N1760 G2X299.17Y1954.5I0J0.95  ;
N1761 G1X299.17Y1957.45  ;
N1762 G1X341.07Y1957.45  ;
N1763 G1X341.07Y1951.55  ;
N1764 G1X299.17Y1951.55  ;
N1765 G1X299.17Y1954.5  ;
N1766 G65 P9104 A101 B02  ;
N1767 G0X436.97Y2012.21  ;
N1768 G65 P9102 A101 B02  ;
N1769 G1X434.88Y2014.29  ;
N1770 G3X434.92Y2014.33I6.36J-6.29  ;
N1771 G65 P9104 A101 B02  ;
N1772 G0X358.03Y1816.03  ;
N1773 G65 P9102 A101 B02  ;
N1774 G1X355.94Y1818.11  ;
N1775 G3X355.98Y1818.15I6.68J-6.61  ;
N1776 G65 P9104 A101 B02  ;
N1777 G0X298.03Y1816.03  ;
N1778 G65 P9102 A101 B02  ;
N1779 G1X295.94Y1818.11  ;
N1780 G3X295.98Y1818.15I6.68J-6.61  ;
N1781 G65 P9104 A101 B02  ;
N1782 G0X298.03Y1641.03  ;
N1783 G65 P9102 A101 B02  ;
N1784 G1X295.94Y1643.11  ;
N1785 G3X295.98Y1643.15I6.68J-6.61  ;
N1786 G65 P9104 A101 B02  ;
N1787 G0X358.03Y1641.03  ;
N1788 G65 P9102 A101 B02  ;
N1789 G1X355.94Y1643.11  ;
N1790 G3X355.98Y1643.15I6.68J-6.61  ;
N1791 G65 P9104 A101 B02  ;
N1792 G0X173.49Y1530.94  ;
N1793 G65 P9102 A101 B02  ;
N1794 G1X171.4Y1533.03  ;
N1795 G3X171.44Y1533.06I4.6J-4.53  ;
N1796 G65 P9104 A101 B02  ;
N1797 G0X221.14Y1479.29  ;
N1798 G65 P9102 A101 B02  ;
N1799 G1X219.05Y1481.38  ;
N1800 G3X219.09Y1481.41I4.95J-4.88  ;
N1801 G65 P9104 A101 B02  ;
N1802 G0X176.48Y1287.95  ;
N1803 G65 P9102 A101 B02  ;
N1804 G1X174.39Y1290.04  ;
N1805 G3X174.43Y1290.07I3.61J-3.54  ;
N1806 G65 P9104 A101 B02  ;
N1807 G0X173.67Y1120.76  ;
N1808 G65 P9102 A101 B02  ;
N1809 G1X171.58Y1122.85  ;
N1810 G3X171.62Y1122.88I4.42J-4.35  ;
N1811 G65 P9104 A101 B02  ;
N1812 G0X221.14Y1029.29  ;
N1813 G65 P9102 A101 B02  ;
N1814 G1X219.05Y1031.38  ;
N1815 G3X219.09Y1031.41I4.95J-4.88  ;
N1816 G65 P9104 A101 B02  ;
N1817 G0X303.12Y1065.55  ;
N1818 G65 P9102 A101 B02  ;
N1819 G1X300.12Y1065.55  ;
N1820 G2X299.17Y1066.5I0J0.95  ;
N1821 G1X299.17Y1069.45  ;
N1822 G1X341.07Y1069.45  ;
N1823 G1X341.07Y1063.55  ;
N1824 G1X299.17Y1063.55  ;
N1825 G1X299.17Y1066.5  ;
N1826 G65 P9104 A101 B02  ;
N1827 G0X173.67Y936.76  ;
N1828 G65 P9102 A101 B02  ;
N1829 G1X171.58Y938.85  ;
N1830 G3X171.62Y938.88I4.42J-4.35  ;
N1831 G65 P9104 A101 B02  ;
N1832 G0X176.48Y767.95  ;
N1833 G65 P9102 A101 B02  ;
N1834 G1X174.39Y770.04  ;
N1835 G3X174.43Y770.07I3.61J-3.54  ;
N1836 G65 P9104 A101 B02  ;
N1837 G0X221.14Y579.29  ;
N1838 G65 P9102 A101 B02  ;
N1839 G1X219.05Y581.38  ;
N1840 G3X219.09Y581.41I4.95J-4.88  ;
N1841 G65 P9104 A101 B02  ;
N1842 G0X173.67Y526.76  ;
N1843 G65 P9102 A101 B02  ;
N1844 G1X171.58Y528.85  ;
N1845 G3X171.62Y528.88I4.42J-4.35  ;
N1846 G65 P9104 A101 B02  ;
N1847 G0X303.12Y471.05  ;
N1848 G65 P9102 A101 B02  ;
N1849 G1X300.12Y471.05  ;
N1850 G2X299.17Y472I0J0.95  ;
N1851 G1X299.17Y474.95  ;
N1852 G1X341.07Y474.95  ;
N1853 G1X341.07Y469.05  ;
N1854 G1X299.17Y469.05  ;
N1855 G1X299.17Y472  ;
N1856 G65 P9104 A101 B02  ;
N1857 G0X298.03Y421.03  ;
N1858 G65 P9102 A101 B02  ;
N1859 G1X295.94Y423.11  ;
N1860 G3X295.98Y423.15I6.68J-6.61  ;
N1861 G65 P9104 A101 B02  ;
N1862 G0X358.03Y421.03  ;
N1863 G65 P9102 A101 B02  ;
N1864 G1X355.94Y423.11  ;
N1865 G3X355.98Y423.15I6.68J-6.61  ;
N1866 G65 P9104 A101 B02  ;
N1867 G0X358.03Y246.03  ;
N1868 G65 P9102 A101 B02  ;
N1869 G1X355.94Y248.11  ;
N1870 G3X355.98Y248.15I6.68J-6.61  ;
N1871 G65 P9104 A101 B02  ;
N1872 G0X298.03Y246.03  ;
N1873 G65 P9102 A101 B02  ;
N1874 G1X295.94Y248.11  ;
N1875 G3X295.98Y248.15I6.68J-6.61  ;
N1876 G65 P9104 A101 B02  ;
N1877 G0X173.67Y153.76  ;
N1878 G65 P9102 A101 B02  ;
N1879 G1X171.58Y155.85  ;
N1880 G3X171.62Y155.88I4.42J-4.35  ;
N1881 G65 P9104 A101 B02  ;
N1882 G0X221.14Y129.29  ;
N1883 G65 P9102 A101 B02  ;
N1884 G1X219.05Y131.38  ;
N1885 G3X219.09Y131.41I4.95J-4.88  ;
N1886 G65 P9104 A101 B02  ;
N1887 G0X303.12Y96.55  ;
N1888 G65 P9102 A101 B02  ;
N1889 G1X300.12Y96.55  ;
N1890 G2X299.17Y97.5I0J0.95  ;
N1891 G1X299.17Y100.45  ;
N1892 G1X341.07Y100.45  ;
N1893 G1X341.07Y94.55  ;
N1894 G1X299.17Y94.55  ;
N1895 G1X299.17Y97.5  ;
N1896 G65 P9104 A101 B02  ;
N1897 G0X436.97Y49.21  ;
N1898 G65 P9102 A101 B02  ;
N1899 G1X434.88Y51.29  ;
N1900 G3X434.92Y51.33I6.36J-6.29  ;
N1901 G65 P9104 A101 B01  ;
N1902 G0X484.24Y14.95  ;
N1903 G65 P9102 A101 B01  ;
N1904 G1X481.24Y14.95  ;
N1905 G1X158.95Y14.95  ;
N1906 G1X158.95Y2037.05  ;
N1907 G1X481.29Y2037.05  ;
N1908 G1X481.29Y15  ;
N1909 G65 P9104 A101 B01  ;
N1910 M98 P9103  ;
(P16:ID1:W86011514)  ;
N1911 M98 P9101  ;
N1912 G0X95.75Y1888.4  ;
N1913 G65 P9102 A101 B01  ;
N1914 G1X95.75Y1891.35  ;
N1915 G3X95.8Y1891.35I0.05J-9.95  ;
N1916 G65 P9104 A101 B01  ;
N1917 G0X95.75Y1965.4  ;
N1918 G65 P9102 A101 B01  ;
N1919 G1X95.75Y1968.35  ;
N1920 G3X95.8Y1968.35I0.05J-9.95  ;
N1921 G65 P9104 A101 B01  ;
N1922 G0X117.83Y1835.4  ;
N1923 G65 P9102 A101 B01  ;
N1924 G1X117.83Y1840.35  ;
N1925 G1X115.75Y1840.35  ;
N1926 G1X115.75Y1845.35  ;
N1927 G1X112.75Y1845.35  ;
N1928 G1X112.75Y1845.85  ;
N1929 G1X75.78Y1845.85  ;
N1930 G1X51.78Y1870.35  ;
N1931 G1X48.78Y1870.35  ;
N1932 G1X47.75Y1871.38  ;
N1933 G1X47.75Y1874.42  ;
N1934 G1X48.78Y1875.45  ;
N1935 G1X51.25Y1875.45  ;
N1936 G1X51.25Y1878.45  ;
N1937 G1X51.75Y1878.45  ;
N1938 G1X51.75Y1904.95  ;
N1939 G3X51.75Y1934.85I0.05J14.95  ;
N1940 G1X51.75Y1966.35  ;
N1941 G1X51.25Y1966.35  ;
N1942 G1X51.25Y1969.45  ;
N1943 G1X51.78Y1969.45  ;
N1944 G1X75.78Y1993.95  ;
N1945 G1X112.75Y1993.95  ;
N1946 G1X112.75Y1994.45  ;
N1947 G1X115.75Y1994.45  ;
N1948 G1X115.75Y1999.45  ;
N1949 G1X120.85Y1999.45  ;
N1950 G1X120.85Y1840.35  ;
N1951 G1X118.53Y1840.35  ;
N1952 G65 P9104 A101 B01  ;
N1953 M98 P9103  ;
(P17:ID3:W86011513)  ;
N1954 M98 P9101  ;
N1955 G0X409.23Y2357.51  ;
N1956 G65 P9102 A101 B01  ;
N1957 G1X411.21Y2359.7  ;
N1958 G3X411.24Y2359.67I-3.61J-4.08  ;
N1959 G65 P9104 A101 B01  ;
N1960 G0X369.78Y2277.31  ;
N1961 G65 P9102 A101 B01  ;
N1962 G1X373.1Y2280.98  ;
N1963 G1X371.35Y2282.56  ;
N1964 G1X374.69Y2286.27  ;
N1965 G1X368.08Y2292.23  ;
N1966 G1X367.75Y2291.86  ;
N1967 G1X366.18Y2293.26  ;
N1968 G1X366.54Y2293.66  ;
N1969 G1X364.95Y2330.75  ;
N1970 G1X427.87Y2400.63  ;
N1971 G1X464.93Y2402.93  ;
N1972 G1X465.28Y2403.32  ;
N1973 G1X466.84Y2401.92  ;
N1974 G1X466.51Y2401.55  ;
N1975 G1X473.12Y2395.59  ;
N1976 G1X476.47Y2399.31  ;
N1977 G1X480.26Y2395.89  ;
N1978 G1X476.91Y2392.18  ;
N1979 G1X483.53Y2386.22  ;
N1980 G1X483.86Y2386.59  ;
N1981 G1X485.42Y2385.19  ;
N1982 G1X485.07Y2384.8  ;
N1983 G1X486.66Y2347.7  ;
N1984 G1X465.2Y2323.87  ;
N1985 G3X445.19Y2301.65I-10.04J-11.07  ;
N1986 G1X423.73Y2277.82  ;
N1987 G1X386.68Y2275.52  ;
N1988 G1X386.32Y2275.13  ;
N1989 G1X384.76Y2276.53  ;
N1990 G1X385.1Y2276.91  ;
N1991 G1X378.48Y2282.86  ;
N1992 G1X375.14Y2279.15  ;
N1993 G1X373.62Y2280.52  ;
N1994 G65 P9104 A102 B04  ;
N1995 M98 P9103  ;
(P18:ID4:W86011506)  ;
N1996 M98 P9101  ;
N1997 G0X695.68Y2183.76  ;
N1998 G65 P9102 A102 B04  ;
N1999 G1X697.73Y2183.76  ;
N2000 G65 P9104 A102 B04  ;
N2001 G0X698.63Y2183.76  ;
N2002 G65 P9102 A102 B04  ;
N2003 G1X704.34Y2183.76  ;
N2004 G1X705.77Y2185.19  ;
N2005 G1X705.77Y2186.62  ;
N2006 G1X704.34Y2188.05  ;
N2007 G1X698.63Y2188.05  ;
N2008 G1X698.63Y2193.76  ;
N2009 G1X705.77Y2193.76  ;
N2010 G65 P9104 A102 B04  ;
N2011 G0X706.66Y2192.33  ;
N2012 G65 P9102 A102 B04  ;
N2013 G1X706.66Y2185.19  ;
N2014 G1X708.09Y2183.76  ;
N2015 G1X712.38Y2193.76  ;
N2016 G1X708.09Y2193.76  ;
N2017 G1X706.66Y2192.33  ;
N2018 G65 P9104 A102 B04  ;
N2019 G0X712.38Y2193.76  ;
N2020 G65 P9102 A102 B04  ;
N2021 G1X713.8Y2192.33  ;
N2022 G1X713.8Y2185.19  ;
N2023 G1X712.38Y2183.76  ;
N2024 G1X708.09Y2183.76  ;
N2025 G65 P9104 A102 B04  ;
N2026 G0X714.7Y2188.05  ;
N2027 G65 P9102 A102 B04  ;
N2028 G1X720.41Y2188.05  ;
N2029 G1X721.84Y2186.62  ;
N2030 G1X721.84Y2185.19  ;
N2031 G1X720.41Y2183.76  ;
N2032 G1X716.13Y2183.76  ;
N2033 G1X714.7Y2185.19  ;
N2034 G1X714.7Y2192.33  ;
N2035 G1X716.13Y2193.76  ;
N2036 G1X720.41Y2193.76  ;
N2037 G65 P9104 A102 B04  ;
N2038 G0X695.68Y2192.74  ;
N2039 G65 P9102 A102 B04  ;
N2040 G1X696.71Y2193.76  ;
N2041 G1X696.71Y2183.76  ;
N2042 G65 P9104 A101 B01  ;
N2043 G0X602Y2193.18  ;
N2044 G65 P9102 A101 B01  ;
N2045 G1X604.95Y2193.18  ;
N2046 G3X604.95Y2193.13I-29.95J-0.05  ;
N2047 G65 P9104 A101 B01  ;
N2048 G0X852Y2193.18  ;
N2049 G65 P9102 A101 B01  ;
N2050 G1X854.95Y2193.18  ;
N2051 G3X854.95Y2193.13I-29.95J-0.05  ;
N2052 G65 P9104 A101 B01  ;
N2053 G0X377.84Y2155.21  ;
N2054 G65 P9102 A101 B01  ;
N2055 G1X379.96Y2153.09  ;
N2056 G1X413.98Y2119.08  ;
N2057 G1X510.05Y2119.08  ;
N2058 G1X510.05Y2123.08  ;
N2059 G1X513.45Y2123.08  ;
N2060 G1X513.45Y2112.05  ;
N2061 G1X510.95Y2112.05  ;
N2062 G1X510.95Y2053.05  ;
N2063 G1X509.95Y2053.05  ;
N2064 G1X509.95Y2046.95  ;
N2065 G1X925.55Y2046.95  ;
N2066 G1X925.55Y2112.05  ;
N2067 G1X904.55Y2112.05  ;
N2068 G1X904.55Y2123.13  ;
N2069 G2X924.55Y2143.08I19.95J0  ;
N2070 G1X924.55Y2178.18  ;
N2071 G2X924.55Y2208.08I-0.05J14.95  ;
N2072 G1X924.55Y2243.18  ;
N2073 G2X904.55Y2263.13I-0.05J19.95  ;
N2074 G1X904.55Y2274.21  ;
N2075 G1X925.55Y2274.21  ;
N2076 G1X925.55Y2339.31  ;
N2077 G1X509.95Y2339.31  ;
N2078 G1X509.95Y2333.21  ;
N2079 G1X510.95Y2333.21  ;
N2080 G1X510.95Y2274.21  ;
N2081 G1X513.45Y2274.21  ;
N2082 G1X513.45Y2263.18  ;
N2083 G1X510.05Y2263.18  ;
N2084 G1X510.05Y2267.18  ;
N2085 G1X413.98Y2267.18  ;
N2086 G1X379.95Y2233.15  ;
N2087 G1X379.95Y2212.68  ;
N2088 G1X377.5Y2212.68  ;
N2089 G3X376.95Y2212.13I0J-0.55  ;
N2090 G1X376.95Y2174.13  ;
N2091 G3X377.5Y2173.58I0.55J0  ;
N2092 G1X379.95Y2173.58  ;
N2093 G1X379.95Y2153.13  ;
N2094 G65 P9104 A102 B04  ;
N2095 M98 P9103  ;
(P19:ID4:W86011506)  ;
N2096 M98 P9101  ;
N2097 G0X1253.68Y2183.76  ;
N2098 G65 P9102 A102 B04  ;
N2099 G1X1255.73Y2183.76  ;
N2100 G65 P9104 A102 B04  ;
N2101 G0X1256.63Y2183.76  ;
N2102 G65 P9102 A102 B04  ;
N2103 G1X1262.34Y2183.76  ;
N2104 G1X1263.77Y2185.19  ;
N2105 G1X1263.77Y2186.62  ;
N2106 G1X1262.34Y2188.05  ;
N2107 G1X1256.63Y2188.05  ;
N2108 G1X1256.63Y2193.76  ;
N2109 G1X1263.77Y2193.76  ;
N2110 G65 P9104 A102 B04  ;
N2111 G0X1264.66Y2192.33  ;
N2112 G65 P9102 A102 B04  ;
N2113 G1X1264.66Y2185.19  ;
N2114 G1X1266.09Y2183.76  ;
N2115 G1X1270.38Y2193.76  ;
N2116 G1X1266.09Y2193.76  ;
N2117 G1X1264.66Y2192.33  ;
N2118 G65 P9104 A102 B04  ;
N2119 G0X1270.38Y2193.76  ;
N2120 G65 P9102 A102 B04  ;
N2121 G1X1271.8Y2192.33  ;
N2122 G1X1271.8Y2185.19  ;
N2123 G1X1270.38Y2183.76  ;
N2124 G1X1266.09Y2183.76  ;
N2125 G65 P9104 A102 B04  ;
N2126 G0X1272.7Y2188.05  ;
N2127 G65 P9102 A102 B04  ;
N2128 G1X1278.41Y2188.05  ;
N2129 G1X1279.84Y2186.62  ;
N2130 G1X1279.84Y2185.19  ;
N2131 G1X1278.41Y2183.76  ;
N2132 G1X1274.13Y2183.76  ;
N2133 G1X1272.7Y2185.19  ;
N2134 G1X1272.7Y2192.33  ;
N2135 G1X1274.13Y2193.76  ;
N2136 G1X1278.41Y2193.76  ;
N2137 G65 P9104 A102 B04  ;
N2138 G0X1253.68Y2192.74  ;
N2139 G65 P9102 A102 B04  ;
N2140 G1X1254.71Y2193.76  ;
N2141 G1X1254.71Y2183.76  ;
N2142 G65 P9104 A101 B01  ;
N2143 G0X1160Y2193.18  ;
N2144 G65 P9102 A101 B01  ;
N2145 G1X1162.95Y2193.18  ;
N2146 G3X1162.95Y2193.13I-29.95J-0.05  ;
N2147 G65 P9104 A101 B01  ;
N2148 G0X1410Y2193.18  ;
N2149 G65 P9102 A101 B01  ;
N2150 G1X1412.95Y2193.18  ;
N2151 G3X1412.95Y2193.13I-29.95J-0.05  ;
N2152 G65 P9104 A101 B01  ;
N2153 G0X935.84Y2155.21  ;
N2154 G65 P9102 A101 B01  ;
N2155 G1X937.96Y2153.09  ;
N2156 G1X971.98Y2119.08  ;
N2157 G1X1068.05Y2119.08  ;
N2158 G1X1068.05Y2123.08  ;
N2159 G1X1071.45Y2123.08  ;
N2160 G1X1071.45Y2112.05  ;
N2161 G1X1068.95Y2112.05  ;
N2162 G1X1068.95Y2053.05  ;
N2163 G1X1067.95Y2053.05  ;
N2164 G1X1067.95Y2046.95  ;
N2165 G1X1483.55Y2046.95  ;
N2166 G1X1483.55Y2112.05  ;
N2167 G1X1462.55Y2112.05  ;
N2168 G1X1462.55Y2123.13  ;
N2169 G2X1482.55Y2143.08I19.95J0  ;
N2170 G1X1482.55Y2178.18  ;
N2171 G2X1482.55Y2208.08I-0.05J14.95  ;
N2172 G1X1482.55Y2243.18  ;
N2173 G2X1462.55Y2263.13I-0.05J19.95  ;
N2174 G1X1462.55Y2274.21  ;
N2175 G1X1483.55Y2274.21  ;
N2176 G1X1483.55Y2339.31  ;
N2177 G1X1067.95Y2339.31  ;
N2178 G1X1067.95Y2333.21  ;
N2179 G1X1068.95Y2333.21  ;
N2180 G1X1068.95Y2274.21  ;
N2181 G1X1071.45Y2274.21  ;
N2182 G1X1071.45Y2263.18  ;
N2183 G1X1068.05Y2263.18  ;
N2184 G1X1068.05Y2267.18  ;
N2185 G1X971.98Y2267.18  ;
N2186 G1X937.95Y2233.15  ;
N2187 G1X937.95Y2212.68  ;
N2188 G1X935.5Y2212.68  ;
N2189 G3X934.95Y2212.13I0J-0.55  ;
N2190 G1X934.95Y2174.13  ;
N2191 G3X935.5Y2173.58I0.55J0  ;
N2192 G1X937.95Y2173.58  ;
N2193 G1X937.95Y2153.13  ;
N2194 G65 P9104 A101 B01  ;
N2195 M98 P9103  ;
(P20:ID3:W86011513)  ;
N2196 M98 P9101  ;
N2197 G0X979.73Y2380.81  ;
N2198 G65 P9102 A101 B01  ;
N2199 G1X981.71Y2383  ;
N2200 G3X981.74Y2382.97I-3.61J-4.08  ;
N2201 G65 P9104 A101 B01  ;
N2202 G0X940.28Y2300.61  ;
N2203 G65 P9102 A101 B01  ;
N2204 G1X943.6Y2304.28  ;
N2205 G1X941.85Y2305.86  ;
N2206 G1X945.19Y2309.57  ;
N2207 G1X938.58Y2315.53  ;
N2208 G1X938.25Y2315.16  ;
N2209 G1X936.68Y2316.56  ;
N2210 G1X937.04Y2316.96  ;
N2211 G1X935.45Y2354.05  ;
N2212 G1X998.37Y2423.93  ;
N2213 G1X1035.43Y2426.23  ;
N2214 G1X1035.78Y2426.62  ;
N2215 G1X1037.34Y2425.22  ;
N2216 G1X1037.01Y2424.85  ;
N2217 G1X1043.62Y2418.89  ;
N2218 G1X1046.97Y2422.61  ;
N2219 G1X1050.76Y2419.19  ;
N2220 G1X1047.41Y2415.48  ;
N2221 G1X1054.03Y2409.52  ;
N2222 G1X1054.36Y2409.89  ;
N2223 G1X1055.92Y2408.49  ;
N2224 G1X1055.57Y2408.1  ;
N2225 G1X1057.16Y2371  ;
N2226 G1X1035.7Y2347.17  ;
N2227 G3X1015.69Y2324.95I-10.04J-11.07  ;
N2228 G1X994.23Y2301.12  ;
N2229 G1X957.18Y2298.82  ;
N2230 G1X956.82Y2298.43  ;
N2231 G1X955.26Y2299.83  ;
N2232 G1X955.6Y2300.21  ;
N2233 G1X948.98Y2306.16  ;
N2234 G1X945.64Y2302.45  ;
N2235 G1X944.12Y2303.82  ;
N2236 G65 P9104 A101 B01  ;
N2237 M98 P9103  ;
(P21:ID3:W86011513)  ;
N2238 M98 P9101  ;
N2239 G0X1132.55Y2484.5  ;
N2240 G65 P9102 A101 B01  ;
N2241 G1X1132.55Y2487.45  ;
N2242 G3X1132.6Y2487.45I0.05J-5.45  ;
N2243 G65 P9104 A101 B01  ;
N2244 G0X1156.9Y2398.5  ;
N2245 G65 P9102 A101 B01  ;
N2246 G1X1156.9Y2403.45  ;
N2247 G1X1154.55Y2403.45  ;
N2248 G1X1154.55Y2408.45  ;
N2249 G1X1145.65Y2408.45  ;
N2250 G1X1145.65Y2407.95  ;
N2251 G1X1143.55Y2407.95  ;
N2252 G1X1143.55Y2408.48  ;
N2253 G1X1117.55Y2434.98  ;
N2254 G1X1117.55Y2529.02  ;
N2255 G1X1143.55Y2555.52  ;
N2256 G1X1143.55Y2556.05  ;
N2257 G1X1145.65Y2556.05  ;
N2258 G1X1145.65Y2555.55  ;
N2259 G1X1154.55Y2555.55  ;
N2260 G1X1154.55Y2560.55  ;
N2261 G1X1159.65Y2560.55  ;
N2262 G1X1159.65Y2555.55  ;
N2263 G1X1168.55Y2555.55  ;
N2264 G1X1168.55Y2556.05  ;
N2265 G1X1170.65Y2556.05  ;
N2266 G1X1170.65Y2555.52  ;
N2267 G1X1196.65Y2529.02  ;
N2268 G1X1196.65Y2496.95  ;
N2269 G3X1196.65Y2467.05I-0.05J-14.95  ;
N2270 G1X1196.65Y2434.98  ;
N2271 G1X1170.65Y2408.48  ;
N2272 G1X1170.65Y2407.95  ;
N2273 G1X1168.55Y2407.95  ;
N2274 G1X1168.55Y2408.45  ;
N2275 G1X1159.65Y2408.45  ;
N2276 G1X1159.65Y2403.45  ;
N2277 G1X1157.6Y2403.45  ;
N2278 G65 P9104 A101 B01  ;
N2279 M98 P9103  ;
(P22:ID3:W86011513)  ;
N2280 M98 P9101  ;
N2281 G0X828.55Y2484.5  ;
N2282 G65 P9102 A101 B01  ;
N2283 G1X828.55Y2487.45  ;
N2284 G3X828.6Y2487.45I0.05J-5.45  ;
N2285 G65 P9104 A101 B01  ;
N2286 G0X852.9Y2398.5  ;
N2287 G65 P9102 A101 B01  ;
N2288 G1X852.9Y2403.45  ;
N2289 G1X850.55Y2403.45  ;
N2290 G1X850.55Y2408.45  ;
N2291 G1X841.65Y2408.45  ;
N2292 G1X841.65Y2407.95  ;
N2293 G1X839.55Y2407.95  ;
N2294 G1X839.55Y2408.48  ;
N2295 G1X813.55Y2434.98  ;
N2296 G1X813.55Y2529.02  ;
N2297 G1X839.55Y2555.52  ;
N2298 G1X839.55Y2556.05  ;
N2299 G1X841.65Y2556.05  ;
N2300 G1X841.65Y2555.55  ;
N2301 G1X850.55Y2555.55  ;
N2302 G1X850.55Y2560.55  ;
N2303 G1X855.65Y2560.55  ;
N2304 G1X855.65Y2555.55  ;
N2305 G1X864.55Y2555.55  ;
N2306 G1X864.55Y2556.05  ;
N2307 G1X866.65Y2556.05  ;
N2308 G1X866.65Y2555.52  ;
N2309 G1X892.65Y2529.02  ;
N2310 G1X892.65Y2496.95  ;
N2311 G3X892.65Y2467.05I-0.05J-14.95  ;
N2312 G1X892.65Y2434.98  ;
N2313 G1X866.65Y2408.48  ;
N2314 G1X866.65Y2407.95  ;
N2315 G1X864.55Y2407.95  ;
N2316 G1X864.55Y2408.45  ;
N2317 G1X855.65Y2408.45  ;
N2318 G1X855.65Y2403.45  ;
N2319 G1X853.6Y2403.45  ;
N2320 G65 P9104 A101 B01  ;
N2321 M98 P9103  ;
(P23:ID3:W86011513)  ;
N2322 M98 P9101  ;
N2323 G0X524.95Y2484.5  ;
N2324 G65 P9102 A101 B01  ;
N2325 G1X524.95Y2487.45  ;
N2326 G3X525Y2487.45I0.05J-5.45  ;
N2327 G65 P9104 A101 B01  ;
N2328 G0X549.3Y2398.5  ;
N2329 G65 P9102 A101 B01  ;
N2330 G1X549.3Y2403.45  ;
N2331 G1X546.95Y2403.45  ;
N2332 G1X546.95Y2408.45  ;
N2333 G1X538.05Y2408.45  ;
N2334 G1X538.05Y2407.95  ;
N2335 G1X535.95Y2407.95  ;
N2336 G1X535.95Y2408.48  ;
N2337 G1X509.95Y2434.98  ;
N2338 G1X509.95Y2529.02  ;
N2339 G1X535.95Y2555.52  ;
N2340 G1X535.95Y2556.05  ;
N2341 G1X538.05Y2556.05  ;
N2342 G1X538.05Y2555.55  ;
N2343 G1X546.95Y2555.55  ;
N2344 G1X546.95Y2560.55  ;
N2345 G1X552.05Y2560.55  ;
N2346 G1X552.05Y2555.55  ;
N2347 G1X560.95Y2555.55  ;
N2348 G1X560.95Y2556.05  ;
N2349 G1X563.05Y2556.05  ;
N2350 G1X563.05Y2555.52  ;
N2351 G1X589.05Y2529.02  ;
N2352 G1X589.05Y2496.95  ;
N2353 G3X589.05Y2467.05I-0.05J-14.95  ;
N2354 G1X589.05Y2434.98  ;
N2355 G1X563.05Y2408.48  ;
N2356 G1X563.05Y2407.95  ;
N2357 G1X560.95Y2407.95  ;
N2358 G1X560.95Y2408.45  ;
N2359 G1X552.05Y2408.45  ;
N2360 G1X552.05Y2403.45  ;
N2361 G1X550Y2403.45  ;
N2362 G65 P9104 A102 B04  ;
N2363 M98 P9103  ;
(P24:ID4:W86011506)  ;
N2364 M98 P9101  ;
N2365 G0X189.76Y2276.82  ;
N2366 G65 P9102 A102 B04  ;
N2367 G1X189.76Y2274.77  ;
N2368 G65 P9104 A102 B04  ;
N2369 G0X189.76Y2273.87  ;
N2370 G65 P9102 A102 B04  ;
N2371 G1X189.76Y2268.16  ;
N2372 G1X191.19Y2266.73  ;
N2373 G1X192.62Y2266.73  ;
N2374 G1X194.05Y2268.16  ;
N2375 G1X194.05Y2273.87  ;
N2376 G1X199.76Y2273.87  ;
N2377 G1X199.76Y2266.73  ;
N2378 G65 P9104 A102 B04  ;
N2379 G0X198.33Y2265.84  ;
N2380 G65 P9102 A102 B04  ;
N2381 G1X191.19Y2265.84  ;
N2382 G1X189.76Y2264.41  ;
N2383 G1X199.76Y2260.12  ;
N2384 G1X199.76Y2264.41  ;
N2385 G1X198.33Y2265.84  ;
N2386 G65 P9104 A102 B04  ;
N2387 G0X199.76Y2260.12  ;
N2388 G65 P9102 A102 B04  ;
N2389 G1X198.33Y2258.7  ;
N2390 G1X191.19Y2258.7  ;
N2391 G1X189.76Y2260.12  ;
N2392 G1X189.76Y2264.41  ;
N2393 G65 P9104 A102 B04  ;
N2394 G0X194.05Y2257.8  ;
N2395 G65 P9102 A102 B04  ;
N2396 G1X194.05Y2252.09  ;
N2397 G1X192.62Y2250.66  ;
N2398 G1X191.19Y2250.66  ;
N2399 G1X189.76Y2252.09  ;
N2400 G1X189.76Y2256.37  ;
N2401 G1X191.19Y2257.8  ;
N2402 G1X198.33Y2257.8  ;
N2403 G1X199.76Y2256.37  ;
N2404 G1X199.76Y2252.09  ;
N2405 G65 P9104 A102 B04  ;
N2406 G0X198.74Y2276.82  ;
N2407 G65 P9102 A102 B04  ;
N2408 G1X199.76Y2275.79  ;
N2409 G1X189.76Y2275.79  ;
N2410 G65 P9104 A101 B01  ;
N2411 G0X199.18Y2370.5  ;
N2412 G65 P9102 A101 B01  ;
N2413 G1X199.18Y2367.55  ;
N2414 G3X199.13Y2367.55I-0.05J29.95  ;
N2415 G65 P9104 A101 B01  ;
N2416 G0X199.18Y2120.5  ;
N2417 G65 P9102 A101 B01  ;
N2418 G1X199.18Y2117.55  ;
N2419 G3X199.13Y2117.55I-0.05J29.95  ;
N2420 G65 P9104 A101 B01  ;
N2421 G0X161.21Y2594.66  ;
N2422 G65 P9102 A101 B01  ;
N2423 G1X159.09Y2592.54  ;
N2424 G1X125.08Y2558.52  ;
N2425 G1X125.08Y2462.45  ;
N2426 G1X129.08Y2462.45  ;
N2427 G1X129.08Y2459.05  ;
N2428 G1X118.05Y2459.05  ;
N2429 G1X118.05Y2461.55  ;
N2430 G1X59.05Y2461.55  ;
N2431 G1X59.05Y2462.55  ;
N2432 G1X52.95Y2462.55  ;
N2433 G1X52.95Y2046.95  ;
N2434 G1X118.05Y2046.95  ;
N2435 G1X118.05Y2067.95  ;
N2436 G1X129.13Y2067.95  ;
N2437 G2X149.08Y2047.95I0J-19.95  ;
N2438 G1X184.18Y2047.95  ;
N2439 G2X214.08Y2047.95I14.95J0.05  ;
N2440 G1X249.18Y2047.95  ;
N2441 G2X269.13Y2067.95I19.95J0.05  ;
N2442 G1X280.21Y2067.95  ;
N2443 G1X280.21Y2046.95  ;
N2444 G1X345.31Y2046.95  ;
N2445 G1X345.31Y2462.55  ;
N2446 G1X339.21Y2462.55  ;
N2447 G1X339.21Y2461.55  ;
N2448 G1X280.21Y2461.55  ;
N2449 G1X280.21Y2459.05  ;
N2450 G1X269.18Y2459.05  ;
N2451 G1X269.18Y2462.45  ;
N2452 G1X273.18Y2462.45  ;
N2453 G1X273.18Y2558.52  ;
N2454 G1X239.15Y2592.55  ;
N2455 G1X218.68Y2592.55  ;
N2456 G1X218.68Y2595  ;
N2457 G3X218.13Y2595.55I-0.55J0  ;
N2458 G1X180.13Y2595.55  ;
N2459 G3X179.58Y2595I0J-0.55  ;
N2460 G1X179.58Y2592.55  ;
N2461 G1X159.13Y2592.55  ;
N2462 G65 P9104 A101 B01  ;
N2463 M98 P9103  ;
(P25:ID1:W86011514)  ;
N2464 M98 P9101  ;
N2465 G0X81.79Y2680.18  ;
N2466 G65 P9102 A101 B01  ;
N2467 G1X81.79Y2683.13  ;
N2468 G3X81.84Y2683.13I0.05J-9.95  ;
N2469 G65 P9104 A101 B01  ;
N2470 G0X81.79Y2757.18  ;
N2471 G65 P9102 A101 B01  ;
N2472 G1X81.79Y2760.13  ;
N2473 G3X81.84Y2760.13I0.05J-9.95  ;
N2474 G65 P9104 A101 B01  ;
N2475 G0X103.87Y2627.18  ;
N2476 G65 P9102 A101 B01  ;
N2477 G1X103.87Y2632.13  ;
N2478 G1X101.79Y2632.13  ;
N2479 G1X101.79Y2637.13  ;
N2480 G1X98.79Y2637.13  ;
N2481 G1X98.79Y2637.63  ;
N2482 G1X61.82Y2637.63  ;
N2483 G1X37.82Y2662.13  ;
N2484 G1X34.82Y2662.13  ;
N2485 G1X33.79Y2663.16  ;
N2486 G1X33.79Y2666.2  ;
N2487 G1X34.82Y2667.23  ;
N2488 G1X37.29Y2667.23  ;
N2489 G1X37.29Y2670.23  ;
N2490 G1X37.79Y2670.23  ;
N2491 G1X37.79Y2696.73  ;
N2492 G3X37.79Y2726.63I0.05J14.95  ;
N2493 G1X37.79Y2758.13  ;
N2494 G1X37.29Y2758.13  ;
N2495 G1X37.29Y2761.23  ;
N2496 G1X37.82Y2761.23  ;
N2497 G1X61.82Y2785.73  ;
N2498 G1X98.79Y2785.73  ;
N2499 G1X98.79Y2786.23  ;
N2500 G1X101.79Y2786.23  ;
N2501 G1X101.79Y2791.23  ;
N2502 G1X106.89Y2791.23  ;
N2503 G1X106.89Y2632.13  ;
N2504 G1X104.57Y2632.13  ;
N2505 G65 P9104 A101 B01  ;
N2506 M98 P9103  ;
(P26:ID1:W86011514)  ;
N2507 M98 P9101  ;
N2508 G0X210.22Y2678.29  ;
N2509 G65 P9102 A101 B01  ;
N2510 G1X210.22Y2681.24  ;
N2511 G3X210.27Y2681.24I0.05J-9.95  ;
N2512 G65 P9104 A101 B01  ;
N2513 G0X210.22Y2755.29  ;
N2514 G65 P9102 A101 B01  ;
N2515 G1X210.22Y2758.24  ;
N2516 G3X210.27Y2758.24I0.05J-9.95  ;
N2517 G65 P9104 A101 B01  ;
N2518 G0X232.3Y2625.29  ;
N2519 G65 P9102 A101 B01  ;
N2520 G1X232.3Y2630.24  ;
N2521 G1X230.22Y2630.24  ;
N2522 G1X230.22Y2635.24  ;
N2523 G1X227.22Y2635.24  ;
N2524 G1X227.22Y2635.74  ;
N2525 G1X190.25Y2635.74  ;
N2526 G1X166.25Y2660.24  ;
N2527 G1X163.25Y2660.24  ;
N2528 G1X162.22Y2661.27  ;
N2529 G1X162.22Y2664.31  ;
N2530 G1X163.25Y2665.34  ;
N2531 G1X165.72Y2665.34  ;
N2532 G1X165.72Y2668.34  ;
N2533 G1X166.22Y2668.34  ;
N2534 G1X166.22Y2694.84  ;
N2535 G3X166.22Y2724.74I0.05J14.95  ;
N2536 G1X166.22Y2756.24  ;
N2537 G1X165.72Y2756.24  ;
N2538 G1X165.72Y2759.34  ;
N2539 G1X166.25Y2759.34  ;
N2540 G1X190.25Y2783.84  ;
N2541 G1X227.22Y2783.84  ;
N2542 G1X227.22Y2784.34  ;
N2543 G1X230.22Y2784.34  ;
N2544 G1X230.22Y2789.34  ;
N2545 G1X235.32Y2789.34  ;
N2546 G1X235.32Y2630.24  ;
N2547 G1X233Y2630.24  ;
N2548 G65 P9104 A102 B04  ;
N2549 M98 P9103  ;
(P27:ID4:W86011506)  ;
N2550 M98 P9101  ;
N2551 G0X1346.49Y2755.18  ;
N2552 G65 P9102 A102 B04  ;
N2553 G1X1346.49Y2757.23  ;
N2554 G65 P9104 A102 B04  ;
N2555 G0X1346.49Y2758.13  ;
N2556 G65 P9102 A102 B04  ;
N2557 G1X1346.49Y2763.84  ;
N2558 G1X1345.07Y2765.27  ;
N2559 G1X1343.64Y2765.27  ;
N2560 G1X1342.21Y2763.84  ;
N2561 G1X1342.21Y2758.13  ;
N2562 G1X1336.49Y2758.13  ;
N2563 G1X1336.49Y2765.27  ;
N2564 G65 P9104 A102 B04  ;
N2565 G0X1337.92Y2766.16  ;
N2566 G65 P9102 A102 B04  ;
N2567 G1X1345.07Y2766.16  ;
N2568 G1X1346.49Y2767.59  ;
N2569 G1X1336.49Y2771.88  ;
N2570 G1X1336.49Y2767.59  ;
N2571 G1X1337.92Y2766.16  ;
N2572 G65 P9104 A102 B04  ;
N2573 G0X1336.49Y2771.88  ;
N2574 G65 P9102 A102 B04  ;
N2575 G1X1337.92Y2773.3  ;
N2576 G1X1345.07Y2773.3  ;
N2577 G1X1346.49Y2771.88  ;
N2578 G1X1346.49Y2767.59  ;
N2579 G65 P9104 A102 B04  ;
N2580 G0X1342.21Y2774.2  ;
N2581 G65 P9102 A102 B04  ;
N2582 G1X1342.21Y2779.91  ;
N2583 G1X1343.64Y2781.34  ;
N2584 G1X1345.07Y2781.34  ;
N2585 G1X1346.49Y2779.91  ;
N2586 G1X1346.49Y2775.63  ;
N2587 G1X1345.07Y2774.2  ;
N2588 G1X1337.92Y2774.2  ;
N2589 G1X1336.49Y2775.63  ;
N2590 G1X1336.49Y2779.91  ;
N2591 G65 P9104 A102 B04  ;
N2592 G0X1337.52Y2755.18  ;
N2593 G65 P9102 A102 B04  ;
N2594 G1X1336.49Y2756.21  ;
N2595 G1X1346.49Y2756.21  ;
N2596 G65 P9104 A101 B01  ;
N2597 G0X1337.08Y2661.5  ;
N2598 G65 P9102 A101 B01  ;
N2599 G1X1337.08Y2664.45  ;
N2600 G3X1337.13Y2664.45I0.05J-29.95  ;
N2601 G65 P9104 A101 B01  ;
N2602 G0X1337.08Y2911.5  ;
N2603 G65 P9102 A101 B01  ;
N2604 G1X1337.08Y2914.45  ;
N2605 G3X1337.13Y2914.45I0.05J-29.95  ;
N2606 G65 P9104 A101 B01  ;
N2607 G0X1375.04Y2437.34  ;
N2608 G65 P9102 A101 B01  ;
N2609 G1X1377.16Y2439.46  ;
N2610 G1X1411.18Y2473.48  ;
N2611 G1X1411.18Y2569.55  ;
N2612 G1X1407.18Y2569.55  ;
N2613 G1X1407.18Y2572.95  ;
N2614 G1X1418.21Y2572.95  ;
N2615 G1X1418.21Y2570.45  ;
N2616 G1X1477.21Y2570.45  ;
N2617 G1X1477.21Y2569.45  ;
N2618 G1X1483.31Y2569.45  ;
N2619 G1X1483.31Y2985.05  ;
N2620 G1X1418.21Y2985.05  ;
N2621 G1X1418.21Y2964.05  ;
N2622 G1X1407.13Y2964.05  ;
N2623 G2X1387.18Y2984.05I0J19.95  ;
N2624 G1X1352.08Y2984.05  ;
N2625 G2X1322.18Y2984.05I-14.95J-0.05  ;
N2626 G1X1287.08Y2984.05  ;
N2627 G2X1267.13Y2964.05I-19.95J-0.05  ;
N2628 G1X1256.05Y2964.05  ;
N2629 G1X1256.05Y2985.05  ;
N2630 G1X1190.95Y2985.05  ;
N2631 G1X1190.95Y2569.45  ;
N2632 G1X1197.05Y2569.45  ;
N2633 G1X1197.05Y2570.45  ;
N2634 G1X1256.05Y2570.45  ;
N2635 G1X1256.05Y2572.95  ;
N2636 G1X1267.08Y2572.95  ;
N2637 G1X1267.08Y2569.55  ;
N2638 G1X1263.08Y2569.55  ;
N2639 G1X1263.08Y2473.48  ;
N2640 G1X1297.11Y2439.45  ;
N2641 G1X1317.58Y2439.45  ;
N2642 G1X1317.58Y2437  ;
N2643 G3X1318.13Y2436.45I0.55J0  ;
N2644 G1X1356.13Y2436.45  ;
N2645 G3X1356.68Y2437I0J0.55  ;
N2646 G1X1356.68Y2439.45  ;
N2647 G1X1377.13Y2439.45  ;
N2648 G65 P9104 A102 B04  ;
N2649 M98 P9103  ;
(P28:ID4:W86011506)  ;
N2650 M98 P9101  ;
N2651 G0X1042.49Y2755.18  ;
N2652 G65 P9102 A102 B04  ;
N2653 G1X1042.49Y2757.23  ;
N2654 G65 P9104 A102 B04  ;
N2655 G0X1042.49Y2758.13  ;
N2656 G65 P9102 A102 B04  ;
N2657 G1X1042.49Y2763.84  ;
N2658 G1X1041.07Y2765.27  ;
N2659 G1X1039.64Y2765.27  ;
N2660 G1X1038.21Y2763.84  ;
N2661 G1X1038.21Y2758.13  ;
N2662 G1X1032.49Y2758.13  ;
N2663 G1X1032.49Y2765.27  ;
N2664 G65 P9104 A102 B04  ;
N2665 G0X1033.92Y2766.16  ;
N2666 G65 P9102 A102 B04  ;
N2667 G1X1041.07Y2766.16  ;
N2668 G1X1042.49Y2767.59  ;
N2669 G1X1032.49Y2771.88  ;
N2670 G1X1032.49Y2767.59  ;
N2671 G1X1033.92Y2766.16  ;
N2672 G65 P9104 A102 B04  ;
N2673 G0X1032.49Y2771.88  ;
N2674 G65 P9102 A102 B04  ;
N2675 G1X1033.92Y2773.3  ;
N2676 G1X1041.07Y2773.3  ;
N2677 G1X1042.49Y2771.88  ;
N2678 G1X1042.49Y2767.59  ;
N2679 G65 P9104 A102 B04  ;
N2680 G0X1038.21Y2774.2  ;
N2681 G65 P9102 A102 B04  ;
N2682 G1X1038.21Y2779.91  ;
N2683 G1X1039.64Y2781.34  ;
N2684 G1X1041.07Y2781.34  ;
N2685 G1X1042.49Y2779.91  ;
N2686 G1X1042.49Y2775.63  ;
N2687 G1X1041.07Y2774.2  ;
N2688 G1X1033.92Y2774.2  ;
N2689 G1X1032.49Y2775.63  ;
N2690 G1X1032.49Y2779.91  ;
N2691 G65 P9104 A102 B04  ;
N2692 G0X1033.52Y2755.18  ;
N2693 G65 P9102 A102 B04  ;
N2694 G1X1032.49Y2756.21  ;
N2695 G1X1042.49Y2756.21  ;
N2696 G65 P9104 A101 B01  ;
N2697 G0X1033.08Y2661.5  ;
N2698 G65 P9102 A101 B01  ;
N2699 G1X1033.08Y2664.45  ;
N2700 G3X1033.13Y2664.45I0.05J-29.95  ;
N2701 G65 P9104 A101 B01  ;
N2702 G0X1033.08Y2911.5  ;
N2703 G65 P9102 A101 B01  ;
N2704 G1X1033.08Y2914.45  ;
N2705 G3X1033.13Y2914.45I0.05J-29.95  ;
N2706 G65 P9104 A101 B01  ;
N2707 G0X1071.04Y2437.34  ;
N2708 G65 P9102 A101 B01  ;
N2709 G1X1073.16Y2439.46  ;
N2710 G1X1107.18Y2473.48  ;
N2711 G1X1107.18Y2569.55  ;
N2712 G1X1103.18Y2569.55  ;
N2713 G1X1103.18Y2572.95  ;
N2714 G1X1114.21Y2572.95  ;
N2715 G1X1114.21Y2570.45  ;
N2716 G1X1173.21Y2570.45  ;
N2717 G1X1173.21Y2569.45  ;
N2718 G1X1179.31Y2569.45  ;
N2719 G1X1179.31Y2985.05  ;
N2720 G1X1114.21Y2985.05  ;
N2721 G1X1114.21Y2964.05  ;
N2722 G1X1103.13Y2964.05  ;
N2723 G2X1083.18Y2984.05I0J19.95  ;
N2724 G1X1048.08Y2984.05  ;
N2725 G2X1018.18Y2984.05I-14.95J-0.05  ;
N2726 G1X983.08Y2984.05  ;
N2727 G2X963.13Y2964.05I-19.95J-0.05  ;
N2728 G1X952.05Y2964.05  ;
N2729 G1X952.05Y2985.05  ;
N2730 G1X886.95Y2985.05  ;
N2731 G1X886.95Y2569.45  ;
N2732 G1X893.05Y2569.45  ;
N2733 G1X893.05Y2570.45  ;
N2734 G1X952.05Y2570.45  ;
N2735 G1X952.05Y2572.95  ;
N2736 G1X963.08Y2572.95  ;
N2737 G1X963.08Y2569.55  ;
N2738 G1X959.08Y2569.55  ;
N2739 G1X959.08Y2473.48  ;
N2740 G1X993.11Y2439.45  ;
N2741 G1X1013.58Y2439.45  ;
N2742 G1X1013.58Y2437  ;
N2743 G3X1014.13Y2436.45I0.55J0  ;
N2744 G1X1052.13Y2436.45  ;
N2745 G3X1052.68Y2437I0J0.55  ;
N2746 G1X1052.68Y2439.45  ;
N2747 G1X1073.13Y2439.45  ;
N2748 G65 P9104 A102 B04  ;
N2749 M98 P9103  ;
(P29:ID4:W86011506)  ;
N2750 M98 P9101  ;
N2751 G0X738.49Y2755.18  ;
N2752 G65 P9102 A102 B04  ;
N2753 G1X738.49Y2757.23  ;
N2754 G65 P9104 A102 B04  ;
N2755 G0X738.49Y2758.13  ;
N2756 G65 P9102 A102 B04  ;
N2757 G1X738.49Y2763.84  ;
N2758 G1X737.07Y2765.27  ;
N2759 G1X735.64Y2765.27  ;
N2760 G1X734.21Y2763.84  ;
N2761 G1X734.21Y2758.13  ;
N2762 G1X728.49Y2758.13  ;
N2763 G1X728.49Y2765.27  ;
N2764 G65 P9104 A102 B04  ;
N2765 G0X729.92Y2766.16  ;
N2766 G65 P9102 A102 B04  ;
N2767 G1X737.07Y2766.16  ;
N2768 G1X738.49Y2767.59  ;
N2769 G1X728.49Y2771.88  ;
N2770 G1X728.49Y2767.59  ;
N2771 G1X729.92Y2766.16  ;
N2772 G65 P9104 A102 B04  ;
N2773 G0X728.49Y2771.88  ;
N2774 G65 P9102 A102 B04  ;
N2775 G1X729.92Y2773.3  ;
N2776 G1X737.07Y2773.3  ;
N2777 G1X738.49Y2771.88  ;
N2778 G1X738.49Y2767.59  ;
N2779 G65 P9104 A102 B04  ;
N2780 G0X734.21Y2774.2  ;
N2781 G65 P9102 A102 B04  ;
N2782 G1X734.21Y2779.91  ;
N2783 G1X735.64Y2781.34  ;
N2784 G1X737.07Y2781.34  ;
N2785 G1X738.49Y2779.91  ;
N2786 G1X738.49Y2775.63  ;
N2787 G1X737.07Y2774.2  ;
N2788 G1X729.92Y2774.2  ;
N2789 G1X728.49Y2775.63  ;
N2790 G1X728.49Y2779.91  ;
N2791 G65 P9104 A102 B04  ;
N2792 G0X729.52Y2755.18  ;
N2793 G65 P9102 A102 B04  ;
N2794 G1X728.49Y2756.21  ;
N2795 G1X738.49Y2756.21  ;
N2796 G65 P9104 A101 B01  ;
N2797 G0X729.08Y2661.5  ;
N2798 G65 P9102 A101 B01  ;
N2799 G1X729.08Y2664.45  ;
N2800 G3X729.13Y2664.45I0.05J-29.95  ;
N2801 G65 P9104 A101 B01  ;
N2802 G0X729.08Y2911.5  ;
N2803 G65 P9102 A101 B01  ;
N2804 G1X729.08Y2914.45  ;
N2805 G3X729.13Y2914.45I0.05J-29.95  ;
N2806 G65 P9104 A101 B01  ;
N2807 G0X767.04Y2437.34  ;
N2808 G65 P9102 A101 B01  ;
N2809 G1X769.16Y2439.46  ;
N2810 G1X803.18Y2473.48  ;
N2811 G1X803.18Y2569.55  ;
N2812 G1X799.18Y2569.55  ;
N2813 G1X799.18Y2572.95  ;
N2814 G1X810.21Y2572.95  ;
N2815 G1X810.21Y2570.45  ;
N2816 G1X869.21Y2570.45  ;
N2817 G1X869.21Y2569.45  ;
N2818 G1X875.31Y2569.45  ;
N2819 G1X875.31Y2985.05  ;
N2820 G1X810.21Y2985.05  ;
N2821 G1X810.21Y2964.05  ;
N2822 G1X799.13Y2964.05  ;
N2823 G2X779.18Y2984.05I0J19.95  ;
N2824 G1X744.08Y2984.05  ;
N2825 G2X714.18Y2984.05I-14.95J-0.05  ;
N2826 G1X679.08Y2984.05  ;
N2827 G2X659.13Y2964.05I-19.95J-0.05  ;
N2828 G1X648.05Y2964.05  ;
N2829 G1X648.05Y2985.05  ;
N2830 G1X582.95Y2985.05  ;
N2831 G1X582.95Y2569.45  ;
N2832 G1X589.05Y2569.45  ;
N2833 G1X589.05Y2570.45  ;
N2834 G1X648.05Y2570.45  ;
N2835 G1X648.05Y2572.95  ;
N2836 G1X659.08Y2572.95  ;
N2837 G1X659.08Y2569.55  ;
N2838 G1X655.08Y2569.55  ;
N2839 G1X655.08Y2473.48  ;
N2840 G1X689.11Y2439.45  ;
N2841 G1X709.58Y2439.45  ;
N2842 G1X709.58Y2437  ;
N2843 G3X710.13Y2436.45I0.55J0  ;
N2844 G1X748.13Y2436.45  ;
N2845 G3X748.68Y2437I0J0.55  ;
N2846 G1X748.68Y2439.45  ;
N2847 G1X769.13Y2439.45  ;
N2848 G65 P9104 A102 B04  ;
N2849 M98 P9103  ;
(P30:ID4:W86011506)  ;
N2850 M98 P9101  ;
N2851 G0X434.49Y2755.18  ;
N2852 G65 P9102 A102 B04  ;
N2853 G1X434.49Y2757.23  ;
N2854 G65 P9104 A102 B04  ;
N2855 G0X434.49Y2758.13  ;
N2856 G65 P9102 A102 B04  ;
N2857 G1X434.49Y2763.84  ;
N2858 G1X433.07Y2765.27  ;
N2859 G1X431.64Y2765.27  ;
N2860 G1X430.21Y2763.84  ;
N2861 G1X430.21Y2758.13  ;
N2862 G1X424.49Y2758.13  ;
N2863 G1X424.49Y2765.27  ;
N2864 G65 P9104 A102 B04  ;
N2865 G0X425.92Y2766.16  ;
N2866 G65 P9102 A102 B04  ;
N2867 G1X433.07Y2766.16  ;
N2868 G1X434.49Y2767.59  ;
N2869 G1X424.49Y2771.88  ;
N2870 G1X424.49Y2767.59  ;
N2871 G1X425.92Y2766.16  ;
N2872 G65 P9104 A102 B04  ;
N2873 G0X424.49Y2771.88  ;
N2874 G65 P9102 A102 B04  ;
N2875 G1X425.92Y2773.3  ;
N2876 G1X433.07Y2773.3  ;
N2877 G1X434.49Y2771.88  ;
N2878 G1X434.49Y2767.59  ;
N2879 G65 P9104 A102 B04  ;
N2880 G0X430.21Y2774.2  ;
N2881 G65 P9102 A102 B04  ;
N2882 G1X430.21Y2779.91  ;
N2883 G1X431.64Y2781.34  ;
N2884 G1X433.07Y2781.34  ;
N2885 G1X434.49Y2779.91  ;
N2886 G1X434.49Y2775.63  ;
N2887 G1X433.07Y2774.2  ;
N2888 G1X425.92Y2774.2  ;
N2889 G1X424.49Y2775.63  ;
N2890 G1X424.49Y2779.91  ;
N2891 G65 P9104 A102 B04  ;
N2892 G0X425.52Y2755.18  ;
N2893 G65 P9102 A102 B04  ;
N2894 G1X424.49Y2756.21  ;
N2895 G1X434.49Y2756.21  ;
N2896 G65 P9104 A101 B01  ;
N2897 G0X425.08Y2661.5  ;
N2898 G65 P9102 A101 B01  ;
N2899 G1X425.08Y2664.45  ;
N2900 G3X425.13Y2664.45I0.05J-29.95  ;
N2901 G65 P9104 A101 B01  ;
N2902 G0X425.08Y2911.5  ;
N2903 G65 P9102 A101 B01  ;
N2904 G1X425.08Y2914.45  ;
N2905 G3X425.13Y2914.45I0.05J-29.95  ;
N2906 G65 P9104 A101 B01  ;
N2907 G0X463.04Y2437.34  ;
N2908 G65 P9102 A101 B01  ;
N2909 G1X465.16Y2439.46  ;
N2910 G1X499.18Y2473.48  ;
N2911 G1X499.18Y2569.55  ;
N2912 G1X495.18Y2569.55  ;
N2913 G1X495.18Y2572.95  ;
N2914 G1X506.21Y2572.95  ;
N2915 G1X506.21Y2570.45  ;
N2916 G1X565.21Y2570.45  ;
N2917 G1X565.21Y2569.45  ;
N2918 G1X571.31Y2569.45  ;
N2919 G1X571.31Y2985.05  ;
N2920 G1X506.21Y2985.05  ;
N2921 G1X506.21Y2964.05  ;
N2922 G1X495.13Y2964.05  ;
N2923 G2X475.18Y2984.05I0J19.95  ;
N2924 G1X440.08Y2984.05  ;
N2925 G2X410.18Y2984.05I-14.95J-0.05  ;
N2926 G1X375.08Y2984.05  ;
N2927 G2X355.13Y2964.05I-19.95J-0.05  ;
N2928 G1X344.05Y2964.05  ;
N2929 G1X344.05Y2985.05  ;
N2930 G1X278.95Y2985.05  ;
N2931 G1X278.95Y2569.45  ;
N2932 G1X285.05Y2569.45  ;
N2933 G1X285.05Y2570.45  ;
N2934 G1X344.05Y2570.45  ;
N2935 G1X344.05Y2572.95  ;
N2936 G1X355.08Y2572.95  ;
N2937 G1X355.08Y2569.55  ;
N2938 G1X351.08Y2569.55  ;
N2939 G1X351.08Y2473.48  ;
N2940 G1X385.11Y2439.45  ;
N2941 G1X405.58Y2439.45  ;
N2942 G1X405.58Y2437  ;
N2943 G3X406.13Y2436.45I0.55J0  ;
N2944 G1X444.13Y2436.45  ;
N2945 G3X444.68Y2437I0J0.55  ;
N2946 G1X444.68Y2439.45  ;
N2947 G1X465.13Y2439.45  ;
N2948 G65 P9104 A101 B01  ;
N2949 M98 P9103  ;
(P31:ID1:W86011514)  ;
N2950 M98 P9101  ;
N2951 G0X212.11Y2855.84  ;
N2952 G65 P9102 A101 B01  ;
N2953 G1X212.11Y2858.79  ;
N2954 G3X212.16Y2858.79I0.05J-9.95  ;
N2955 G65 P9104 A101 B01  ;
N2956 G0X212.11Y2932.84  ;
N2957 G65 P9102 A101 B01  ;
N2958 G1X212.11Y2935.79  ;
N2959 G3X212.16Y2935.79I0.05J-9.95  ;
N2960 G65 P9104 A101 B01  ;
N2961 G0X234.19Y2802.84  ;
N2962 G65 P9102 A101 B01  ;
N2963 G1X234.19Y2807.79  ;
N2964 G1X232.11Y2807.79  ;
N2965 G1X232.11Y2812.79  ;
N2966 G1X229.11Y2812.79  ;
N2967 G1X229.11Y2813.29  ;
N2968 G1X192.14Y2813.29  ;
N2969 G1X168.14Y2837.79  ;
N2970 G1X165.14Y2837.79  ;
N2971 G1X164.11Y2838.82  ;
N2972 G1X164.11Y2841.86  ;
N2973 G1X165.14Y2842.89  ;
N2974 G1X167.61Y2842.89  ;
N2975 G1X167.61Y2845.89  ;
N2976 G1X168.11Y2845.89  ;
N2977 G1X168.11Y2872.39  ;
N2978 G3X168.11Y2902.29I0.05J14.95  ;
N2979 G1X168.11Y2933.79  ;
N2980 G1X167.61Y2933.79  ;
N2981 G1X167.61Y2936.89  ;
N2982 G1X168.14Y2936.89  ;
N2983 G1X192.14Y2961.39  ;
N2984 G1X229.11Y2961.39  ;
N2985 G1X229.11Y2961.89  ;
N2986 G1X232.11Y2961.89  ;
N2987 G1X232.11Y2966.89  ;
N2988 G1X237.21Y2966.89  ;
N2989 G1X237.21Y2807.79  ;
N2990 G1X234.89Y2807.79  ;
N2991 G65 P9104 A101 B01  ;
N2992 M98 P9103  ;
(P32:ID1:W86011514)  ;
N2993 M98 P9101  ;
N2994 G0X81.79Y2857.73  ;
N2995 G65 P9102 A101 B01  ;
N2996 G1X81.79Y2860.67  ;
N2997 G3X81.84Y2860.68I0.05J-9.94  ;
N2998 G65 P9104 A101 B01  ;
N2999 G0X81.79Y2934.73  ;
N3000 G65 P9102 A101 B01  ;
N3001 G1X81.79Y2937.67  ;
N3002 G3X81.84Y2937.68I0.05J-9.94  ;
N3003 G65 P9104 A101 B01  ;
N3004 G0X103.87Y2804.73  ;
N3005 G65 P9102 A101 B01  ;
N3006 G1X103.87Y2809.68  ;
N3007 G1X101.79Y2809.68  ;
N3008 G1X101.79Y2814.68  ;
N3009 G1X98.79Y2814.68  ;
N3010 G1X98.79Y2815.18  ;
N3011 G1X61.82Y2815.18  ;
N3012 G1X37.82Y2839.68  ;
N3013 G1X34.82Y2839.68  ;
N3014 G1X33.79Y2840.7  ;
N3015 G1X33.79Y2843.75  ;
N3016 G1X34.82Y2844.78  ;
N3017 G1X37.29Y2844.78  ;
N3018 G1X37.29Y2847.78  ;
N3019 G1X37.79Y2847.78  ;
N3020 G1X37.79Y2874.28  ;
N3021 G3X37.79Y2904.17I0.05J14.95  ;
N3022 G1X37.79Y2935.68  ;
N3023 G1X37.29Y2935.68  ;
N3024 G1X37.29Y2938.78  ;
N3025 G1X37.82Y2938.78  ;
N3026 G1X61.82Y2963.28  ;
N3027 G1X98.79Y2963.28  ;
N3028 G1X98.79Y2963.78  ;
N3029 G1X101.79Y2963.78  ;
N3030 G1X101.79Y2968.78  ;
N3031 G1X106.89Y2968.78  ;
N3032 G1X106.89Y2809.68  ;
N3033 G1X104.57Y2809.68  ;
N3034 M98 P9104  ;
N3035 M98 P9103  ;
(FOOTER)
N3036 M98 P9110  ;
N3037 M30  ;
%
